Stefan210/kinematic_calibration/src/kinematic_calibration/validation/experiments/experiments/single_point_vs_pose/marker_pose/rarm_230/optimization_intermediate_results.csv
iteration	HeadPitch_offset	HeadYaw_offset	RElbowRoll_offset	RElbowYaw_offset	RShoulderPitch_offset	RShoulderRoll_offset	marker_transform_rarm_tx	marker_transform_rarm_ty	marker_transform_rarm_tz	marker_transform_rarm_rr	marker_transform_rarm_rp	marker_transform_rarm_ry	camera_transform_tx	camera_transform_ty	camera_transform_tz	camera_transform_rr	camera_transform_rp	camera_transform_ry	HeadPitch_transform_tx	HeadPitch_transform_ty	HeadPitch_transform_tz	HeadPitch_transform_rr	HeadPitch_transform_rp	HeadPitch_transform_ry	HeadYaw_transform_tx	HeadYaw_transform_ty	HeadYaw_transform_tz	HeadYaw_transform_rr	HeadYaw_transform_rp	HeadYaw_transform_ry	RElbowRoll_transform_tx	RElbowRoll_transform_ty	RElbowRoll_transform_tz	RElbowRoll_transform_rr	RElbowRoll_transform_rp	RElbowRoll_transform_ry	RElbowYaw_transform_tx	RElbowYaw_transform_ty	RElbowYaw_transform_tz	RElbowYaw_transform_rr	RElbowYaw_transform_rp	RElbowYaw_transform_ry	RShoulderPitch_transform_tx	RShoulderPitch_transform_ty	RShoulderPitch_transform_tz	RShoulderPitch_transform_rr	RShoulderPitch_transform_rp	RShoulderPitch_transform_ry	RShoulderRoll_transform_tx	RShoulderRoll_transform_ty	RShoulderRoll_transform_tz	RShoulderRoll_transform_rr	RShoulderRoll_transform_rp	RShoulderRoll_transform_ry	RWristYaw_transform_tx	RWristYaw_transform_ty	RWristYaw_transform_tz	RWristYaw_transform_rr	RWristYaw_transform_rp	RWristYaw_transform_ry	r_wrist_joint_transform_tx	r_wrist_joint_transform_ty	r_wrist_joint_transform_tz	r_wrist_joint_transform_rr	r_wrist_joint_transform_rp	r_wrist_joint_transform_ry	camera_fx	camera_fy	camera_cx	camera_cy	camera_D0	camera_D1	camera_D2	camera_D3	camera_D4	
0	0.0230449	0.0294606	-0.0013508	-0.00116347	0.000678263	0.00258603	0.05071	0	0.01774	-2.26369	1.66533e-16	-1.5708	545.901	551.038	324.928	201.58	0.0255298	2.61142	-0.0636736	-0.0350419	0.213964
1	-0.0133111	-0.0290437	-0.0129977	-0.0157263	-0.0139195	-0.0404483	0.0255682	0.0364526	-0.00164591	-0.603165	0.269288	0.172962	0.0522228	0.00138014	0.0235427	-2.21139	0.00875213	-1.5437	0	0	0	0	-0	0	0	0	-0.1265	0	-0	0	0	0	0	0	-0	0	0.105	-0.015	0	0	-0	0	0	-0.098	0.1	0	-0	0	0	0	0	0	-0	0	0.05595	0	0	0	-0	0	0	0	0	0	-0	0	545.902	551.039	324.931	201.582	-0.0829062	2.55231	-0.0795327	-0.0666349	0.195876
2	-0.00840558	-0.0537735	-0.0340154	0.0149284	-0.0293622	-0.0356448	0.0225873	0.0294893	0.000125625	-0.863947	0.28022	0.0477009	0.0501281	0.00230047	0.0300902	-2.23196	0.0282224	-1.53385	0	0	0	0	-0	0	0	0	-0.1265	0	-0	0	0	0	0	0	-0	0	0.105	-0.015	0	0	-0	0	0	-0.098	0.1	0	-0	0	0	0	0	0	-0	0	0.05595	0	0	0	-0	0	0	0	0	0	-0	0	545.905	551.039	324.937	201.589	-0.212604	2.40418	0.040149	-0.0249276	0.13063
3	-0.0133885	-0.0323822	-0.0302744	0.00730051	-0.0148693	-0.0437372	0.0233099	0.0273735	-0.000292124	-1.05684	0.247668	0.00610355	0.0531497	0.00148456	0.0227179	-2.21057	0.01484	-1.54939	0	0	0	0	-0	0	0	0	-0.1265	0	-0	0	0	0	0	0	-0	0	0.105	-0.015	0	0	-0	0	0	-0.098	0.1	0	-0	0	0	0	0	0	-0	0	0.05595	0	0	0	-0	0	0	0	0	0	-0	0	545.912	551.039	324.948	201.597	-0.56894	2.10445	-0.0183781	0.00298409	0.0165682
4	-0.013763	-0.028417	-0.0262192	0.00159085	-0.0109181	-0.049461	0.0234249	0.0279944	-0.000232227	-1.21226	0.184906	0.0676521	0.0551609	-0.000133126	0.0184887	-2.20801	0.0135446	-1.54858	0	0	0	0	-0	0	0	0	-0.1265	0	-0	0	0	0	0	0	-0	0	0.105	-0.015	0	0	-0	0	0	-0.098	0.1	0	-0	0	0	0	0	0	-0	0	0.05595	0	0	0	-0	0	0	0	0	0	-0	0	545.919	551.039	324.958	201.608	-0.819616	1.7114	0.0331665	0.0290085	-0.174076
5	-0.0147821	-0.0183882	-0.0144441	-0.003246	-0.00499434	-0.0536059	0.0229937	0.029414	0.00027626	-1.44707	0.132428	0.188374	0.0560101	-0.00209906	0.0153327	-2.20323	0.0110858	-1.54936	0	0	0	0	-0	0	0	0	-0.1265	0	-0	0	0	0	0	0	-0	0	0.105	-0.015	0	0	-0	0	0	-0.098	0.1	0	-0	0	0	0	0	0	-0	0	0.05595	0	0	0	-0	0	0	0	0	0	-0	0	545.934	551.035	324.967	201.617	-0.706123	1.23124	0.0216289	0.0231565	-0.467735
6	-0.0144486	-0.0192909	0.00100359	-0.00387308	-0.0115402	-0.0456052	0.0220797	0.0294785	0.000245638	-1.68774	0.137274	0.2589	0.0543016	-0.00293662	0.0169923	-2.20496	0.0137587	-1.54119	0	0	0	0	-0	0	0	0	-0.1265	0	-0	0	0	0	0	0	-0	0	0.105	-0.015	0	0	-0	0	0	-0.098	0.1	0	-0	0	0	0	0	0	-0	0	0.05595	0	0	0	-0	0	0	0	0	0	-0	0	545.952	551.026	324.97	201.62	-0.365884	0.873625	0.0068448	0.00312315	-0.725116
7	-0.0143524	-0.0201178	0.00545674	0.000305521	-0.0143624	-0.0418456	0.0217617	0.0285983	-0.000434118	-1.70467	0.150915	0.230567	0.0533942	-0.00323638	0.0178869	-2.20553	0.0158457	-1.53779	0	0	0	0	-0	0	0	0	-0.1265	0	-0	0	0	0	0	0	-0	0	0.105	-0.015	0	0	-0	0	0	-0.098	0.1	0	-0	0	0	0	0	0	-0	0	0.05595	0	0	0	-0	0	0	0	0	0	-0	0	545.982	551.01	324.974	201.62	-0.172426	0.622141	0.000191849	-0.00837492	-0.855379
8	-0.0143377	-0.0199436	0.00581912	0.000959132	-0.0143411	-0.0418509	0.021763	0.0285657	-0.000479707	-1.70648	0.152041	0.226708	0.053057	-0.00323467	0.0182495	-2.20566	0.0155937	-1.53799	0	0	0	0	-0	0	0	0	-0.1265	0	-0	0	0	0	0	0	-0	0	0.105	-0.015	0	0	-0	0	0	-0.098	0.1	0	-0	0	0	0	0	0	-0	0	0.05595	0	0	0	-0	0	0	0	0	0	-0	0	546.061	550.965	324.986	201.62	-0.0941535	0.464407	-0.00403507	-0.0113038	-0.795826
9	-0.0143693	-0.0198667	0.00591165	0.00101267	-0.014349	-0.0418811	0.0217591	0.0285577	-0.000482582	-1.70633	0.15218	0.225675	0.052861	-0.00321826	0.0184602	-2.20594	0.0153449	-1.53831	0	0	0	0	-0	0	0	0	-0.1265	0	-0	0	0	0	0	0	-0	0	0.105	-0.015	0	0	-0	0	0	-0.098	0.1	0	-0	0	0	0	0	0	-0	0	0.05595	0	0	0	-0	0	0	0	0	0	-0	0	546.28	550.838	325.021	201.62	-0.0497058	0.272752	-0.00474639	-0.0119267	-0.537194
10	-0.014521	-0.0197531	0.00601051	0.00101035	-0.0143521	-0.0419173	0.0217521	0.0285518	-0.000484827	-1.7056	0.152211	0.224957	0.0526023	-0.00319424	0.0187245	-2.20642	0.0149386	-1.53886	0	0	0	0	-0	0	0	0	-0.1265	0	-0	0	0	0	0	0	-0	0	0.105	-0.015	0	0	-0	0	0	-0.098	0.1	0	-0	0	0	0	0	0	-0	0	0.05595	0	0	0	-0	0	0	0	0	0	-0	0	546.843	550.508	325.106	201.618	0.00289038	0.00178093	-0.00458708	-0.0124182	-0.132354
11	-0.014958	-0.0196496	0.00608558	0.00103608	-0.0143619	-0.0418336	0.0217379	0.0285487	-0.000492505	-1.70429	0.152195	0.22484	0.0523375	-0.00316183	0.0189684	-2.20705	0.0144015	-1.5396	0	0	0	0	-0	0	0	0	-0.1265	0	-0	0	0	0	0	0	-0	0	0.105	-0.015	0	0	-0	0	0	-0.098	0.1	0	-0	0	0	0	0	0	-0	0	0.05595	0	0	0	-0	0	0	0	0	0	-0	0	548.07	549.832	325.286	201.63	0.0354868	-0.191814	-0.0029932	-0.0129392	0.171442
12	-0.0161464	-0.0195802	0.00611783	0.00109815	-0.0143657	-0.0416081	0.0217178	0.0285496	-0.000505865	-1.7026	0.15214	0.225528	0.0521413	-0.00312757	0.0190968	-2.20843	0.0137751	-1.54046	0	0	0	0	-0	0	0	0	-0.1265	0	-0	0	0	0	0	0	-0	0	0.105	-0.015	0	0	-0	0	0	-0.098	0.1	0	-0	0	0	0	0	0	-0	0	0.05595	0	0	0	-0	0	0	0	0	0	-0	0	550.021	549.107	325.605	201.763	0.0274772	-0.199225	9.58876e-05	-0.013324	0.205802
13	-0.0162696	-0.0195352	0.00613792	0.00114326	-0.0143594	-0.0414163	0.0217031	0.0285502	-0.000515228	-1.7014	0.152104	0.226106	0.0519511	-0.00309456	0.0192709	-2.20975	0.0129016	-1.54157	0	0	0	0	-0	0	0	0	-0.1265	0	-0	0	0	0	0	0	-0	0	0.105	-0.015	0	0	-0	0	0	-0.098	0.1	0	-0	0	0	0	0	0	-0	0	0.05595	0	0	0	-0	0	0	0	0	0	-0	0	552.217	549.596	326.143	202.308	0.0054507	-0.125933	0.00250517	-0.0133386	0.116198
14	-0.0553151	-0.0195321	0.00617222	0.00114861	-0.0143739	-0.0413161	0.0216969	0.0285465	-0.000516362	-1.70114	0.152124	0.225889	0.0524565	-0.00305483	0.0175221	-2.25253	0.0121824	-1.54426	0	0	0	0	-0	0	0	0	-0.1265	0	-0	0	0	0	0	0	-0	0	0.105	-0.015	0	0	-0	0	0	-0.098	0.1	0	-0	0	0	0	0	0	-0	0	0.05595	0	0	0	-0	0	0	0	0	0	-0	0	554.972	552.464	327.462	203.878	-0.0159075	-0.034922	0.00333462	-0.0127035	-0.00463947
15	-0.0377205	-0.0195748	0.00620371	0.00113181	-0.0144185	-0.0412441	0.0216937	0.0285413	-0.000514346	-1.70129	0.152131	0.225395	0.0519084	-0.00302029	0.018712	-2.23953	0.00922079	-1.54675	0	0	0	0	-0	0	0	0	-0.1265	0	-0	0	0	0	0	0	-0	0	0.105	-0.015	0	0	-0	0	0	-0.098	0.1	0	-0	0	0	0	0	0	-0	0	0.05595	0	0	0	-0	0	0	0	0	0	-0	0	557.436	555.618	329.325	205.904	-0.0338126	0.0540684	0.00367364	-0.0117684	-0.132969
16	-0.065821	-0.0196099	0.00621528	0.00110886	-0.0144525	-0.0412019	0.0216922	0.0285382	-0.000512406	-1.70139	0.1521	0.225116	0.0523131	-0.00300244	0.0173816	-2.27029	0.00836814	-1.54875	0	0	0	0	-0	0	0	0	-0.1265	0	-0	0	0	0	0	0	-0	0	0.105	-0.015	0	0	-0	0	0	-0.098	0.1	0	-0	0	0	0	0	0	-0	0	0.05595	0	0	0	-0	0	0	0	0	0	-0	0	558.68	557.25	330.531	207.135	-0.0438058	0.108594	0.00392068	-0.0111494	-0.218833
17	-0.0838077	-0.01964	0.00622212	0.00109299	-0.0144793	-0.0411736	0.0216912	0.0285365	-0.00051112	-1.70146	0.15208	0.224966	0.0525464	-0.00299197	0.01652	-2.29007	0.00761359	-1.55005	0	0	0	0	-0	0	0	0	-0.1265	0	-0	0	0	0	0	0	-0	0	0.105	-0.015	0	0	-0	0	0	-0.098	0.1	0	-0	0	0	0	0	0	-0	0	0.05595	0	0	0	-0	0	0	0	0	0	-0	0	559.432	558.249	331.399	207.977	-0.0499201	0.14262	0.00411134	-0.0107113	-0.273707
18	-0.0746352	-0.0196522	0.0062234	0.00108319	-0.0144906	-0.0411622	0.0216908	0.0285359	-0.000510417	-1.70148	0.152063	0.224911	0.0523651	-0.0029878	0.0170321	-2.2816	0.00695917	-1.55044	0	0	0	0	-0	0	0	0	-0.1265	0	-0	0	0	0	0	0	-0	0	0.105	-0.015	0	0	-0	0	0	-0.098	0.1	0	-0	0	0	0	0	0	-0	0	0.05595	0	0	0	-0	0	0	0	0	0	-0	0	559.713	558.621	331.749	208.309	-0.0523635	0.15601	0.00420788	-0.0105229	-0.295709
19	-0.0567774	-0.0197	0.00623012	0.00106461	-0.0145296	-0.0411295	0.0216893	0.0285344	-0.000508847	-1.70153	0.152042	0.224797	0.0519916	-0.0029776	0.018058	-2.2661	0.00490927	-1.55208	0	0	0	0	-0	0	0	0	-0.1265	0	-0	0	0	0	0	0	-0	0	0.105	-0.015	0	0	-0	0	0	-0.098	0.1	0	-0	0	0	0	0	0	-0	0	0.05595	0	0	0	-0	0	0	0	0	0	-0	0	560.543	559.769	333.081	209.446	-0.0590016	0.195904	0.00443692	-0.0099019	-0.361983
20	-0.0766757	-0.0197663	0.00623215	0.00103624	-0.0145834	-0.0410894	0.0216877	0.0285331	-0.000506742	-1.70157	0.151995	0.224716	0.0522763	-0.00296801	0.017106	-2.28861	0.00307704	-1.55445	0	0	0	0	-0	0	0	0	-0.1265	0	-0	0	0	0	0	0	-0	0	0.105	-0.015	0	0	-0	0	0	-0.098	0.1	0	-0	0	0	0	0	0	-0	0	0.05595	0	0	0	-0	0	0	0	0	0	-0	0	561.343	560.917	334.848	210.741	-0.0662313	0.240902	0.00475692	-0.00905222	-0.440282
21	-0.0623611	-0.0198512	0.00622933	0.000998544	-0.0146515	-0.0410461	0.021686	0.0285324	-0.000504159	-1.7016	0.15193	0.22471	0.0519705	-0.00296056	0.017927	-2.27693	1.93597e-05	-1.55716	0	0	0	0	-0	0	0	0	-0.1265	0	-0	0	0	0	0	0	-0	0	0.105	-0.015	0	0	-0	0	0	-0.098	0.1	0	-0	0	0	0	0	0	-0	0	0.05595	0	0	0	-0	0	0	0	0	0	-0	0	562.028	561.965	337.081	212.063	-0.0735359	0.288661	0.00511877	-0.00796281	-0.527514
22	-0.0519535	-0.0198917	0.00622338	0.000975354	-0.0146858	-0.0410258	0.0216852	0.0285325	-0.000502809	-1.7016	0.151879	0.224755	0.0517597	-0.00295748	0.0184908	-2.26761	-0.00135837	-1.55846	0	0	0	0	-0	0	0	0	-0.1265	0	-0	0	0	0	0	0	-0	0	0.105	-0.015	0	0	-0	0	0	-0.098	0.1	0	-0	0	0	0	0	0	-0	0	0.05595	0	0	0	-0	0	0	0	0	0	-0	0	562.28	562.337	338.1	212.623	-0.0770375	0.309212	0.0053847	-0.00741453	-0.566009
23	-0.0596033	-0.0199089	0.00622065	0.0009653	-0.0147001	-0.0410177	0.0216849	0.0285326	-0.000502239	-1.7016	0.151858	0.224785	0.0518919	-0.00295632	0.0181026	-2.27568	-0.00175533	-1.55896	0	0	0	0	-0	0	0	0	-0.1265	0	-0	0	0	0	0	0	-0	0	0.105	-0.015	0	0	-0	0	0	-0.098	0.1	0	-0	0	0	0	0	0	-0	0	0.05595	0	0	0	-0	0	0	0	0	0	-0	0	562.371	562.471	338.505	212.84	-0.0783929	0.316582	0.00550246	-0.00719231	-0.579561
24	-0.0518846	-0.0199154	0.00621953	0.000961418	-0.0147055	-0.0410146	0.0216848	0.0285326	-0.000502023	-1.7016	0.15185	0.224799	0.0517485	-0.00295588	0.0185059	-2.26812	-0.00203381	-1.55916	0	0	0	0	-0	0	0	0	-0.1265	0	-0	0	0	0	0	0	-0	0	0.105	-0.015	0	0	-0	0	0	-0.098	0.1	0	-0	0	0	0	0	0	-0	0	0.05595	0	0	0	-0	0	0	0	0	0	-0	0	562.403	562.519	338.655	212.919	-0.0789067	0.319258	0.00554878	-0.00710881	-0.584389
25	-0.0602962	-0.0199266	0.00621866	0.000956906	-0.0147144	-0.0410097	0.0216845	0.0285326	-0.000501732	-1.7016	0.151841	0.22481	0.0518986	-0.00295549	0.0180757	-2.27682	-0.0023046	-1.55952	0	0	0	0	-0	0	0	0	-0.1265	0	-0	0	0	0	0	0	-0	0	0.105	-0.015	0	0	-0	0	0	-0.098	0.1	0	-0	0	0	0	0	0	-0	0	0.05595	0	0	0	-0	0	0	0	0	0	-0	0	562.46	562.613	338.955	213.071	-0.0796509	0.324599	0.00559577	-0.00696319	-0.594834
26	-0.0741863	-0.0199428	0.00621724	0.0009501	-0.0147273	-0.0410028	0.0216843	0.0285327	-0.000501303	-1.70159	0.151828	0.224827	0.0521426	-0.00295496	0.0173619	-2.2911	-0.00268129	-1.56	0	0	0	0	-0	0	0	0	-0.1265	0	-0	0	0	0	0	0	-0	0	0.105	-0.015	0	0	-0	0	0	-0.098	0.1	0	-0	0	0	0	0	0	-0	0	0.05595	0	0	0	-0	0	0	0	0	0	-0	0	562.536	562.741	339.382	213.274	-0.0806911	0.331909	0.00566191	-0.00675275	-0.609131
27	-0.0803417	-0.019965	0.00621503	0.000941123	-0.0147451	-0.0409937	0.0216839	0.0285328	-0.000500746	-1.70159	0.151811	0.224854	0.0522386	-0.00295441	0.0170486	-2.29775	-0.00336461	-1.56069	0	0	0	0	-0	0	0	0	-0.1265	0	-0	0	0	0	0	0	-0	0	0.105	-0.015	0	0	-0	0	0	-0.098	0.1	0	-0	0	0	0	0	0	-0	0	0.05595	0	0	0	-0	0	0	0	0	0	-0	0	562.627	562.902	339.974	213.532	-0.0820833	0.341697	0.00574717	-0.00645911	-0.628377
28	-0.0938693	-0.0199859	0.0062124	0.000931104	-0.0147622	-0.0409855	0.0216836	0.0285329	-0.00050015	-1.70159	0.151792	0.224887	0.0524634	-0.00295389	0.0163495	-2.31171	-0.00392888	-1.5613	0	0	0	0	-0	0	0	0	-0.1265	0	-0	0	0	0	0	0	-0	0	0.105	-0.015	0	0	-0	0	0	-0.098	0.1	0	-0	0	0	0	0	0	-0	0	0.05595	0	0	0	-0	0	0	0	0	0	-0	0	562.704	563.038	340.524	213.756	-0.0833691	0.350225	0.00583594	-0.00617937	-0.645099
29	-0.0831109	-0.0200011	0.00621018	0.000924492	-0.0147747	-0.0409794	0.0216833	0.0285331	-0.000499782	-1.70158	0.151777	0.224914	0.0522799	-0.00295355	0.0169175	-2.30124	-0.00453246	-1.56179	0	0	0	0	-0	0	0	0	-0.1265	0	-0	0	0	0	0	0	-0	0	0.105	-0.015	0	0	-0	0	0	-0.098	0.1	0	-0	0	0	0	0	0	-0	0	0.05595	0	0	0	-0	0	0	0	0	0	-0	0	562.756	563.129	340.914	213.908	-0.0843264	0.356149	0.00590767	-0.00597667	-0.65654
30	-0.0837565	-0.0200284	0.00620713	0.00091311	-0.0147969	-0.0409694	0.0216829	0.0285333	-0.000499081	-1.70158	0.151756	0.224955	0.0522826	-0.00295335	0.0168915	-2.30238	-0.0055064	-1.5627	0	0	0	0	-0	0	0	0	-0.1265	0	-0	0	0	0	0	0	-0	0	0.105	-0.015	0	0	-0	0	0	-0.098	0.1	0	-0	0	0	0	0	0	-0	0	0.05595	0	0	0	-0	0	0	0	0	0	-0	0	562.841	563.299	341.686	214.168	-0.0858897	0.367791	0.00598424	-0.00559387	-0.680108
31	-0.0918011	-0.0200537	0.00620346	0.000901271	-0.0148179	-0.0409603	0.0216826	0.0285335	-0.000498413	-1.70156	0.151733	0.225005	0.0524144	-0.00295301	0.0164781	-2.31083	-0.00630921	-1.56345	0	0	0	0	-0	0	0	0	-0.1265	0	-0	0	0	0	0	0	-0	0	0.105	-0.015	0	0	-0	0	0	-0.098	0.1	0	-0	0	0	0	0	0	-0	0	0.05595	0	0	0	-0	0	0	0	0	0	-0	0	562.914	563.436	342.365	214.381	-0.087406	0.377626	0.00607928	-0.00524308	-0.699521
32	-0.094022	-0.0200573	0.00620174	0.000898492	-0.0148214	-0.0409592	0.0216825	0.0285337	-0.000498313	-1.70157	0.151725	0.225025	0.0524495	-0.00295273	0.0163615	-2.31308	-0.00634817	-1.56349	0	0	0	0	-0	0	0	0	-0.1265	0	-0	0	0	0	0	0	-0	0	0.105	-0.015	0	0	-0	0	0	-0.098	0.1	0	-0	0	0	0	0	0	-0	0	0.05595	0	0	0	-0	0	0	0	0	0	-0	0	562.921	563.441	342.406	214.395	-0.0877225	0.37776	0.00612747	-0.00520333	-0.698766
33	-0.0910015	-0.0200588	0.00620151	0.000897558	-0.0148227	-0.0409584	0.0216825	0.0285337	-0.000498266	-1.70156	0.151723	0.225031	0.0523995	-0.00295268	0.0165205	-2.31009	-0.0064322	-1.56356	0	0	0	0	-0	0	0	0	-0.1265	0	-0	0	0	0	0	0	-0	0	0.105	-0.015	0	0	-0	0	0	-0.098	0.1	0	-0	0	0	0	0	0	-0	0	0.05595	0	0	0	-0	0	0	0	0	0	-0	0	562.927	563.448	342.454	214.412	-0.0878139	0.378284	0.00613861	-0.00517868	-0.699804
34	-0.0983641	-0.020066	0.00620077	0.000894787	-0.0148285	-0.0409557	0.0216824	0.0285338	-0.0004981	-1.70156	0.151718	0.225043	0.0525198	-0.00295271	0.0161365	-2.31758	-0.00664366	-1.56375	0	0	0	0	-0	0	0	0	-0.1265	0	-0	0	0	0	0	0	-0	0	0.105	-0.015	0	0	-0	0	0	-0.098	0.1	0	-0	0	0	0	0	0	-0	0	0.05595	0	0	0	-0	0	0	0	0	0	-0	0	562.945	563.486	342.661	214.478	-0.0881917	0.381285	0.00615921	-0.00507777	-0.706077
35	-0.097205	-0.0200765	0.00619942	0.000890494	-0.014837	-0.040952	0.0216822	0.0285339	-0.000497851	-1.70156	0.151709	0.225062	0.0524986	-0.00295274	0.0161992	-2.31659	-0.007026	-1.56409	0	0	0	0	-0	0	0	0	-0.1265	0	-0	0	0	0	0	0	-0	0	0.105	-0.015	0	0	-0	0	0	-0.098	0.1	0	-0	0	0	0	0	0	-0	0	0.05595	0	0	0	-0	0	0	0	0	0	-0	0	562.97	563.538	342.951	214.566	-0.0887368	0.385245	0.00619107	-0.00493171	-0.714196
36	-0.0960887	-0.0200779	0.00619862	0.000889163	-0.0148384	-0.0409518	0.0216822	0.028534	-0.000497796	-1.70156	0.151706	0.22507	0.0524806	-0.00295263	0.0162578	-2.31548	-0.00704789	-1.56412	0	0	0	0	-0	0	0	0	-0.1265	0	-0	0	0	0	0	0	-0	0	0.105	-0.015	0	0	-0	0	0	-0.098	0.1	0	-0	0	0	0	0	0	-0	0	0.05595	0	0	0	-0	0	0	0	0	0	-0	0	562.971	563.539	342.962	214.57	-0.0888845	0.385391	0.00620995	-0.00491745	-0.714029
37	-0.0960629	-0.0200785	0.00619857	0.000888856	-0.014839	-0.0409514	0.0216822	0.028534	-0.000497781	-1.70156	0.151705	0.225073	0.05248	-0.00295261	0.0162594	-2.31547	-0.00707456	-1.56414	0	0	0	0	-0	0	0	0	-0.1265	0	-0	0	0	0	0	0	-0	0	0.105	-0.015	0	0	-0	0	0	-0.098	0.1	0	-0	0	0	0	0	0	-0	0	0.05595	0	0	0	-0	0	0	0	0	0	-0	0	562.974	563.542	342.983	214.577	-0.0889043	0.385501	0.00621406	-0.00490716	-0.714261
38	-0.0950635	-0.0200797	0.00619844	0.000888311	-0.01484	-0.0409509	0.0216822	0.028534	-0.000497752	-1.70156	0.151704	0.225075	0.0524635	-0.0029526	0.0163122	-2.31449	-0.00712528	-1.56419	0	0	0	0	-0	0	0	0	-0.1265	0	-0	0	0	0	0	0	-0	0	0.105	-0.015	0	0	-0	0	0	-0.098	0.1	0	-0	0	0	0	0	0	-0	0	0.05595	0	0	0	-0	0	0	0	0	0	-0	0	562.977	563.547	343.017	214.588	-0.0889621	0.385896	0.00621962	-0.00489004	-0.715075
39	-0.097517	-0.0200807	0.00619825	0.000887856	-0.0148408	-0.0409505	0.0216822	0.028534	-0.00049773	-1.70155	0.151703	0.225078	0.0525034	-0.00295259	0.0161837	-2.31696	-0.00714363	-1.5642	0	0	0	0	-0	0	0	0	-0.1265	0	-0	0	0	0	0	0	-0	0	0.105	-0.015	0	0	-0	0	0	-0.098	0.1	0	-0	0	0	0	0	0	-0	0	0.05595	0	0	0	-0	0	0	0	0	0	-0	0	562.98	563.552	343.044	214.596	-0.0890289	0.386297	0.00622496	-0.00487603	-0.715858
40	-0.10258	-0.0200848	0.00619783	0.000886265	-0.0148441	-0.0409491	0.0216821	0.028534	-0.000497633	-1.70155	0.1517	0.225084	0.0525848	-0.00295265	0.0159187	-2.32209	-0.00726186	-1.5643	0	0	0	0	-0	0	0	0	-0.1265	0	-0	0	0	0	0	0	-0	0	0.105	-0.015	0	0	-0	0	0	-0.098	0.1	0	-0	0	0	0	0	0	-0	0	0.05595	0	0	0	-0	0	0	0	0	0	-0	0	562.989	563.572	343.161	214.632	-0.089226	0.387926	0.00623482	-0.0048184	-0.719312
41	-0.0974368	-0.0200908	0.00619708	0.00088378	-0.0148491	-0.040947	0.021682	0.0285341	-0.00049749	-1.70155	0.151695	0.225095	0.0525015	-0.00295266	0.0161903	-2.31704	-0.00751369	-1.56453	0	0	0	0	-0	0	0	0	-0.1265	0	-0	0	0	0	0	0	-0	0	0.105	-0.015	0	0	-0	0	0	-0.098	0.1	0	-0	0	0	0	0	0	-0	0	0.05595	0	0	0	-0	0	0	0	0	0	-0	0	563.003	563.602	343.33	214.682	-0.0895282	0.390123	0.00625324	-0.00473323	-0.723842
42	-0.0951962	-0.0200922	0.00619655	0.000882883	-0.0148503	-0.0409466	0.021682	0.0285341	-0.000497452	-1.70155	0.151693	0.225101	0.0524645	-0.0029526	0.0163079	-2.31481	-0.00755796	-1.56458	0	0	0	0	-0	0	0	0	-0.1265	0	-0	0	0	0	0	0	-0	0	0.105	-0.015	0	0	-0	0	0	-0.098	0.1	0	-0	0	0	0	0	0	-0	0	0.05595	0	0	0	-0	0	0	0	0	0	-0	0	563.005	563.605	343.354	214.689	-0.0896471	0.390462	0.00626588	-0.00471658	-0.724266
43	-0.0921707	-0.0200955	0.00619623	0.0008815	-0.014853	-0.0409454	0.021682	0.0285342	-0.000497369	-1.70155	0.151691	0.225107	0.0524147	-0.00295263	0.0164673	-2.31184	-0.00770133	-1.56471	0	0	0	0	-0	0	0	0	-0.1265	0	-0	0	0	0	0	0	-0	0	0.105	-0.015	0	0	-0	0	0	-0.098	0.1	0	-0	0	0	0	0	0	-0	0	0.05595	0	0	0	-0	0	0	0	0	0	-0	0	563.013	563.621	343.451	214.717	-0.0897989	0.391708	0.00627444	-0.00466882	-0.726925
44	-0.0961265	-0.0201047	0.00619516	0.000877871	-0.0148605	-0.0409423	0.0216818	0.0285343	-0.000497152	-1.70154	0.151684	0.225122	0.0524784	-0.00295269	0.016262	-2.31593	-0.00802205	-1.56499	0	0	0	0	-0	0	0	0	-0.1265	0	-0	0	0	0	0	0	-0	0	0.105	-0.015	0	0	-0	0	0	-0.098	0.1	0	-0	0	0	0	0	0	-0	0	0.05595	0	0	0	-0	0	0	0	0	0	-0	0	563.035	563.669	343.719	214.789	-0.0902915	0.395562	0.00629411	-0.00453561	-0.73496
45	-0.101531	-0.0201138	0.00619377	0.000873803	-0.0148682	-0.0409392	0.0216817	0.0285344	-0.00049693	-1.70154	0.151676	0.225142	0.052565	-0.00295268	0.0159802	-2.32146	-0.00831343	-1.56523	0	0	0	0	-0	0	0	0	-0.1265	0	-0	0	0	0	0	0	-0	0	0.105	-0.015	0	0	-0	0	0	-0.098	0.1	0	-0	0	0	0	0	0	-0	0	0.05595	0	0	0	-0	0	0	0	0	0	-0	0	563.055	563.711	343.969	214.854	-0.090801	0.398898	0.00632515	-0.00440652	-0.741648
46	-0.109011	-0.020118	0.00619286	0.000871725	-0.0148718	-0.0409378	0.0216817	0.0285345	-0.000496833	-1.70154	0.151671	0.225154	0.0526835	-0.00295262	0.0155875	-2.32899	-0.0084015	-1.56528	0	0	0	0	-0	0	0	0	-0.1265	0	-0	0	0	0	0	0	-0	0	0.105	-0.015	0	0	-0	0	0	-0.098	0.1	0	-0	0	0	0	0	0	-0	0	0.05595	0	0	0	-0	0	0	0	0	0	-0	0	563.064	563.726	344.068	214.881	-0.0910481	0.400021	0.00634943	-0.00435095	-0.743639
47	-0.109626	-0.0201246	0.006192	0.000869078	-0.0148773	-0.0409355	0.0216816	0.0285346	-0.000496682	-1.70154	0.151666	0.225168	0.0526911	-0.0029527	0.0155558	-2.3297	-0.00865097	-1.5655	0	0	0	0	-0	0	0	0	-0.1265	0	-0	0	0	0	0	0	-0	0	0.105	-0.015	0	0	-0	0	0	-0.098	0.1	0	-0	0	0	0	0	0	-0	0	0.05595	0	0	0	-0	0	0	0	0	0	-0	0	563.077	563.755	344.262	214.93	-0.0913857	0.402581	0.00636637	-0.00425379	-0.748998
48	-0.110651	-0.0201256	0.00619146	0.000868137	-0.0148783	-0.0409354	0.0216816	0.0285346	-0.000496643	-1.70154	0.151664	0.225174	0.0527072	-0.00295264	0.0155018	-2.33073	-0.00865543	-1.5655	0	0	0	0	-0	0	0	0	-0.1265	0	-0	0	0	0	0	0	-0	0	0.105	-0.015	0	0	-0	0	0	-0.098	0.1	0	-0	0	0	0	0	0	-0	0	0.05595	0	0	0	-0	0	0	0	0	0	-0	0	563.078	563.756	344.269	214.932	-0.0914812	0.402637	0.00637911	-0.00424433	-0.748777
49	-0.109271	-0.020126	0.00619143	0.000867938	-0.0148786	-0.0409352	0.0216815	0.0285346	-0.000496634	-1.70154	0.151663	0.225175	0.0526856	-0.00295262	0.0155747	-2.32935	-0.00868071	-1.56552	0	0	0	0	-0	0	0	0	-0.1265	0	-0	0	0	0	0	0	-0	0	0.105	-0.015	0	0	-0	0	0	-0.098	0.1	0	-0	0	0	0	0	0	-0	0	0.05595	0	0	0	-0	0	0	0	0	0	-0	0	563.079	563.758	344.283	214.936	-0.0914933	0.402696	0.00638189	-0.00423742	-0.748903
50	-0.111973	-0.0201267	0.00619134	0.000867608	-0.0148792	-0.0409349	0.0216815	0.0285346	-0.000496618	-1.70153	0.151662	0.225177	0.0527276	-0.00295262	0.0154325	-2.33206	-0.00869298	-1.56552	0	0	0	0	-0	0	0	0	-0.1265	0	-0	0	0	0	0	0	-0	0	0.105	-0.015	0	0	-0	0	0	-0.098	0.1	0	-0	0	0	0	0	0	-0	0	0.05595	0	0	0	-0	0	0	0	0	0	-0	0	563.081	563.76	344.303	214.942	-0.0915236	0.402887	0.00638558	-0.00422719	-0.749302
51	-0.113359	-0.0201278	0.00619118	0.000867178	-0.0148801	-0.0409345	0.0216815	0.0285346	-0.000496594	-1.70153	0.151662	0.22518	0.0527487	-0.00295263	0.0153595	-2.33347	-0.00872508	-1.56555	0	0	0	0	-0	0	0	0	-0.1265	0	-0	0	0	0	0	0	-0	0	0.105	-0.015	0	0	-0	0	0	-0.098	0.1	0	-0	0	0	0	0	0	-0	0	0.05595	0	0	0	-0	0	0	0	0	0	-0	0	563.083	563.764	344.334	214.95	-0.0915776	0.403278	0.00638899	-0.00421193	-0.750117
52	-0.110089	-0.0201296	0.00619093	0.000866397	-0.0148816	-0.0409338	0.0216815	0.0285347	-0.000496551	-1.70153	0.15166	0.225184	0.0526983	-0.00295265	0.0155323	-2.33022	-0.00880873	-1.56563	0	0	0	0	-0	0	0	0	-0.1265	0	-0	0	0	0	0	0	-0	0	0.105	-0.015	0	0	-0	0	0	-0.098	0.1	0	-0	0	0	0	0	0	-0	0	0.05595	0	0	0	-0	0	0	0	0	0	-0	0	563.086	563.772	344.384	214.963	-0.0916828	0.404029	0.00639491	-0.00418622	-0.751663
53	-0.112935	-0.0201306	0.00619071	0.000865948	-0.0148824	-0.0409335	0.0216815	0.0285347	-0.000496529	-1.70153	0.151659	0.225186	0.0527422	-0.00295265	0.0153823	-2.33308	-0.00882681	-1.56564	0	0	0	0	-0	0	0	0	-0.1265	0	-0	0	0	0	0	0	-0	0	0.105	-0.015	0	0	-0	0	0	-0.098	0.1	0	-0	0	0	0	0	0	-0	0	0.05595	0	0	0	-0	0	0	0	0	0	-0	0	563.088	563.775	344.41	214.97	-0.0917497	0.4044	0.00639965	-0.00417246	-0.75237
54	-0.116253	-0.0201314	0.00619059	0.000865568	-0.0148831	-0.0409333	0.0216815	0.0285347	-0.000496509	-1.70153	0.151658	0.225188	0.052793	-0.00295265	0.0152074	-2.33641	-0.00883915	-1.56563	0	0	0	0	-0	0	0	0	-0.1265	0	-0	0	0	0	0	0	-0	0	0.105	-0.015	0	0	-0	0	0	-0.098	0.1	0	-0	0	0	0	0	0	-0	0	0.05595	0	0	0	-0	0	0	0	0	0	-0	0	563.09	563.779	344.432	214.976	-0.0917813	0.404601	0.00640269	-0.00416077	-0.752782
55	-0.112426	-0.0201331	0.00619038	0.000864871	-0.0148845	-0.0409327	0.0216814	0.0285347	-0.000496468	-1.70153	0.151657	0.225191	0.0527343	-0.00295267	0.0154097	-2.3326	-0.00892404	-1.56572	0	0	0	0	-0	0	0	0	-0.1265	0	-0	0	0	0	0	0	-0	0	0.105	-0.015	0	0	-0	0	0	-0.098	0.1	0	-0	0	0	0	0	0	-0	0	0.05595	0	0	0	-0	0	0	0	0	0	-0	0	563.093	563.786	344.482	214.989	-0.0918563	0.405193	0.00640694	-0.0041359	-0.754042
56	-0.114789	-0.0201341	0.00619018	0.000864427	-0.0148854	-0.0409324	0.0216814	0.0285347	-0.000496447	-1.70153	0.151656	0.225194	0.0527703	-0.00295266	0.0152852	-2.33498	-0.00894416	-1.56573	0	0	0	0	-0	0	0	0	-0.1265	0	-0	0	0	0	0	0	-0	0	0.105	-0.015	0	0	-0	0	0	-0.098	0.1	0	-0	0	0	0	0	0	-0	0	0.05595	0	0	0	-0	0	0	0	0	0	-0	0	563.095	563.79	344.507	214.995	-0.0919148	0.405498	0.00641192	-0.00412246	-0.754615
57	-0.113197	-0.0201376	0.0061898	0.000863026	-0.0148883	-0.0409312	0.0216814	0.0285348	-0.000496363	-1.70153	0.151653	0.2252	0.0527455	-0.0029527	0.0153699	-2.33344	-0.00908842	-1.56586	0	0	0	0	-0	0	0	0	-0.1265	0	-0	0	0	0	0	0	-0	0	0.105	-0.015	0	0	-0	0	0	-0.098	0.1	0	-0	0	0	0	0	0	-0	0	0.05595	0	0	0	-0	0	0	0	0	0	-0	0	563.103	563.807	344.61	215.021	-0.0920969	0.406981	0.0064181	-0.00407095	-0.757756
58	-0.109115	-0.0201413	0.00618922	0.000861402	-0.0148913	-0.04093	0.0216813	0.0285348	-0.000496275	-1.70153	0.15165	0.225208	0.0526824	-0.00295273	0.0155857	-2.3294	-0.00923901	-1.56601	0	0	0	0	-0	0	0	0	-0.1265	0	-0	0	0	0	0	0	-0	0	0.105	-0.015	0	0	-0	0	0	-0.098	0.1	0	-0	0	0	0	0	0	-0	0	0.05595	0	0	0	-0	0	0	0	0	0	-0	0	563.109	563.822	344.71	215.045	-0.092285	0.408234	0.00643006	-0.0040192	-0.760307
59	-0.108189	-0.0201418	0.00618894	0.000861027	-0.0148919	-0.0409299	0.0216813	0.0285348	-0.000496262	-1.70153	0.151649	0.225211	0.0526676	-0.0029527	0.0156344	-2.32848	-0.00925089	-1.56603	0	0	0	0	-0	0	0	0	-0.1265	0	-0	0	0	0	0	0	-0	0	0.105	-0.015	0	0	-0	0	0	-0.098	0.1	0	-0	0	0	0	0	0	-0	0	0.05595	0	0	0	-0	0	0	0	0	0	-0	0	563.11	563.823	344.716	215.047	-0.0923424	0.408308	0.00643699	-0.00401341	-0.760271
60	-0.108528	-0.0201422	0.0061889	0.000860847	-0.0148922	-0.0409298	0.0216813	0.0285348	-0.000496252	-1.70153	0.151649	0.225213	0.0526728	-0.00295269	0.0156166	-2.32882	-0.00926311	-1.56603	0	0	0	0	-0	0	0	0	-0.1265	0	-0	0	0	0	0	0	-0	0	0.105	-0.015	0	0	-0	0	0	-0.098	0.1	0	-0	0	0	0	0	0	-0	0	0.05595	0	0	0	-0	0	0	0	0	0	-0	0	563.111	563.824	344.727	215.05	-0.092353	0.408383	0.00643837	-0.00400802	-0.760435
61	-0.108023	-0.0201427	0.00618885	0.000860579	-0.0148926	-0.0409296	0.0216813	0.0285349	-0.000496238	-1.70153	0.151648	0.225214	0.0526649	-0.00295269	0.0156434	-2.32832	-0.00928607	-1.56606	0	0	0	0	-0	0	0	0	-0.1265	0	-0	0	0	0	0	0	-0	0	0.105	-0.015	0	0	-0	0	0	-0.098	0.1	0	-0	0	0	0	0	0	-0	0	0.05595	0	0	0	-0	0	0	0	0	0	-0	0	563.112	563.826	344.743	215.054	-0.0923699	0.408503	0.00644026	-0.00400006	-0.760696
62	-0.108724	-0.0201435	0.00618872	0.000860242	-0.0148933	-0.0409293	0.0216813	0.0285349	-0.000496221	-1.70153	0.151648	0.225216	0.0526758	-0.00295269	0.0156066	-2.32904	-0.00931321	-1.56608	0	0	0	0	-0	0	0	0	-0.1265	0	-0	0	0	0	0	0	-0	0	0.105	-0.015	0	0	-0	0	0	-0.098	0.1	0	-0	0	0	0	0	0	-0	0	0.05595	0	0	0	-0	0	0	0	0	0	-0	0	563.114	563.83	344.766	215.059	-0.0924243	0.408865	0.00644352	-0.00398816	-0.761425
63	-0.108919	-0.0201447	0.00618857	0.000859705	-0.0148943	-0.0409289	0.0216813	0.0285349	-0.000496189	-1.70153	0.151647	0.225218	0.0526787	-0.00295271	0.0155965	-2.32925	-0.00935743	-1.56611	0	0	0	0	-0	0	0	0	-0.1265	0	-0	0	0	0	0	0	-0	0	0.105	-0.015	0	0	-0	0	0	-0.098	0.1	0	-0	0	0	0	0	0	-0	0	0.05595	0	0	0	-0	0	0	0	0	0	-0	0	563.116	563.835	344.801	215.068	-0.0924747	0.409256	0.00644635	-0.00397063	-0.762258
64	-0.104323	-0.0201467	0.00618831	0.000858904	-0.0148959	-0.0409282	0.0216813	0.0285349	-0.000496146	-1.70153	0.151645	0.225222	0.0526068	-0.00295271	0.015839	-2.32468	-0.00945169	-1.56622	0	0	0	0	-0	0	0	0	-0.1265	0	-0	0	0	0	0	0	-0	0	0.105	-0.015	0	0	-0	0	0	-0.098	0.1	0	-0	0	0	0	0	0	-0	0	0.05595	0	0	0	-0	0	0	0	0	0	-0	0	563.121	563.844	344.857	215.082	-0.0925889	0.410061	0.00645252	-0.0039423	-0.763912
65	-0.103117	-0.0201495	0.00618793	0.000857788	-0.0148983	-0.0409273	0.0216812	0.0285349	-0.000496083	-1.70152	0.151643	0.225227	0.0525869	-0.00295273	0.0159029	-2.32351	-0.00956257	-1.56632	0	0	0	0	-0	0	0	0	-0.1265	0	-0	0	0	0	0	0	-0	0	0.105	-0.015	0	0	-0	0	0	-0.098	0.1	0	-0	0	0	0	0	0	-0	0	0.05595	0	0	0	-0	0	0	0	0	0	-0	0	563.127	563.857	344.938	215.101	-0.0927289	0.411091	0.00645906	-0.00390103	-0.76605
66	-0.106837	-0.0201524	0.00618743	0.000856485	-0.0149007	-0.0409264	0.0216812	0.028535	-0.000496013	-1.70152	0.15164	0.225234	0.0526459	-0.00295275	0.0157077	-2.32726	-0.00964796	-1.56638	0	0	0	0	-0	0	0	0	-0.1265	0	-0	0	0	0	0	0	-0	0	0.105	-0.015	0	0	-0	0	0	-0.098	0.1	0	-0	0	0	0	0	0	-0	0	0.05595	0	0	0	-0	0	0	0	0	0	-0	0	563.132	563.869	345.016	215.12	-0.0929111	0.412288	0.00646886	-0.00386014	-0.768455
67	-0.113011	-0.0201624	0.00618626	0.000852582	-0.0149091	-0.0409232	0.0216811	0.0285351	-0.000495782	-1.70152	0.151633	0.225252	0.0527416	-0.0029529	0.0153845	-2.33355	-0.0100218	-1.56666	0	0	0	0	-0	0	0	0	-0.1265	0	-0	0	0	0	0	0	-0	0	0.105	-0.015	0	0	-0	0	0	-0.098	0.1	0	-0	0	0	0	0	0	-0	0	0.05595	0	0	0	-0	0	0	0	0	0	-0	0	563.151	563.916	345.322	215.181	-0.093407	0.416361	0.00648071	-0.00370763	-0.777133
68	-0.107919	-0.0201753	0.00618437	0.000847085	-0.0149201	-0.0409191	0.0216809	0.0285353	-0.000495486	-1.70151	0.151622	0.22528	0.0526611	-0.00295296	0.0156553	-2.32859	-0.0105313	-1.56713	0	0	0	0	-0	0	0	0	-0.1265	0	-0	0	0	0	0	0	-0	0	0.105	-0.015	0	0	-0	0	0	-0.098	0.1	0	-0	0	0	0	0	0	-0	0	0.05595	0	0	0	-0	0	0	0	0	0	-0	0	563.178	563.973	345.694	215.251	-0.0941118	0.421184	0.00651148	-0.00351633	-0.786953
69	-0.114422	-0.020183	0.0061828	0.000843342	-0.0149268	-0.0409166	0.0216808	0.0285354	-0.000495307	-1.70151	0.151614	0.225302	0.0527619	-0.00295292	0.0153139	-2.33518	-0.010765	-1.56729	0	0	0	0	-0	0	0	0	-0.1265	0	-0	0	0	0	0	0	-0	0	0.105	-0.015	0	0	-0	0	0	-0.098	0.1	0	-0	0	0	0	0	0	-0	0	0.05595	0	0	0	-0	0	0	0	0	0	-0	0	563.193	564	345.892	215.296	-0.0945815	0.423643	0.00654851	-0.00340877	-0.791563
70	-0.111055	-0.020185	0.00618219	0.000842224	-0.0149286	-0.040916	0.0216808	0.0285355	-0.000495264	-1.70151	0.151612	0.225311	0.0527092	-0.00295287	0.0154914	-2.33183	-0.01083	-1.56737	0	0	0	0	-0	0	0	0	-0.1265	0	-0	0	0	0	0	0	-0	0	0.105	-0.015	0	0	-0	0	0	-0.098	0.1	0	-0	0	0	0	0	0	-0	0	0.05595	0	0	0	-0	0	0	0	0	0	-0	0	563.196	564.004	345.933	215.306	-0.0947119	0.423939	0.0065662	-0.0033834	-0.791853
71	-0.113766	-0.0201866	0.00618198	0.000841416	-0.0149299	-0.0409155	0.0216808	0.0285355	-0.00049522	-1.70151	0.15161	0.225315	0.0527506	-0.00295285	0.0153489	-2.33456	-0.01088	-1.56739	0	0	0	0	-0	0	0	0	-0.1265	0	-0	0	0	0	0	0	-0	0	0.105	-0.015	0	0	-0	0	0	-0.098	0.1	0	-0	0	0	0	0	0	-0	0	0.05595	0	0	0	-0	0	0	0	0	0	-0	0	563.2	564.011	345.978	215.317	-0.0947847	0.424408	0.0065725	-0.00335992	-0.792821
72	-0.109323	-0.020188	0.00618176	0.000840719	-0.0149312	-0.040915	0.0216807	0.0285355	-0.000495183	-1.70151	0.151609	0.225319	0.0526821	-0.00295285	0.0155834	-2.33014	-0.0109461	-1.56748	0	0	0	0	-0	0	0	0	-0.1265	0	-0	0	0	0	0	0	-0	0	0.105	-0.015	0	0	-0	0	0	-0.098	0.1	0	-0	0	0	0	0	0	-0	0	0.05595	0	0	0	-0	0	0	0	0	0	-0	0	563.203	564.016	346.017	215.327	-0.0948448	0.424783	0.00657825	-0.00333954	-0.793593
73	-0.110947	-0.0201908	0.00618134	0.00083964	-0.0149335	-0.0409141	0.0216807	0.0285356	-0.000495124	-1.70151	0.151606	0.225325	0.0527068	-0.0029529	0.0154981	-2.3318	-0.0110485	-1.56756	0	0	0	0	-0	0	0	0	-0.1265	0	-0	0	0	0	0	0	-0	0	0.105	-0.015	0	0	-0	0	0	-0.098	0.1	0	-0	0	0	0	0	0	-0	0	0.05595	0	0	0	-0	0	0	0	0	0	-0	0	563.208	564.029	346.099	215.346	-0.0950346	0.426195	0.00658534	-0.00329775	-0.796529
74	-0.111554	-0.0201913	0.00618111	0.000839297	-0.0149339	-0.040914	0.0216807	0.0285356	-0.000495111	-1.70151	0.151606	0.225328	0.0527162	-0.00295287	0.015466	-2.33241	-0.01105	-1.56756	0	0	0	0	-0	0	0	0	-0.1265	0	-0	0	0	0	0	0	-0	0	0.105	-0.015	0	0	-0	0	0	-0.098	0.1	0	-0	0	0	0	0	0	-0	0	0.05595	0	0	0	-0	0	0	0	0	0	-0	0	563.209	564.029	346.102	215.347	-0.0950725	0.42619	0.00659092	-0.00329405	-0.796369
75	-0.111774	-0.0201914	0.00618111	0.00083918	-0.014934	-0.040914	0.0216807	0.0285356	-0.000495105	-1.7015	0.151605	0.225328	0.0527196	-0.00295287	0.0154545	-2.33263	-0.0110555	-1.56756	0	0	0	0	-0	0	0	0	-0.1265	0	-0	0	0	0	0	0	-0	0	0.105	-0.015	0	0	-0	0	0	-0.098	0.1	0	-0	0	0	0	0	0	-0	0	0.05595	0	0	0	-0	0	0	0	0	0	-0	0	563.209	564.029	346.107	215.348	-0.0950712	0.426172	0.0065918	-0.00329161	-0.796336
76	-0.112522	-0.0201916	0.00618108	0.000839086	-0.0149342	-0.0409138	0.0216807	0.0285356	-0.000495101	-1.7015	0.151605	0.225329	0.0527311	-0.00295286	0.0154152	-2.33338	-0.0110624	-1.56756	0	0	0	0	-0	0	0	0	-0.1265	0	-0	0	0	0	0	0	-0	0	0.105	-0.015	0	0	-0	0	0	-0.098	0.1	0	-0	0	0	0	0	0	-0	0	0.05595	0	0	0	-0	0	0	0	0	0	-0	0	563.21	564.03	346.114	215.35	-0.0950805	0.426225	0.00659325	-0.00328804	-0.796449
77	-0.111313	-0.0201918	0.00618107	0.000838992	-0.0149344	-0.0409138	0.0216807	0.0285356	-0.000495096	-1.7015	0.151605	0.225329	0.0527124	-0.00295286	0.015479	-2.33217	-0.0110709	-1.56758	0	0	0	0	-0	0	0	0	-0.1265	0	-0	0	0	0	0	0	-0	0	0.105	-0.015	0	0	-0	0	0	-0.098	0.1	0	-0	0	0	0	0	0	-0	0	0.05595	0	0	0	-0	0	0	0	0	0	-0	0	563.21	564.03	346.117	215.351	-0.0950833	0.426234	0.00659388	-0.00328613	-0.796465
78	-0.110197	-0.020192	0.00618102	0.000838913	-0.0149346	-0.0409137	0.0216807	0.0285356	-0.000495091	-1.7015	0.151605	0.22533	0.0526951	-0.00295287	0.0155378	-2.33106	-0.0110847	-1.5676	0	0	0	0	-0	0	0	0	-0.1265	0	-0	0	0	0	0	0	-0	0	0.105	-0.015	0	0	-0	0	0	-0.098	0.1	0	-0	0	0	0	0	0	-0	0	0.05595	0	0	0	-0	0	0	0	0	0	-0	0	563.211	564.031	346.125	215.353	-0.0951015	0.42637	0.0065946	-0.00328217	-0.796751
79	-0.110682	-0.0201925	0.00618096	0.000838708	-0.0149349	-0.0409136	0.0216807	0.0285356	-0.000495079	-1.7015	0.151604	0.225331	0.0527026	-0.00295288	0.0155122	-2.33155	-0.0110984	-1.5676	0	0	0	0	-0	0	0	0	-0.1265	0	-0	0	0	0	0	0	-0	0	0.105	-0.015	0	0	-0	0	0	-0.098	0.1	0	-0	0	0	0	0	0	-0	0	0.05595	0	0	0	-0	0	0	0	0	0	-0	0	563.211	564.033	346.137	215.356	-0.0951204	0.426516	0.00659576	-0.00327622	-0.797063
80	-0.111111	-0.020193	0.00618091	0.000838441	-0.0149354	-0.0409134	0.0216807	0.0285356	-0.000495065	-1.7015	0.151604	0.225332	0.0527091	-0.00295287	0.0154898	-2.33199	-0.0111196	-1.56762	0	0	0	0	-0	0	0	0	-0.1265	0	-0	0	0	0	0	0	-0	0	0.105	-0.015	0	0	-0	0	0	-0.098	0.1	0	-0	0	0	0	0	0	-0	0	0.05595	0	0	0	-0	0	0	0	0	0	-0	0	563.212	564.035	346.154	215.36	-0.0951295	0.426589	0.00659762	-0.00326747	-0.797238
81	-0.11329	-0.0201934	0.00618083	0.000838298	-0.0149357	-0.0409133	0.0216807	0.0285356	-0.000495057	-1.7015	0.151604	0.225332	0.0527428	-0.00295287	0.015375	-2.33417	-0.0111239	-1.5676	0	0	0	0	-0	0	0	0	-0.1265	0	-0	0	0	0	0	0	-0	0	0.105	-0.015	0	0	-0	0	0	-0.098	0.1	0	-0	0	0	0	0	0	-0	0	0.05595	0	0	0	-0	0	0	0	0	0	-0	0	563.213	564.037	346.163	215.362	-0.0951423	0.426652	0.00659905	-0.00326277	-0.79736
82	-0.115962	-0.020194	0.00618076	0.000838036	-0.0149363	-0.0409131	0.0216807	0.0285356	-0.000495042	-1.7015	0.151603	0.225334	0.0527837	-0.00295288	0.0152342	-2.33685	-0.0111403	-1.5676	0	0	0	0	-0	0	0	0	-0.1265	0	-0	0	0	0	0	0	-0	0	0.105	-0.015	0	0	-0	0	0	-0.098	0.1	0	-0	0	0	0	0	0	-0	0	0.05595	0	0	0	-0	0	0	0	0	0	-0	0	563.214	564.039	346.182	215.367	-0.0951717	0.426883	0.00660066	-0.0032532	-0.797853
83	-0.111844	-0.020195	0.00618062	0.000837601	-0.0149371	-0.0409128	0.0216806	0.0285356	-0.000495019	-1.7015	0.151602	0.225336	0.0527208	-0.0029529	0.0154516	-2.33275	-0.0111898	-1.56767	0	0	0	0	-0	0	0	0	-0.1265	0	-0	0	0	0	0	0	-0	0	0.105	-0.015	0	0	-0	0	0	-0.098	0.1	0	-0	0	0	0	0	0	-0	0	0.05595	0	0	0	-0	0	0	0	0	0	-0	0	563.216	564.043	346.21	215.374	-0.0952244	0.427268	0.00660379	-0.00323903	-0.798666
84	-0.109974	-0.0201956	0.00618049	0.000837408	-0.0149376	-0.0409126	0.0216806	0.0285357	-0.00049501	-1.7015	0.151602	0.225337	0.0526915	-0.00295291	0.0155501	-2.33088	-0.0112135	-1.56771	0	0	0	0	-0	0	0	0	-0.1265	0	-0	0	0	0	0	0	-0	0	0.105	-0.015	0	0	-0	0	0	-0.098	0.1	0	-0	0	0	0	0	0	-0	0	0.05595	0	0	0	-0	0	0	0	0	0	-0	0	563.217	564.045	346.223	215.377	-0.0952635	0.427489	0.00660607	-0.00323146	-0.799084
85	-0.111493	-0.0201966	0.00618038	0.000836943	-0.0149384	-0.0409123	0.0216806	0.0285357	-0.000494982	-1.7015	0.151601	0.225339	0.0527149	-0.00295291	0.0154703	-2.33242	-0.0112484	-1.56773	0	0	0	0	-0	0	0	0	-0.1265	0	-0	0	0	0	0	0	-0	0	0.105	-0.015	0	0	-0	0	0	-0.098	0.1	0	-0	0	0	0	0	0	-0	0	0.05595	0	0	0	-0	0	0	0	0	0	-0	0	563.219	564.05	346.254	215.385	-0.0952986	0.427787	0.00660839	-0.00321621	-0.799747
86	-0.109137	-0.0201972	0.00618025	0.000836657	-0.0149389	-0.0409121	0.0216806	0.0285357	-0.00049497	-1.7015	0.1516	0.225341	0.0526783	-0.0029529	0.0155946	-2.33007	-0.0112752	-1.56777	0	0	0	0	-0	0	0	0	-0.1265	0	-0	0	0	0	0	0	-0	0	0.105	-0.015	0	0	-0	0	0	-0.098	0.1	0	-0	0	0	0	0	0	-0	0	0.05595	0	0	0	-0	0	0	0	0	0	-0	0	563.22	564.051	346.269	215.388	-0.0953401	0.427988	0.00661222	-0.00320801	-0.800115
87	-0.111644	-0.0201983	0.00618009	0.000836205	-0.0149399	-0.0409117	0.0216806	0.0285357	-0.000494944	-1.7015	0.151599	0.225344	0.0527173	-0.00295293	0.0154625	-2.33259	-0.0113102	-1.56778	0	0	0	0	-0	0	0	0	-0.1265	0	-0	0	0	0	0	0	-0	0	0.105	-0.015	0	0	-0	0	0	-0.098	0.1	0	-0	0	0	0	0	0	-0	0	0.05595	0	0	0	-0	0	0	0	0	0	-0	0	563.222	564.056	346.301	215.396	-0.0954102	0.428526	0.00661474	-0.00319146	-0.801249
88	-0.108775	-0.020199	0.00617998	0.00083588	-0.0149404	-0.0409116	0.0216806	0.0285357	-0.000494928	-1.7015	0.151599	0.225345	0.0526727	-0.00295293	0.0156139	-2.32973	-0.0113399	-1.56783	0	0	0	0	-0	0	0	0	-0.1265	0	-0	0	0	0	0	0	-0	0	0.105	-0.015	0	0	-0	0	0	-0.098	0.1	0	-0	0	0	0	0	0	-0	0	0.05595	0	0	0	-0	0	0	0	0	0	-0	0	563.223	564.058	346.317	215.4	-0.0954243	0.428567	0.00661765	-0.00318268	-0.801316
89	-0.106752	-0.0201994	0.00617989	0.000835701	-0.0149408	-0.0409114	0.0216806	0.0285357	-0.000494919	-1.7015	0.151598	0.225346	0.0526409	-0.00295293	0.0157204	-2.32771	-0.0113615	-1.56787	0	0	0	0	-0	0	0	0	-0.1265	0	-0	0	0	0	0	0	-0	0	0.105	-0.015	0	0	-0	0	0	-0.098	0.1	0	-0	0	0	0	0	0	-0	0	0.05595	0	0	0	-0	0	0	0	0	0	-0	0	563.224	564.06	346.329	215.403	-0.095444	0.42869	0.00661928	-0.00317634	-0.801569
90	-0.105824	-0.0202003	0.00617976	0.000835306	-0.0149416	-0.0409111	0.0216806	0.0285357	-0.000494898	-1.7015	0.151598	0.225349	0.0526261	-0.00295294	0.0157693	-2.32679	-0.0113984	-1.56791	0	0	0	0	-0	0	0	0	-0.1265	0	-0	0	0	0	0	0	-0	0	0.105	-0.015	0	0	-0	0	0	-0.098	0.1	0	-0	0	0	0	0	0	-0	0	0.05595	0	0	0	-0	0	0	0	0	0	-0	0	563.226	564.063	346.356	215.409	-0.0955125	0.429171	0.00662239	-0.00316301	-0.802554
91	-0.10674	-0.0202005	0.00617968	0.000835171	-0.0149418	-0.040911	0.0216806	0.0285357	-0.000494893	-1.7015	0.151597	0.22535	0.0526406	-0.00295293	0.0157211	-2.32771	-0.0114003	-1.5679	0	0	0	0	-0	0	0	0	-0.1265	0	-0	0	0	0	0	0	-0	0	0.105	-0.015	0	0	-0	0	0	-0.098	0.1	0	-0	0	0	0	0	0	-0	0	0.05595	0	0	0	-0	0	0	0	0	0	-0	0	563.226	564.064	346.359	215.41	-0.095524	0.429177	0.00662437	-0.00316053	-0.802532
92	-0.108299	-0.0202008	0.00617966	0.000835069	-0.014942	-0.040911	0.0216806	0.0285357	-0.000494887	-1.7015	0.151597	0.22535	0.052665	-0.00295294	0.0156391	-2.32927	-0.0114054	-1.56789	0	0	0	0	-0	0	0	0	-0.1265	0	-0	0	0	0	0	0	-0	0	0.105	-0.015	0	0	-0	0	0	-0.098	0.1	0	-0	0	0	0	0	0	-0	0	0.05595	0	0	0	-0	0	0	0	0	0	-0	0	563.226	564.064	346.367	215.412	-0.0955261	0.429205	0.00662503	-0.00315683	-0.80261
93	-0.109044	-0.0202011	0.00617961	0.000834884	-0.0149423	-0.0409109	0.0216806	0.0285357	-0.000494876	-1.7015	0.151597	0.225351	0.0526766	-0.00295294	0.0155999	-2.33002	-0.0114174	-1.56789	0	0	0	0	-0	0	0	0	-0.1265	0	-0	0	0	0	0	0	-0	0	0.105	-0.015	0	0	-0	0	0	-0.098	0.1	0	-0	0	0	0	0	0	-0	0	0.05595	0	0	0	-0	0	0	0	0	0	-0	0	563.227	564.066	346.377	215.414	-0.0955361	0.429281	0.00662602	-0.00315127	-0.802773
94	-0.108283	-0.0202012	0.00617958	0.000834809	-0.0149424	-0.0409108	0.0216806	0.0285357	-0.000494872	-1.7015	0.151597	0.225351	0.0526647	-0.00295294	0.01564	-2.32926	-0.0114216	-1.5679	0	0	0	0	-0	0	0	0	-0.1265	0	-0	0	0	0	0	0	-0	0	0.105	-0.015	0	0	-0	0	0	-0.098	0.1	0	-0	0	0	0	0	0	-0	0	0.05595	0	0	0	-0	0	0	0	0	0	-0	0	563.227	564.066	346.379	215.414	-0.0955452	0.429315	0.00662673	-0.00315023	-0.802826
95	-0.108568	-0.0202013	0.00617957	0.000834781	-0.0149425	-0.0409108	0.0216806	0.0285357	-0.000494871	-1.7015	0.151597	0.225352	0.0526691	-0.00295294	0.015625	-2.32955	-0.0114247	-1.56791	0	0	0	0	-0	0	0	0	-0.1265	0	-0	0	0	0	0	0	-0	0	0.105	-0.015	0	0	-0	0	0	-0.098	0.1	0	-0	0	0	0	0	0	-0	0	0.05595	0	0	0	-0	0	0	0	0	0	-0	0	563.227	564.066	346.382	215.415	-0.0955492	0.429346	0.0066271	-0.0031487	-0.802894
96	-0.109841	-0.0202015	0.00617954	0.000834719	-0.0149426	-0.0409107	0.0216806	0.0285358	-0.000494868	-1.7015	0.151596	0.225352	0.052689	-0.00295294	0.015558	-2.33082	-0.011427	-1.5679	0	0	0	0	-0	0	0	0	-0.1265	0	-0	0	0	0	0	0	-0	0	0.105	-0.015	0	0	-0	0	0	-0.098	0.1	0	-0	0	0	0	0	0	-0	0	0.05595	0	0	0	-0	0	0	0	0	0	-0	0	563.227	564.067	346.387	215.416	-0.0955631	0.42944	0.00662773	-0.00314635	-0.803085
97	-0.108365	-0.0202018	0.00617949	0.000834633	-0.0149428	-0.0409106	0.0216806	0.0285358	-0.000494864	-1.7015	0.151596	0.225352	0.052666	-0.00295295	0.0156358	-2.32935	-0.0114401	-1.56792	0	0	0	0	-0	0	0	0	-0.1265	0	-0	0	0	0	0	0	-0	0	0.105	-0.015	0	0	-0	0	0	-0.098	0.1	0	-0	0	0	0	0	0	-0	0	0.05595	0	0	0	-0	0	0	0	0	0	-0	0	563.228	564.068	346.393	215.418	-0.0955836	0.429581	0.00662849	-0.00314286	-0.803369
98	-0.109119	-0.0202021	0.00617946	0.000834465	-0.0149431	-0.0409105	0.0216806	0.0285358	-0.000494855	-1.7015	0.151596	0.225353	0.0526777	-0.00295295	0.0155961	-2.33011	-0.0114511	-1.56792	0	0	0	0	-0	0	0	0	-0.1265	0	-0	0	0	0	0	0	-0	0	0.105	-0.015	0	0	-0	0	0	-0.098	0.1	0	-0	0	0	0	0	0	-0	0	0.05595	0	0	0	-0	0	0	0	0	0	-0	0	563.228	564.069	346.403	215.42	-0.0955909	0.429636	0.00662981	-0.00313774	-0.803497
99	-0.110652	-0.0202026	0.00617937	0.000834247	-0.0149435	-0.0409104	0.0216806	0.0285358	-0.000494841	-1.7015	0.151595	0.225354	0.0527016	-0.00295297	0.0155153	-2.33165	-0.0114662	-1.56792	0	0	0	0	-0	0	0	0	-0.1265	0	-0	0	0	0	0	0	-0	0	0.105	-0.015	0	0	-0	0	0	-0.098	0.1	0	-0	0	0	0	0	0	-0	0	0.05595	0	0	0	-0	0	0	0	0	0	-0	0	563.229	564.071	346.418	215.424	-0.0956244	0.429901	0.00663058	-0.0031301	-0.804059
100	-0.114012	-0.0202034	0.0061793	0.000833959	-0.0149442	-0.0409102	0.0216805	0.0285358	-0.000494824	-1.7015	0.151595	0.225355	0.0527536	-0.00295297	0.0153385	-2.33502	-0.0114853	-1.56791	0	0	0	0	-0	0	0	0	-0.1265	0	-0	0	0	0	0	0	-0	0	0.105	-0.015	0	0	-0	0	0	-0.098	0.1	0	-0	0	0	0	0	0	-0	0	0.05595	0	0	0	-0	0	0	0	0	0	-0	0	563.231	564.075	346.44	215.429	-0.0956442	0.430071	0.00663175	-0.00311892	-0.804436
