Stefan210/kinematic_calibration/src/kinematic_calibration/validation/experiments/experiments/impact_noise/outlier/larm_randomize_9_measurements_rk_true/optimization_intermediate_results.csv
iteration	HeadPitch_offset	HeadYaw_offset	LElbowRoll_offset	LElbowYaw_offset	LShoulderPitch_offset	LShoulderRoll_offset	marker_transform_larm_tx	marker_transform_larm_ty	marker_transform_larm_tz	marker_transform_larm_rr	marker_transform_larm_rp	marker_transform_larm_ry	camera_transform_tx	camera_transform_ty	camera_transform_tz	camera_transform_rr	camera_transform_rp	camera_transform_ry	HeadPitch_transform_tx	HeadPitch_transform_ty	HeadPitch_transform_tz	HeadPitch_transform_rr	HeadPitch_transform_rp	HeadPitch_transform_ry	HeadYaw_transform_tx	HeadYaw_transform_ty	HeadYaw_transform_tz	HeadYaw_transform_rr	HeadYaw_transform_rp	HeadYaw_transform_ry	LElbowRoll_transform_tx	LElbowRoll_transform_ty	LElbowRoll_transform_tz	LElbowRoll_transform_rr	LElbowRoll_transform_rp	LElbowRoll_transform_ry	LElbowYaw_transform_tx	LElbowYaw_transform_ty	LElbowYaw_transform_tz	LElbowYaw_transform_rr	LElbowYaw_transform_rp	LElbowYaw_transform_ry	LShoulderPitch_transform_tx	LShoulderPitch_transform_ty	LShoulderPitch_transform_tz	LShoulderPitch_transform_rr	LShoulderPitch_transform_rp	LShoulderPitch_transform_ry	LShoulderRoll_transform_tx	LShoulderRoll_transform_ty	LShoulderRoll_transform_tz	LShoulderRoll_transform_rr	LShoulderRoll_transform_rp	LShoulderRoll_transform_ry	LWristYaw_transform_tx	LWristYaw_transform_ty	LWristYaw_transform_tz	LWristYaw_transform_rr	LWristYaw_transform_rp	LWristYaw_transform_ry	l_wrist_joint_transform_tx	l_wrist_joint_transform_ty	l_wrist_joint_transform_tz	l_wrist_joint_transform_rr	l_wrist_joint_transform_rp	l_wrist_joint_transform_ry	camera_fx	camera_fy	camera_cx	camera_cy	camera_D0	camera_D1	camera_D2	camera_D3	camera_D4	
0	0.0249164	-0.0307543	0.000853157	4.65819e-06	-0.000318322	-0.00310766	0.05071	0	0.01774	-2.26369	1.66533e-16	-1.5708	545.901	551.038	324.928	201.58	0.0255298	2.61142	-0.0636736	-0.0350419	0.213964
1	-0.0143261	0.0400588	0.0279195	0.0112923	0.0370175	0.0209416	0.0266642	-0.0298673	0.00150524	-7.7541e-05	-0.000377083	-0.0028063	0.0531872	-0.000310146	0.014912	-2.20524	-0.0211795	-1.60683	0	0	0	0	-0	0	0	0	-0.1265	0	-0	0	0	0	0	0	-0	0	0.105	0.015	0	0	-0	0	0	0.098	0.1	0	-0	0	0	0	0	0	-0	0	0.05595	0	0	0	-0	0	0	0	0	0	-0	0	545.901	551.039	324.928	201.58	0.0157853	2.6069	-0.0560462	0.0763516	0.213004
2	-0.017244	0.0285074	0.026127	0.0340267	0.00962248	0.0330434	0.0259812	-0.0302613	0.00286366	-0.000239045	-0.000520194	-0.00293837	0.0534977	-0.000513025	0.0153443	-2.19383	-0.0095545	-1.56906	0	0	0	0	-0	0	0	0	-0.1265	0	-0	0	0	0	0	0	-0	0	0.105	0.015	0	0	-0	0	0	0.098	0.1	0	-0	0	0	0	0	0	-0	0	0.05595	0	0	0	-0	0	0	0	0	0	-0	0	545.914	551.038	324.917	201.595	-0.339281	2.3216	-0.0171145	-0.000725654	0.126294
3	-0.017293	0.023747	0.023407	0.0411795	0.00338306	0.0334646	0.0257192	-0.0302478	0.0032419	-0.000274053	-0.000545136	-0.00298099	0.055	-0.00111474	0.0142543	-2.19316	-0.00249253	-1.558	0	0	0	0	-0	0	0	0	-0.1265	0	-0	0	0	0	0	0	-0	0	0.105	0.015	0	0	-0	0	0	0.098	0.1	0	-0	0	0	0	0	0	-0	0	0.05595	0	0	0	-0	0	0	0	0	0	-0	0	545.957	551.032	324.911	201.625	-0.370667	1.71927	-0.0103093	-0.00804064	-0.0784778
4	-0.016857	0.0195628	0.0206534	0.0454569	0.00313579	0.0341324	0.0255183	-0.0301627	0.00357052	-0.000235549	-0.000488174	-0.00306335	0.054689	-0.00116593	0.0147546	-2.1952	0.00197972	-1.55097	0	0	0	0	-0	0	0	0	-0.1265	0	-0	0	0	0	0	0	-0	0	0.105	0.015	0	0	-0	0	0	0.098	0.1	0	-0	0	0	0	0	0	-0	0	0.05595	0	0	0	-0	0	0	0	0	0	-0	0	546.044	551.013	324.918	201.66	-0.153545	0.764717	-0.0139564	-0.00960945	-0.416915
5	-0.0163709	0.0178668	0.0190505	0.0460198	0.00349468	0.0347044	0.0253981	-0.0300879	0.00363327	-0.000413009	-0.00047694	-0.00319392	0.0541315	-0.00107054	0.0155291	-2.19701	0.0037886	-1.54878	0	0	0	0	-0	0	0	0	-0.1265	0	-0	0	0	0	0	0	-0	0	0.105	0.015	0	0	-0	0	0	0.098	0.1	0	-0	0	0	0	0	0	-0	0	0.05595	0	0	0	-0	0	0	0	0	0	-0	0	546.237	550.961	324.944	201.674	0.0451984	0.0138602	-0.0183818	-0.00986427	-0.614667
6	-0.0161766	0.0175143	0.018424	0.0455537	0.00364709	0.0348693	0.0253523	-0.0300525	0.00361406	-0.000609871	-0.000758472	-0.00355047	0.0537866	-0.00100259	0.0160619	-2.19827	0.00412698	-1.54851	0	0	0	0	-0	0	0	0	-0.1265	0	-0	0	0	0	0	0	-0	0	0.105	0.015	0	0	-0	0	0	0.098	0.1	0	-0	0	0	0	0	0	-0	0	0.05595	0	0	0	-0	0	0	0	0	0	-0	0	546.76	550.82	324.946	201.696	0.146267	-0.431944	-0.0197998	-0.00998158	-0.417232
7	-0.015656	0.0179343	0.0181058	0.0451631	0.00346928	0.0347891	0.0253274	-0.0300322	0.00359593	-0.000583701	-0.000404605	-0.00391999	0.0533882	-0.000987316	0.0166374	-2.19893	0.00405101	-1.54887	0	0	0	0	-0	0	0	0	-0.1265	0	-0	0	0	0	0	0	-0	0	0.105	0.015	0	0	-0	0	0	0.098	0.1	0	-0	0	0	0	0	0	-0	0	0.05595	0	0	0	-0	0	0	0	0	0	-0	0	548.152	550.484	324.834	201.754	0.201136	-0.887496	-0.0167968	-0.0101641	0.476772
8	-0.0174537	0.018479	0.0178818	0.0450345	0.00325732	0.0346844	0.025308	-0.030021	0.00360701	0.000583784	-0.00303137	-0.00482001	0.0527005	-0.00100738	0.0174555	-2.20249	0.00427694	-1.54882	0	0	0	0	-0	0	0	0	-0.1265	0	-0	0	0	0	0	0	-0	0	0.105	0.015	0	0	-0	0	0	0.098	0.1	0	-0	0	0	0	0	0	-0	0	0.05595	0	0	0	-0	0	0	0	0	0	-0	0	551.276	550.008	324.455	201.863	0.257696	-1.66144	-0.00838974	-0.0105996	2.56048
9	-0.0341115	0.0190217	0.0176558	0.0451471	0.00306109	0.0345728	0.0252878	-0.0300228	0.00365346	0.0233643	-0.0173201	-0.0186048	0.0519496	-0.00105364	0.0178714	-2.22166	0.00559661	-1.54794	0	0	0	0	-0	0	0	0	-0.1265	0	-0	0	0	0	0	0	-0	0	0.105	0.015	0	0	-0	0	0	0.098	0.1	0	-0	0	0	0	0	0	-0	0	0.05595	0	0	0	-0	0	0	0	0	0	-0	0	556.353	550.592	323.492	202.013	0.325026	-2.74317	0.00261218	-0.0113489	5.82632
10	-0.0140226	0.0191971	0.0175707	0.0456221	0.00307619	0.0345006	0.0252917	-0.0300198	0.00369693	0.000455886	0.0145692	-0.0337679	0.0509102	-0.00112294	0.0197785	-2.20342	0.00657016	-1.54642	0	0	0	0	-0	0	0	0	-0.1265	0	-0	0	0	0	0	0	-0	0	0.105	0.015	0	0	-0	0	0	0.098	0.1	0	-0	0	0	0	0	0	-0	0	0.05595	0	0	0	-0	0	0	0	0	0	-0	0	560.412	552.6	322.416	202.187	0.364039	-3.42968	0.0071544	-0.0118267	8.24225
11	-0.0385302	0.0197817	0.0174506	0.0451636	0.00275681	0.0343768	0.0252588	-0.0300216	0.00367591	0.021968	-0.00955773	-0.0466193	0.0508817	-0.00112797	0.0190957	-2.23053	0.00849132	-1.54535	0	0	0	0	-0	0	0	0	-0.1265	0	-0	0	0	0	0	0	-0	0	0.105	0.015	0	0	-0	0	0	0.098	0.1	0	-0	0	0	0	0	0	-0	0	0.05595	0	0	0	-0	0	0	0	0	0	-0	0	564.02	556.124	321.022	202.954	0.373612	-3.79595	0.00898832	-0.0124635	9.78229
12	-0.0334757	0.0197891	0.017447	0.0454679	0.00284922	0.034386	0.0252574	-0.0300255	0.00369517	0.00515311	-0.00622251	-0.0538623	0.0506689	-0.00114916	0.0194734	-2.2261	0.00875588	-1.54497	0	0	0	0	-0	0	0	0	-0.1265	0	-0	0	0	0	0	0	-0	0	0.105	0.015	0	0	-0	0	0	0.098	0.1	0	-0	0	0	0	0	0	-0	0	0.05595	0	0	0	-0	0	0	0	0	0	-0	0	564.905	557.081	320.769	203.175	0.378903	-3.87812	0.00837884	-0.0125196	10.1892
13	-0.0390234	0.0199577	0.0173989	0.0455182	0.00279872	0.0343595	0.0252505	-0.0300306	0.00369818	0.0303363	-0.0077327	-0.0497059	0.0506539	-0.00115547	0.0193266	-2.23263	0.00924836	-1.54475	0	0	0	0	-0	0	0	0	-0.1265	0	-0	0	0	0	0	0	-0	0	0.105	0.015	0	0	-0	0	0	0.098	0.1	0	-0	0	0	0	0	0	-0	0	0.05595	0	0	0	-0	0	0	0	0	0	-0	0	565.919	558.317	320.422	203.56	0.38034	-3.95044	0.00822859	-0.0126575	10.558
14	-0.0416595	0.0200922	0.0173404	0.0455884	0.00276793	0.034339	0.025255	-0.0300288	0.00370105	0.0255388	-0.0248398	-0.0317642	0.0505809	-0.00116224	0.0193304	-2.23681	0.00987422	-1.54429	0	0	0	0	-0	0	0	0	-0.1265	0	-0	0	0	0	0	0	-0	0	0.105	0.015	0	0	-0	0	0	0.098	0.1	0	-0	0	0	0	0	0	-0	0	0.05595	0	0	0	-0	0	0	0	0	0	-0	0	567.169	559.957	319.927	204.231	0.377606	-3.99332	0.00780488	-0.0128747	10.8942
15	-0.0606584	0.020131	0.0173281	0.045611	0.00278145	0.0343653	0.0252592	-0.0300322	0.00371493	0.0238568	-0.00157539	-0.00992822	0.0508801	-0.00116681	0.0184445	-2.25698	0.0108199	-1.54411	0	0	0	0	-0	0	0	0	-0.1265	0	-0	0	0	0	0	0	-0	0	0.105	0.015	0	0	-0	0	0	0.098	0.1	0	-0	0	0	0	0	0	-0	0	0.05595	0	0	0	-0	0	0	0	0	0	-0	0	567.982	561.104	319.581	204.779	0.375363	-4.00588	0.0072134	-0.0129544	11.0842
16	-0.0778696	0.0201822	0.0172762	0.0457469	0.00279321	0.0344035	0.025248	-0.0300284	0.00372245	0.0378433	-0.0151228	-0.0205529	0.0510867	-0.00117664	0.0176798	-2.27684	0.0121885	-1.54349	0	0	0	0	-0	0	0	0	-0.1265	0	-0	0	0	0	0	0	-0	0	0.105	0.015	0	0	-0	0	0	0.098	0.1	0	-0	0	0	0	0	0	-0	0	0.05595	0	0	0	-0	0	0	0	0	0	-0	0	569.433	563.141	318.873	206.101	0.366103	-3.99314	0.00645115	-0.0132481	11.344
17	-0.0743767	0.0202386	0.0172473	0.0457449	0.00277707	0.03438	0.0252462	-0.0300282	0.00371634	0.0416254	-0.00614094	-0.00598658	0.0509845	-0.00117821	0.017889	-2.27405	0.0122801	-1.5433	0	0	0	0	-0	0	0	0	-0.1265	0	-0	0	0	0	0	0	-0	0	0.105	0.015	0	0	-0	0	0	0.098	0.1	0	-0	0	0	0	0	0	-0	0	0.05595	0	0	0	-0	0	0	0	0	0	-0	0	569.805	563.69	318.703	206.463	0.364452	-3.99362	0.00623528	-0.0133503	11.4249
18	-0.0894448	0.0202859	0.0172197	0.0457737	0.00277548	0.0343732	0.0252449	-0.0300313	0.00371666	0.0588738	0.00525543	-0.00989263	0.051206	-0.00118103	0.0171697	-2.29059	0.0131028	-1.54315	0	0	0	0	-0	0	0	0	-0.1265	0	-0	0	0	0	0	0	-0	0	0.105	0.015	0	0	-0	0	0	0.098	0.1	0	-0	0	0	0	0	0	-0	0	0.05595	0	0	0	-0	0	0	0	0	0	-0	0	570.497	564.673	318.371	207.216	0.35898	-3.9825	0.00594726	-0.0135021	11.5523
19	-0.0872689	0.0203662	0.0171851	0.0457469	0.00276405	0.0343647	0.0252456	-0.030034	0.00371274	0.0404053	-0.0108859	-0.00492493	0.0511143	-0.0011827	0.0173354	-2.29055	0.0135719	-1.5427	0	0	0	0	-0	0	0	0	-0.1265	0	-0	0	0	0	0	0	-0	0	0.105	0.015	0	0	-0	0	0	0.098	0.1	0	-0	0	0	0	0	0	-0	0	0.05595	0	0	0	-0	0	0	0	0	0	-0	0	571.362	565.909	317.926	208.333	0.350636	-3.95976	0.0057051	-0.0137053	11.6995
20	-0.100685	0.0203582	0.0171803	0.0457778	0.00278725	0.0343807	0.0252382	-0.0300269	0.00371378	0.0344897	-0.00857155	-0.00766292	0.0513219	-0.00118446	0.0166716	-2.305	0.0142091	-1.54268	0	0	0	0	-0	0	0	0	-0.1265	0	-0	0	0	0	0	0	-0	0	0.105	0.015	0	0	-0	0	0	0.098	0.1	0	-0	0	0	0	0	0	-0	0	0.05595	0	0	0	-0	0	0	0	0	0	-0	0	571.751	566.493	317.74	208.888	0.34849	-3.95373	0.00536227	-0.0137466	11.7869
21	-0.100397	0.0204282	0.0171597	0.0457369	0.00274531	0.0343473	0.0252339	-0.0300243	0.00370768	0.0415639	-0.00776103	-0.00187784	0.0513001	-0.00118305	0.0166982	-2.30513	0.0142443	-1.54266	0	0	0	0	-0	0	0	0	-0.1265	0	-0	0	0	0	0	0	-0	0	0.105	0.015	0	0	-0	0	0	0.098	0.1	0	-0	0	0	0	0	0	-0	0	0.05595	0	0	0	-0	0	0	0	0	0	-0	0	571.907	566.729	317.664	209.114	0.3465	-3.95078	0.00544166	-0.0138194	11.821
22	-0.0979424	0.020444	0.0171464	0.0457678	0.00273928	0.034341	0.0252356	-0.0300282	0.00370889	0.0335127	-0.0111459	-0.0187832	0.0512449	-0.00118314	0.016836	-2.30324	0.0142912	-1.54254	0	0	0	0	-0	0	0	0	-0.1265	0	-0	0	0	0	0	0	-0	0	0.105	0.015	0	0	-0	0	0	0.098	0.1	0	-0	0	0	0	0	0	-0	0	0.05595	0	0	0	-0	0	0	0	0	0	-0	0	572.122	567.033	317.568	209.419	0.344233	-3.94605	0.00540054	-0.0138811	11.8692
23	-0.105509	0.0204384	0.0171516	0.0457707	0.00275434	0.0343472	0.0252349	-0.0300275	0.00371005	0.0231111	-0.0170593	-0.0269514	0.0513642	-0.0011845	0.0164562	-2.31124	0.0146051	-1.54257	0	0	0	0	-0	0	0	0	-0.1265	0	-0	0	0	0	0	0	-0	0	0.105	0.015	0	0	-0	0	0	0.098	0.1	0	-0	0	0	0	0	0	-0	0	0.05595	0	0	0	-0	0	0	0	0	0	-0	0	572.275	567.256	317.501	209.648	0.343182	-3.94323	0.00529202	-0.0138914	11.904
24	-0.119113	0.0204656	0.0171393	0.0457874	0.00274815	0.0343427	0.0252337	-0.0300228	0.0037109	0.0174485	-0.00152814	-0.0279254	0.0515688	-0.00118631	0.0157763	-2.32583	0.0151738	-1.54263	0	0	0	0	-0	0	0	0	-0.1265	0	-0	0	0	0	0	0	-0	0	0.105	0.015	0	0	-0	0	0	0.098	0.1	0	-0	0	0	0	0	0	-0	0	0.05595	0	0	0	-0	0	0	0	0	0	-0	0	572.612	567.723	317.35	210.18	0.339462	-3.93558	0.00529099	-0.0139815	11.9804
25	-0.125477	0.020499	0.017133	0.0457581	0.00272671	0.0343287	0.0252315	-0.0300236	0.00370747	0.024421	0.00493261	-0.0239368	0.0516564	-0.00118556	0.0154571	-2.33268	0.0154181	-1.54269	0	0	0	0	-0	0	0	0	-0.1265	0	-0	0	0	0	0	0	-0	0	0.105	0.015	0	0	-0	0	0	0.098	0.1	0	-0	0	0	0	0	0	-0	0	0.05595	0	0	0	-0	0	0	0	0	0	-0	0	572.771	567.956	317.28	210.444	0.337639	-3.93187	0.00530166	-0.0140072	12.0187
26	-0.1247	0.0205084	0.0171267	0.0457928	0.00272648	0.0343289	0.0252334	-0.0300259	0.00370925	0.0187324	-0.00261903	-0.0106124	0.0516309	-0.00118667	0.0155089	-2.33262	0.0155202	-1.54259	0	0	0	0	-0	0	0	0	-0.1265	0	-0	0	0	0	0	0	-0	0	0.105	0.015	0	0	-0	0	0	0.098	0.1	0	-0	0	0	0	0	0	-0	0	0.05595	0	0	0	-0	0	0	0	0	0	-0	0	573.006	568.277	317.186	210.833	0.334978	-3.92624	0.00529011	-0.0140613	12.0763
27	-0.113496	0.0204975	0.01713	0.0458193	0.00274392	0.0343387	0.0252315	-0.030024	0.00371329	0.0248273	-0.0107108	-0.0164999	0.0514487	-0.00118851	0.0160949	-2.32195	0.0153039	-1.54234	0	0	0	0	-0	0	0	0	-0.1265	0	-0	0	0	0	0	0	-0	0	0.105	0.015	0	0	-0	0	0	0.098	0.1	0	-0	0	0	0	0	0	-0	0	0.05595	0	0	0	-0	0	0	0	0	0	-0	0	573.171	568.507	317.123	211.123	0.333618	-3.9237	0.00521693	-0.014078	12.1226
28	-0.113182	0.0205486	0.0171119	0.0458528	0.00272561	0.0343273	0.025227	-0.0300246	0.00371712	-0.0114408	0.0260412	-0.0176596	0.0514121	-0.00119225	0.0161401	-2.32386	0.0156029	-1.54209	0	0	0	0	-0	0	0	0	-0.1265	0	-0	0	0	0	0	0	-0	0	0.105	0.015	0	0	-0	0	0	0.098	0.1	0	-0	0	0	0	0	0	-0	0	0.05595	0	0	0	-0	0	0	0	0	0	-0	0	573.809	569.343	316.866	212.341	0.324917	-3.90754	0.0054785	-0.014261	12.2911
29	-0.111737	0.020545	0.0170988	0.0459329	0.00272343	0.0343312	0.0252286	-0.0300282	0.00371953	-0.0300168	0.0241337	-0.0193664	0.0513775	-0.00119199	0.0162202	-2.32289	0.0156074	-1.54203	0	0	0	0	-0	0	0	0	-0.1265	0	-0	0	0	0	0	0	-0	0	0.105	0.015	0	0	-0	0	0	0.098	0.1	0	-0	0	0	0	0	0	-0	0	0.05595	0	0	0	-0	0	0	0	0	0	-0	0	573.963	569.538	316.832	212.613	0.323143	-3.9059	0.00546452	-0.0142843	12.3486
30	-0.107259	0.0205648	0.0170982	0.0459472	0.00273603	0.0343298	0.0252347	-0.0300328	0.0037164	-0.0196592	0.0237137	0.00341063	0.0512819	-0.00119613	0.0164736	-2.32034	0.0156371	-1.54185	0	0	0	0	-0	0	0	0	-0.1265	0	-0	0	0	0	0	0	-0	0	0.105	0.015	0	0	-0	0	0	0.098	0.1	0	-0	0	0	0	0	0	-0	0	0.05595	0	0	0	-0	0	0	0	0	0	-0	0	574.464	570.185	316.711	213.676	0.317133	-3.90267	0.00568841	-0.0143745	12.5266
31	-0.105815	0.0205663	0.0171184	0.0458682	0.00275406	0.0343256	0.0252307	-0.030028	0.0037121	-0.0078327	0.0202553	0.0110456	0.0512556	-0.0011963	0.0165517	-2.31918	0.015605	-1.54185	0	0	0	0	-0	0	0	0	-0.1265	0	-0	0	0	0	0	0	-0	0	0.105	0.015	0	0	-0	0	0	0.098	0.1	0	-0	0	0	0	0	0	-0	0	0.05595	0	0	0	-0	0	0	0	0	0	-0	0	574.521	570.278	316.706	213.824	0.317466	-3.90418	0.00560348	-0.0143076	12.5539
32	-0.10627	0.0206013	0.017105	0.0458747	0.00272718	0.0343146	0.0252301	-0.0300261	0.00371491	-0.00144412	0.0139295	-0.00110409	0.0512582	-0.00119456	0.0165323	-2.31999	0.0155984	-1.54189	0	0	0	0	-0	0	0	0	-0.1265	0	-0	0	0	0	0	0	-0	0	0.105	0.015	0	0	-0	0	0	0.098	0.1	0	-0	0	0	0	0	0	-0	0	0.05595	0	0	0	-0	0	0	0	0	0	-0	0	574.607	570.401	316.697	214.024	0.315793	-3.90314	0.00570964	-0.0143273	12.5909
33	-0.112754	0.0205864	0.0170964	0.0459479	0.00274157	0.0343299	0.025234	-0.0300257	0.00371745	0.00205263	0.0294647	-0.0111213	0.0513556	-0.00119601	0.0162058	-2.32725	0.0158162	-1.54196	0	0	0	0	-0	0	0	0	-0.1265	0	-0	0	0	0	0	0	-0	0	0.105	0.015	0	0	-0	0	0	0.098	0.1	0	-0	0	0	0	0	0	-0	0	0.05595	0	0	0	-0	0	0	0	0	0	-0	0	574.803	570.647	316.688	214.462	0.313354	-3.90297	0.00578429	-0.014351	12.6744
34	-0.117182	0.0205887	0.0171073	0.0459176	0.00274935	0.0343299	0.0252322	-0.0300241	0.00371378	0.00918431	0.0138984	-0.00179475	0.0514231	-0.0011969	0.0159821	-2.33207	0.0159443	-1.54205	0	0	0	0	-0	0	0	0	-0.1265	0	-0	0	0	0	0	0	-0	0	0.105	0.015	0	0	-0	0	0	0.098	0.1	0	-0	0	0	0	0	0	-0	0	0.05595	0	0	0	-0	0	0	0	0	0	-0	0	574.89	570.769	316.691	214.681	0.312527	-3.90295	0.00580235	-0.0143233	12.712
35	-0.125205	0.0206183	0.0171053	0.0458902	0.00273044	0.0343168	0.0252282	-0.0300231	0.00371309	0.00521354	0.0149689	-0.00128051	0.0515477	-0.00119584	0.0155735	-2.34039	0.0161445	-1.54222	0	0	0	0	-0	0	0	0	-0.1265	0	-0	0	0	0	0	0	-0	0	0.105	0.015	0	0	-0	0	0	0.098	0.1	0	-0	0	0	0	0	0	-0	0	0.05595	0	0	0	-0	0	0	0	0	0	-0	0	574.957	570.858	316.694	214.845	0.311226	-3.90184	0.00590765	-0.0143259	12.7385
36	-0.122717	0.020645	0.0170956	0.045912	0.00271751	0.0343077	0.0252268	-0.030023	0.00371329	-0.00158193	0.0183131	-0.00642819	0.0514958	-0.00119684	0.0157117	-2.33914	0.0160353	-1.54221	0	0	0	0	-0	0	0	0	-0.1265	0	-0	0	0	0	0	0	-0	0	0.105	0.015	0	0	-0	0	0	0.098	0.1	0	-0	0	0	0	0	0	-0	0	0.05595	0	0	0	-0	0	0	0	0	0	-0	0	575.235	571.21	316.708	215.537	0.306521	-3.89735	0.00619901	-0.0143733	12.8466
37	-0.124805	0.0206508	0.017093	0.045919	0.00271162	0.034302	0.025226	-0.0300223	0.00371413	-0.00143651	0.0179626	-0.0068182	0.0515273	-0.00119552	0.0156031	-2.34127	0.0160819	-1.54227	0	0	0	0	-0	0	0	0	-0.1265	0	-0	0	0	0	0	0	-0	0	0.105	0.015	0	0	-0	0	0	0.098	0.1	0	-0	0	0	0	0	0	-0	0	0.05595	0	0	0	-0	0	0	0	0	0	-0	0	575.248	571.225	316.71	215.564	0.305987	-3.89549	0.00620703	-0.0143623	12.8523
38	-0.125482	0.0206506	0.0170906	0.0459382	0.00271166	0.034304	0.0252258	-0.0300222	0.00371558	-0.00480367	0.0208208	-0.00788001	0.0515358	-0.00119543	0.015569	-2.34207	0.016092	-1.54229	0	0	0	0	-0	0	0	0	-0.1265	0	-0	0	0	0	0	0	-0	0	0.105	0.015	0	0	-0	0	0	0.098	0.1	0	-0	0	0	0	0	0	-0	0	0.05595	0	0	0	-0	0	0	0	0	0	-0	0	575.28	571.261	316.718	215.636	0.305353	-3.89452	0.00623582	-0.0143631	12.8656
39	-0.127895	0.0206507	0.01709	0.0459512	0.00271309	0.0343057	0.0252262	-0.0300225	0.00371664	-0.00799258	0.0175611	-0.00645632	0.0515707	-0.00119581	0.0154468	-2.34468	0.0161462	-1.54234	0	0	0	0	-0	0	0	0	-0.1265	0	-0	0	0	0	0	0	-0	0	0.105	0.015	0	0	-0	0	0	0.098	0.1	0	-0	0	0	0	0	0	-0	0	0.05595	0	0	0	-0	0	0	0	0	0	-0	0	575.33	571.316	316.73	215.746	0.304591	-3.89418	0.00628273	-0.0143638	12.8866
40	-0.127277	0.0206508	0.0170906	0.0459597	0.00271682	0.0343076	0.0252273	-0.0300227	0.00371713	-0.0102243	0.0100431	-0.00271452	0.0515568	-0.00119656	0.0154828	-2.34438	0.0161029	-1.54235	0	0	0	0	-0	0	0	0	-0.1265	0	-0	0	0	0	0	0	-0	0	0.105	0.015	0	0	-0	0	0	0.098	0.1	0	-0	0	0	0	0	0	-0	0	0.05595	0	0	0	-0	0	0	0	0	0	-0	0	575.409	571.406	316.751	215.925	0.303472	-3.89395	0.00635821	-0.0143613	12.9195
41	-0.133118	0.0206488	0.0170926	0.0459672	0.00272458	0.0343109	0.0252279	-0.0300241	0.00371843	-0.00887257	0.00828292	-0.0126928	0.051642	-0.00119758	0.0151866	-2.35069	0.0162272	-1.54248	0	0	0	0	-0	0	0	0	-0.1265	0	-0	0	0	0	0	0	-0	0	0.105	0.015	0	0	-0	0	0	0.098	0.1	0	-0	0	0	0	0	0	-0	0	0.05595	0	0	0	-0	0	0	0	0	0	-0	0	575.517	571.533	316.786	216.189	0.301888	-3.89303	0.00646047	-0.0143515	12.9645
42	-0.138021	0.0206506	0.0170947	0.0459654	0.00272733	0.0343111	0.0252271	-0.0300235	0.00371763	-0.0143065	0.0105447	-0.0168369	0.0517132	-0.00119797	0.0149357	-2.35583	0.0163371	-1.54259	0	0	0	0	-0	0	0	0	-0.1265	0	-0	0	0	0	0	0	-0	0	0.105	0.015	0	0	-0	0	0	0.098	0.1	0	-0	0	0	0	0	0	-0	0	0.05595	0	0	0	-0	0	0	0	0	0	-0	0	575.571	571.593	316.807	216.321	0.301016	-3.89264	0.00652315	-0.0143407	12.9887
43	-0.13704	0.0206639	0.0170934	0.0459551	0.00271793	0.0343041	0.0252265	-0.0300229	0.00371677	-0.017316	0.00867471	-0.0135504	0.0516967	-0.00119745	0.014988	-2.35495	0.0162839	-1.5426	0	0	0	0	-0	0	0	0	-0.1265	0	-0	0	0	0	0	0	-0	0	0.105	0.015	0	0	-0	0	0	0.098	0.1	0	-0	0	0	0	0	0	-0	0	0.05595	0	0	0	-0	0	0	0	0	0	-0	0	575.593	571.619	316.816	216.374	0.300419	-3.89213	0.00658167	-0.0143404	12.9984
44	-0.13486	0.0206638	0.0170915	0.0459683	0.00272015	0.0343054	0.0252267	-0.0300233	0.00371774	-0.0221627	0.00550628	-0.0175451	0.0516604	-0.00119774	0.0151038	-2.35306	0.0161856	-1.54259	0	0	0	0	-0	0	0	0	-0.1265	0	-0	0	0	0	0	0	-0	0	0.105	0.015	0	0	-0	0	0	0.098	0.1	0	-0	0	0	0	0	0	-0	0	0.05595	0	0	0	-0	0	0	0	0	0	-0	0	575.661	571.695	316.844	216.536	0.299302	-3.89135	0.00666002	-0.0143375	13.0266
45	-0.136388	0.0206647	0.0170923	0.0459766	0.00272441	0.0343066	0.0252267	-0.0300225	0.00371823	-0.0159145	-0.00394567	-0.0158143	0.0516788	-0.00119852	0.0150291	-2.35503	0.0161672	-1.54267	0	0	0	0	-0	0	0	0	-0.1265	0	-0	0	0	0	0	0	-0	0	0.105	0.015	0	0	-0	0	0	0.098	0.1	0	-0	0	0	0	0	0	-0	0	0.05595	0	0	0	-0	0	0	0	0	0	-0	0	575.759	571.808	316.892	216.785	0.297622	-3.88945	0.00677702	-0.0143275	13.0652
46	-0.138032	0.0206695	0.0170921	0.0459834	0.00272454	0.0343057	0.0252283	-0.0300236	0.00371943	-0.0194048	-0.0138386	-0.0207829	0.0516986	-0.00119896	0.0149485	-2.35711	0.0161413	-1.54276	0	0	0	0	-0	0	0	0	-0.1265	0	-0	0	0	0	0	0	-0	0	0.105	0.015	0	0	-0	0	0	0.098	0.1	0	-0	0	0	0	0	0	-0	0	0.05595	0	0	0	-0	0	0	0	0	0	-0	0	575.857	571.92	316.943	217.031	0.295843	-3.88778	0.00690624	-0.0143142	13.1064
47	-0.142693	0.0206578	0.0170952	0.0460008	0.0027386	0.034314	0.025228	-0.030025	0.00371958	-0.011637	-0.0159061	-0.0121878	0.051765	-0.0011998	0.0147096	-2.3621	0.0162247	-1.54287	0	0	0	0	-0	0	0	0	-0.1265	0	-0	0	0	0	0	0	-0	0	0.105	0.015	0	0	-0	0	0	0.098	0.1	0	-0	0	0	0	0	0	-0	0	0.05595	0	0	0	-0	0	0	0	0	0	-0	0	575.928	571.997	316.988	217.214	0.294688	-3.8861	0.00696998	-0.0142909	13.136
48	-0.14426	0.0206767	0.0170982	0.0459731	0.00272965	0.0343043	0.0252275	-0.0300237	0.00371809	-0.00895297	-0.0106201	-0.00883591	0.0517852	-0.00119974	0.0146322	-2.36391	0.0162049	-1.54296	0	0	0	0	-0	0	0	0	-0.1265	0	-0	0	0	0	0	0	-0	0	0.105	0.015	0	0	-0	0	0	0.098	0.1	0	-0	0	0	0	0	0	-0	0	0.05595	0	0	0	-0	0	0	0	0	0	-0	0	575.98	572.055	317.022	217.351	0.293567	-3.88522	0.00708658	-0.0142805	13.1572
49	-0.134933	0.0206769	0.017096	0.0459887	0.00273151	0.0343056	0.0252269	-0.0300231	0.00371915	-0.00802291	-0.0092863	-0.0065053	0.0516448	-0.00119992	0.0151182	-2.35495	0.0158717	-1.54286	0	0	0	0	-0	0	0	0	-0.1265	0	-0	0	0	0	0	0	-0	0	0.105	0.015	0	0	-0	0	0	0.098	0.1	0	-0	0	0	0	0	0	-0	0	0.05595	0	0	0	-0	0	0	0	0	0	-0	0	576.058	572.141	317.077	217.553	0.292003	-3.88294	0.00720007	-0.0142677	13.188
50	-0.142227	0.0206967	0.017098	0.0459612	0.00271874	0.034294	0.0252273	-0.0300244	0.00371676	-0.0163557	-0.0142847	-0.00243002	0.0517507	-0.00119981	0.0147446	-2.36251	0.0159992	-1.54305	0	0	0	0	-0	0	0	0	-0.1265	0	-0	0	0	0	0	0	-0	0	0.105	0.015	0	0	-0	0	0	0.098	0.1	0	-0	0	0	0	0	0	-0	0	0.05595	0	0	0	-0	0	0	0	0	0	-0	0	576.116	572.205	317.12	217.704	0.290588	-3.88088	0.00733678	-0.0142561	13.2086
51	-0.146515	0.0206943	0.0171011	0.0459658	0.0027287	0.0342967	0.0252287	-0.0300253	0.00371649	-0.0176266	-0.0183657	0.00928111	0.0518076	-0.00120066	0.0145268	-2.36739	0.015987	-1.54322	0	0	0	0	-0	0	0	0	-0.1265	0	-0	0	0	0	0	0	-0	0	0.105	0.015	0	0	-0	0	0	0.098	0.1	0	-0	0	0	0	0	0	-0	0	0.05595	0	0	0	-0	0	0	0	0	0	-0	0	576.234	572.339	317.22	218.034	0.288261	-3.87585	0.00750176	-0.014224	13.2478
52	-0.144984	0.0206902	0.0171032	0.0459679	0.00273572	0.0342993	0.0252275	-0.0300237	0.00371715	-0.0180159	-0.0137313	0.00622461	0.0517843	-0.00120041	0.0146057	-2.36594	0.015926	-1.54322	0	0	0	0	-0	0	0	0	-0.1265	0	-0	0	0	0	0	0	-0	0	0.105	0.015	0	0	-0	0	0	0.098	0.1	0	-0	0	0	0	0	0	-0	0	0.05595	0	0	0	-0	0	0	0	0	0	-0	0	576.252	572.357	317.236	218.08	0.287776	-3.87396	0.00751447	-0.0142038	13.254
53	-0.148344	0.0206947	0.0170999	0.0459867	0.002733	0.0342999	0.025227	-0.0300243	0.00371934	-0.0107925	-0.0154462	0.000214631	0.0518293	-0.00120057	0.0144348	-2.36962	0.0159289	-1.54334	0	0	0	0	-0	0	0	0	-0.1265	0	-0	0	0	0	0	0	-0	0	0.105	0.015	0	0	-0	0	0	0.098	0.1	0	-0	0	0	0	0	0	-0	0	0.05595	0	0	0	-0	0	0	0	0	0	-0	0	576.322	572.429	317.3	218.264	0.286195	-3.87154	0.0076468	-0.0141934	13.2807
54	-0.151557	0.0206918	0.0171009	0.0460107	0.00273972	0.0343036	0.0252311	-0.0300237	0.00372023	-0.0117683	-0.032733	0.00404191	0.0518694	-0.00120178	0.0142731	-2.37345	0.0158484	-1.54352	0	0	0	0	-0	0	0	0	-0.1265	0	-0	0	0	0	0	0	-0	0	0.105	0.015	0	0	-0	0	0	0.098	0.1	0	-0	0	0	0	0	0	-0	0	0.05595	0	0	0	-0	0	0	0	0	0	-0	0	576.45	572.563	317.428	218.613	0.283268	-3.86428	0.00786524	-0.0141619	13.3184
55	-0.155325	0.020672	0.0171096	0.0460042	0.00275865	0.0343135	0.0252287	-0.0300239	0.00372042	-0.0145934	-0.0296601	0.00131585	0.0519228	-0.00120245	0.0140767	-2.3773	0.0159427	-1.54358	0	0	0	0	-0	0	0	0	-0.1265	0	-0	0	0	0	0	0	-0	0	0.105	0.015	0	0	-0	0	0	0.098	0.1	0	-0	0	0	0	0	0	-0	0	0.05595	0	0	0	-0	0	0	0	0	0	-0	0	576.47	572.58	317.448	218.662	0.282852	-3.86208	0.00786996	-0.0141317	13.325
56	-0.158531	0.0206944	0.0171056	0.046006	0.00274328	0.0343044	0.025229	-0.0300251	0.00372037	-0.00696109	-0.0221165	0.00434793	0.0519632	-0.00120215	0.0139152	-2.38086	0.0158987	-1.54374	0	0	0	0	-0	0	0	0	-0.1265	0	-0	0	0	0	0	0	-0	0	0.105	0.015	0	0	-0	0	0	0.098	0.1	0	-0	0	0	0	0	0	-0	0	0.05595	0	0	0	-0	0	0	0	0	0	-0	0	576.545	572.655	317.529	218.857	0.280866	-3.85809	0.00805638	-0.0141181	13.3468
57	-0.155753	0.02069	0.0171083	0.0460071	0.00274986	0.0343062	0.0252284	-0.0300244	0.00372045	-0.00424108	-0.0187546	-0.000621975	0.0519225	-0.00120245	0.0140611	-2.37825	0.0157671	-1.54374	0	0	0	0	-0	0	0	0	-0.1265	0	-0	0	0	0	0	0	-0	0	0.105	0.015	0	0	-0	0	0	0.098	0.1	0	-0	0	0	0	0	0	-0	0	0.05595	0	0	0	-0	0	0	0	0	0	-0	0	576.584	572.689	317.572	218.955	0.279867	-3.85543	0.00813457	-0.0141032	13.3582
58	-0.160809	0.0206972	0.0171076	0.0460094	0.00274583	0.0343028	0.0252281	-0.0300252	0.00372051	-0.0125949	-0.0229974	-0.00218587	0.0519903	-0.00120251	0.0138017	-2.38357	0.0158065	-1.54389	0	0	0	0	-0	0	0	0	-0.1265	0	-0	0	0	0	0	0	-0	0	0.105	0.015	0	0	-0	0	0	0.098	0.1	0	-0	0	0	0	0	0	-0	0	0.05595	0	0	0	-0	0	0	0	0	0	-0	0	576.641	572.742	317.638	219.1	0.278362	-3.85162	0.00826447	-0.0140859	13.3726
59	-0.165429	0.0207025	0.0171095	0.0460024	0.00274465	0.0342993	0.025228	-0.030024	0.0037204	-0.011233	-0.0298505	-0.00616575	0.0520516	-0.00120265	0.0135638	-2.38838	0.0158542	-1.54403	0	0	0	0	-0	0	0	0	-0.1265	0	-0	0	0	0	0	0	-0	0	0.105	0.015	0	0	-0	0	0	0.098	0.1	0	-0	0	0	0	0	0	-0	0	0.05595	0	0	0	-0	0	0	0	0	0	-0	0	576.684	572.782	317.69	219.208	0.277214	-3.84866	0.00836416	-0.014069	13.3832
60	-0.16463	0.020703	0.0171082	0.0460099	0.0027435	0.034299	0.0252273	-0.0300236	0.00372067	-0.00963949	-0.0330251	-0.00936495	0.0520393	-0.00120246	0.0136055	-2.38766	0.0158009	-1.54404	0	0	0	0	-0	0	0	0	-0.1265	0	-0	0	0	0	0	0	-0	0	0.105	0.015	0	0	-0	0	0	0.098	0.1	0	-0	0	0	0	0	0	-0	0	0.05595	0	0	0	-0	0	0	0	0	0	-0	0	576.702	572.797	317.712	219.253	0.276597	-3.84693	0.00840773	-0.0140614	13.3886
61	-0.160574	0.0207046	0.0171076	0.0460183	0.00274286	0.0342985	0.025227	-0.0300234	0.00372103	-0.00804048	-0.0369246	-0.00957026	0.0519819	-0.00120259	0.0138186	-2.38376	0.0156283	-1.54402	0	0	0	0	-0	0	0	0	-0.1265	0	-0	0	0	0	0	0	-0	0	0.105	0.015	0	0	-0	0	0	0.098	0.1	0	-0	0	0	0	0	0	-0	0	0.05595	0	0	0	-0	0	0	0	0	0	-0	0	576.739	572.831	317.758	219.343	0.275622	-3.84436	0.00848691	-0.0140497	13.3978
62	-0.164949	0.0207104	0.0171092	0.0460145	0.00274066	0.034295	0.025228	-0.0300243	0.00372026	-0.0106081	-0.0421822	-0.00215911	0.0520395	-0.00120289	0.0135941	-2.38838	0.0156458	-1.54417	0	0	0	0	-0	0	0	0	-0.1265	0	-0	0	0	0	0	0	-0	0	0.105	0.015	0	0	-0	0	0	0.098	0.1	0	-0	0	0	0	0	0	-0	0	0.05595	0	0	0	-0	0	0	0	0	0	-0	0	576.791	572.881	317.828	219.478	0.274256	-3.84052	0.00860365	-0.0140276	13.4089
63	-0.172801	0.0207092	0.0171152	0.0460037	0.00274801	0.0342967	0.0252262	-0.030027	0.00371989	0.00706937	-0.0487324	-0.001261	0.0521425	-0.0012036	0.0131894	-2.39659	0.0157113	-1.5444	0	0	0	0	-0	0	0	0	-0.1265	0	-0	0	0	0	0	0	-0	0	0.105	0.015	0	0	-0	0	0	0.098	0.1	0	-0	0	0	0	0	0	-0	0	0.05595	0	0	0	-0	0	0	0	0	0	-0	0	576.863	572.955	317.933	219.677	0.272514	-3.83479	0.00874712	-0.0139888	13.4225
64	-0.180687	0.0207301	0.0171177	0.0459854	0.00273888	0.0342837	0.0252283	-0.0300252	0.00371735	0.0057928	-0.0559264	0.0070156	0.052241	-0.00120412	0.0127834	-2.405	0.0156799	-1.54471	0	0	0	0	-0	0	0	0	-0.1265	0	-0	0	0	0	0	0	-0	0	0.105	0.015	0	0	-0	0	0	0.098	0.1	0	-0	0	0	0	0	0	-0	0	0.05595	0	0	0	-0	0	0	0	0	0	-0	0	576.97	573.067	318.092	219.969	0.269253	-3.82334	0.00900423	-0.0139418	13.4331
65	-0.174283	0.0207307	0.0171241	0.0459643	0.00274333	0.0342829	0.0252289	-0.0300282	0.0037167	-0.00847672	-0.0614938	0.00591166	0.0521555	-0.00120404	0.0131205	-2.39886	0.0153898	-1.5447	0	0	0	0	-0	0	0	0	-0.1265	0	-0	0	0	0	0	0	-0	0	0.105	0.015	0	0	-0	0	0	0.098	0.1	0	-0	0	0	0	0	0	-0	0	0.05595	0	0	0	-0	0	0	0	0	0	-0	0	577.026	573.117	318.179	220.115	0.267584	-3.81675	0.00913766	-0.0139006	13.4387
66	-0.179784	0.0207226	0.0171269	0.0459674	0.00275457	0.0342891	0.0252283	-0.0300251	0.00371716	-0.00763574	-0.056625	0.00489132	0.0522244	-0.00120433	0.0128352	-2.40455	0.0154458	-1.54484	0	0	0	0	-0	0	0	0	-0.1265	0	-0	0	0	0	0	0	-0	0	0.105	0.015	0	0	-0	0	0	0.098	0.1	0	-0	0	0	0	0	0	-0	0	0.05595	0	0	0	-0	0	0	0	0	0	-0	0	577.069	573.153	318.246	220.225	0.266338	-3.81163	0.00923074	-0.0138767	13.4425
67	-0.178526	0.020725	0.017128	0.0459883	0.00275719	0.0342905	0.0252288	-0.0300251	0.0037179	-0.00720891	-0.0615552	0.0126679	0.0521998	-0.00120554	0.0129077	-2.40412	0.0150109	-1.54511	0	0	0	0	-0	0	0	0	-0.1265	0	-0	0	0	0	0	0	-0	0	0.105	0.015	0	0	-0	0	0	0.098	0.1	0	-0	0	0	0	0	0	-0	0	0.05595	0	0	0	-0	0	0	0	0	0	-0	0	577.233	573.322	318.537	220.689	0.261458	-3.79034	0.00957603	-0.0137829	13.4446
68	-0.178464	0.0207255	0.0171306	0.0459914	0.0027586	0.0342894	0.0252281	-0.0300248	0.00371863	-0.00368751	-0.0614354	0.0165224	0.0521967	-0.00120523	0.0129123	-2.40424	0.0149008	-1.54519	0	0	0	0	-0	0	0	0	-0.1265	0	-0	0	0	0	0	0	-0	0	0.105	0.015	0	0	-0	0	0	0.098	0.1	0	-0	0	0	0	0	0	-0	0	0.05595	0	0	0	-0	0	0	0	0	0	-0	0	577.283	573.355	318.613	220.797	0.259354	-3.78217	0.00972832	-0.0137538	13.4478
69	-0.17967	0.0207282	0.0171311	0.0460025	0.00275785	0.0342887	0.025228	-0.0300246	0.00372022	-0.00726974	-0.0567232	0.0211578	0.0522087	-0.0012054	0.0128528	-2.40571	0.0147803	-1.54532	0	0	0	0	-0	0	0	0	-0.1265	0	-0	0	0	0	0	0	-0	0	0.105	0.015	0	0	-0	0	0	0.098	0.1	0	-0	0	0	0	0	0	-0	0	0.05595	0	0	0	-0	0	0	0	0	0	-0	0	577.346	573.403	318.72	220.944	0.257233	-3.77348	0.00989452	-0.0137214	13.4478
70	-0.180747	0.0207257	0.0171318	0.0460178	0.00275934	0.0342907	0.0252282	-0.0300247	0.0037209	-0.00731012	-0.0548824	0.01586	0.052221	-0.00120559	0.0127974	-2.40689	0.0147456	-1.54538	0	0	0	0	-0	0	0	0	-0.1265	0	-0	0	0	0	0	0	-0	0	0.105	0.015	0	0	-0	0	0	0.098	0.1	0	-0	0	0	0	0	0	-0	0	0.05595	0	0	0	-0	0	0	0	0	0	-0	0	577.375	573.422	318.765	221.004	0.256076	-3.76871	0.00997305	-0.0137086	13.4481
71	-0.187246	0.0207276	0.0171348	0.0460156	0.00276071	0.0342901	0.0252289	-0.0300254	0.00372088	-0.0111917	-0.0579998	0.022736	0.0523009	-0.00120603	0.0124623	-2.41361	0.0147768	-1.54557	0	0	0	0	-0	0	0	0	-0.1265	0	-0	0	0	0	0	0	-0	0	0.105	0.015	0	0	-0	0	0	0.098	0.1	0	-0	0	0	0	0	0	-0	0	0.05595	0	0	0	-0	0	0	0	0	0	-0	0	577.429	573.463	318.861	221.127	0.254508	-3.76226	0.0101094	-0.0136765	13.4479
72	-0.195292	0.0207323	0.0171406	0.0459998	0.00276271	0.034288	0.02523	-0.0300259	0.00372067	-0.0101163	-0.0499885	0.0306393	0.0523968	-0.00120667	0.0120463	-2.42198	0.0147739	-1.54583	0	0	0	0	-0	0	0	0	-0.1265	0	-0	0	0	0	0	0	-0	0	0.105	0.015	0	0	-0	0	0	0.098	0.1	0	-0	0	0	0	0	0	-0	0	0.05595	0	0	0	-0	0	0	0	0	0	-0	0	577.501	573.529	319.005	221.31	0.252275	-3.75177	0.0102877	-0.0136231	13.4413
73	-0.196583	0.0207303	0.0171452	0.0459948	0.00276711	0.03429	0.0252293	-0.0300252	0.00372004	-0.00911072	-0.0549595	0.0267352	0.0524091	-0.00120702	0.0119807	-2.42344	0.0147011	-1.54592	0	0	0	0	-0	0	0	0	-0.1265	0	-0	0	0	0	0	0	-0	0	0.105	0.015	0	0	-0	0	0	0.098	0.1	0	-0	0	0	0	0	0	-0	0	0.05595	0	0	0	-0	0	0	0	0	0	-0	0	577.541	573.558	319.08	221.402	0.250858	-3.74535	0.0103984	-0.0135935	13.4386
74	-0.198825	0.0207328	0.017146	0.0460099	0.00276603	0.0342901	0.0252293	-0.0300257	0.00372077	-0.00627723	-0.052571	0.0329742	0.0524324	-0.00120734	0.0118672	-2.42592	0.0145948	-1.54607	0	0	0	0	-0	0	0	0	-0.1265	0	-0	0	0	0	0	0	-0	0	0.105	0.015	0	0	-0	0	0	0.098	0.1	0	-0	0	0	0	0	0	-0	0	0.05595	0	0	0	-0	0	0	0	0	0	-0	0	577.601	573.605	319.194	221.537	0.24886	-3.73662	0.0105505	-0.0135595	13.435
75	-0.193308	0.0207363	0.0171514	0.0460094	0.00276793	0.0342893	0.0252285	-0.0300272	0.00372364	0.00878048	-0.0644786	0.0258694	0.0523628	-0.0012081	0.0121617	-2.42076	0.0142131	-1.54616	0	0	0	0	-0	0	0	0	-0.1265	0	-0	0	0	0	0	0	-0	0	0.105	0.015	0	0	-0	0	0	0.098	0.1	0	-0	0	0	0	0	0	-0	0	0.05595	0	0	0	-0	0	0	0	0	0	-0	0	577.683	573.679	319.367	221.737	0.246124	-3.72284	0.0107482	-0.0135004	13.4212
76	-0.198539	0.0207358	0.0171574	0.0460368	0.00276806	0.0342919	0.0252306	-0.0300287	0.00372263	-0.000962385	-0.0659577	0.0166132	0.0524231	-0.00120948	0.0118914	-2.42626	0.0141561	-1.54636	0	0	0	0	-0	0	0	0	-0.1265	0	-0	0	0	0	0	0	-0	0	0.105	0.015	0	0	-0	0	0	0.098	0.1	0	-0	0	0	0	0	0	-0	0	0.05595	0	0	0	-0	0	0	0	0	0	-0	0	577.752	573.73	319.502	221.885	0.243523	-3.71137	0.01093	-0.013466	13.4144
77	-0.190531	0.0207434	0.0171691	0.0459963	0.00277502	0.0342878	0.025231	-0.030027	0.00371807	0.00675126	-0.0770759	0.0244147	0.052321	-0.00121037	0.0123199	-2.41884	0.0135293	-1.54655	0	0	0	0	-0	0	0	0	-0.1265	0	-0	0	0	0	0	0	-0	0	0.105	0.015	0	0	-0	0	0	0.098	0.1	0	-0	0	0	0	0	0	-0	0	0.05595	0	0	0	-0	0	0	0	0	0	-0	0	577.874	573.849	319.804	222.21	0.239506	-3.68833	0.0112314	-0.0133488	13.3789
78	-0.19432	0.0207695	0.0171709	0.0459445	0.00276122	0.0342702	0.0252304	-0.0300262	0.00371438	0.00576964	-0.068347	0.0175643	0.0523629	-0.00120901	0.0121265	-2.42293	0.0133675	-1.54679	0	0	0	0	-0	0	0	0	-0.1265	0	-0	0	0	0	0	0	-0	0	0.105	0.015	0	0	-0	0	0	0.098	0.1	0	-0	0	0	0	0	0	-0	0	0.05595	0	0	0	-0	0	0	0	0	0	-0	0	577.943	573.906	319.964	222.376	0.236504	-3.67374	0.0114815	-0.0132808	13.3597
79	-0.195989	0.0207687	0.0171716	0.0459502	0.00276591	0.0342722	0.0252305	-0.0300281	0.00371603	0.0155229	-0.0625486	0.0211556	0.0523786	-0.00120858	0.0120431	-2.42489	0.0131694	-1.54698	0	0	0	0	-0	0	0	0	-0.1265	0	-0	0	0	0	0	0	-0	0	0.105	0.015	0	0	-0	0	0	0.098	0.1	0	-0	0	0	0	0	0	-0	0	0.05595	0	0	0	-0	0	0	0	0	0	-0	0	578.015	573.963	320.132	222.542	0.233693	-3.65762	0.0116729	-0.0132207	13.335
80	-0.204354	0.0207645	0.0171806	0.0459665	0.00277229	0.0342786	0.0252306	-0.0300272	0.00371764	0.0166744	-0.0605434	0.0138805	0.0524769	-0.00120973	0.0116086	-2.43348	0.0131908	-1.54721	0	0	0	0	-0	0	0	0	-0.1265	0	-0	0	0	0	0	0	-0	0	0.105	0.015	0	0	-0	0	0	0.098	0.1	0	-0	0	0	0	0	0	-0	0	0.05595	0	0	0	-0	0	0	0	0	0	-0	0	578.074	574.002	320.262	222.666	0.231334	-3.64483	0.0118331	-0.0131815	13.3168
81	-0.205515	0.0207759	0.0171802	0.0459551	0.00276445	0.0342705	0.0252305	-0.0300263	0.00371705	0.0156507	-0.0690865	0.0112919	0.0524862	-0.0012095	0.0115505	-2.4348	0.0130632	-1.54733	0	0	0	0	-0	0	0	0	-0.1265	0	-0	0	0	0	0	0	-0	0	0.105	0.015	0	0	-0	0	0	0.098	0.1	0	-0	0	0	0	0	0	-0	0	0.05595	0	0	0	-0	0	0	0	0	0	-0	0	578.117	574.034	320.362	222.759	0.229448	-3.63539	0.011983	-0.0131455	13.3026
82	-0.20082	0.0207707	0.0171858	0.0459784	0.00276914	0.0342764	0.0252313	-0.0300281	0.00371921	0.0216302	-0.066977	0.00162842	0.0524285	-0.00121042	0.0118014	-2.43035	0.0127447	-1.54741	0	0	0	0	-0	0	0	0	-0.1265	0	-0	0	0	0	0	0	-0	0	0.105	0.015	0	0	-0	0	0	0.098	0.1	0	-0	0	0	0	0	0	-0	0	0.05595	0	0	0	-0	0	0	0	0	0	-0	0	578.182	574.082	320.515	222.896	0.227106	-3.622	0.0121379	-0.0130972	13.2816
83	-0.20611	0.020771	0.0171941	0.0459786	0.00277205	0.0342783	0.0252304	-0.0300273	0.00371926	0.0280945	-0.0683738	-0.000156072	0.0524883	-0.00121137	0.0115277	-2.43583	0.0127042	-1.54759	0	0	0	0	-0	0	0	0	-0.1265	0	-0	0	0	0	0	0	-0	0	0.105	0.015	0	0	-0	0	0	0.098	0.1	0	-0	0	0	0	0	0	-0	0	0.05595	0	0	0	-0	0	0	0	0	0	-0	0	578.232	574.116	320.632	222.999	0.225132	-3.61101	0.0122803	-0.0130582	13.2633
84	-0.204626	0.0207826	0.0171938	0.0459778	0.00276487	0.0342712	0.0252301	-0.0300282	0.00371879	0.0179176	-0.0700566	-0.000430477	0.0524663	-0.00121143	0.0116108	-2.43462	0.0124071	-1.54775	0	0	0	0	-0	0	0	0	-0.1265	0	-0	0	0	0	0	0	-0	0	0.105	0.015	0	0	-0	0	0	0.098	0.1	0	-0	0	0	0	0	0	-0	0	0.05595	0	0	0	-0	0	0	0	0	0	-0	0	578.302	574.173	320.809	223.151	0.22236	-3.59551	0.012481	-0.0129996	13.2351
85	-0.206733	0.0207878	0.0172016	0.0459769	0.00276713	0.0342705	0.0252317	-0.0300264	0.00371751	0.00730083	-0.0516955	-0.00477711	0.0524854	-0.00121236	0.011508	-2.43713	0.0120718	-1.54804	0	0	0	0	-0	0	0	0	-0.1265	0	-0	0	0	0	0	0	-0	0	0.105	0.015	0	0	-0	0	0	0.098	0.1	0	-0	0	0	0	0	0	-0	0	0.05595	0	0	0	-0	0	0	0	0	0	-0	0	578.405	574.262	321.079	223.376	0.218493	-3.57135	0.0127336	-0.0129073	13.1859
86	-0.2057	0.0207934	0.0172066	0.0459597	0.00276596	0.0342672	0.025232	-0.0300286	0.00371755	0.0130365	-0.0457191	0.00288792	0.0524711	-0.00121199	0.0115656	-2.43626	0.0118766	-1.54814	0	0	0	0	-0	0	0	0	-0.1265	0	-0	0	0	0	0	0	-0	0	0.105	0.015	0	0	-0	0	0	0.098	0.1	0	-0	0	0	0	0	0	-0	0	0.05595	0	0	0	-0	0	0	0	0	0	-0	0	578.451	574.294	321.194	223.469	0.216344	-3.55927	0.0128917	-0.0128594	13.1653
87	-0.205129	0.0207913	0.017214	0.0459649	0.00276992	0.0342723	0.0252315	-0.0300274	0.00371847	0.0128473	-0.0403036	0.00521844	0.0524633	-0.00121262	0.0115982	-2.43581	0.0117512	-1.54821	0	0	0	0	-0	0	0	0	-0.1265	0	-0	0	0	0	0	0	-0	0	0.105	0.015	0	0	-0	0	0	0.098	0.1	0	-0	0	0	0	0	0	-0	0	0.05595	0	0	0	-0	0	0	0	0	0	-0	0	578.485	574.315	321.275	223.533	0.21492	-3.5509	0.0129882	-0.0128331	13.1503
88	-0.216905	0.0207974	0.0172185	0.0459752	0.0027697	0.0342715	0.0252315	-0.0300282	0.00371926	0.0192703	-0.0381893	0.00104139	0.0525924	-0.00121382	0.0109905	-2.44808	0.0115043	-1.54869	0	0	0	0	-0	0	0	0	-0.1265	0	-0	0	0	0	0	0	-0	0	0.105	0.015	0	0	-0	0	0	0.098	0.1	0	-0	0	0	0	0	0	-0	0	0.05595	0	0	0	-0	0	0	0	0	0	-0	0	578.611	574.426	321.635	223.811	0.210203	-3.51942	0.0132908	-0.0127094	13.0777
89	-0.212056	0.0208226	0.0172206	0.0459274	0.00275677	0.0342537	0.0252309	-0.030028	0.00371519	0.0150816	-0.0392058	0.00671998	0.0525322	-0.00121314	0.0112506	-2.44349	0.0110991	-1.54884	0	0	0	0	-0	0	0	0	-0.1265	0	-0	0	0	0	0	0	-0	0	0.105	0.015	0	0	-0	0	0	0.098	0.1	0	-0	0	0	0	0	0	-0	0	0.05595	0	0	0	-0	0	0	0	0	0	-0	0	578.682	574.481	321.822	223.954	0.206819	-3.49986	0.0135501	-0.0126391	13.0357
90	-0.215175	0.0208245	0.0172238	0.0459356	0.00275608	0.0342534	0.0252304	-0.0300274	0.00371561	0.0137314	-0.0362966	0.00434141	0.0525651	-0.0012129	0.0110886	-2.44672	0.0110492	-1.54895	0	0	0	0	-0	0	0	0	-0.1265	0	-0	0	0	0	0	0	-0	0	0.105	0.015	0	0	-0	0	0	0.098	0.1	0	-0	0	0	0	0	0	-0	0	0.05595	0	0	0	-0	0	0	0	0	0	-0	0	578.716	574.501	321.902	224.013	0.205069	-3.49011	0.0136627	-0.0126173	13.0193
91	-0.218861	0.0208276	0.0172264	0.0459447	0.00275431	0.0342528	0.0252307	-0.0300279	0.00371652	0.00884273	-0.0395744	0.0071893	0.0526031	-0.00121312	0.0108986	-2.45054	0.010968	-1.5491	0	0	0	0	-0	0	0	0	-0.1265	0	-0	0	0	0	0	0	-0	0	0.105	0.015	0	0	-0	0	0	0.098	0.1	0	-0	0	0	0	0	0	-0	0	0.05595	0	0	0	-0	0	0	0	0	0	-0	0	578.76	574.529	322.013	224.093	0.203231	-3.47894	0.013789	-0.0125829	12.996
92	-0.218534	0.0208309	0.0172378	0.0459468	0.00276156	0.034257	0.0252317	-0.030028	0.00371573	0.0027977	-0.0294665	0.00148698	0.0525906	-0.00121497	0.0109287	-2.45084	0.0102621	-1.54955	0	0	0	0	-0	0	0	0	-0.1265	0	-0	0	0	0	0	0	-0	0	0.105	0.015	0	0	-0	0	0	0.098	0.1	0	-0	0	0	0	0	0	-0	0	0.05595	0	0	0	-0	0	0	0	0	0	-0	0	578.916	574.677	322.506	224.436	0.197227	-3.43325	0.0141285	-0.0124052	12.8745
93	-0.214084	0.0208426	0.0172453	0.0459312	0.00275588	0.0342505	0.0252327	-0.0300287	0.00371658	0.00328081	-0.0205244	0.00820091	0.0525396	-0.00121478	0.0111667	-2.44656	0.00995013	-1.54965	0	0	0	0	-0	0	0	0	-0.1265	0	-0	0	0	0	0	0	-0	0	0.105	0.015	0	0	-0	0	0	0.098	0.1	0	-0	0	0	0	0	0	-0	0	0.05595	0	0	0	-0	0	0	0	0	0	-0	0	578.975	574.709	322.647	224.533	0.194033	-3.41559	0.0143572	-0.0123581	12.8415
94	-0.215571	0.0208401	0.0172564	0.0459419	0.00276151	0.0342586	0.025232	-0.0300312	0.00371888	-0.0106753	-0.0157053	0.0139216	0.0525499	-0.00121615	0.0110984	-2.44841	0.00956278	-1.54994	0	0	0	0	-0	0	0	0	-0.1265	0	-0	0	0	0	0	0	-0	0	0.105	0.015	0	0	-0	0	0	0.098	0.1	0	-0	0	0	0	0	0	-0	0	0.05595	0	0	0	-0	0	0	0	0	0	-0	0	579.08	574.786	322.945	224.729	0.189982	-3.38686	0.0146148	-0.0122542	12.7698
95	-0.22475	0.0208464	0.0172649	0.0459608	0.00275753	0.0342579	0.0252326	-0.0300314	0.00371873	0.000523998	-0.0151441	0.0170976	0.0526485	-0.00121745	0.0106217	-2.45779	0.00948684	-1.5502	0	0	0	0	-0	0	0	0	-0.1265	0	-0	0	0	0	0	0	-0	0	0.105	0.015	0	0	-0	0	0	0.098	0.1	0	-0	0	0	0	0	0	-0	0	0.05595	0	0	0	-0	0	0	0	0	0	-0	0	579.151	574.828	323.129	224.846	0.186599	-3.36688	0.0148396	-0.0122068	12.7271
96	-0.225349	0.0208701	0.0172714	0.045912	0.00275089	0.0342436	0.0252344	-0.0300328	0.00371646	0.00855944	-0.0167977	0.00367729	0.0526452	-0.00121769	0.0106021	-2.45886	0.00887928	-1.55061	0	0	0	0	-0	0	0	0	-0.1265	0	-0	0	0	0	0	0	-0	0	0.105	0.015	0	0	-0	0	0	0.098	0.1	0	-0	0	0	0	0	0	-0	0	0.05595	0	0	0	-0	0	0	0	0	0	-0	0	579.279	574.944	323.545	225.106	0.181337	-3.32711	0.0151759	-0.0120511	12.6142
97	-0.219756	0.0208615	0.0172858	0.0459313	0.00275958	0.0342572	0.0252348	-0.0300309	0.00371747	0.00563209	-0.0237214	0.000824184	0.0525824	-0.00121878	0.0109036	-2.45351	0.00846324	-1.55075	0	0	0	0	-0	0	0	0	-0.1265	0	-0	0	0	0	0	0	-0	0	0.105	0.015	0	0	-0	0	0	0.098	0.1	0	-0	0	0	0	0	0	-0	0	0.05595	0	0	0	-0	0	0	0	0	0	-0	0	579.359	574.991	323.762	225.237	0.177699	-3.30259	0.0153999	-0.0119797	12.5583
98	-0.219706	0.0208732	0.0172869	0.0459213	0.00274995	0.0342487	0.0252336	-0.03003	0.00371658	0.00344974	-0.018627	0.00558057	0.0525789	-0.00121838	0.0109087	-2.45356	0.00831748	-1.55085	0	0	0	0	-0	0	0	0	-0.1265	0	-0	0	0	0	0	0	-0	0	0.105	0.015	0	0	-0	0	0	0.098	0.1	0	-0	0	0	0	0	0	-0	0	0.05595	0	0	0	-0	0	0	0	0	0	-0	0	579.395	575.01	323.853	225.291	0.175719	-3.29146	0.0155476	-0.0119496	12.535
99	-0.218503	0.0208797	0.017288	0.0459291	0.00274515	0.0342454	0.0252341	-0.0300312	0.00371663	0.0074994	-0.0153418	0.0145758	0.0525625	-0.00121841	0.0109766	-2.45249	0.00810462	-1.55096	0	0	0	0	-0	0	0	0	-0.1265	0	-0	0	0	0	0	0	-0	0	0.105	0.015	0	0	-0	0	0	0.098	0.1	0	-0	0	0	0	0	0	-0	0	0.05595	0	0	0	-0	0	0	0	0	0	-0	0	579.442	575.04	323.981	225.366	0.173697	-3.27824	0.0156824	-0.011911	12.5028
100	-0.212188	0.0208857	0.0172964	0.045918	0.00274759	0.034246	0.0252359	-0.0300344	0.00371574	0.0190137	-0.00899334	0.0239233	0.0524876	-0.00121921	0.0113182	-2.44648	0.00756514	-1.55118	0	0	0	0	-0	0	0	0	-0.1265	0	-0	0	0	0	0	0	-0	0	0.105	0.015	0	0	-0	0	0	0.098	0.1	0	-0	0	0	0	0	0	-0	0	0.05595	0	0	0	-0	0	0	0	0	0	-0	0	579.534	575.113	324.269	225.531	0.170106	-3.24994	0.0159007	-0.0118066	12.4213
