Stefan210/kinematic_calibration/src/kinematic_calibration/validation/experiments/experiments/single_point_vs_pose/marker_single_point/rarm_160/optimization_intermediate_results.csv
iteration	HeadPitch_offset	HeadYaw_offset	RElbowRoll_offset	RElbowYaw_offset	RShoulderPitch_offset	RShoulderRoll_offset	marker_transform_rarm_tx	marker_transform_rarm_ty	marker_transform_rarm_tz	marker_transform_rarm_rr	marker_transform_rarm_rp	marker_transform_rarm_ry	camera_transform_tx	camera_transform_ty	camera_transform_tz	camera_transform_rr	camera_transform_rp	camera_transform_ry	HeadPitch_transform_tx	HeadPitch_transform_ty	HeadPitch_transform_tz	HeadPitch_transform_rr	HeadPitch_transform_rp	HeadPitch_transform_ry	HeadYaw_transform_tx	HeadYaw_transform_ty	HeadYaw_transform_tz	HeadYaw_transform_rr	HeadYaw_transform_rp	HeadYaw_transform_ry	RElbowRoll_transform_tx	RElbowRoll_transform_ty	RElbowRoll_transform_tz	RElbowRoll_transform_rr	RElbowRoll_transform_rp	RElbowRoll_transform_ry	RElbowYaw_transform_tx	RElbowYaw_transform_ty	RElbowYaw_transform_tz	RElbowYaw_transform_rr	RElbowYaw_transform_rp	RElbowYaw_transform_ry	RShoulderPitch_transform_tx	RShoulderPitch_transform_ty	RShoulderPitch_transform_tz	RShoulderPitch_transform_rr	RShoulderPitch_transform_rp	RShoulderPitch_transform_ry	RShoulderRoll_transform_tx	RShoulderRoll_transform_ty	RShoulderRoll_transform_tz	RShoulderRoll_transform_rr	RShoulderRoll_transform_rp	RShoulderRoll_transform_ry	RWristYaw_transform_tx	RWristYaw_transform_ty	RWristYaw_transform_tz	RWristYaw_transform_rr	RWristYaw_transform_rp	RWristYaw_transform_ry	r_wrist_joint_transform_tx	r_wrist_joint_transform_ty	r_wrist_joint_transform_tz	r_wrist_joint_transform_rr	r_wrist_joint_transform_rp	r_wrist_joint_transform_ry	camera_fx	camera_fy	camera_cx	camera_cy	camera_D0	camera_D1	camera_D2	camera_D3	camera_D4	
0	0.0230449	0.0294606	-0.0013508	-0.00116347	0.000678263	0.00258603	0.05071	0	0.01774	-2.26369	1.66533e-16	-1.5708	545.901	551.038	324.928	201.58	0.0255298	2.61142	-0.0636736	-0.0350419	0.213964
1	-0.0148144	-0.0172923	0.00345813	0.0169002	-0.0163519	-0.0350056	0.0208238	0.0287512	-0.00113319	-0.00114157	0.000670265	0.00278159	0.0538794	-0.00306166	0.0187344	-2.20415	0.0137566	-1.53615	0	0	0	0	-0	0	0	0	-0.1265	0	-0	0	0	0	0	0	-0	0	0.105	-0.015	0	0	-0	0	0	-0.098	0.1	0	-0	0	0	0	0	0	-0	0	0.05595	0	0	0	-0	0	0	0	0	0	-0	0	545.901	551.039	324.929	201.581	-0.0364158	2.58925	-0.072553	-0.0743875	0.208664
2	-0.0127021	-0.0347837	-0.00459757	0.0191637	-0.0274831	-0.0322927	0.0209176	0.0288636	-0.00110485	-0.00113739	0.000666758	0.0027813	0.0533536	-0.00171191	0.0221627	-2.21312	0.0208841	-1.5275	0	0	0	0	-0	0	0	0	-0.1265	0	-0	0	0	0	0	0	-0	0	0.105	-0.015	0	0	-0	0	0	-0.098	0.1	0	-0	0	0	0	0	0	-0	0	0.05595	0	0	0	-0	0	0	0	0	0	-0	0	545.903	551.039	324.935	201.586	-0.218697	2.46035	-0.0177227	-0.0406817	0.162392
3	-0.0139596	-0.0282249	-0.000973489	0.0196835	-0.0226024	-0.0353882	0.020955	0.0288843	-0.00138072	-0.00116861	0.000689699	0.00277786	0.0548713	-0.00273785	0.0187128	-2.20722	0.0206909	-1.52899	0	0	0	0	-0	0	0	0	-0.1265	0	-0	0	0	0	0	0	-0	0	0.105	-0.015	0	0	-0	0	0	-0.098	0.1	0	-0	0	0	0	0	0	-0	0	0.05595	0	0	0	-0	0	0	0	0	0	-0	0	545.905	551.04	324.94	201.591	-0.439027	2.31325	-0.0106982	-0.0354264	0.111871
4	-0.0141335	-0.0247503	0.00211003	0.0161242	-0.0196503	-0.038042	0.0210853	0.0288672	-0.0013808	-0.0011678	0.000689518	0.00276263	0.0558915	-0.00334931	0.0164147	-2.20594	0.0204929	-1.53266	0	0	0	0	-0	0	0	0	-0.1265	0	-0	0	0	0	0	0	-0	0	0.105	-0.015	0	0	-0	0	0	-0.098	0.1	0	-0	0	0	0	0	0	-0	0	0.05595	0	0	0	-0	0	0	0	0	0	-0	0	545.91	551.041	324.95	201.6	-0.675607	2.04675	0.0214213	-0.0110744	0.00498513
5	-0.0143526	-0.0223833	0.00497473	0.0140067	-0.0177478	-0.0397044	0.0211285	0.0288221	-0.00135617	-0.00116604	0.000683774	0.00275177	0.0558857	-0.00377736	0.0156472	-2.20489	0.0199502	-1.53416	0	0	0	0	-0	0	0	0	-0.1265	0	-0	0	0	0	0	0	-0	0	0.105	-0.015	0	0	-0	0	0	-0.098	0.1	0	-0	0	0	0	0	0	-0	0	0.05595	0	0	0	-0	0	0	0	0	0	-0	0	545.92	551.039	324.963	201.61	-0.648913	1.6705	0.0265826	-0.00443834	-0.175428
6	-0.0144924	-0.0211676	0.00745926	0.0126245	-0.0169642	-0.0405321	0.0211129	0.0287457	-0.00125028	-0.00115679	0.000675536	0.00274292	0.0547833	-0.00397156	0.0164897	-2.20464	0.0189183	-1.53474	0	0	0	0	-0	0	0	0	-0.1265	0	-0	0	0	0	0	0	-0	0	0.105	-0.015	0	0	-0	0	0	-0.098	0.1	0	-0	0	0	0	0	0	-0	0	0.05595	0	0	0	-0	0	0	0	0	0	-0	0	545.939	551.034	324.978	201.621	-0.39684	1.12278	0.0133451	-0.00858437	-0.458037
7	-0.0145904	-0.02049	0.00927089	0.0114567	-0.0166736	-0.0410303	0.021093	0.0286806	-0.00113545	-0.0011599	0.0006901	0.00278596	0.0536775	-0.00406604	0.0175157	-2.2048	0.0180394	-1.53513	0	0	0	0	-0	0	0	0	-0.1265	0	-0	0	0	0	0	0	-0	0	0.105	-0.015	0	0	-0	0	0	-0.098	0.1	0	-0	0	0	0	0	0	-0	0	0.05595	0	0	0	-0	0	0	0	0	0	-0	0	545.963	551.024	324.988	201.629	-0.1352	0.571937	-0.000618424	-0.0136043	-0.744178
8	-0.0146527	-0.020404	0.00999835	0.0107992	-0.0167336	-0.0411861	0.0210827	0.0286499	-0.00106754	-0.00119275	0.000728236	0.00274556	0.0531006	-0.00407882	0.0181211	-2.20519	0.0176545	-1.53527	0	0	0	0	-0	0	0	0	-0.1265	0	-0	0	0	0	0	0	-0	0	0.105	-0.015	0	0	-0	0	0	-0.098	0.1	0	-0	0	0	0	0	0	-0	0	0.05595	0	0	0	-0	0	0	0	0	0	-0	0	546.005	551.003	324.995	201.637	0.00361589	0.263399	-0.00722402	-0.0159407	-0.90519
9	-0.0146219	-0.020428	0.0101493	0.010602	-0.016783	-0.041187	0.0210796	0.0286417	-0.00104814	-0.00135871	0.000539563	0.00303918	0.0529483	-0.00407328	0.0182954	-2.20536	0.0175429	-1.53534	0	0	0	0	-0	0	0	0	-0.1265	0	-0	0	0	0	0	0	-0	0	0.105	-0.015	0	0	-0	0	0	-0.098	0.1	0	-0	0	0	0	0	0	-0	0	0.05595	0	0	0	-0	0	0	0	0	0	-0	0	546.109	550.947	325.01	201.666	0.0365106	0.18691	-0.00842124	-0.0164269	-0.950421
10	-0.014188	-0.0204355	0.0101765	0.0105148	-0.0167958	-0.0411579	0.0210779	0.028639	-0.0010434	-0.00132199	0.000908267	0.00484086	0.0528998	-0.0040667	0.0183623	-2.20514	0.0174573	-1.53545	0	0	0	0	-0	0	0	0	-0.1265	0	-0	0	0	0	0	0	-0	0	0.105	-0.015	0	0	-0	0	0	-0.098	0.1	0	-0	0	0	0	0	0	-0	0	0.05595	0	0	0	-0	0	0	0	0	0	-0	0	546.376	550.812	325.046	201.758	0.0352948	0.191272	-0.00774925	-0.0164345	-0.973577
11	-0.0151477	-0.0204461	0.0102039	0.0103769	-0.0168099	-0.0411044	0.0210752	0.0286351	-0.00103774	-0.000210354	0.00282312	0.00494175	0.0528667	-0.00405544	0.0183625	-2.20666	0.017388	-1.53569	0	0	0	0	-0	0	0	0	-0.1265	0	-0	0	0	0	0	0	-0	0	0.105	-0.015	0	0	-0	0	0	-0.098	0.1	0	-0	0	0	0	0	0	-0	0	0.05595	0	0	0	-0	0	0	0	0	0	-0	0	546.938	550.585	325.113	202.04	0.0241871	0.232778	-0.00611173	-0.016374	-1.05216
12	-0.0138241	-0.0204647	0.0102305	0.0102035	-0.0168199	-0.0410303	0.0210788	0.0286335	-0.00102683	-0.00322724	0.0213641	-0.00983665	0.0527844	-0.00404112	0.0184914	-2.20697	0.0172752	-1.53595	0	0	0	0	-0	0	0	0	-0.1265	0	-0	0	0	0	0	0	-0	0	0.105	-0.015	0	0	-0	0	0	-0.098	0.1	0	-0	0	0	0	0	0	-0	0	0.05595	0	0	0	-0	0	0	0	0	0	-0	0	547.789	550.53	325.174	202.883	0.00552047	0.32285	-0.00395969	-0.0163366	-1.23651
13	-0.000930684	-0.0204766	0.0102363	0.0101018	-0.016813	-0.0409802	0.0210712	0.0286283	-0.00102415	0.00424272	0.0191454	-0.0174974	0.0525119	-0.00403225	0.0192079	-2.19642	0.016875	-1.53591	0	0	0	0	-0	0	0	0	-0.1265	0	-0	0	0	0	0	0	-0	0	0.105	-0.015	0	0	-0	0	0	-0.098	0.1	0	-0	0	0	0	0	0	-0	0	0.05595	0	0	0	-0	0	0	0	0	0	-0	0	548.477	550.85	325.173	204.101	-0.00790959	0.404893	-0.00267798	-0.0163813	-1.42104
14	-0.00334333	-0.0205008	0.0102231	0.00999083	-0.0167933	-0.0409169	0.0210688	0.0286227	-0.00101389	0.0155501	0.0315418	-0.0219332	0.0525042	-0.00402172	0.0191378	-2.20482	0.0172352	-1.53613	0	0	0	0	-0	0	0	0	-0.1265	0	-0	0	0	0	0	0	-0	0	0.105	-0.015	0	0	-0	0	0	-0.098	0.1	0	-0	0	0	0	0	0	-0	0	0.05595	0	0	0	-0	0	0	0	0	0	-0	0	549.655	552.032	325.071	207.218	-0.0222077	0.52144	-0.00130744	-0.0166306	-1.71612
15	0.0112163	-0.0205155	0.0102108	0.0099602	-0.0167838	-0.0408912	0.0210721	0.0286226	-0.00101553	0.0114772	0.0169577	-0.034618	0.0522249	-0.00401785	0.0199042	-2.19181	0.0168289	-1.5359	0	0	0	0	-0	0	0	0	-0.1265	0	-0	0	0	0	0	0	-0	0	0.105	-0.015	0	0	-0	0	0	-0.098	0.1	0	-0	0	0	0	0	0	-0	0	0.05595	0	0	0	-0	0	0	0	0	0	-0	0	549.947	552.357	325.03	208.038	-0.0308487	0.594761	-0.000941765	-0.0166663	-1.90038
16	0.00844974	-0.0205238	0.0102043	0.00994868	-0.0167788	-0.0408773	0.0210715	0.0286242	-0.00101107	-0.00240563	0.0246124	-0.0302012	0.0522723	-0.00401615	0.0197608	-2.19562	0.0170048	-1.53594	0	0	0	0	-0	0	0	0	-0.1265	0	-0	0	0	0	0	0	-0	0	0.105	-0.015	0	0	-0	0	0	-0.098	0.1	0	-0	0	0	0	0	0	-0	0	0.05595	0	0	0	-0	0	0	0	0	0	-0	0	550.144	552.577	324.993	208.594	-0.035546	0.634474	-0.000712473	-0.0167138	-1.99941
17	0.013881	-0.0205405	0.0101902	0.00988836	-0.0167648	-0.0408392	0.0210822	0.0286319	-0.00101114	0.00253557	0.00829557	-0.0607624	0.0521366	-0.00401008	0.0200796	-2.19434	0.017118	-1.53585	0	0	0	0	-0	0	0	0	-0.1265	0	-0	0	0	0	0	0	-0	0	0.105	-0.015	0	0	-0	0	0	-0.098	0.1	0	-0	0	0	0	0	0	-0	0	0.05595	0	0	0	-0	0	0	0	0	0	-0	0	550.879	553.411	324.837	210.763	-0.0439104	0.715104	6.09392e-05	-0.0169508	-2.21857
18	0.0255854	-0.0205524	0.0101785	0.00985738	-0.0167545	-0.0408144	0.0210783	0.0286165	-0.000997904	0.001036	-0.0235308	-0.050612	0.0518937	-0.0040063	0.0206985	-2.18455	0.0168653	-1.53563	0	0	0	0	-0	0	0	0	-0.1265	0	-0	0	0	0	0	0	-0	0	0.105	-0.015	0	0	-0	0	0	-0.098	0.1	0	-0	0	0	0	0	0	-0	0	0.05595	0	0	0	-0	0	0	0	0	0	-0	0	551.221	553.8	324.755	211.775	-0.0510485	0.780413	0.000465355	-0.0170376	-2.39159
19	0.0187355	-0.0205745	0.0101595	0.00980241	-0.0167427	-0.0407739	0.0210758	0.0286194	-0.000995288	-0.0113209	-0.00535201	-0.0609241	0.0520057	-0.00399978	0.0203738	-2.19549	0.0174598	-1.53568	0	0	0	0	-0	0	0	0	-0.1265	0	-0	0	0	0	0	0	-0	0	0.105	-0.015	0	0	-0	0	0	-0.098	0.1	0	-0	0	0	0	0	0	-0	0	0.05595	0	0	0	-0	0	0	0	0	0	-0	0	551.938	554.617	324.558	213.929	-0.0601289	0.871397	0.00124203	-0.0172984	-2.64482
20	0.0222461	-0.0205819	0.0101538	0.00978752	-0.0167384	-0.0407621	0.0210691	0.0286151	-0.000994037	-0.0172268	-0.00911255	-0.0500976	0.0519344	-0.00399777	0.0205553	-2.19251	0.0173944	-1.5356	0	0	0	0	-0	0	0	0	-0.1265	0	-0	0	0	0	0	0	-0	0	0.105	-0.015	0	0	-0	0	0	-0.098	0.1	0	-0	0	0	0	0	0	-0	0	0.05595	0	0	0	-0	0	0	0	0	0	-0	0	552.031	554.726	324.526	214.218	-0.0637684	0.904785	0.001381	-0.0173008	-2.73512
21	0.0268242	-0.0205979	0.0101434	0.00975982	-0.0167343	-0.0407396	0.0210691	0.0286128	-0.000987873	-0.0326779	-0.0348536	-0.0402255	0.0518302	-0.00399453	0.0208059	-2.18998	0.0174413	-1.53545	0	0	0	0	-0	0	0	0	-0.1265	0	-0	0	0	0	0	0	-0	0	0.105	-0.015	0	0	-0	0	0	-0.098	0.1	0	-0	0	0	0	0	0	-0	0	0.05595	0	0	0	-0	0	0	0	0	0	-0	0	552.395	555.135	324.407	215.302	-0.0699488	0.963911	0.00180098	-0.0174448	-2.8957
22	0.0220991	-0.0206151	0.0101294	0.00971708	-0.0167258	-0.0407089	0.0210682	0.0286122	-0.00098837	-0.0430649	-0.0304802	-0.0396654	0.05191	-0.00398952	0.020583	-2.19761	0.0179155	-1.53543	0	0	0	0	-0	0	0	0	-0.1265	0	-0	0	0	0	0	0	-0	0	0.105	-0.015	0	0	-0	0	0	-0.098	0.1	0	-0	0	0	0	0	0	-0	0	0.05595	0	0	0	-0	0	0	0	0	0	-0	0	552.898	555.701	324.222	216.84	-0.0767681	1.03499	0.00238138	-0.017653	-3.09982
23	0.0197	-0.0206241	0.0101226	0.00970261	-0.0167224	-0.040696	0.0210696	0.0286116	-0.000987156	-0.0342368	-0.0397897	-0.0433936	0.0519581	-0.00398745	0.0204601	-2.20076	0.0180905	-1.53543	0	0	0	0	-0	0	0	0	-0.1265	0	-0	0	0	0	0	0	-0	0	0.105	-0.015	0	0	-0	0	0	-0.098	0.1	0	-0	0	0	0	0	0	-0	0	0.05595	0	0	0	-0	0	0	0	0	0	-0	0	553.032	555.852	324.169	217.243	-0.0806846	1.07174	0.0025634	-0.0176854	-3.20043
24	0.0215215	-0.020631	0.0101172	0.00969136	-0.0167198	-0.0406855	0.0210681	0.0286143	-0.000989492	-0.0182012	-0.0323702	-0.0306495	0.0519175	-0.00398591	0.0205592	-2.19978	0.0181271	-1.53536	0	0	0	0	-0	0	0	0	-0.1265	0	-0	0	0	0	0	0	-0	0	0.105	-0.015	0	0	-0	0	0	-0.098	0.1	0	-0	0	0	0	0	0	-0	0	0.05595	0	0	0	-0	0	0	0	0	0	-0	0	553.182	556.019	324.108	217.687	-0.083751	1.10131	0.00274583	-0.0177476	-3.28168
25	0.0329155	-0.0206363	0.010114	0.00968142	-0.0167181	-0.0406779	0.0210694	0.028612	-0.000985347	-0.0244277	-0.0307412	-0.0442012	0.0516804	-0.00398474	0.0211543	-2.18899	0.0177968	-1.53512	0	0	0	0	-0	0	0	0	-0.1265	0	-0	0	0	0	0	0	-0	0	0.105	-0.015	0	0	-0	0	0	-0.098	0.1	0	-0	0	0	0	0	0	-0	0	0.05595	0	0	0	-0	0	0	0	0	0	-0	0	553.289	556.139	324.062	218.009	-0.0857478	1.12111	0.0028762	-0.0177901	-3.33743
26	0.0304647	-0.0206392	0.0101108	0.00967579	-0.0167163	-0.0406722	0.0210675	0.0286093	-0.000985625	-0.0319108	-0.0389928	-0.0507978	0.0517269	-0.00398383	0.0210289	-2.19188	0.0179387	-1.53514	0	0	0	0	-0	0	0	0	-0.1265	0	-0	0	0	0	0	0	-0	0	0.105	-0.015	0	0	-0	0	0	-0.098	0.1	0	-0	0	0	0	0	0	-0	0	0.05595	0	0	0	-0	0	0	0	0	0	-0	0	553.367	556.226	324.028	218.243	-0.0872404	1.13602	0.00297081	-0.0178235	-3.37932
27	0.0392646	-0.0206445	0.0101074	0.00966589	-0.0167151	-0.0406651	0.021068	0.0286101	-0.000983359	-0.0211511	-0.0430492	-0.0508019	0.051538	-0.00398265	0.0214887	-2.18372	0.0177032	-1.53494	0	0	0	0	-0	0	0	0	-0.1265	0	-0	0	0	0	0	0	-0	0	0.105	-0.015	0	0	-0	0	0	-0.098	0.1	0	-0	0	0	0	0	0	-0	0	0.05595	0	0	0	-0	0	0	0	0	0	-0	0	553.48	556.352	323.978	218.578	-0.089005	1.15417	0.00310152	-0.0178743	-3.43124
28	0.0380014	-0.0206473	0.0101049	0.00965863	-0.0167133	-0.0406595	0.021067	0.0286095	-0.000986235	-0.0364464	-0.0609281	-0.0582316	0.0515604	-0.00398171	0.0214261	-2.18544	0.017806	-1.53494	0	0	0	0	-0	0	0	0	-0.1265	0	-0	0	0	0	0	0	-0	0	0.105	-0.015	0	0	-0	0	0	-0.098	0.1	0	-0	0	0	0	0	0	-0	0	0.05595	0	0	0	-0	0	0	0	0	0	-0	0	553.56	556.442	323.941	218.821	-0.0903018	1.16773	0.00319686	-0.017909	-3.47057
29	0.0431244	-0.0206507	0.0101029	0.00965308	-0.0167128	-0.0406555	0.0210682	0.0286084	-0.000982337	-0.0407126	-0.0546263	-0.0524975	0.0514489	-0.00398104	0.0216924	-2.18065	0.0176654	-1.53482	0	0	0	0	-0	0	0	0	-0.1265	0	-0	0	0	0	0	0	-0	0	0.105	-0.015	0	0	-0	0	0	-0.098	0.1	0	-0	0	0	0	0	0	-0	0	0.05595	0	0	0	-0	0	0	0	0	0	-0	0	553.62	556.509	323.914	218.999	-0.0913776	1.17856	0.00326887	-0.0179338	-3.5014
30	0.0450108	-0.0206534	0.0101001	0.0096461	-0.016711	-0.0406499	0.0210677	0.0286082	-0.000981727	-0.0391739	-0.0524534	-0.0442429	0.0514044	-0.00398011	0.0217927	-2.17925	0.017659	-1.53476	0	0	0	0	-0	0	0	0	-0.1265	0	-0	0	0	0	0	0	-0	0	0.105	-0.015	0	0	-0	0	0	-0.098	0.1	0	-0	0	0	0	0	0	-0	0	0.05595	0	0	0	-0	0	0	0	0	0	-0	0	553.706	556.604	323.874	219.255	-0.0926909	1.19234	0.00336882	-0.0179748	-3.54122
31	0.046873	-0.0206581	0.0100967	0.00963571	-0.0167094	-0.0406425	0.0210677	0.0286069	-0.000980959	-0.0407301	-0.0615441	-0.0482169	0.0513594	-0.00397886	0.0218937	-2.17807	0.0176795	-1.53468	0	0	0	0	-0	0	0	0	-0.1265	0	-0	0	0	0	0	0	-0	0	0.105	-0.015	0	0	-0	0	0	-0.098	0.1	0	-0	0	0	0	0	0	-0	0	0.05595	0	0	0	-0	0	0	0	0	0	-0	0	553.824	556.737	323.817	219.615	-0.0943494	1.21031	0.0035066	-0.0180321	-3.59416
32	0.0497144	-0.0206604	0.0100947	0.0096311	-0.0167083	-0.0406388	0.0210671	0.028607	-0.000980168	-0.0374468	-0.059079	-0.0437684	0.0512957	-0.0039782	0.0220413	-2.1755	0.0176125	-1.53462	0	0	0	0	-0	0	0	0	-0.1265	0	-0	0	0	0	0	0	-0	0	0.105	-0.015	0	0	-0	0	0	-0.098	0.1	0	-0	0	0	0	0	0	-0	0	0.05595	0	0	0	-0	0	0	0	0	0	-0	0	553.872	556.792	323.794	219.759	-0.0952716	1.21978	0.00356387	-0.0180503	-3.6215
33	0.0638974	-0.0206667	0.0100902	0.009616	-0.0167062	-0.0406284	0.0210722	0.0286051	-0.000974998	-0.0453329	-0.0882533	-0.0358867	0.0509754	-0.00397644	0.0227776	-2.16233	0.0172307	-1.5343	0	0	0	0	-0	0	0	0	-0.1265	0	-0	0	0	0	0	0	-0	0	0.105	-0.015	0	0	-0	0	0	-0.098	0.1	0	-0	0	0	0	0	0	-0	0	0.05595	0	0	0	-0	0	0	0	0	0	-0	0	554.05	556.99	323.707	220.296	-0.0973527	1.24337	0.00376681	-0.0181432	-3.69265
34	0.0619863	-0.0206692	0.0100862	0.00961017	-0.0167034	-0.0406222	0.0210706	0.0286126	-0.000977772	-0.0636327	-0.0786586	-0.0290187	0.0510112	-0.00397535	0.0226807	-2.16472	0.0173635	-1.5343	0	0	0	0	-0	0	0	0	-0.1265	0	-0	0	0	0	0	0	-0	0	0.105	-0.015	0	0	-0	0	0	-0.098	0.1	0	-0	0	0	0	0	0	-0	0	0.05595	0	0	0	-0	0	0	0	0	0	-0	0	554.133	557.084	323.665	220.55	-0.0988463	1.25933	0.00386448	-0.0181799	-3.73931
35	0.0620829	-0.0206722	0.0100852	0.00960151	-0.0167024	-0.0406176	0.0210675	0.0286057	-0.000975794	-0.059248	-0.0678464	-0.0353703	0.0510074	-0.00397463	0.0226875	-2.16497	0.0174077	-1.53427	0	0	0	0	-0	0	0	0	-0.1265	0	-0	0	0	0	0	0	-0	0	0.105	-0.015	0	0	-0	0	0	-0.098	0.1	0	-0	0	0	0	0	0	-0	0	0.05595	0	0	0	-0	0	0	0	0	0	-0	0	554.193	557.151	323.634	220.734	-0.100046	1.2713	0.0039443	-0.0182051	-3.7736
36	0.0653538	-0.0206746	0.0100835	0.00960005	-0.0167026	-0.0406155	0.0210667	0.0286054	-0.000976807	-0.0618369	-0.0679021	-0.0361871	0.0509328	-0.00397425	0.0228551	-2.16184	0.0173078	-1.5342	0	0	0	0	-0	0	0	0	-0.1265	0	-0	0	0	0	0	0	-0	0	0.105	-0.015	0	0	-0	0	0	-0.098	0.1	0	-0	0	0	0	0	0	-0	0	0.05595	0	0	0	-0	0	0	0	0	0	-0	0	554.218	557.179	323.621	220.809	-0.100619	1.27704	0.00397383	-0.0182155	-3.78979
37	0.0637402	-0.0206765	0.0100824	0.00959744	-0.0167024	-0.0406133	0.0210674	0.0286056	-0.000976045	-0.0617915	-0.062186	-0.0419594	0.0509684	-0.00397391	0.022774	-2.16364	0.0173931	-1.53421	0	0	0	0	-0	0	0	0	-0.1265	0	-0	0	0	0	0	0	-0	0	0.105	-0.015	0	0	-0	0	0	-0.098	0.1	0	-0	0	0	0	0	0	-0	0	0.05595	0	0	0	-0	0	0	0	0	0	-0	0	554.252	557.217	323.604	220.909	-0.101221	1.28326	0.00401301	-0.0182322	-3.80761
38	0.0633928	-0.020677	0.0100818	0.00959615	-0.0167019	-0.0406122	0.0210669	0.0286053	-0.000976487	-0.0609088	-0.0649329	-0.0450639	0.050976	-0.00397372	0.0227565	-2.16406	0.0174166	-1.53421	0	0	0	0	-0	0	0	0	-0.1265	0	-0	0	0	0	0	0	-0	0	0.105	-0.015	0	0	-0	0	0	-0.098	0.1	0	-0	0	0	0	0	0	-0	0	0.05595	0	0	0	-0	0	0	0	0	0	-0	0	554.265	557.232	323.596	220.949	-0.101524	1.2863	0.00403039	-0.0182377	-3.81626
39	0.0655487	-0.0206796	0.0100802	0.00959174	-0.0167015	-0.0406088	0.0210668	0.0286055	-0.00097591	-0.0552467	-0.0658174	-0.0469594	0.0509251	-0.00397318	0.0228687	-2.16221	0.0173799	-1.53415	0	0	0	0	-0	0	0	0	-0.1265	0	-0	0	0	0	0	0	-0	0	0.105	-0.015	0	0	-0	0	0	-0.098	0.1	0	-0	0	0	0	0	0	-0	0	0.05595	0	0	0	-0	0	0	0	0	0	-0	0	554.319	557.292	323.569	221.111	-0.102352	1.2951	0.00409444	-0.0182665	-3.84193
40	0.0663407	-0.0206801	0.0100797	0.00958988	-0.016701	-0.0406075	0.0210668	0.0286051	-0.00097588	-0.0553302	-0.0638164	-0.0434429	0.0509063	-0.00397294	0.0229096	-2.1615	0.0173622	-1.53413	0	0	0	0	-0	0	0	0	-0.1265	0	-0	0	0	0	0	0	-0	0	0.105	-0.015	0	0	-0	0	0	-0.098	0.1	0	-0	0	0	0	0	0	-0	0	0.05595	0	0	0	-0	0	0	0	0	0	-0	0	554.333	557.308	323.561	221.155	-0.102606	1.29783	0.00411256	-0.0182713	-3.85015
41	0.072998	-0.0206824	0.010078	0.00958532	-0.0167005	-0.0406042	0.021067	0.0286059	-0.000975655	-0.0476841	-0.0645189	-0.0392891	0.0507515	-0.00397238	0.0232511	-2.15517	0.017163	-1.53399	0	0	0	0	-0	0	0	0	-0.1265	0	-0	0	0	0	0	0	-0	0	0.105	-0.015	0	0	-0	0	0	-0.098	0.1	0	-0	0	0	0	0	0	-0	0	0.05595	0	0	0	-0	0	0	0	0	0	-0	0	554.39	557.371	323.531	221.328	-0.103326	1.306	0.00417791	-0.0183029	-3.87475
42	0.0734484	-0.0206853	0.0100758	0.00957834	-0.0166993	-0.0405993	0.0210669	0.0286049	-0.000974756	-0.0475144	-0.0661576	-0.0447702	0.0507364	-0.00397152	0.0232774	-2.15518	0.0172099	-1.53394	0	0	0	0	-0	0	0	0	-0.1265	0	-0	0	0	0	0	0	-0	0	0.105	-0.015	0	0	-0	0	0	-0.098	0.1	0	-0	0	0	0	0	0	-0	0	0.05595	0	0	0	-0	0	0	0	0	0	-0	0	554.471	557.462	323.488	221.571	-0.104279	1.31712	0.00426835	-0.0183454	-3.90889
43	0.074361	-0.0206864	0.0100748	0.00957568	-0.0166987	-0.0405974	0.0210672	0.0286048	-0.000974095	-0.049162	-0.0612176	-0.0497181	0.0507146	-0.00397115	0.0233243	-2.15439	0.0171936	-1.53391	0	0	0	0	-0	0	0	0	-0.1265	0	-0	0	0	0	0	0	-0	0	0.105	-0.015	0	0	-0	0	0	-0.098	0.1	0	-0	0	0	0	0	0	-0	0	0.05595	0	0	0	-0	0	0	0	0	0	-0	0	554.492	557.486	323.476	221.636	-0.104749	1.32195	0.00429505	-0.0183524	-3.92293
44	0.0751673	-0.0206871	0.0100741	0.00957452	-0.0166983	-0.0405962	0.0210669	0.0286046	-0.000974118	-0.0481082	-0.0641385	-0.0455309	0.0506956	-0.00397097	0.0233655	-2.15367	0.017176	-1.53389	0	0	0	0	-0	0	0	0	-0.1265	0	-0	0	0	0	0	0	-0	0	0.105	-0.015	0	0	-0	0	0	-0.098	0.1	0	-0	0	0	0	0	0	-0	0	0.05595	0	0	0	-0	0	0	0	0	0	-0	0	554.507	557.502	323.468	221.68	-0.105086	1.32529	0.00431409	-0.0183595	-3.93235
45	0.0808064	-0.0206899	0.0100722	0.00956931	-0.0166978	-0.0405923	0.021067	0.0286069	-0.000973188	-0.0604357	-0.0634917	-0.0389292	0.0505615	-0.00397034	0.023654	-2.14838	0.0170183	-1.53377	0	0	0	0	-0	0	0	0	-0.1265	0	-0	0	0	0	0	0	-0	0	0.105	-0.015	0	0	-0	0	0	-0.098	0.1	0	-0	0	0	0	0	0	-0	0	0.05595	0	0	0	-0	0	0	0	0	0	-0	0	554.569	557.57	323.434	221.869	-0.106009	1.33538	0.00438955	-0.0183946	-3.96218
46	0.0812699	-0.0206909	0.0100714	0.00956592	-0.0166968	-0.04059	0.021068	0.0286052	-0.000973515	-0.0533745	-0.0712806	-0.0403366	0.0505487	-0.00396993	0.0236783	-2.14809	0.0170256	-1.53374	0	0	0	0	-0	0	0	0	-0.1265	0	-0	0	0	0	0	0	-0	0	0.105	-0.015	0	0	-0	0	0	-0.098	0.1	0	-0	0	0	0	0	0	-0	0	0.05595	0	0	0	-0	0	0	0	0	0	-0	0	554.6	557.606	323.417	221.961	-0.106539	1.34105	0.00442508	-0.0184078	-3.97896
47	0.0812749	-0.0206936	0.0100692	0.0095609	-0.0166962	-0.040586	0.021065	0.0286066	-0.000969971	-0.0334611	-0.0528223	-0.0484818	0.050546	-0.00396926	0.0236815	-2.14846	0.017078	-1.53371	0	0	0	0	-0	0	0	0	-0.1265	0	-0	0	0	0	0	0	-0	0	0.105	-0.015	0	0	-0	0	0	-0.098	0.1	0	-0	0	0	0	0	0	-0	0	0.05595	0	0	0	-0	0	0	0	0	0	-0	0	554.664	557.677	323.381	222.157	-0.107377	1.35057	0.00450046	-0.0184441	-4.00778
48	0.0866439	-0.0206951	0.0100685	0.00955638	-0.0166954	-0.0405834	0.0210665	0.0286036	-0.00097248	-0.0346209	-0.0518231	-0.0504229	0.0504181	-0.00396879	0.0239538	-2.14327	0.0169043	-1.5336	0	0	0	0	-0	0	0	0	-0.1265	0	-0	0	0	0	0	0	-0	0	0.105	-0.015	0	0	-0	0	0	-0.098	0.1	0	-0	0	0	0	0	0	-0	0	0.05595	0	0	0	-0	0	0	0	0	0	-0	0	554.695	557.712	323.364	222.251	-0.107991	1.35698	0.00453843	-0.0184574	-4.02648
49	0.0894367	-0.0206962	0.0100674	0.00955669	-0.0166956	-0.0405826	0.0210665	0.0286036	-0.000972506	-0.0327826	-0.0522587	-0.0488896	0.05035	-0.00396865	0.0240948	-2.14055	0.0168111	-1.53355	0	0	0	0	-0	0	0	0	-0.1265	0	-0	0	0	0	0	0	-0	0	0.105	-0.015	0	0	-0	0	0	-0.098	0.1	0	-0	0	0	0	0	0	-0	0	0.05595	0	0	0	-0	0	0	0	0	0	-0	0	554.708	557.727	323.356	222.29	-0.108219	1.35945	0.0045536	-0.0184637	-4.03382
50	0.0901112	-0.0206968	0.010067	0.00955547	-0.0166954	-0.0405817	0.0210666	0.0286038	-0.000972365	-0.036581	-0.0502718	-0.0474631	0.0503332	-0.0039685	0.0241291	-2.13995	0.0167967	-1.53353	0	0	0	0	-0	0	0	0	-0.1265	0	-0	0	0	0	0	0	-0	0	0.105	-0.015	0	0	-0	0	0	-0.098	0.1	0	-0	0	0	0	0	0	-0	0	0.05595	0	0	0	-0	0	0	0	0	0	-0	0	554.721	557.742	323.349	222.329	-0.108482	1.36218	0.00456903	-0.0184704	-4.04165
51	0.0949157	-0.0206973	0.0100665	0.00955421	-0.0166951	-0.0405808	0.0210665	0.0286035	-0.000972316	-0.0362709	-0.0528873	-0.0493492	0.0502167	-0.00396834	0.0243715	-2.13522	0.0166281	-1.53344	0	0	0	0	-0	0	0	0	-0.1265	0	-0	0	0	0	0	0	-0	0	0.105	-0.015	0	0	-0	0	0	-0.098	0.1	0	-0	0	0	0	0	0	-0	0	0.05595	0	0	0	-0	0	0	0	0	0	-0	0	554.735	557.757	323.342	222.368	-0.108711	1.36455	0.00458501	-0.018477	-4.04852
52	0.100124	-0.0206986	0.0100656	0.00955203	-0.0166948	-0.040579	0.0210664	0.0286049	-0.000971565	-0.0461281	-0.0547294	-0.0446406	0.0500881	-0.00396804	0.024634	-2.13017	0.0164566	-1.53334	0	0	0	0	-0	0	0	0	-0.1265	0	-0	0	0	0	0	0	-0	0	0.105	-0.015	0	0	-0	0	0	-0.098	0.1	0	-0	0	0	0	0	0	-0	0	0.05595	0	0	0	-0	0	0	0	0	0	-0	0	554.763	557.788	323.326	222.453	-0.109133	1.36921	0.00461796	-0.0184931	-4.06238
53	0.104111	-0.0207001	0.0100646	0.00954795	-0.0166941	-0.0405763	0.0210671	0.0286047	-0.000971665	-0.0551155	-0.050584	-0.0434997	0.0499876	-0.00396758	0.0248351	-2.12642	0.0163402	-1.53325	0	0	0	0	-0	0	0	0	-0.1265	0	-0	0	0	0	0	0	-0	0	0.105	-0.015	0	0	-0	0	0	-0.098	0.1	0	-0	0	0	0	0	0	-0	0	0.05595	0	0	0	-0	0	0	0	0	0	-0	0	554.804	557.834	323.303	222.575	-0.109711	1.37561	0.00466626	-0.018515	-4.08159
54	0.102388	-0.0207009	0.0100638	0.00954619	-0.0166937	-0.0405749	0.0210665	0.0286041	-0.000971863	-0.0623388	-0.0518406	-0.047466	0.0500292	-0.00396733	0.0247496	-2.12825	0.0164211	-1.53327	0	0	0	0	-0	0	0	0	-0.1265	0	-0	0	0	0	0	0	-0	0	0.105	-0.015	0	0	-0	0	0	-0.098	0.1	0	-0	0	0	0	0	0	-0	0	0.05595	0	0	0	-0	0	0	0	0	0	-0	0	554.824	557.856	323.291	222.635	-0.110013	1.37905	0.00468876	-0.0185243	-4.09208
55	0.100544	-0.0207018	0.0100633	0.00954473	-0.0166936	-0.0405738	0.0210668	0.0286033	-0.000971147	-0.0639164	-0.0471057	-0.0506853	0.0500743	-0.00396714	0.0246579	-2.13018	0.0165025	-1.53329	0	0	0	0	-0	0	0	0	-0.1265	0	-0	0	0	0	0	0	-0	0	0.105	-0.015	0	0	-0	0	0	-0.098	0.1	0	-0	0	0	0	0	0	-0	0	0.05595	0	0	0	-0	0	0	0	0	0	-0	0	554.839	557.873	323.283	222.679	-0.110277	1.3818	0.00470729	-0.0185317	-4.10014
56	0.0980435	-0.020703	0.0100623	0.00954204	-0.0166932	-0.0405718	0.021067	0.0286035	-0.00097138	-0.0620533	-0.0522448	-0.0561128	0.0501344	-0.00396677	0.0245342	-2.13286	0.0166225	-1.53332	0	0	0	0	-0	0	0	0	-0.1265	0	-0	0	0	0	0	0	-0	0	0.105	-0.015	0	0	-0	0	0	-0.098	0.1	0	-0	0	0	0	0	0	-0	0	0.05595	0	0	0	-0	0	0	0	0	0	-0	0	554.872	557.909	323.265	222.775	-0.110731	1.38684	0.00474506	-0.0185502	-4.11518
57	0.098419	-0.0207037	0.0100617	0.00954045	-0.0166929	-0.0405707	0.021067	0.0286035	-0.000971064	-0.0586397	-0.0567183	-0.06069	0.0501245	-0.00396656	0.0245535	-2.13257	0.0166217	-1.5333	0	0	0	0	-0	0	0	0	-0.1265	0	-0	0	0	0	0	0	-0	0	0.105	-0.015	0	0	-0	0	0	-0.098	0.1	0	-0	0	0	0	0	0	-0	0	0.05595	0	0	0	-0	0	0	0	0	0	-0	0	554.888	557.926	323.255	222.823	-0.110979	1.38956	0.00476425	-0.0185574	-4.12341
58	0.0974053	-0.0207043	0.0100613	0.00953937	-0.0166927	-0.0405698	0.0210665	0.0286034	-0.000970791	-0.0529157	-0.058109	-0.0615504	0.0501491	-0.00396642	0.0245031	-2.13365	0.0166695	-1.53331	0	0	0	0	-0	0	0	0	-0.1265	0	-0	0	0	0	0	0	-0	0	0.105	-0.015	0	0	-0	0	0	-0.098	0.1	0	-0	0	0	0	0	0	-0	0	0.05595	0	0	0	-0	0	0	0	0	0	-0	0	554.899	557.939	323.249	222.857	-0.111214	1.392	0.0047781	-0.0185633	-4.13046
59	0.0958717	-0.0207048	0.010061	0.00953858	-0.0166926	-0.0405692	0.0210664	0.0286032	-0.000970856	-0.0483128	-0.0576467	-0.0591792	0.0501864	-0.00396632	0.0244264	-2.13523	0.0167343	-1.53333	0	0	0	0	-0	0	0	0	-0.1265	0	-0	0	0	0	0	0	-0	0	0.105	-0.015	0	0	-0	0	0	-0.098	0.1	0	-0	0	0	0	0	0	-0	0	0.05595	0	0	0	-0	0	0	0	0	0	-0	0	554.908	557.95	323.243	222.883	-0.111377	1.39371	0.00478755	-0.0185676	-4.1354
60	0.100647	-0.0207057	0.0100604	0.00953703	-0.0166924	-0.040568	0.0210668	0.0286034	-0.000970556	-0.0433986	-0.0612205	-0.056107	0.050069	-0.00396612	0.0246669	-2.13056	0.0165713	-1.53324	0	0	0	0	-0	0	0	0	-0.1265	0	-0	0	0	0	0	0	-0	0	0.105	-0.015	0	0	-0	0	0	-0.098	0.1	0	-0	0	0	0	0	0	-0	0	0.05595	0	0	0	-0	0	0	0	0	0	-0	0	554.926	557.969	323.232	222.94	-0.111625	1.39655	0.00481036	-0.0185787	-4.14404
61	0.0994899	-0.0207066	0.0100596	0.00953488	-0.016692	-0.0405663	0.0210666	0.0286042	-0.000969547	-0.0353039	-0.058894	-0.0638628	0.0500958	-0.00396584	0.0246099	-2.13188	0.0166378	-1.53325	0	0	0	0	-0	0	0	0	-0.1265	0	-0	0	0	0	0	0	-0	0	0.105	-0.015	0	0	-0	0	0	-0.098	0.1	0	-0	0	0	0	0	0	-0	0	0.05595	0	0	0	-0	0	0	0	0	0	-0	0	554.953	557.999	323.216	223.023	-0.111933	1.40031	0.00484068	-0.0185944	-4.1558
62	0.0981048	-0.020707	0.0100592	0.00953309	-0.0166915	-0.0405653	0.0210664	0.0286028	-0.000970241	-0.0345668	-0.0609372	-0.0669942	0.0501294	-0.00396564	0.024541	-2.13334	0.016701	-1.53326	0	0	0	0	-0	0	0	0	-0.1265	0	-0	0	0	0	0	0	-0	0	0.105	-0.015	0	0	-0	0	0	-0.098	0.1	0	-0	0	0	0	0	0	-0	0	0.05595	0	0	0	-0	0	0	0	0	0	-0	0	554.966	558.015	323.208	223.063	-0.112156	1.40275	0.00485616	-0.0186005	-4.16311
63	0.100827	-0.020709	0.0100579	0.0095297	-0.0166913	-0.0405628	0.0210667	0.0286034	-0.000968738	-0.0398446	-0.0672276	-0.0588627	0.0500605	-0.00396518	0.0246797	-2.13086	0.016635	-1.53319	0	0	0	0	-0	0	0	0	-0.1265	0	-0	0	0	0	0	0	-0	0	0.105	-0.015	0	0	-0	0	0	-0.098	0.1	0	-0	0	0	0	0	0	-0	0	0.05595	0	0	0	-0	0	0	0	0	0	-0	0	555.011	558.065	323.183	223.192	-0.112719	1.40915	0.00490494	-0.0186261	-4.18245
64	0.103878	-0.020711	0.0100563	0.00952404	-0.0166902	-0.040559	0.0210666	0.0286029	-0.000967819	-0.0326496	-0.056567	-0.0660773	0.0499822	-0.00396449	0.0248352	-2.12814	0.0165698	-1.53311	0	0	0	0	-0	0	0	0	-0.1265	0	-0	0	0	0	0	0	-0	0	0.105	-0.015	0	0	-0	0	0	-0.098	0.1	0	-0	0	0	0	0	0	-0	0	0.05595	0	0	0	-0	0	0	0	0	0	-0	0	555.072	558.133	323.148	223.37	-0.113495	1.41807	0.0049726	-0.0186596	-4.2097
65	0.10714	-0.0207113	0.0100559	0.00952271	-0.0166898	-0.0405581	0.0210663	0.0286023	-0.000969164	-0.0341891	-0.0548362	-0.0648968	0.0499008	-0.00396429	0.0249984	-2.12493	0.0164536	-1.53305	0	0	0	0	-0	0	0	0	-0.1265	0	-0	0	0	0	0	0	-0	0	0.105	-0.015	0	0	-0	0	0	-0.098	0.1	0	-0	0	0	0	0	0	-0	0	0.05595	0	0	0	-0	0	0	0	0	0	-0	0	555.08	558.141	323.142	223.394	-0.113658	1.41981	0.00498379	-0.0186607	-4.21509
66	0.107373	-0.020712	0.0100555	0.00952252	-0.0166901	-0.0405577	0.0210663	0.0286025	-0.000969153	-0.0382369	-0.0535261	-0.0656018	0.0498946	-0.00396424	0.02501	-2.12472	0.01645	-1.53304	0	0	0	0	-0	0	0	0	-0.1265	0	-0	0	0	0	0	0	-0	0	0.105	-0.015	0	0	-0	0	0	-0.098	0.1	0	-0	0	0	0	0	0	-0	0	0.05595	0	0	0	-0	0	0	0	0	0	-0	0	555.085	558.147	323.139	223.41	-0.113807	1.42129	0.00499085	-0.0186636	-4.21929
67	0.109132	-0.0207127	0.0100551	0.00952153	-0.0166899	-0.0405569	0.0210664	0.0286031	-0.000968285	-0.0442091	-0.0576307	-0.0587924	0.0498503	-0.00396411	0.0250981	-2.12303	0.0163942	-1.533	0	0	0	0	-0	0	0	0	-0.1265	0	-0	0	0	0	0	0	-0	0	0.105	-0.015	0	0	-0	0	0	-0.098	0.1	0	-0	0	0	0	0	0	-0	0	0.05595	0	0	0	-0	0	0	0	0	0	-0	0	555.097	558.161	323.132	223.446	-0.114052	1.42385	0.0050049	-0.0186707	-4.22658
68	0.1076	-0.0207127	0.0100549	0.00952078	-0.0166896	-0.0405564	0.0210663	0.0286023	-0.000968962	-0.0453357	-0.0571239	-0.0619069	0.0498885	-0.00396402	0.0250219	-2.1246	0.0164573	-1.53303	0	0	0	0	-0	0	0	0	-0.1265	0	-0	0	0	0	0	0	-0	0	0.105	-0.015	0	0	-0	0	0	-0.098	0.1	0	-0	0	0	0	0	0	-0	0	0.05595	0	0	0	-0	0	0	0	0	0	-0	0	555.104	558.168	323.128	223.464	-0.11416	1.42501	0.00501182	-0.0186736	-4.23003
69	0.111318	-0.0207132	0.0100547	0.00952062	-0.0166897	-0.0405561	0.0210663	0.0286022	-0.000968933	-0.0443273	-0.0595395	-0.0618982	0.0497953	-0.00396397	0.0252075	-2.12091	0.0163208	-1.53296	0	0	0	0	-0	0	0	0	-0.1265	0	-0	0	0	0	0	0	-0	0	0.105	-0.015	0	0	-0	0	0	-0.098	0.1	0	-0	0	0	0	0	0	-0	0	0.05595	0	0	0	-0	0	0	0	0	0	-0	0	555.108	558.173	323.125	223.478	-0.114261	1.42605	0.00501723	-0.0186761	-4.233
70	0.110753	-0.0207138	0.0100542	0.00951999	-0.0166896	-0.0405554	0.0210665	0.0286021	-0.000968879	-0.0434771	-0.0649149	-0.06198	0.049809	-0.00396387	0.0251795	-2.12153	0.0163509	-1.53296	0	0	0	0	-0	0	0	0	-0.1265	0	-0	0	0	0	0	0	-0	0	0.105	-0.015	0	0	-0	0	0	-0.098	0.1	0	-0	0	0	0	0	0	-0	0	0.05595	0	0	0	-0	0	0	0	0	0	-0	0	555.118	558.185	323.119	223.508	-0.114478	1.42825	0.00502916	-0.0186819	-4.2392
71	0.115032	-0.0207144	0.0100538	0.0095187	-0.0166894	-0.0405544	0.0210661	0.0286023	-0.000968644	-0.0386725	-0.0627818	-0.0636224	0.0497006	-0.00396371	0.0253933	-2.11734	0.0162013	-1.53289	0	0	0	0	-0	0	0	0	-0.1265	0	-0	0	0	0	0	0	-0	0	0.105	-0.015	0	0	-0	0	0	-0.098	0.1	0	-0	0	0	0	0	0	-0	0	0.05595	0	0	0	-0	0	0	0	0	0	-0	0	555.133	558.201	323.11	223.551	-0.114697	1.43072	0.00504584	-0.0186904	-4.24661
72	0.113881	-0.0207147	0.0100536	0.00951785	-0.0166893	-0.0405539	0.0210664	0.0286024	-0.000968942	-0.0355734	-0.0606103	-0.059305	0.0497291	-0.0039636	0.0253362	-2.11853	0.0162511	-1.5329	0	0	0	0	-0	0	0	0	-0.1265	0	-0	0	0	0	0	0	-0	0	0.105	-0.015	0	0	-0	0	0	-0.098	0.1	0	-0	0	0	0	0	0	-0	0	0.05595	0	0	0	-0	0	0	0	0	0	-0	0	555.14	558.209	323.106	223.573	-0.114799	1.43187	0.00505478	-0.0186939	-4.25017
73	0.117392	-0.0207153	0.0100532	0.00951642	-0.0166891	-0.040553	0.0210667	0.0286021	-0.000968392	-0.0374535	-0.0552335	-0.061496	0.0496394	-0.00396343	0.0255115	-2.11511	0.0161316	-1.53283	0	0	0	0	-0	0	0	0	-0.1265	0	-0	0	0	0	0	0	-0	0	0.105	-0.015	0	0	-0	0	0	-0.098	0.1	0	-0	0	0	0	0	0	-0	0	0.05595	0	0	0	-0	0	0	0	0	0	-0	0	555.156	558.227	323.096	223.62	-0.114987	1.43407	0.00507302	-0.0187033	-4.25698
74	0.116571	-0.0207155	0.0100529	0.00951569	-0.0166888	-0.0405524	0.0210663	0.0286021	-0.000968464	-0.0407571	-0.0541701	-0.0621148	0.0496597	-0.00396332	0.025471	-2.11597	0.0161695	-1.53284	0	0	0	0	-0	0	0	0	-0.1265	0	-0	0	0	0	0	0	-0	0	0.105	-0.015	0	0	-0	0	0	-0.098	0.1	0	-0	0	0	0	0	0	-0	0	0.05595	0	0	0	-0	0	0	0	0	0	-0	0	555.164	558.235	323.091	223.644	-0.115111	1.43545	0.00508262	-0.0187074	-4.26115
75	0.117083	-0.0207159	0.0100527	0.00951507	-0.0166888	-0.0405519	0.0210663	0.028602	-0.00096825	-0.0401718	-0.0512245	-0.0649595	0.0496464	-0.00396325	0.0254966	-2.11549	0.0161551	-1.53283	0	0	0	0	-0	0	0	0	-0.1265	0	-0	0	0	0	0	0	-0	0	0.105	-0.015	0	0	-0	0	0	-0.098	0.1	0	-0	0	0	0	0	0	-0	0	0.05595	0	0	0	-0	0	0	0	0	0	-0	0	555.17	558.242	323.087	223.661	-0.115215	1.43653	0.00508925	-0.0187103	-4.26432
76	0.114731	-0.0207164	0.0100523	0.00951404	-0.0166886	-0.0405512	0.0210659	0.0286022	-0.00096812	-0.0468928	-0.0576875	-0.0633252	0.0497058	-0.00396311	0.0253804	-2.11791	0.0162553	-1.53286	0	0	0	0	-0	0	0	0	-0.1265	0	-0	0	0	0	0	0	-0	0	0.105	-0.015	0	0	-0	0	0	-0.098	0.1	0	-0	0	0	0	0	0	-0	0	0.05595	0	0	0	-0	0	0	0	0	0	-0	0	555.183	558.257	323.079	223.699	-0.115379	1.43848	0.00510274	-0.018718	-4.27026
77	0.115306	-0.0207165	0.0100522	0.00951367	-0.0166886	-0.040551	0.0210662	0.0286019	-0.000968246	-0.0478718	-0.0561891	-0.0633173	0.049691	-0.00396307	0.025409	-2.11735	0.016235	-1.53285	0	0	0	0	-0	0	0	0	-0.1265	0	-0	0	0	0	0	0	-0	0	0.105	-0.015	0	0	-0	0	0	-0.098	0.1	0	-0	0	0	0	0	0	-0	0	0.05595	0	0	0	-0	0	0	0	0	0	-0	0	555.185	558.259	323.078	223.704	-0.115413	1.43882	0.0051051	-0.0187182	-4.27133
78	0.116308	-0.0207167	0.0100521	0.00951352	-0.0166886	-0.0405508	0.0210663	0.0286019	-0.000968208	-0.0489058	-0.054094	-0.0642263	0.0496654	-0.00396303	0.0254589	-2.11637	0.0162001	-1.53283	0	0	0	0	-0	0	0	0	-0.1265	0	-0	0	0	0	0	0	-0	0	0.105	-0.015	0	0	-0	0	0	-0.098	0.1	0	-0	0	0	0	0	0	-0	0	0.05595	0	0	0	-0	0	0	0	0	0	-0	0	555.188	558.263	323.076	223.715	-0.11548	1.43957	0.00510906	-0.0187204	-4.2735
79	0.118	-0.0207169	0.0100519	0.00951295	-0.0166885	-0.0405504	0.0210663	0.0286019	-0.000968165	-0.0475536	-0.0554054	-0.0620376	0.0496222	-0.00396296	0.0255431	-2.1147	0.0161406	-1.5328	0	0	0	0	-0	0	0	0	-0.1265	0	-0	0	0	0	0	0	-0	0	0.105	-0.015	0	0	-0	0	0	-0.098	0.1	0	-0	0	0	0	0	0	-0	0	0.05595	0	0	0	-0	0	0	0	0	0	-0	0	555.194	558.268	323.073	223.73	-0.115584	1.44057	0.00511697	-0.0187234	-4.27636
80	0.118424	-0.0207173	0.0100516	0.00951247	-0.0166884	-0.0405499	0.0210662	0.0286018	-0.000968079	-0.0474559	-0.0571018	-0.0603253	0.049611	-0.00396289	0.0255644	-2.11432	0.0161313	-1.53279	0	0	0	0	-0	0	0	0	-0.1265	0	-0	0	0	0	0	0	-0	0	0.105	-0.015	0	0	-0	0	0	-0.098	0.1	0	-0	0	0	0	0	0	-0	0	0.05595	0	0	0	-0	0	0	0	0	0	-0	0	555.202	558.278	323.068	223.754	-0.115692	1.44187	0.00512398	-0.018728	-4.28032
81	0.11469	-0.0207178	0.0100513	0.00951141	-0.0166882	-0.0405492	0.0210662	0.028602	-0.000968012	-0.0439442	-0.0577688	-0.0609752	0.0497059	-0.00396275	0.0253797	-2.11812	0.0162829	-1.53284	0	0	0	0	-0	0	0	0	-0.1265	0	-0	0	0	0	0	0	-0	0	0.105	-0.015	0	0	-0	0	0	-0.098	0.1	0	-0	0	0	0	0	0	-0	0	0.05595	0	0	0	-0	0	0	0	0	0	-0	0	555.214	558.292	323.061	223.788	-0.115873	1.44383	0.00513721	-0.0187347	-4.28611
82	0.11114	-0.020718	0.0100511	0.00951087	-0.0166881	-0.0405488	0.0210662	0.0286019	-0.000968007	-0.046224	-0.0575848	-0.0632156	0.0497955	-0.00396268	0.0252033	-2.1217	0.0164225	-1.5329	0	0	0	0	-0	0	0	0	-0.1265	0	-0	0	0	0	0	0	-0	0	0.105	-0.015	0	0	-0	0	0	-0.098	0.1	0	-0	0	0	0	0	0	-0	0	0.05595	0	0	0	-0	0	0	0	0	0	-0	0	555.219	558.298	323.057	223.805	-0.11596	1.44486	0.00514361	-0.0187376	-4.28929
83	0.109213	-0.0207186	0.0100507	0.00950984	-0.016688	-0.040548	0.0210665	0.0286023	-0.000968093	-0.0488643	-0.0584716	-0.0690894	0.0498432	-0.00396255	0.0251078	-2.1237	0.0165063	-1.53292	0	0	0	0	-0	0	0	0	-0.1265	0	-0	0	0	0	0	0	-0	0	0.105	-0.015	0	0	-0	0	0	-0.098	0.1	0	-0	0	0	0	0	0	-0	0	0.05595	0	0	0	-0	0	0	0	0	0	-0	0	555.232	558.312	323.05	223.842	-0.116146	1.44693	0.00515765	-0.018745	-4.29547
84	0.111954	-0.0207192	0.0100502	0.00950802	-0.0166877	-0.0405468	0.0210669	0.0286021	-0.000967948	-0.045867	-0.0646052	-0.0728778	0.0497735	-0.00396233	0.0252451	-2.12106	0.0164186	-1.53286	0	0	0	0	-0	0	0	0	-0.1265	0	-0	0	0	0	0	0	-0	0	0.105	-0.015	0	0	-0	0	0	-0.098	0.1	0	-0	0	0	0	0	0	-0	0	0.05595	0	0	0	-0	0	0	0	0	0	-0	0	555.25	558.33	323.038	223.896	-0.116383	1.44949	0.00518189	-0.0187556	-4.30325
85	0.115359	-0.0207195	0.0100499	0.00950718	-0.0166875	-0.0405461	0.0210661	0.0286016	-0.000967616	-0.0474964	-0.064592	-0.0730534	0.049687	-0.00396221	0.0254149	-2.1177	0.0162971	-1.5328	0	0	0	0	-0	0	0	0	-0.1265	0	-0	0	0	0	0	0	-0	0	0.105	-0.015	0	0	-0	0	0	-0.098	0.1	0	-0	0	0	0	0	0	-0	0	0.05595	0	0	0	-0	0	0	0	0	0	-0	0	555.259	558.34	323.032	223.922	-0.116529	1.45117	0.00519227	-0.0187603	-4.30835
86	0.113336	-0.02072	0.0100497	0.00950659	-0.0166875	-0.0405457	0.0210662	0.0286017	-0.000967461	-0.0463146	-0.0632594	-0.0760048	0.0497379	-0.00396213	0.0253145	-2.11976	0.0163798	-1.53283	0	0	0	0	-0	0	0	0	-0.1265	0	-0	0	0	0	0	0	-0	0	0.105	-0.015	0	0	-0	0	0	-0.098	0.1	0	-0	0	0	0	0	0	-0	0	0.05595	0	0	0	-0	0	0	0	0	0	-0	0	555.265	558.348	323.028	223.942	-0.116635	1.45237	0.0051992	-0.018764	-4.31198
87	0.112656	-0.0207202	0.0100495	0.00950609	-0.0166874	-0.0405453	0.0210663	0.0286016	-0.00096736	-0.0459541	-0.0597077	-0.078631	0.0497549	-0.00396206	0.0252807	-2.12047	0.0164101	-1.53284	0	0	0	0	-0	0	0	0	-0.1265	0	-0	0	0	0	0	0	-0	0	0.105	-0.015	0	0	-0	0	0	-0.098	0.1	0	-0	0	0	0	0	0	-0	0	0.05595	0	0	0	-0	0	0	0	0	0	-0	0	555.27	558.353	323.025	223.956	-0.116728	1.45332	0.0052056	-0.0187666	-4.31472
88	0.113711	-0.0207207	0.0100492	0.00950503	-0.0166873	-0.0405445	0.0210661	0.0286016	-0.00096741	-0.047334	-0.0588706	-0.0797944	0.0497279	-0.00396194	0.0253336	-2.11947	0.0163797	-1.53281	0	0	0	0	-0	0	0	0	-0.1265	0	-0	0	0	0	0	0	-0	0	0.105	-0.015	0	0	-0	0	0	-0.098	0.1	0	-0	0	0	0	0	0	-0	0	0.05595	0	0	0	-0	0	0	0	0	0	-0	0	555.281	558.364	323.018	223.988	-0.116909	1.45522	0.00522007	-0.0187731	-4.3203
89	0.110923	-0.020721	0.0100489	0.00950465	-0.0166872	-0.0405441	0.0210662	0.0286017	-0.000967347	-0.0477122	-0.0589684	-0.0760843	0.0497983	-0.00396187	0.0251951	-2.12229	0.0164903	-1.53286	0	0	0	0	-0	0	0	0	-0.1265	0	-0	0	0	0	0	0	-0	0	0.105	-0.015	0	0	-0	0	0	-0.098	0.1	0	-0	0	0	0	0	0	-0	0	0.05595	0	0	0	-0	0	0	0	0	0	-0	0	555.286	558.37	323.015	224.004	-0.117001	1.45623	0.00522574	-0.0187757	-4.32328
90	0.114913	-0.0207214	0.0100486	0.0095037	-0.016687	-0.0405434	0.0210664	0.0286017	-0.000966865	-0.0457559	-0.0540886	-0.0807487	0.0496971	-0.00396176	0.0253942	-2.11837	0.0163493	-1.53278	0	0	0	0	-0	0	0	0	-0.1265	0	-0	0	0	0	0	0	-0	0	0.105	-0.015	0	0	-0	0	0	-0.098	0.1	0	-0	0	0	0	0	0	-0	0	0.05595	0	0	0	-0	0	0	0	0	0	-0	0	555.297	558.382	323.007	224.038	-0.117136	1.45786	0.00523893	-0.0187831	-4.32836
91	0.114511	-0.0207215	0.0100484	0.00950327	-0.0166868	-0.0405431	0.0210662	0.0286017	-0.000967347	-0.0490675	-0.054979	-0.0833789	0.0497067	-0.00396168	0.0253743	-2.1188	0.0163697	-1.53279	0	0	0	0	-0	0	0	0	-0.1265	0	-0	0	0	0	0	0	-0	0	0.105	-0.015	0	0	-0	0	0	-0.098	0.1	0	-0	0	0	0	0	0	-0	0	0.05595	0	0	0	-0	0	0	0	0	0	-0	0	555.303	558.389	323.003	224.055	-0.117206	1.45875	0.00524379	-0.0187861	-4.33117
92	0.114028	-0.0207219	0.0100482	0.00950296	-0.0166869	-0.0405429	0.0210662	0.0286014	-0.000967102	-0.0479579	-0.0515742	-0.0847985	0.0497188	-0.00396165	0.0253504	-2.11931	0.0163918	-1.53279	0	0	0	0	-0	0	0	0	-0.1265	0	-0	0	0	0	0	0	-0	0	0.105	-0.015	0	0	-0	0	0	-0.098	0.1	0	-0	0	0	0	0	0	-0	0	0.05595	0	0	0	-0	0	0	0	0	0	-0	0	555.307	558.395	323.001	224.068	-0.117264	1.45945	0.00524704	-0.0187883	-4.33328
93	0.114811	-0.0207223	0.010048	0.00950197	-0.0166868	-0.0405422	0.0210664	0.0286015	-0.000966926	-0.0477834	-0.0560136	-0.0820615	0.0496986	-0.00396152	0.0253898	-2.11858	0.0163706	-1.53277	0	0	0	0	-0	0	0	0	-0.1265	0	-0	0	0	0	0	0	-0	0	0.105	-0.015	0	0	-0	0	0	-0.098	0.1	0	-0	0	0	0	0	0	-0	0	0.05595	0	0	0	-0	0	0	0	0	0	-0	0	555.316	558.403	322.994	224.096	-0.117412	1.461	0.00526086	-0.0187943	-4.33792
94	0.11627	-0.0207227	0.0100475	0.00950098	-0.0166865	-0.0405414	0.0210663	0.0286018	-0.000966912	-0.0440265	-0.0568806	-0.0861286	0.049661	-0.00396139	0.0254628	-2.11719	0.0163273	-1.53274	0	0	0	0	-0	0	0	0	-0.1265	0	-0	0	0	0	0	0	-0	0	0.105	-0.015	0	0	-0	0	0	-0.098	0.1	0	-0	0	0	0	0	0	-0	0	0.05595	0	0	0	-0	0	0	0	0	0	-0	0	555.329	558.418	322.986	224.136	-0.117561	1.4629	0.00527477	-0.0188026	-4.34388
95	0.113899	-0.020723	0.0100474	0.0095002	-0.0166864	-0.0405409	0.0210662	0.0286014	-0.000966888	-0.0443698	-0.0572342	-0.0831522	0.049721	-0.0039613	0.0253454	-2.1196	0.0164235	-1.53277	0	0	0	0	-0	0	0	0	-0.1265	0	-0	0	0	0	0	0	-0	0	0.105	-0.015	0	0	-0	0	0	-0.098	0.1	0	-0	0	0	0	0	0	-0	0	0.05595	0	0	0	-0	0	0	0	0	0	-0	0	555.336	558.426	322.981	224.156	-0.11767	1.4641	0.00528238	-0.0188059	-4.34751
96	0.110147	-0.0207237	0.0100469	0.0094989	-0.0166863	-0.0405399	0.0210662	0.0286015	-0.000966615	-0.0423026	-0.0552799	-0.0870052	0.0498154	-0.00396113	0.0251594	-2.12343	0.0165793	-1.53283	0	0	0	0	-0	0	0	0	-0.1265	0	-0	0	0	0	0	0	-0	0	0.105	-0.015	0	0	-0	0	0	-0.098	0.1	0	-0	0	0	0	0	0	-0	0	0.05595	0	0	0	-0	0	0	0	0	0	-0	0	555.351	558.442	322.972	224.199	-0.117891	1.46648	0.00530086	-0.018815	-4.35458
97	0.107855	-0.020724	0.0100466	0.00949829	-0.0166861	-0.0405394	0.021066	0.0286012	-0.000966739	-0.0447363	-0.0583964	-0.0869339	0.0498725	-0.00396104	0.0250453	-2.12576	0.0166728	-1.53286	0	0	0	0	-0	0	0	0	-0.1265	0	-0	0	0	0	0	0	-0	0	0.105	-0.015	0	0	-0	0	0	-0.098	0.1	0	-0	0	0	0	0	0	-0	0	0.05595	0	0	0	-0	0	0	0	0	0	-0	0	555.358	558.45	322.967	224.22	-0.118015	1.46785	0.00530856	-0.0188187	-4.35868
98	0.10986	-0.0207243	0.0100464	0.00949785	-0.0166861	-0.0405391	0.0210663	0.0286016	-0.000966614	-0.0470766	-0.0579114	-0.0821577	0.0498219	-0.00396097	0.0251455	-2.12379	0.0166015	-1.53282	0	0	0	0	-0	0	0	0	-0.1265	0	-0	0	0	0	0	0	-0	0	0.105	-0.015	0	0	-0	0	0	-0.098	0.1	0	-0	0	0	0	0	0	-0	0	0.05595	0	0	0	-0	0	0	0	0	0	-0	0	555.364	558.457	322.963	224.236	-0.118091	1.46878	0.00531311	-0.0188217	-4.36151
99	0.110766	-0.0207244	0.0100463	0.00949745	-0.0166859	-0.0405388	0.0210662	0.0286012	-0.000966609	-0.0477621	-0.0619152	-0.0815257	0.0497989	-0.00396092	0.0251907	-2.1229	0.0165707	-1.5328	0	0	0	0	-0	0	0	0	-0.1265	0	-0	0	0	0	0	0	-0	0	0.105	-0.015	0	0	-0	0	0	-0.098	0.1	0	-0	0	0	0	0	0	-0	0	0.05595	0	0	0	-0	0	0	0	0	0	-0	0	555.368	558.461	322.961	224.248	-0.118167	1.46953	0.00531841	-0.0188238	-4.36366
100	0.111679	-0.0207246	0.0100462	0.00949719	-0.0166859	-0.0405386	0.0210661	0.0286012	-0.000966627	-0.0467292	-0.0634905	-0.0821826	0.0497758	-0.00396088	0.0252362	-2.12201	0.0165387	-1.53279	0	0	0	0	-0	0	0	0	-0.1265	0	-0	0	0	0	0	0	-0	0	0.105	-0.015	0	0	-0	0	0	-0.098	0.1	0	-0	0	0	0	0	0	-0	0	0.05595	0	0	0	-0	0	0	0	0	0	-0	0	555.371	558.464	322.959	224.256	-0.118221	1.47007	0.00532227	-0.0188254	-4.36522
