Stefan210/kinematic_calibration/src/kinematic_calibration/validation/experiments/experiments/impact_noise/outlier/larm_randomize_18_measurements_rk_false/optimization_intermediate_results.csv
iteration	HeadPitch_offset	HeadYaw_offset	LElbowRoll_offset	LElbowYaw_offset	LShoulderPitch_offset	LShoulderRoll_offset	marker_transform_larm_tx	marker_transform_larm_ty	marker_transform_larm_tz	marker_transform_larm_rr	marker_transform_larm_rp	marker_transform_larm_ry	camera_transform_tx	camera_transform_ty	camera_transform_tz	camera_transform_rr	camera_transform_rp	camera_transform_ry	HeadPitch_transform_tx	HeadPitch_transform_ty	HeadPitch_transform_tz	HeadPitch_transform_rr	HeadPitch_transform_rp	HeadPitch_transform_ry	HeadYaw_transform_tx	HeadYaw_transform_ty	HeadYaw_transform_tz	HeadYaw_transform_rr	HeadYaw_transform_rp	HeadYaw_transform_ry	LElbowRoll_transform_tx	LElbowRoll_transform_ty	LElbowRoll_transform_tz	LElbowRoll_transform_rr	LElbowRoll_transform_rp	LElbowRoll_transform_ry	LElbowYaw_transform_tx	LElbowYaw_transform_ty	LElbowYaw_transform_tz	LElbowYaw_transform_rr	LElbowYaw_transform_rp	LElbowYaw_transform_ry	LShoulderPitch_transform_tx	LShoulderPitch_transform_ty	LShoulderPitch_transform_tz	LShoulderPitch_transform_rr	LShoulderPitch_transform_rp	LShoulderPitch_transform_ry	LShoulderRoll_transform_tx	LShoulderRoll_transform_ty	LShoulderRoll_transform_tz	LShoulderRoll_transform_rr	LShoulderRoll_transform_rp	LShoulderRoll_transform_ry	LWristYaw_transform_tx	LWristYaw_transform_ty	LWristYaw_transform_tz	LWristYaw_transform_rr	LWristYaw_transform_rp	LWristYaw_transform_ry	l_wrist_joint_transform_tx	l_wrist_joint_transform_ty	l_wrist_joint_transform_tz	l_wrist_joint_transform_rr	l_wrist_joint_transform_rp	l_wrist_joint_transform_ry	camera_fx	camera_fy	camera_cx	camera_cy	camera_D0	camera_D1	camera_D2	camera_D3	camera_D4	
0	0.0249164	-0.0307543	0.000853157	4.65819e-06	-0.000318322	-0.00310766	0.05071	0	0.01774	-2.26369	1.66533e-16	-1.5708	545.901	551.038	324.928	201.58	0.0255298	2.61142	-0.0636736	-0.0350419	0.213964
1	-0.024851	0.0351603	0.149231	0.213985	0.133088	0.0108955	0.0362265	-0.0434238	0.0192349	-0.00219242	-0.00210313	-0.00297538	0.0235984	-0.00460684	0.0214838	-2.16628	-0.0044306	-1.733	0	0	0	0	-0	0	0	0	-0.1265	0	-0	0	0	0	0	0	-0	0	0.105	0.015	0	0	-0	0	0	0.098	0.1	0	-0	0	0	0	0	0	-0	0	0.05595	0	0	0	-0	0	0	0	0	0	-0	0	545.9	551.037	324.928	201.578	0.11549	2.64422	0.0391556	-0.0675919	0.220587
2	-0.0284747	0.270024	0.0799116	0.398897	0.0889942	0.120054	0.0274958	-0.0424204	0.0514202	-0.00774921	-0.00737409	-0.00430416	0.0120873	0.036216	0.0478599	-2.09841	-0.162603	-2.08945	0	0	0	0	-0	0	0	0	-0.1265	0	-0	0	0	0	0	0	-0	0	0.105	0.015	0	0	-0	0	0	0.098	0.1	0	-0	0	0	0	0	0	-0	0	0.05595	0	0	0	-0	0	0	0	0	0	-0	0	545.899	551.037	324.926	201.577	0.105276	2.65075	0.205757	0.053756	0.221959
3	-0.023201	0.394259	0.059034	0.405481	0.0940183	0.115158	0.0232688	-0.0393676	0.0548619	-0.00893176	-0.00860215	-0.00466941	0.0424154	0.0445054	0.0369648	-2.08715	-0.205184	-2.24546	0	0	0	0	-0	0	0	0	-0.1265	0	-0	0	0	0	0	0	-0	0	0.105	0.015	0	0	-0	0	0	0.098	0.1	0	-0	0	0	0	0	0	-0	0	0.05595	0	0	0	-0	0	0	0	0	0	-0	0	545.899	551.037	324.926	201.577	0.08953	2.64725	0.188905	0.0992289	0.221369
4	-0.0314234	0.553209	-0.00541794	0.42107	0.0430898	0.131091	0.0190064	-0.0368588	0.0526627	-0.00912691	-0.00931848	-0.0050974	0.0561132	0.0410927	0.0203479	-1.98018	-0.257213	-2.45105	0	0	0	0	-0	0	0	0	-0.1265	0	-0	0	0	0	0	0	-0	0	0.105	0.015	0	0	-0	0	0	0.098	0.1	0	-0	0	0	0	0	0	-0	0	0.05595	0	0	0	-0	0	0	0	0	0	-0	0	545.899	551.037	324.926	201.578	0.0570615	2.64129	0.0927658	0.198497	0.220483
5	-0.035119	0.683656	-0.063751	0.431028	0.00113216	0.14568	0.0161219	-0.0349839	0.0503967	-0.00918473	-0.00974614	-0.00537437	0.0690125	0.0308373	0.0068487	-1.88515	-0.29794	-2.61479	0	0	0	0	-0	0	0	0	-0.1265	0	-0	0	0	0	0	0	-0	0	0.105	0.015	0	0	-0	0	0	0.098	0.1	0	-0	0	0	0	0	0	-0	0	0.05595	0	0	0	-0	0	0	0	0	0	-0	0	545.9	551.037	324.926	201.58	-0.00161777	2.62638	0.0228769	0.230803	0.217682
6	-0.0361723	0.74382	-0.0927362	0.435246	-0.0207491	0.152063	0.0150146	-0.0340544	0.0493454	-0.00921855	-0.0098964	-0.00546513	0.0723886	0.0242883	0.00268102	-1.83797	-0.315763	-2.68756	0	0	0	0	-0	0	0	0	-0.1265	0	-0	0	0	0	0	0	-0	0	0.105	0.015	0	0	-0	0	0	0.098	0.1	0	-0	0	0	0	0	0	-0	0	0.05595	0	0	0	-0	0	0	0	0	0	-0	0	545.9	551.037	324.924	201.584	-0.118673	2.58628	-0.000673305	0.227558	0.208236
7	-0.0359666	0.766058	-0.102282	0.436272	-0.0309717	0.155393	0.0146917	-0.0337532	0.049048	-0.00923214	-0.00993953	-0.00547886	0.0737424	0.0221954	0.00142778	-1.82371	-0.322673	-2.71023	0	0	0	0	-0	0	0	0	-0.1265	0	-0	0	0	0	0	0	-0	0	0.105	0.015	0	0	-0	0	0	0.098	0.1	0	-0	0	0	0	0	0	-0	0	0.05595	0	0	0	-0	0	0	0	0	0	-0	0	545.901	551.037	324.918	201.597	-0.474691	2.4426	0.0403097	0.187062	0.169574
8	-0.0376512	0.777016	-0.105814	0.437493	-0.0331299	0.15862	0.0148666	-0.0340668	0.0487754	-0.00914636	-0.00995096	-0.00544284	0.0767975	0.0154781	-0.00334888	-1.80557	-0.321273	-2.73502	0	0	0	0	-0	0	0	0	-0.1265	0	-0	0	0	0	0	0	-0	0	0.105	0.015	0	0	-0	0	0	0.098	0.1	0	-0	0	0	0	0	0	-0	0	0.05595	0	0	0	-0	0	0	0	0	0	-0	0	545.902	551.037	324.913	201.624	-1.14347	2.16474	0.0765172	0.129915	0.0935446
9	-0.0380495	0.807984	-0.114858	0.431573	-0.0382913	0.162183	0.0150117	-0.0349564	0.0478396	-0.00881908	-0.0101425	-0.00524707	0.0799822	0.00988902	-0.00802159	-1.77249	-0.330968	-2.78584	0	0	0	0	-0	0	0	0	-0.1265	0	-0	0	0	0	0	0	-0	0	0.105	0.015	0	0	-0	0	0	0.098	0.1	0	-0	0	0	0	0	0	-0	0	0.05595	0	0	0	-0	0	0	0	0	0	-0	0	545.899	551.03	324.934	201.672	-1.64825	1.90502	0.122467	0.0668879	0.0383964
10	-0.0390552	0.824932	-0.117554	0.426585	-0.036903	0.165762	0.0155267	-0.0358483	0.0472573	-0.00815462	-0.00948452	-0.00507741	0.0810375	0.0062433	-0.0103281	-1.75253	-0.332632	-2.81752	0	0	0	0	-0	0	0	0	-0.1265	0	-0	0	0	0	0	0	-0	0	0.105	0.015	0	0	-0	0	0	0.098	0.1	0	-0	0	0	0	0	0	-0	0	0.05595	0	0	0	-0	0	0	0	0	0	-0	0	545.889	551.005	325.042	201.773	-1.65916	1.72638	0.106799	0.0567491	0.139987
11	-0.0393355	0.842163	-0.121979	0.425364	-0.0419935	0.16846	0.0155675	-0.0362835	0.0470098	-0.00977457	-0.00889975	-0.00498748	0.0814306	0.00390336	-0.0113396	-1.73662	-0.333745	-2.83984	0	0	0	0	-0	0	0	0	-0.1265	0	-0	0	0	0	0	0	-0	0	0.105	0.015	0	0	-0	0	0	0.098	0.1	0	-0	0	0	0	0	0	-0	0	0.05595	0	0	0	-0	0	0	0	0	0	-0	0	545.84	550.936	325.363	202.049	-1.67792	1.32961	0.105728	0.0453172	0.859379
12	-0.0400246	0.851184	-0.122843	0.426012	-0.0444218	0.16966	0.0157285	-0.0367167	0.0468886	-0.00729401	-0.00923836	-0.00427839	0.0812342	0.00267756	-0.0117754	-1.72885	-0.33225	-2.85382	0	0	0	0	-0	0	0	0	-0.1265	0	-0	0	0	0	0	0	-0	0	0.105	0.015	0	0	-0	0	0	0.098	0.1	0	-0	0	0	0	0	0	-0	0	0.05595	0	0	0	-0	0	0	0	0	0	-0	0	545.625	550.735	326.401	202.811	-1.45276	-0.0150042	0.0911591	0.0424313	2.96278
13	-0.0358419	0.861816	-0.124106	0.427576	-0.0484974	0.170088	0.0157958	-0.0371696	0.0467305	-0.00672033	-0.0106973	-0.00598587	0.0806794	0.00258263	-0.0113415	-1.72266	-0.327933	-2.87089	0	0	0	0	-0	0	0	0	-0.1265	0	-0	0	0	0	0	0	-0	0	0.105	0.015	0	0	-0	0	0	0.098	0.1	0	-0	0	0	0	0	0	-0	0	0.05595	0	0	0	-0	0	0	0	0	0	-0	0	544.754	550.038	329.168	204.903	-0.956392	-3.0025	0.0771338	0.0370651	7.56936
14	-0.0389316	0.861316	-0.118238	0.43341	-0.0495464	0.167166	0.0160317	-0.037958	0.0470501	0.0131053	-0.0375644	-0.0108074	0.0791873	0.00301197	-0.0110976	-1.73188	-0.331103	-2.87491	0	0	0	0	-0	0	0	0	-0.1265	0	-0	0	0	0	0	0	-0	0	0.105	0.015	0	0	-0	0	0	0.098	0.1	0	-0	0	0	0	0	0	-0	0	0.05595	0	0	0	-0	0	0	0	0	0	-0	0	542.018	547.585	333.561	211.025	-0.352481	-6.68277	0.0545516	0.0297638	13.5148
15	-0.0936674	0.861927	-0.115167	0.438761	-0.0519758	0.167195	0.0163515	-0.0387265	0.0477683	-0.0110003	-0.150226	-0.0376836	0.0776265	0.00191752	-0.0153486	-1.77739	-0.380768	-2.85523	0	0	0	0	-0	0	0	0	-0.1265	0	-0	0	0	0	0	0	-0	0	0.105	0.015	0	0	-0	0	0	0.098	0.1	0	-0	0	0	0	0	0	-0	0	0.05595	0	0	0	-0	0	0	0	0	0	-0	0	535.089	539.451	328.49	227.778	0.101647	-10.4782	0.0252153	0.0367655	21.3736
16	0.0304606	0.863554	-0.115129	0.445203	-0.0520751	0.170083	0.016621	-0.0392099	0.0481694	-0.147294	-0.169961	-0.00273081	0.0788957	0.000495135	-0.00594053	-1.78659	-0.245766	-2.84144	0	0	0	0	-0	0	0	0	-0.1265	0	-0	0	0	0	0	0	-0	0	0.105	0.015	0	0	-0	0	0	0.098	0.1	0	-0	0	0	0	0	0	-0	0	0.05595	0	0	0	-0	0	0	0	0	0	-0	0	522.459	526.423	311.233	250.86	1.10776	-18.4665	-0.0501406	0.0913202	40.2973
17	0.0212413	0.87215	-0.118693	0.455625	-0.0538582	0.173955	0.0164487	-0.0388832	0.0486052	-0.110571	-0.109201	0.00697729	0.0782188	-0.000738317	-0.0070955	-1.79527	-0.252489	-2.85071	0	0	0	0	-0	0	0	0	-0.1265	0	-0	0	0	0	0	0	-0	0	0.105	0.015	0	0	-0	0	0	0.098	0.1	0	-0	0	0	0	0	0	-0	0	0.05595	0	0	0	-0	0	0	0	0	0	-0	0	512.089	518.29	313.197	259.51	1.86029	-23.2727	-0.118068	0.110775	52.9534
18	0.0405599	0.897297	-0.130422	0.457245	-0.069978	0.178886	0.0159473	-0.0384712	0.0479997	-0.133098	-0.105887	0.0511319	0.0787684	-0.00254638	-0.00575147	-1.77539	-0.235005	-2.8644	0	0	0	0	-0	0	0	0	-0.1265	0	-0	0	0	0	0	0	-0	0	0.105	0.015	0	0	-0	0	0	0.098	0.1	0	-0	0	0	0	0	0	-0	0	0.05595	0	0	0	-0	0	0	0	0	0	-0	0	507.291	513.983	308.327	259.077	2.01727	-25.0953	-0.109955	0.116872	56.7276
19	0.0683725	0.868926	-0.1086	0.469582	-0.0607968	0.165996	0.0162305	-0.0392367	0.0495977	-0.118846	-0.121109	0.0680395	0.0771063	-0.00183178	-0.00320678	-1.78389	-0.203923	-2.83535	0	0	0	0	-0	0	0	0	-0.1265	0	-0	0	0	0	0	0	-0	0	0.105	0.015	0	0	-0	0	0	0.098	0.1	0	-0	0	0	0	0	0	-0	0	0.05595	0	0	0	-0	0	0	0	0	0	-0	0	497.38	506.313	306.675	262.777	2.43505	-28.0204	-0.143652	0.125725	64.5091
20	0.0795538	0.892997	-0.123591	0.467386	-0.0716543	0.17621	0.0159828	-0.0388579	0.0491596	-0.0774565	-0.160411	0.0584024	0.0780886	-0.00340352	-0.00266931	-1.76618	-0.19328	-2.85288	0	0	0	0	-0	0	0	0	-0.1265	0	-0	0	0	0	0	0	-0	0	0.105	0.015	0	0	-0	0	0	0.098	0.1	0	-0	0	0	0	0	0	-0	0	0.05595	0	0	0	-0	0	0	0	0	0	-0	0	491.17	501.081	303.847	261.734	2.72606	-30.2533	-0.142611	0.128552	68.4427
21	0.121427	0.8643	-0.101235	0.478563	-0.0632835	0.163198	0.0161492	-0.0396857	0.0508533	-0.0378608	-0.223732	0.0370576	0.0765769	-0.00318957	0.000851639	-1.76921	-0.149968	-2.82155	0	0	0	0	-0	0	0	0	-0.1265	0	-0	0	0	0	0	0	-0	0	0.105	0.015	0	0	-0	0	0	0.098	0.1	0	-0	0	0	0	0	0	-0	0	0.05595	0	0	0	-0	0	0	0	0	0	-0	0	473.161	485.61	301.686	265.62	3.4037	-35.1786	-0.17292	0.135108	80.2227
22	0.0603585	0.877447	-0.110142	0.479978	-0.0707052	0.169945	0.0160302	-0.0391912	0.0507103	-0.0108434	-0.250819	0.037896	0.077294	-0.00455637	-0.00406394	-1.77718	-0.206245	-2.8244	0	0	0	0	-0	0	0	0	-0.1265	0	-0	0	0	0	0	0	-0	0	0.105	0.015	0	0	-0	0	0	0.098	0.1	0	-0	0	0	0	0	0	-0	0	0.05595	0	0	0	-0	0	0	0	0	0	-0	0	459.911	473.538	298.967	263.786	4.03629	-39.1592	-0.176602	0.140288	86.4764
23	0.00874683	0.853102	-0.0901808	0.490326	-0.0638157	0.156943	0.0163089	-0.0399509	0.0521516	-0.00622127	-0.230875	0.0742552	0.0753005	-0.00421567	-0.00780263	-1.80379	-0.25302	-2.79695	0	0	0	0	-0	0	0	0	-0.1265	0	-0	0	0	0	0	0	-0	0	0.105	0.015	0	0	-0	0	0	0.098	0.1	0	-0	0	0	0	0	0	-0	0	0.05595	0	0	0	-0	0	0	0	0	0	-0	0	454.446	468.901	300.201	265.177	4.26297	-40.4075	-0.193336	0.133854	88.985
24	-0.0615288	0.87014	-0.102298	0.487841	-0.0717226	0.165928	0.0161106	-0.0397516	0.0516316	-0.0451268	-0.218041	-0.00656833	0.0755758	-0.00564268	-0.0133396	-1.81839	-0.318057	-2.80058	0	0	0	0	-0	0	0	0	-0.1265	0	-0	0	0	0	0	0	-0	0	0.105	0.015	0	0	-0	0	0	0.098	0.1	0	-0	0	0	0	0	0	-0	0	0.05595	0	0	0	-0	0	0	0	0	0	-0	0	443.291	458.645	297.257	264.61	4.74073	-43.4515	-0.195755	0.138837	93.4965
25	-0.0486112	0.84275	-0.0797172	0.499635	-0.063373	0.15177	0.0163239	-0.0404494	0.0533786	-0.00176091	-0.205832	-0.0338188	0.0738852	-0.00519032	-0.0118396	-1.82751	-0.302956	-2.7757	0	0	0	0	-0	0	0	0	-0.1265	0	-0	0	0	0	0	0	-0	0	0.105	0.015	0	0	-0	0	0	0.098	0.1	0	-0	0	0	0	0	0	-0	0	0.05595	0	0	0	-0	0	0	0	0	0	-0	0	438.072	453.799	298.889	266.057	4.95874	-44.5162	-0.213452	0.132236	95.6563
26	-0.0721793	0.863455	-0.0960228	0.494735	-0.0727354	0.163188	0.0162659	-0.0397546	0.0528212	0.00805242	-0.0850853	-0.060615	0.0748382	-0.00673387	-0.0141629	-1.82469	-0.324535	-2.78555	0	0	0	0	-0	0	0	0	-0.1265	0	-0	0	0	0	0	0	-0	0	0.105	0.015	0	0	-0	0	0	0.098	0.1	0	-0	0	0	0	0	0	-0	0	0.05595	0	0	0	-0	0	0	0	0	0	-0	0	426.001	442.118	295.249	265.771	5.44096	-47.5383	-0.212302	0.140084	99.9202
27	-0.0355837	0.831889	-0.0722975	0.507793	-0.063237	0.148313	0.0164875	-0.0407156	0.0546957	0.0659396	-0.023974	-0.00147517	0.0740063	-0.00675782	-0.0110585	-1.83112	-0.28875	-2.76038	0	0	0	0	-0	0	0	0	-0.1265	0	-0	0	0	0	0	0	-0	0	0.105	0.015	0	0	-0	0	0	0.098	0.1	0	-0	0	0	0	0	0	-0	0	0.05595	0	0	0	-0	0	0	0	0	0	-0	0	410.644	425.587	297.466	269.973	6.07064	-50.8173	-0.240837	0.137953	106.023
28	-0.0970865	0.850909	-0.0869136	0.506232	-0.0728087	0.157516	0.0159716	-0.0396092	0.0540212	0.0576806	-0.0875024	0.0091347	0.0745711	-0.00822937	-0.0162536	-1.84077	-0.346195	-2.76688	0	0	0	0	-0	0	0	0	-0.1265	0	-0	0	0	0	0	0	-0	0	0.105	0.015	0	0	-0	0	0	0.098	0.1	0	-0	0	0	0	0	0	-0	0	0.05595	0	0	0	-0	0	0	0	0	0	-0	0	402.289	416.518	295.112	268.883	6.4589	-53.1163	-0.232458	0.141285	108.051
29	-0.00169823	0.816825	-0.0624597	0.519737	-0.0638859	0.141962	0.0161978	-0.0402985	0.0561074	0.0857358	-0.285947	0.227354	0.0742379	-0.00852685	-0.00853724	-1.82976	-0.255308	-2.74196	0	0	0	0	-0	0	0	0	-0.1265	0	-0	0	0	0	0	0	-0	0	0.105	0.015	0	0	-0	0	0	0.098	0.1	0	-0	0	0	0	0	0	-0	0	0.05595	0	0	0	-0	0	0	0	0	0	-0	0	384.396	397.451	296.411	273.951	7.11581	-56.4021	-0.260367	0.140368	113.905
30	0.0495126	0.833948	-0.0771869	0.51731	-0.0734517	0.15039	0.0156484	-0.0396587	0.0554998	0.00400056	-0.221118	0.259116	0.0759221	-0.00981637	-0.00547601	-1.79612	-0.20912	-2.75701	0	0	0	0	-0	0	0	0	-0.1265	0	-0	0	0	0	0	0	-0	0	0.105	0.015	0	0	-0	0	0	0.098	0.1	0	-0	0	0	0	0	0	-0	0	0.05595	0	0	0	-0	0	0	0	0	0	-0	0	374.384	386.785	293.86	272.424	7.59081	-58.8255	-0.249005	0.146836	115.611
31	0.00610508	0.798656	-0.0538348	0.532381	-0.0635848	0.136361	0.0162855	-0.0400996	0.0578673	-0.014641	-0.125801	0.338613	0.0743822	-0.010382	-0.00850155	-1.83573	-0.246938	-2.71672	0	0	0	0	-0	0	0	0	-0.1265	0	-0	0	0	0	0	0	-0	0	0.105	0.015	0	0	-0	0	0	0.098	0.1	0	-0	0	0	0	0	0	-0	0	0.05595	0	0	0	-0	0	0	0	0	0	-0	0	354.604	365.342	295.364	277.141	8.36288	-62.0432	-0.279432	0.148978	120.055
32	-0.000978995	0.820389	-0.0699331	0.528236	-0.074321	0.144532	0.0153191	-0.039091	0.0567875	-0.0603731	-0.073054	0.373414	0.0760844	-0.0119943	-0.00978838	-1.82139	-0.255574	-2.73467	0	0	0	0	-0	0	0	0	-0.1265	0	-0	0	0	0	0	0	-0	0	0.105	0.015	0	0	-0	0	0	0.098	0.1	0	-0	0	0	0	0	0	-0	0	0.05595	0	0	0	-0	0	0	0	0	0	-0	0	343.351	353.145	293.434	275.355	8.96246	-64.8258	-0.266028	0.151031	121.079
33	0.0153435	0.780555	-0.0444483	0.544483	-0.0632505	0.128632	0.0157963	-0.0401045	0.0590239	0.0286032	-0.110486	0.370553	0.0743648	-0.0117719	-0.00802438	-1.84153	-0.23618	-2.69583	0	0	0	0	-0	0	0	0	-0.1265	0	-0	0	0	0	0	0	-0	0	0.105	0.015	0	0	-0	0	0	0.098	0.1	0	-0	0	0	0	0	0	-0	0	0.05595	0	0	0	-0	0	0	0	0	0	-0	0	334.028	344.093	294.854	279.425	9.24906	-65.563	-0.293243	0.151418	122.592
34	-0.0724584	0.804439	-0.0617055	0.53703	-0.0748661	0.138872	0.0152309	-0.0386822	0.0576682	0.0343958	-0.0417974	0.336443	0.0756661	-0.0139235	-0.0154253	-1.86298	-0.317252	-2.69962	0	0	0	0	-0	0	0	0	-0.1265	0	-0	0	0	0	0	0	-0	0	0.105	0.015	0	0	-0	0	0	0.098	0.1	0	-0	0	0	0	0	0	-0	0	0.05595	0	0	0	-0	0	0	0	0	0	-0	0	313.396	322.68	291.319	277.128	10.2601	-69.6577	-0.278341	0.159441	123.316
35	-0.0521118	0.758446	-0.0310787	0.559288	-0.0600914	0.121426	0.0158918	-0.040023	0.0607744	0.0652114	-0.0363718	0.262236	0.0733713	-0.0136464	-0.0132789	-1.88333	-0.293417	-2.65909	0	0	0	0	-0	0	0	0	-0.1265	0	-0	0	0	0	0	0	-0	0	0.105	0.015	0	0	-0	0	0	0.098	0.1	0	-0	0	0	0	0	0	-0	0	0.05595	0	0	0	-0	0	0	0	0	0	-0	0	303.783	313.098	295.102	281.603	10.722	-70.7483	-0.316528	0.152867	124.887
36	-0.0963769	0.791401	-0.0547564	0.542469	-0.0754834	0.133997	0.0151507	-0.0384798	0.0582702	0.0337927	0.0708634	0.117618	0.0754551	-0.015908	-0.0179292	-1.87972	-0.334809	-2.67345	0	0	0	0	-0	0	0	0	-0.1265	0	-0	0	0	0	0	0	-0	0	0.105	0.015	0	0	-0	0	0	0.098	0.1	0	-0	0	0	0	0	0	-0	0	0.05595	0	0	0	-0	0	0	0	0	0	-0	0	281.178	289.712	289.511	278.105	11.9503	-75.6001	-0.289029	0.165761	125.357
37	-0.0931332	0.743325	-0.0272064	0.567355	-0.0564295	0.119086	0.0160894	-0.0394043	0.0618152	0.0586077	0.0820302	0.120069	0.0731509	-0.0147714	-0.0169905	-1.90777	-0.323393	-2.63218	0	0	0	0	-0	0	0	0	-0.1265	0	-0	0	0	0	0	0	-0	0	0.105	0.015	0	0	-0	0	0	0.098	0.1	0	-0	0	0	0	0	0	-0	0	0.05595	0	0	0	-0	0	0	0	0	0	-0	0	277.895	287.236	293.263	281.06	12.1683	-75.2614	-0.333858	0.165389	126.063
38	-0.0742736	0.780615	-0.046819	0.544933	-0.0744039	0.128137	0.0153548	-0.0383647	0.0588389	0.0664814	0.0567007	0.117396	0.0756875	-0.0164689	-0.0167221	-1.87127	-0.315287	-2.66637	0	0	0	0	-0	0	0	0	-0.1265	0	-0	0	0	0	0	0	-0	0	0.105	0.015	0	0	-0	0	0	0.098	0.1	0	-0	0	0	0	0	0	-0	0	0.05595	0	0	0	-0	0	0	0	0	0	-0	0	271.548	279.687	290.606	279.146	12.5498	-77.6005	-0.289248	0.162125	126.176
39	-0.0650375	0.741093	-0.0267807	0.569666	-0.0579697	0.120759	0.0162243	-0.0389465	0.0623764	0.0175213	0.0410245	0.179143	0.0740532	-0.015943	-0.0152216	-1.89612	-0.298975	-2.63031	0	0	0	0	-0	0	0	0	-0.1265	0	-0	0	0	0	0	0	-0	0	0.105	0.015	0	0	-0	0	0	0.098	0.1	0	-0	0	0	0	0	0	-0	0	0.05595	0	0	0	-0	0	0	0	0	0	-0	0	262.273	271.543	293.276	282.937	13.1207	-78.4916	-0.351773	0.173185	127.871
40	-0.0597714	0.775095	-0.0423186	0.544091	-0.0737745	0.124739	0.0152277	-0.0379977	0.0591696	0.0607616	0.0409968	0.228687	0.0764674	-0.0172736	-0.0159692	-1.8668	-0.303341	-2.6612	0	0	0	0	-0	0	0	0	-0.1265	0	-0	0	0	0	0	0	-0	0	0.105	0.015	0	0	-0	0	0	0.098	0.1	0	-0	0	0	0	0	0	-0	0	0.05595	0	0	0	-0	0	0	0	0	0	-0	0	257.806	265.838	290.312	280.044	13.395	-80.4802	-0.298413	0.16581	127.993
41	-0.0814653	0.737788	-0.0287906	0.571322	-0.0585295	0.122382	0.0162581	-0.0385456	0.0625256	0.0192694	0.0497178	0.246682	0.0742409	-0.0162471	-0.0167637	-1.90502	-0.311229	-2.62207	0	0	0	0	-0	0	0	0	-0.1265	0	-0	0	0	0	0	0	-0	0	0.105	0.015	0	0	-0	0	0	0.098	0.1	0	-0	0	0	0	0	0	-0	0	0.05595	0	0	0	-0	0	0	0	0	0	-0	0	253.608	263.167	292.491	283.051	13.684	-80.1389	-0.363072	0.183214	128.757
42	-0.0881909	0.771696	-0.0399089	0.543082	-0.0735964	0.123188	0.0154808	-0.0378948	0.0592345	0.0292059	0.04137	0.217478	0.0761828	-0.0177055	-0.0182456	-1.88269	-0.329143	-2.65286	0	0	0	0	-0	0	0	0	-0.1265	0	-0	0	0	0	0	0	-0	0	0.105	0.015	0	0	-0	0	0	0.098	0.1	0	-0	0	0	0	0	0	-0	0	0.05595	0	0	0	-0	0	0	0	0	0	-0	0	251.378	259.781	290.566	280.819	13.7721	-81.73	-0.301787	0.16615	128.736
43	-0.0955807	0.735748	-0.0278396	0.573408	-0.0587573	0.123127	0.0162142	-0.0387829	0.0628243	0.0666443	0.0123445	0.246595	0.0740842	-0.0168084	-0.0178605	-1.91388	-0.322764	-2.6154	0	0	0	0	-0	0	0	0	-0.1265	0	-0	0	0	0	0	0	-0	0	0.105	0.015	0	0	-0	0	0	0.098	0.1	0	-0	0	0	0	0	0	-0	0	0.05595	0	0	0	-0	0	0	0	0	0	-0	0	245.149	255.193	292.623	283.795	14.273	-82.0298	-0.376823	0.186837	129.805
44	-0.100722	0.765183	-0.03471	0.542827	-0.0727783	0.12151	0.0157118	-0.0379954	0.059508	0.0614318	0.00948627	0.245466	0.0760063	-0.018154	-0.0192721	-1.89379	-0.340026	-2.64323	0	0	0	0	-0	0	0	0	-0.1265	0	-0	0	0	0	0	0	-0	0	0.105	0.015	0	0	-0	0	0	0.098	0.1	0	-0	0	0	0	0	0	-0	0	0.05595	0	0	0	-0	0	0	0	0	0	-0	0	244.745	254.06	291.21	282.337	14.1615	-82.9687	-0.315984	0.164334	129.65
45	-0.112111	0.73879	-0.0301377	0.572694	-0.0599074	0.123606	0.0161532	-0.0383042	0.0627229	0.0607794	0.00936507	0.22712	0.0740921	-0.0169499	-0.019232	-1.91848	-0.336799	-2.6155	0	0	0	0	-0	0	0	0	-0.1265	0	-0	0	0	0	0	0	-0	0	0.105	0.015	0	0	-0	0	0	0.098	0.1	0	-0	0	0	0	0	0	-0	0	0.05595	0	0	0	-0	0	0	0	0	0	-0	0	242.824	252.752	292.187	283.096	14.4929	-82.7068	-0.378557	0.190192	130.035
46	-0.103085	0.764154	-0.0360739	0.543291	-0.0722357	0.12118	0.0157073	-0.0379484	0.0594602	0.0578658	0.012348	0.234272	0.0759101	-0.018155	-0.0196104	-1.89309	-0.339875	-2.641	0	0	0	0	-0	0	0	0	-0.1265	0	-0	0	0	0	0	0	-0	0	0.105	0.015	0	0	-0	0	0	0.098	0.1	0	-0	0	0	0	0	0	-0	0	0.05595	0	0	0	-0	0	0	0	0	0	-0	0	240.893	249.623	290.314	281.253	14.519	-84.1185	-0.315295	0.169714	130.138
47	-0.0859972	0.734396	-0.0281303	0.573796	-0.0591854	0.123255	0.0163826	-0.038466	0.0628955	0.0795226	0.0242032	0.213367	0.0745548	-0.0172259	-0.0173473	-1.90713	-0.312682	-2.61402	0	0	0	0	-0	0	0	0	-0.1265	0	-0	0	0	0	0	0	-0	0	0.105	0.015	0	0	-0	0	0	0.098	0.1	0	-0	0	0	0	0	0	-0	0	0.05595	0	0	0	-0	0	0	0	0	0	-0	0	236.84	246.89	292.111	283.34	14.9386	-84.1632	-0.38536	0.192236	130.831
48	-0.0442741	0.762813	-0.0356295	0.544569	-0.0717126	0.120485	0.0156433	-0.0378651	0.0596025	0.0595339	0.0258503	0.224815	0.077079	-0.0184855	-0.0153753	-1.86122	-0.286752	-2.64654	0	0	0	0	-0	0	0	0	-0.1265	0	-0	0	0	0	0	0	-0	0	0.105	0.015	0	0	-0	0	0	0.098	0.1	0	-0	0	0	0	0	0	-0	0	0.05595	0	0	0	-0	0	0	0	0	0	-0	0	232.616	240.486	289.79	280.438	15.2467	-86.5978	-0.317064	0.175461	131.368
49	-0.0577893	0.72951	-0.0266697	0.577378	-0.0584593	0.123085	0.0165454	-0.0384477	0.0632848	0.0732676	0.0487705	0.213935	0.074823	-0.0175182	-0.0153791	-1.89263	-0.285776	-2.61073	0	0	0	0	-0	0	0	0	-0.1265	0	-0	0	0	0	0	0	-0	0	0.105	0.015	0	0	-0	0	0	0.098	0.1	0	-0	0	0	0	0	0	-0	0	0.05595	0	0	0	-0	0	0	0	0	0	-0	0	229.392	238.844	291.835	283.152	15.5881	-86.2918	-0.394184	0.1967	132.062
50	-0.0973828	0.760715	-0.0343675	0.544022	-0.07162	0.119156	0.0156156	-0.0376158	0.0596515	0.102795	0.0561991	0.215797	0.0763935	-0.0188571	-0.0195197	-1.88784	-0.332093	-2.63558	0	0	0	0	-0	0	0	0	-0.1265	0	-0	0	0	0	0	0	-0	0	0.105	0.015	0	0	-0	0	0	0.098	0.1	0	-0	0	0	0	0	0	-0	0	0.05595	0	0	0	-0	0	0	0	0	0	-0	0	224.924	231.88	289.429	280.178	15.9141	-89.0066	-0.315048	0.178163	132.861
51	-0.0998994	0.725196	-0.0274405	0.579641	-0.0570998	0.122528	0.016534	-0.0382663	0.0633595	0.106627	0.0590104	0.220861	0.0741382	-0.0174525	-0.0187251	-1.9149	-0.318261	-2.5994	0	0	0	0	-0	0	0	0	-0.1265	0	-0	0	0	0	0	0	-0	0	0.105	0.015	0	0	-0	0	0	0.098	0.1	0	-0	0	0	0	0	0	-0	0	0.05595	0	0	0	-0	0	0	0	0	0	-0	0	223.591	231.639	290.898	281.992	16.1766	-88.2887	-0.39211	0.205197	133.334
52	-0.110115	0.755433	-0.0320576	0.543863	-0.070556	0.118148	0.0157992	-0.0378456	0.0597147	0.121519	0.0760911	0.222152	0.0759219	-0.018916	-0.0206338	-1.89712	-0.34271	-2.62769	0	0	0	0	-0	0	0	0	-0.1265	0	-0	0	0	0	0	0	-0	0	0.105	0.015	0	0	-0	0	0	0.098	0.1	0	-0	0	0	0	0	0	-0	0	0.05595	0	0	0	-0	0	0	0	0	0	-0	0	222.562	229.563	289.8	280.765	16.0634	-89.6017	-0.312315	0.176036	133.429
53	-0.109127	0.724195	-0.0267975	0.579195	-0.0569366	0.122493	0.0165393	-0.0381686	0.0633749	0.126409	0.080357	0.22677	0.0741222	-0.0175797	-0.0195033	-1.92046	-0.326043	-2.59648	0	0	0	0	-0	0	0	0	-0.1265	0	-0	0	0	0	0	0	-0	0	0.105	0.015	0	0	-0	0	0	0.098	0.1	0	-0	0	0	0	0	0	-0	0	0.05595	0	0	0	-0	0	0	0	0	0	-0	0	221.27	229.261	290.964	282.167	16.3791	-89.0018	-0.394567	0.206646	133.869
54	-0.106789	0.754224	-0.0313606	0.543932	-0.0701775	0.117869	0.0159123	-0.0378742	0.0597523	0.126351	0.0820823	0.22065	0.0759796	-0.0190069	-0.0204375	-1.89575	-0.339594	-2.6267	0	0	0	0	-0	0	0	0	-0.1265	0	-0	0	0	0	0	0	-0	0	0.105	0.015	0	0	-0	0	0	0.098	0.1	0	-0	0	0	0	0	0	-0	0	0.05595	0	0	0	-0	0	0	0	0	0	-0	0	220.091	226.991	289.817	280.865	16.3006	-90.3905	-0.31595	0.177781	134.028
55	-0.106388	0.724234	-0.0265497	0.579797	-0.0571616	0.122677	0.0165678	-0.0381492	0.0634865	0.133752	0.0935924	0.226964	0.0741801	-0.0177653	-0.0193283	-1.91844	-0.323605	-2.59609	0	0	0	0	-0	0	0	0	-0.1265	0	-0	0	0	0	0	0	-0	0	0.105	0.015	0	0	-0	0	0	0.098	0.1	0	-0	0	0	0	0	0	-0	0	0.05595	0	0	0	-0	0	0	0	0	0	-0	0	218.702	226.654	291.023	282.284	16.6287	-89.8617	-0.399091	0.207806	134.471
56	-0.111039	0.753291	-0.0308064	0.544015	-0.0701021	0.117449	0.0159703	-0.0377853	0.0597939	0.146885	0.0794187	0.236646	0.0759384	-0.0191317	-0.0208136	-1.89796	-0.342772	-2.62465	0	0	0	0	-0	0	0	0	-0.1265	0	-0	0	0	0	0	0	-0	0	0.105	0.015	0	0	-0	0	0	0.098	0.1	0	-0	0	0	0	0	0	-0	0	0.05595	0	0	0	-0	0	0	0	0	0	-0	0	217.403	224.132	289.726	280.865	16.5634	-91.3126	-0.318745	0.179196	134.706
57	-0.095504	0.721044	-0.0241985	0.580081	-0.0567811	0.123037	0.0166721	-0.0381779	0.0638062	0.106365	0.0752503	0.215613	0.0744127	-0.0181518	-0.0184982	-1.91647	-0.314597	-2.59339	0	0	0	0	-0	0	0	0	-0.1265	0	-0	0	0	0	0	0	-0	0	0.105	0.015	0	0	-0	0	0	0.098	0.1	0	-0	0	0	0	0	0	-0	0	0.05595	0	0	0	-0	0	0	0	0	0	-0	0	213.714	222.685	291.555	283.59	17.0213	-91.1675	-0.414614	0.208058	135.665
58	-0.0947918	0.746049	-0.0241855	0.540012	-0.0693934	0.115479	0.0163375	-0.0378599	0.0599243	0.106745	0.0750284	0.215049	0.0765677	-0.0194179	-0.0195448	-1.89718	-0.331498	-2.62054	0	0	0	0	-0	0	0	0	-0.1265	0	-0	0	0	0	0	0	-0	0	0.105	0.015	0	0	-0	0	0	0.098	0.1	0	-0	0	0	0	0	0	-0	0	0.05595	0	0	0	-0	0	0	0	0	0	-0	0	213.719	222.6	291.363	283.434	16.6766	-91.4671	-0.344783	0.172465	135.574
59	-0.0967185	0.730039	-0.0281425	0.577991	-0.0600292	0.125135	0.0163734	-0.0377835	0.0635378	0.105747	0.0752541	0.215011	0.0748904	-0.0184077	-0.0186598	-1.91109	-0.31763	-2.60158	0	0	0	0	-0	0	0	0	-0.1265	0	-0	0	0	0	0	0	-0	0	0.105	0.015	0	0	-0	0	0	0.098	0.1	0	-0	0	0	0	0	0	-0	0	0.05595	0	0	0	-0	0	0	0	0	0	-0	0	213.581	222.539	291.418	283.481	17.0729	-91.305	-0.416151	0.211784	135.654
60	-0.0953742	0.746015	-0.0249791	0.541712	-0.0691835	0.115824	0.0163724	-0.0378875	0.0600499	0.108984	0.0762713	0.216231	0.076379	-0.0194255	-0.0195639	-1.89699	-0.330498	-2.62064	0	0	0	0	-0	0	0	0	-0.1265	0	-0	0	0	0	0	0	-0	0	0.105	0.015	0	0	-0	0	0	0.098	0.1	0	-0	0	0	0	0	0	-0	0	0.05595	0	0	0	-0	0	0	0	0	0	-0	0	213.543	222.317	291.053	283.192	16.765	-91.6688	-0.349129	0.175299	135.581
61	-0.0977658	0.730542	-0.0280429	0.576045	-0.0603007	0.124283	0.0163672	-0.0377538	0.0633242	0.107594	0.0759409	0.21408	0.0749577	-0.018416	-0.0188429	-1.91037	-0.318666	-2.60258	0	0	0	0	-0	0	0	0	-0.1265	0	-0	0	0	0	0	0	-0	0	0.105	0.015	0	0	-0	0	0	0.098	0.1	0	-0	0	0	0	0	0	-0	0	0.05595	0	0	0	-0	0	0	0	0	0	-0	0	213.222	222.177	291.202	283.29	17.1219	-91.4779	-0.416323	0.211739	135.707
62	-0.0971478	0.746971	-0.026353	0.543178	-0.069148	0.116539	0.0163017	-0.0378552	0.0601142	0.108246	0.0803959	0.213085	0.0762983	-0.0194081	-0.0197086	-1.89679	-0.330935	-2.62091	0	0	0	0	-0	0	0	0	-0.1265	0	-0	0	0	0	0	0	-0	0	0.105	0.015	0	0	-0	0	0	0.098	0.1	0	-0	0	0	0	0	0	-0	0	0.05595	0	0	0	-0	0	0	0	0	0	-0	0	213.07	221.696	290.626	282.795	16.8628	-91.9647	-0.350103	0.179074	135.665
63	-0.0943798	0.729251	-0.0275915	0.575129	-0.0599484	0.123575	0.0164317	-0.0377989	0.0632343	0.110375	0.0807402	0.206578	0.0750269	-0.018398	-0.0186422	-1.90873	-0.315369	-2.60203	0	0	0	0	-0	0	0	0	-0.1265	0	-0	0	0	0	0	0	-0	0	0.105	0.015	0	0	-0	0	0	0.098	0.1	0	-0	0	0	0	0	0	-0	0	0.05595	0	0	0	-0	0	0	0	0	0	-0	0	212.351	221.394	291.035	283.115	17.2002	-91.7427	-0.416468	0.21187	135.879
64	-0.0928293	0.74631	-0.0265247	0.543919	-0.0689144	0.116837	0.0163221	-0.037853	0.0601956	0.109975	0.0794243	0.206032	0.0763672	-0.019409	-0.0193794	-1.89467	-0.326699	-2.62074	0	0	0	0	-0	0	0	0	-0.1265	0	-0	0	0	0	0	0	-0	0	0.105	0.015	0	0	-0	0	0	0.098	0.1	0	-0	0	0	0	0	0	-0	0	0.05595	0	0	0	-0	0	0	0	0	0	-0	0	212.249	221.039	290.616	282.761	16.944	-92.1939	-0.352891	0.180567	135.807
65	-0.0948743	0.729085	-0.0272704	0.57424	-0.0600291	0.123246	0.0164579	-0.0377707	0.0631704	0.103159	0.0848965	0.208904	0.0750531	-0.018453	-0.0187255	-1.90875	-0.31592	-2.60172	0	0	0	0	-0	0	0	0	-0.1265	0	-0	0	0	0	0	0	-0	0	0.105	0.015	0	0	-0	0	0	0.098	0.1	0	-0	0	0	0	0	0	-0	0	0.05595	0	0	0	-0	0	0	0	0	0	-0	0	211.473	220.682	291.023	283.099	17.2801	-92.0092	-0.41757	0.211678	136.024
66	-0.0935306	0.744024	-0.0255822	0.544089	-0.0682483	0.116497	0.0163996	-0.0378703	0.0602977	0.102711	0.0848383	0.207899	0.0763356	-0.0193656	-0.0194057	-1.89644	-0.327028	-2.6187	0	0	0	0	-0	0	0	0	-0.1265	0	-0	0	0	0	0	0	-0	0	0.105	0.015	0	0	-0	0	0	0.098	0.1	0	-0	0	0	0	0	0	-0	0	0.05595	0	0	0	-0	0	0	0	0	0	-0	0	211.448	220.577	290.873	282.991	17.0033	-92.2627	-0.360254	0.181356	135.958
67	-0.0950075	0.731111	-0.0277418	0.57258	-0.0609916	0.12332	0.0163926	-0.0377272	0.0629963	0.101909	0.0868932	0.207103	0.0751899	-0.0185536	-0.018796	-1.90734	-0.316721	-2.60379	0	0	0	0	-0	0	0	0	-0.1265	0	-0	0	0	0	0	0	-0	0	0.105	0.015	0	0	-0	0	0	0.098	0.1	0	-0	0	0	0	0	0	-0	0	0.05595	0	0	0	-0	0	0	0	0	0	-0	0	211.231	220.47	290.967	283.074	17.3072	-92.1419	-0.415893	0.211196	136.04
68	-0.0944457	0.744291	-0.0260132	0.545484	-0.0680045	0.116803	0.0163686	-0.0378437	0.0603905	0.101379	0.0873708	0.208921	0.076259	-0.0193728	-0.0194749	-1.89663	-0.326961	-2.61863	0	0	0	0	-0	0	0	0	-0.1265	0	-0	0	0	0	0	0	-0	0	0.105	0.015	0	0	-0	0	0	0.098	0.1	0	-0	0	0	0	0	0	-0	0	0.05595	0	0	0	-0	0	0	0	0	0	-0	0	211.11	220.145	290.625	282.794	17.084	-92.4966	-0.361991	0.183722	136
69	-0.0959219	0.730723	-0.0274612	0.571697	-0.0608457	0.122789	0.016423	-0.0377524	0.0629137	0.102601	0.0892107	0.209538	0.0751816	-0.0185668	-0.0189119	-1.90768	-0.317487	-2.60343	0	0	0	0	-0	0	0	0	-0.1265	0	-0	0	0	0	0	0	-0	0	0.105	0.015	0	0	-0	0	0	0.098	0.1	0	-0	0	0	0	0	0	-0	0	0.05595	0	0	0	-0	0	0	0	0	0	-0	0	210.623	219.902	290.873	282.992	17.3675	-92.3477	-0.416071	0.211165	136.151
70	-0.0987498	0.744777	-0.0267902	0.546252	-0.0680348	0.117145	0.0163274	-0.0377884	0.0604086	0.103911	0.0861391	0.203103	0.0761816	-0.0193788	-0.0198305	-1.89809	-0.329957	-2.61797	0	0	0	0	-0	0	0	0	-0.1265	0	-0	0	0	0	0	0	-0	0	0.105	0.015	0	0	-0	0	0	0.098	0.1	0	-0	0	0	0	0	0	-0	0	0.05595	0	0	0	-0	0	0	0	0	0	-0	0	210.297	219.189	290.318	282.486	17.1949	-92.8663	-0.362024	0.18623	136.168
71	-0.0976969	0.729142	-0.0268342	0.571585	-0.0603967	0.122428	0.0164936	-0.037791	0.0629351	0.0982671	0.088066	0.197364	0.0751165	-0.0185987	-0.0190665	-1.90941	-0.318697	-2.60137	0	0	0	0	-0	0	0	0	-0.1265	0	-0	0	0	0	0	0	-0	0	0.105	0.015	0	0	-0	0	0	0.098	0.1	0	-0	0	0	0	0	0	-0	0	0.05595	0	0	0	-0	0	0	0	0	0	-0	0	209.242	218.658	290.878	283.012	17.4921	-92.749	-0.418202	0.211467	136.435
72	-0.0986654	0.74391	-0.0262517	0.546079	-0.0679408	0.116976	0.0163411	-0.037781	0.0604248	0.0989487	0.0888314	0.20079	0.076222	-0.0194324	-0.019854	-1.89844	-0.329815	-2.61687	0	0	0	0	-0	0	0	0	-0.1265	0	-0	0	0	0	0	0	-0	0	0.105	0.015	0	0	-0	0	0	0.098	0.1	0	-0	0	0	0	0	0	-0	0	0.05595	0	0	0	-0	0	0	0	0	0	-0	0	209.033	218.113	290.384	282.572	17.3052	-93.2237	-0.364181	0.186306	136.413
73	-0.09802	0.728256	-0.026438	0.571481	-0.0602569	0.122388	0.0165293	-0.0378161	0.0629647	0.10669	0.086495	0.209079	0.075143	-0.0186555	-0.0191081	-1.9101	-0.318772	-2.60016	0	0	0	0	-0	0	0	0	-0.1265	0	-0	0	0	0	0	0	-0	0	0.105	0.015	0	0	-0	0	0	0.098	0.1	0	-0	0	0	0	0	0	-0	0	0.05595	0	0	0	-0	0	0	0	0	0	-0	0	207.883	217.505	290.917	283.106	17.6169	-93.128	-0.421724	0.212298	136.701
74	-0.0955446	0.743641	-0.0261251	0.545974	-0.0680369	0.116972	0.0163393	-0.0377457	0.0604358	0.107319	0.0885178	0.215117	0.0763359	-0.0195012	-0.0196472	-1.89668	-0.326958	-2.61673	0	0	0	0	-0	0	0	0	-0.1265	0	-0	0	0	0	0	0	-0	0	0.105	0.015	0	0	-0	0	0	0.098	0.1	0	-0	0	0	0	0	0	-0	0	0.05595	0	0	0	-0	0	0	0	0	0	-0	0	207.666	216.886	290.346	282.578	17.4377	-93.6488	-0.366673	0.187212	136.681
75	-0.0885267	0.727332	-0.0261235	0.571468	-0.0601341	0.122355	0.0165761	-0.0377987	0.0629953	0.110663	0.0876576	0.221846	0.0753515	-0.0187156	-0.0184079	-1.90545	-0.310316	-2.60054	0	0	0	0	-0	0	0	0	-0.1265	0	-0	0	0	0	0	0	-0	0	0.105	0.015	0	0	-0	0	0	0.098	0.1	0	-0	0	0	0	0	0	-0	0	0.05595	0	0	0	-0	0	0	0	0	0	-0	0	206.398	216.2	290.911	283.185	17.7566	-93.5565	-0.425446	0.213353	137.005
76	-0.0882951	0.741712	-0.0249428	0.545479	-0.0677063	0.116641	0.0164381	-0.0377681	0.0604971	0.11239	0.0861308	0.222351	0.0765083	-0.0195585	-0.019087	-1.8943	-0.320899	-2.61604	0	0	0	0	-0	0	0	0	-0.1265	0	-0	0	0	0	0	0	-0	0	0.105	0.015	0	0	-0	0	0	0.098	0.1	0	-0	0	0	0	0	0	-0	0	0.05595	0	0	0	-0	0	0	0	0	0	-0	0	206.358	216.008	290.67	282.987	17.5226	-93.8662	-0.37252	0.18647	136.939
77	-0.0895628	0.728995	-0.0266964	0.570773	-0.0608397	0.122574	0.0165025	-0.0376959	0.0629195	0.111469	0.0844094	0.221934	0.0754403	-0.0187889	-0.0185308	-1.90466	-0.311486	-2.60188	0	0	0	0	-0	0	0	0	-0.1265	0	-0	0	0	0	0	0	-0	0	0.105	0.015	0	0	-0	0	0	0.098	0.1	0	-0	0	0	0	0	0	-0	0	0.05595	0	0	0	-0	0	0	0	0	0	-0	0	205.996	215.805	290.826	283.126	17.8087	-93.734	-0.425757	0.214034	137.067
78	-0.0868239	0.742236	-0.0256395	0.546002	-0.0677085	0.116789	0.0163993	-0.0377289	0.0604884	0.115244	0.0883646	0.220813	0.0765182	-0.0195585	-0.0190064	-1.89275	-0.318892	-2.61659	0	0	0	0	-0	0	0	0	-0.1265	0	-0	0	0	0	0	0	-0	0	0.105	0.015	0	0	-0	0	0	0.098	0.1	0	-0	0	0	0	0	0	-0	0	0.05595	0	0	0	-0	0	0	0	0	0	-0	0	205.784	215.222	290.32	282.672	17.622	-94.1876	-0.372388	0.188939	137.069
79	-0.0865836	0.727814	-0.0264271	0.570711	-0.0604862	0.122312	0.0165519	-0.0377161	0.0629202	0.112507	0.0867548	0.223986	0.0754818	-0.0187939	-0.0183378	-1.9035	-0.308562	-2.60106	0	0	0	0	-0	0	0	0	-0.1265	0	-0	0	0	0	0	0	-0	0	0.105	0.015	0	0	-0	0	0	0.098	0.1	0	-0	0	0	0	0	0	-0	0	0.05595	0	0	0	-0	0	0	0	0	0	-0	0	204.967	214.792	290.743	283.075	17.908	-94.0565	-0.42685	0.214796	137.3
80	-0.0850728	0.740202	-0.0247271	0.545814	-0.067261	0.116526	0.0164928	-0.0377642	0.0605548	0.113225	0.0858941	0.223486	0.0765551	-0.0195532	-0.0188587	-1.89313	-0.317367	-2.61499	0	0	0	0	-0	0	0	0	-0.1265	0	-0	0	0	0	0	0	-0	0	0.105	0.015	0	0	-0	0	0	0.098	0.1	0	-0	0	0	0	0	0	-0	0	0.05595	0	0	0	-0	0	0	0	0	0	-0	0	204.938	214.675	290.604	282.967	17.673	-94.2827	-0.377641	0.188772	137.248
81	-0.0841563	0.72952	-0.0268732	0.569835	-0.0612376	0.122514	0.0164965	-0.0376566	0.0628295	0.112122	0.0868977	0.222882	0.0756271	-0.0188794	-0.018186	-1.90098	-0.306933	-2.60301	0	0	0	0	-0	0	0	0	-0.1265	0	-0	0	0	0	0	0	-0	0	0.105	0.015	0	0	-0	0	0	0.098	0.1	0	-0	0	0	0	0	0	-0	0	0.05595	0	0	0	-0	0	0	0	0	0	-0	0	204.713	214.546	290.705	283.058	17.9381	-94.185	-0.426048	0.214687	137.33
82	-0.083532	0.74059	-0.0251461	0.546715	-0.0671717	0.116729	0.0164691	-0.0377363	0.0606031	0.116509	0.0846213	0.224505	0.0765456	-0.0195688	-0.0187487	-1.8919	-0.315436	-2.61545	0	0	0	0	-0	0	0	0	-0.1265	0	-0	0	0	0	0	0	-0	0	0.105	0.015	0	0	-0	0	0	0.098	0.1	0	-0	0	0	0	0	0	-0	0	0.05595	0	0	0	-0	0	0	0	0	0	-0	0	204.582	214.185	290.388	282.785	17.7462	-94.5145	-0.378168	0.190548	137.315
83	-0.0838761	0.728915	-0.0265917	0.569451	-0.0610222	0.122133	0.0165369	-0.0376766	0.0627972	0.116027	0.0895656	0.224183	0.0756233	-0.0188879	-0.0181982	-1.90089	-0.30657	-2.60251	0	0	0	0	-0	0	0	0	-0.1265	0	-0	0	0	0	0	0	-0	0	0.105	0.015	0	0	-0	0	0	0.098	0.1	0	-0	0	0	0	0	0	-0	0	0.05595	0	0	0	-0	0	0	0	0	0	-0	0	204.075	213.899	290.647	283.007	18.0045	-94.4054	-0.426582	0.214898	137.47
84	-0.0803509	0.741227	-0.0258208	0.547185	-0.0672948	0.116962	0.0164115	-0.0377063	0.0606008	0.11307	0.0919655	0.222505	0.0766219	-0.0195923	-0.0185441	-1.88927	-0.312221	-2.61619	0	0	0	0	-0	0	0	0	-0.1265	0	-0	0	0	0	0	0	-0	0	0.105	0.015	0	0	-0	0	0	0.098	0.1	0	-0	0	0	0	0	0	-0	0	0.05595	0	0	0	-0	0	0	0	0	0	-0	0	203.733	213.107	290.128	282.507	17.8609	-94.919	-0.377178	0.192592	137.521
85	-0.078606	0.726995	-0.0258927	0.569751	-0.0605459	0.121905	0.0166089	-0.0377408	0.0628572	0.116222	0.0900794	0.227302	0.0756717	-0.0189163	-0.0178101	-1.89905	-0.301533	-2.60115	0	0	0	0	-0	0	0	0	-0.1265	0	-0	0	0	0	0	0	-0	0	0.105	0.015	0	0	-0	0	0	0.098	0.1	0	-0	0	0	0	0	0	-0	0	0.05595	0	0	0	-0	0	0	0	0	0	-0	0	202.621	212.492	290.675	283.074	18.1463	-94.8546	-0.429609	0.215572	137.813
86	-0.0785672	0.741664	-0.0262115	0.546903	-0.0675028	0.116851	0.016352	-0.0376177	0.0605333	0.116684	0.0976147	0.217361	0.076741	-0.0196532	-0.018484	-1.88712	-0.310206	-2.61632	0	0	0	0	-0	0	0	0	-0.1265	0	-0	0	0	0	0	0	-0	0	0.105	0.015	0	0	-0	0	0	0.098	0.1	0	-0	0	0	0	0	0	-0	0	0.05595	0	0	0	-0	0	0	0	0	0	-0	0	201.787	210.789	289.802	282.133	18.0889	-95.739	-0.375374	0.194776	138.034
87	-0.059971	0.723611	-0.0247416	0.570851	-0.0597186	0.122041	0.0167727	-0.0378686	0.0630405	0.119729	0.0950905	0.190094	0.0759405	-0.0190296	-0.0163911	-1.89151	-0.284643	-2.59985	0	0	0	0	-0	0	0	0	-0.1265	0	-0	0	0	0	0	0	-0	0	0.105	0.015	0	0	-0	0	0	0.098	0.1	0	-0	0	0	0	0	0	-0	0	0.05595	0	0	0	-0	0	0	0	0	0	-0	0	199.446	209.51	290.788	283.454	18.4575	-95.853	-0.437573	0.217683	138.641
88	-0.0573436	0.741472	-0.0255183	0.545967	-0.067815	0.116432	0.0163098	-0.0375394	0.0605232	0.129057	0.10803	0.206043	0.07727	-0.0198301	-0.0169255	-1.87558	-0.292179	-2.61865	0	0	0	0	-0	0	0	0	-0.1265	0	-0	0	0	0	0	0	-0	0	0.105	0.015	0	0	-0	0	0	0.098	0.1	0	-0	0	0	0	0	0	-0	0	0.05595	0	0	0	-0	0	0	0	0	0	-0	0	199.027	208.158	289.823	282.223	18.3621	-96.7165	-0.377173	0.194853	138.737
89	-0.0308581	0.720953	-0.0241692	0.571869	-0.0592777	0.122428	0.0168597	-0.0378287	0.0632113	0.116913	0.102382	0.18141	0.0764255	-0.0191209	-0.0141746	-1.87775	-0.258671	-2.60051	0	0	0	0	-0	0	0	0	-0.1265	0	-0	0	0	0	0	0	-0	0	0.105	0.015	0	0	-0	0	0	0.098	0.1	0	-0	0	0	0	0	0	-0	0	0.05595	0	0	0	-0	0	0	0	0	0	-0	0	196.432	206.789	290.788	283.758	18.7636	-96.7977	-0.447344	0.221047	139.457
90	-0.0301352	0.736996	-0.0224719	0.543519	-0.0672536	0.115694	0.0166191	-0.0376404	0.0605645	0.116465	0.102515	0.180973	0.0778189	-0.0199882	-0.0147847	-1.86557	-0.269762	-2.61816	0	0	0	0	-0	0	0	0	-0.1265	0	-0	0	0	0	0	0	-0	0	0.105	0.015	0	0	-0	0	0	0.098	0.1	0	-0	0	0	0	0	0	-0	0	0.05595	0	0	0	-0	0	0	0	0	0	-0	0	196.437	206.723	290.682	283.649	18.492	-97.0054	-0.393844	0.192258	139.398
91	-0.0313804	0.726403	-0.0260447	0.57064	-0.0612789	0.123403	0.0166478	-0.0375527	0.0630862	0.114417	0.101816	0.181237	0.0766724	-0.0193065	-0.0142616	-1.87429	-0.260329	-2.60528	0	0	0	0	-0	0	0	0	-0.1265	0	-0	0	0	0	0	0	-0	0	0.105	0.015	0	0	-0	0	0	0.098	0.1	0	-0	0	0	0	0	0	-0	0	0.05595	0	0	0	-0	0	0	0	0	0	-0	0	196.351	206.67	290.707	283.672	18.7909	-96.9182	-0.44668	0.221794	139.447
92	-0.0305519	0.737122	-0.0228587	0.544484	-0.0672353	0.11585	0.0166474	-0.037648	0.0606143	0.115328	0.0998523	0.181379	0.0777269	-0.0199997	-0.0148167	-1.86554	-0.269393	-2.61836	0	0	0	0	-0	0	0	0	-0.1265	0	-0	0	0	0	0	0	-0	0	0.105	0.015	0	0	-0	0	0	0.098	0.1	0	-0	0	0	0	0	0	-0	0	0.05595	0	0	0	-0	0	0	0	0	0	-0	0	196.332	206.498	290.491	283.464	18.5538	-97.1717	-0.395122	0.193663	139.403
93	-0.0323223	0.726727	-0.0260607	0.57012	-0.0612931	0.122923	0.0166255	-0.0375315	0.0630146	0.112866	0.0987177	0.178104	0.0766692	-0.0193011	-0.0143729	-1.87403	-0.261067	-2.60571	0	0	0	0	-0	0	0	0	-0.1265	0	-0	0	0	0	0	0	-0	0	0.105	0.015	0	0	-0	0	0	0.098	0.1	0	-0	0	0	0	0	0	-0	0	0.05595	0	0	0	-0	0	0	0	0	0	-0	0	196.124	206.375	290.581	283.508	18.8385	-97.0701	-0.44715	0.222368	139.491
94	-0.0308624	0.736639	-0.0230347	0.545074	-0.0670941	0.115958	0.016659	-0.0376611	0.0606512	0.114204	0.0984476	0.1776	0.0776706	-0.019966	-0.0148404	-1.86562	-0.269128	-2.61788	0	0	0	0	-0	0	0	0	-0.1265	0	-0	0	0	0	0	0	-0	0	0.105	0.015	0	0	-0	0	0	0.098	0.1	0	-0	0	0	0	0	0	-0	0	0.05595	0	0	0	-0	0	0	0	0	0	-0	0	196.103	206.25	290.434	283.371	18.5981	-97.2738	-0.397224	0.195002	139.454
95	-0.0300558	0.726801	-0.0259248	0.569387	-0.0613791	0.122589	0.0166313	-0.0375329	0.0629404	0.113524	0.0991302	0.176226	0.0767322	-0.0193143	-0.0142295	-1.87246	-0.2592	-2.60624	0	0	0	0	-0	0	0	0	-0.1265	0	-0	0	0	0	0	0	-0	0	0.105	0.015	0	0	-0	0	0	0.098	0.1	0	-0	0	0	0	0	0	-0	0	0.05595	0	0	0	-0	0	0	0	0	0	-0	0	195.871	206.109	290.533	283.426	18.8683	-97.1857	-0.446355	0.222071	139.544
96	-0.0288293	0.736417	-0.0232328	0.545777	-0.0669221	0.11614	0.0166545	-0.0376592	0.0607094	0.11341	0.098401	0.175896	0.0776711	-0.0199532	-0.0146798	-1.86451	-0.266969	-2.61786	0	0	0	0	-0	0	0	0	-0.1265	0	-0	0	0	0	0	0	-0	0	0.105	0.015	0	0	-0	0	0	0.098	0.1	0	-0	0	0	0	0	0	-0	0	0.05595	0	0	0	-0	0	0	0	0	0	-0	0	195.844	205.972	290.383	283.286	18.6423	-97.3935	-0.398545	0.196197	139.509
97	-0.0298856	0.726739	-0.0257716	0.568774	-0.0614178	0.122291	0.0166343	-0.0375384	0.0628787	0.1125	0.0967994	0.174424	0.0767511	-0.0193254	-0.014246	-1.87211	-0.259099	-2.60629	0	0	0	0	-0	0	0	0	-0.1265	0	-0	0	0	0	0	0	-0	0	0.105	0.015	0	0	-0	0	0	0.098	0.1	0	-0	0	0	0	0	0	-0	0	0.05595	0	0	0	-0	0	0	0	0	0	-0	0	195.585	205.813	290.493	283.354	18.9018	-97.3106	-0.445767	0.221813	139.605
98	-0.028332	0.736087	-0.0232987	0.546291	-0.0667534	0.116222	0.0166525	-0.0376548	0.0607505	0.111943	0.09706	0.174935	0.0776576	-0.0199406	-0.0146443	-1.86426	-0.26618	-2.61754	0	0	0	0	-0	0	0	0	-0.1265	0	-0	0	0	0	0	0	-0	0	0.105	0.015	0	0	-0	0	0	0.098	0.1	0	-0	0	0	0	0	0	-0	0	0.05595	0	0	0	-0	0	0	0	0	0	-0	0	195.55	205.661	290.336	283.21	18.6876	-97.5209	-0.399654	0.197168	139.574
99	-0.0290073	0.726621	-0.0256503	0.568306	-0.0614187	0.122065	0.0166505	-0.037537	0.0628335	0.108949	0.0994885	0.177823	0.0767787	-0.0193356	-0.0142015	-1.87148	-0.258355	-2.60636	0	0	0	0	-0	0	0	0	-0.1265	0	-0	0	0	0	0	0	-0	0	0.105	0.015	0	0	-0	0	0	0.098	0.1	0	-0	0	0	0	0	0	-0	0	0.05595	0	0	0	-0	0	0	0	0	0	-0	0	195.26	205.481	290.461	283.293	18.9393	-97.444	-0.445404	0.221737	139.678
100	-0.0271233	0.735918	-0.0234016	0.54673	-0.0666302	0.11631	0.0166462	-0.0376474	0.0607871	0.108572	0.0995041	0.176987	0.0776625	-0.0199398	-0.0145555	-1.86357	-0.264884	-2.61745	0	0	0	0	-0	0	0	0	-0.1265	0	-0	0	0	0	0	0	-0	0	0.105	0.015	0	0	-0	0	0	0.098	0.1	0	-0	0	0	0	0	0	-0	0	0.05595	0	0	0	-0	0	0	0	0	0	-0	0	195.219	205.312	290.296	283.143	18.7343	-97.6624	-0.400403	0.198014	139.649
