Stefan210/kinematic_calibration/src/kinematic_calibration/validation/experiments/experiments/impact_noise/outlier/larm_randomize_4_measurements_rk_true/optimization_intermediate_results.csv
iteration	HeadPitch_offset	HeadYaw_offset	LElbowRoll_offset	LElbowYaw_offset	LShoulderPitch_offset	LShoulderRoll_offset	marker_transform_larm_tx	marker_transform_larm_ty	marker_transform_larm_tz	marker_transform_larm_rr	marker_transform_larm_rp	marker_transform_larm_ry	camera_transform_tx	camera_transform_ty	camera_transform_tz	camera_transform_rr	camera_transform_rp	camera_transform_ry	HeadPitch_transform_tx	HeadPitch_transform_ty	HeadPitch_transform_tz	HeadPitch_transform_rr	HeadPitch_transform_rp	HeadPitch_transform_ry	HeadYaw_transform_tx	HeadYaw_transform_ty	HeadYaw_transform_tz	HeadYaw_transform_rr	HeadYaw_transform_rp	HeadYaw_transform_ry	LElbowRoll_transform_tx	LElbowRoll_transform_ty	LElbowRoll_transform_tz	LElbowRoll_transform_rr	LElbowRoll_transform_rp	LElbowRoll_transform_ry	LElbowYaw_transform_tx	LElbowYaw_transform_ty	LElbowYaw_transform_tz	LElbowYaw_transform_rr	LElbowYaw_transform_rp	LElbowYaw_transform_ry	LShoulderPitch_transform_tx	LShoulderPitch_transform_ty	LShoulderPitch_transform_tz	LShoulderPitch_transform_rr	LShoulderPitch_transform_rp	LShoulderPitch_transform_ry	LShoulderRoll_transform_tx	LShoulderRoll_transform_ty	LShoulderRoll_transform_tz	LShoulderRoll_transform_rr	LShoulderRoll_transform_rp	LShoulderRoll_transform_ry	LWristYaw_transform_tx	LWristYaw_transform_ty	LWristYaw_transform_tz	LWristYaw_transform_rr	LWristYaw_transform_rp	LWristYaw_transform_ry	l_wrist_joint_transform_tx	l_wrist_joint_transform_ty	l_wrist_joint_transform_tz	l_wrist_joint_transform_rr	l_wrist_joint_transform_rp	l_wrist_joint_transform_ry	camera_fx	camera_fy	camera_cx	camera_cy	camera_D0	camera_D1	camera_D2	camera_D3	camera_D4	
0	0.0249164	-0.0307543	0.000853157	4.65819e-06	-0.000318322	-0.00310766	0.05071	0	0.01774	-2.26369	1.66533e-16	-1.5708	545.901	551.038	324.928	201.58	0.0255298	2.61142	-0.0636736	-0.0350419	0.213964
1	-0.0151588	0.00994434	0.0194634	0.0545205	0.0185642	0.0247051	0.0254491	-0.0299821	0.00477005	-0.000475009	-0.000705719	-0.00296634	0.0547438	0.000611402	0.01492	-2.20221	-0.00765731	-1.56474	0	0	0	0	-0	0	0	0	-0.1265	0	-0	0	0	0	0	0	-0	0	0.105	0.015	0	0	-0	0	0	0.098	0.1	0	-0	0	0	0	0	0	-0	0	0.05595	0	0	0	-0	0	0	0	0	0	-0	0	545.901	551.039	324.928	201.581	0.00544531	2.60478	-0.0748256	0.0690988	0.212605
2	-0.0167236	0.022217	0.0212787	0.047159	0.00293705	0.0345767	0.0256988	-0.0302882	0.00384039	-0.000365323	-0.000603906	-0.00297	0.0546407	-0.000918659	0.0154899	-2.19602	-0.00228916	-1.55664	0	0	0	0	-0	0	0	0	-0.1265	0	-0	0	0	0	0	0	-0	0	0.105	0.015	0	0	-0	0	0	0.098	0.1	0	-0	0	0	0	0	0	-0	0	0.05595	0	0	0	-0	0	0	0	0	0	-0	0	545.912	551.04	324.919	201.597	-0.366974	2.30854	-0.0161117	-0.00187717	0.121654
3	-0.016973	0.0196789	0.0217596	0.0476421	0.00214567	0.0343553	0.0255942	-0.0302916	0.00375002	-0.000349177	-0.000598205	-0.00296219	0.0554898	-0.00121024	0.0142014	-2.19456	0.00139883	-1.55142	0	0	0	0	-0	0	0	0	-0.1265	0	-0	0	0	0	0	0	-0	0	0.105	0.015	0	0	-0	0	0	0.098	0.1	0	-0	0	0	0	0	0	-0	0	0.05595	0	0	0	-0	0	0	0	0	0	-0	0	545.95	551.035	324.913	201.626	-0.401947	1.74589	-0.0074918	-0.00793644	-0.0700286
4	-0.0165702	0.0180083	0.0199295	0.0480266	0.00212047	0.0341285	0.0254233	-0.030182	0.00375454	-0.000362019	-0.000632732	-0.00292513	0.0550945	-0.00111961	0.0147011	-2.19624	0.00313027	-1.54905	0	0	0	0	-0	0	0	0	-0.1265	0	-0	0	0	0	0	0	-0	0	0.105	0.015	0	0	-0	0	0	0.098	0.1	0	-0	0	0	0	0	0	-0	0	0.05595	0	0	0	-0	0	0	0	0	0	-0	0	546.033	551.019	324.916	201.658	-0.202433	0.841603	-0.0106839	-0.00950905	-0.390961
5	-0.0161359	0.0176216	0.0184828	0.0477434	0.00193218	0.0344106	0.0252989	-0.0300937	0.00374121	-0.000601415	-0.000588373	-0.00295113	0.0544847	-0.000955177	0.0155283	-2.19771	0.00362553	-1.54889	0	0	0	0	-0	0	0	0	-0.1265	0	-0	0	0	0	0	0	-0	0	0.105	0.015	0	0	-0	0	0	0.098	0.1	0	-0	0	0	0	0	0	-0	0	0.05595	0	0	0	-0	0	0	0	0	0	-0	0	546.218	550.969	324.939	201.669	-0.0108355	0.129847	-0.0149635	-0.00992677	-0.583863
6	-0.0156378	0.0173185	0.0178518	0.0472262	0.00201697	0.034402	0.0252475	-0.0300535	0.00371319	-0.000384821	-0.000578605	-0.0025408	0.054118	-0.000868759	0.0160976	-2.19871	0.00380624	-1.54891	0	0	0	0	-0	0	0	0	-0.1265	0	-0	0	0	0	0	0	-0	0	0.105	0.015	0	0	-0	0	0	0.098	0.1	0	-0	0	0	0	0	0	-0	0	0.05595	0	0	0	-0	0	0	0	0	0	-0	0	546.717	550.835	324.948	201.683	0.0980759	-0.33107	-0.0170062	-0.0100959	-0.419551
7	-0.0149724	0.0176091	0.017584	0.0468581	0.00187102	0.0342773	0.0252242	-0.030033	0.00369826	-0.00137388	6.83422e-05	-0.00321172	0.0537196	-0.000856802	0.0166945	-2.1993	0.0037654	-1.54922	0	0	0	0	-0	0	0	0	-0.1265	0	-0	0	0	0	0	0	-0	0	0.105	0.015	0	0	-0	0	0	0.098	0.1	0	-0	0	0	0	0	0	-0	0	0.05595	0	0	0	-0	0	0	0	0	0	-0	0	548.035	550.526	324.882	201.725	0.162608	-0.80172	-0.0148315	-0.0103463	0.425236
8	-0.0107527	0.0181143	0.0174321	0.0467509	0.00164543	0.0341706	0.02521	-0.0300214	0.00371301	-0.00628419	0.00543374	0.000584191	0.0529652	-0.000896181	0.0178074	-2.19674	0.00381257	-1.54921	0	0	0	0	-0	0	0	0	-0.1265	0	-0	0	0	0	0	0	-0	0	0.105	0.015	0	0	-0	0	0	0.098	0.1	0	-0	0	0	0	0	0	-0	0	0.05595	0	0	0	-0	0	0	0	0	0	-0	0	550.993	550.092	324.64	201.788	0.222313	-1.56022	-0.00710265	-0.0107631	2.39942
9	-0.013492	0.0186504	0.0173445	0.0468045	0.00137971	0.034063	0.0252036	-0.0300198	0.00374673	-0.0199381	-0.0107765	0.00286697	0.052013	-0.000972483	0.0188919	-2.20162	0.00442525	-1.54865	0	0	0	0	-0	0	0	0	-0.1265	0	-0	0	0	0	0	0	-0	0	0.105	0.015	0	0	-0	0	0	0.098	0.1	0	-0	0	0	0	0	0	-0	0	0.05595	0	0	0	-0	0	0	0	0	0	-0	0	555.807	550.65	324.097	201.807	0.289433	-2.60063	0.00327075	-0.0113861	5.46547
10	-0.00887318	0.0188225	0.0174251	0.047039	0.00132186	0.0340034	0.0252072	-0.0300298	0.00378074	-0.00393988	-0.00192588	0.0178556	0.0513918	-0.00104022	0.0197768	-2.19791	0.00483357	-1.54806	0	0	0	0	-0	0	0	0	-0.1265	0	-0	0	0	0	0	0	-0	0	0.105	0.015	0	0	-0	0	0	0.098	0.1	0	-0	0	0	0	0	0	-0	0	0.05595	0	0	0	-0	0	0	0	0	0	-0	0	558.779	551.882	323.741	201.71	0.321457	-3.15346	0.00707386	-0.011628	7.34558
11	-0.00746936	0.0190201	0.0174407	0.0471382	0.00121037	0.033981	0.0252028	-0.0300457	0.00379645	0.0293582	0.00583362	0.0297169	0.0509274	-0.00108467	0.0203573	-2.19767	0.00538621	-1.54745	0	0	0	0	-0	0	0	0	-0.1265	0	-0	0	0	0	0	0	-0	0	0.105	0.015	0	0	-0	0	0	0.098	0.1	0	-0	0	0	0	0	0	-0	0	0.05595	0	0	0	-0	0	0	0	0	0	-0	0	561.522	553.98	323.277	201.799	0.340267	-3.51903	0.00888803	-0.0118715	8.68076
12	-0.00724638	0.0190313	0.0174923	0.0471183	0.00117174	0.0339758	0.0251972	-0.0300335	0.00379805	0.0437206	0.00531384	0.038977	0.0507819	-0.00110308	0.0205286	-2.19784	0.0055998	-1.54715	0	0	0	0	-0	0	0	0	-0.1265	0	-0	0	0	0	0	0	-0	0	0.105	0.015	0	0	-0	0	0	0.098	0.1	0	-0	0	0	0	0	0	-0	0	0.05595	0	0	0	-0	0	0	0	0	0	-0	0	562.513	554.869	323.116	201.854	0.344858	-3.62661	0.00911093	-0.0119576	9.12251
13	0.0139479	0.0192165	0.0174284	0.0473157	0.00108872	0.0339271	0.0251924	-0.0300354	0.00381225	0.0628992	0.00643687	0.0562341	0.0500464	-0.00113641	0.0219328	-2.17871	0.00598771	-1.54611	0	0	0	0	-0	0	0	0	-0.1265	0	-0	0	0	0	0	0	-0	0	0.105	0.015	0	0	-0	0	0	0.098	0.1	0	-0	0	0	0	0	0	-0	0	0.05595	0	0	0	-0	0	0	0	0	0	-0	0	565.102	557.924	322.369	202.549	0.338875	-3.70986	0.00883423	-0.0124181	9.69128
14	-0.00153823	0.0193329	0.0173996	0.047067	0.00100195	0.0338908	0.0251862	-0.030025	0.00379649	0.0631249	0.0277894	0.0600672	0.0502705	-0.00114328	0.0212676	-2.19529	0.00678142	-1.54578	0	0	0	0	-0	0	0	0	-0.1265	0	-0	0	0	0	0	0	-0	0	0.105	0.015	0	0	-0	0	0	0.098	0.1	0	-0	0	0	0	0	0	-0	0	0.05595	0	0	0	-0	0	0	0	0	0	-0	0	566.212	559.337	321.987	202.975	0.33101	-3.69484	0.00857948	-0.012564	9.81073
15	0.00411545	0.0193738	0.0174071	0.0473045	0.000990762	0.0338834	0.0251849	-0.0300254	0.00381102	0.0640899	0.0164398	0.0679826	0.0500208	-0.00116342	0.0216645	-2.19121	0.00727554	-1.54506	0	0	0	0	-0	0	0	0	-0.1265	0	-0	0	0	0	0	0	-0	0	0.105	0.015	0	0	-0	0	0	0.098	0.1	0	-0	0	0	0	0	0	-0	0	0.05595	0	0	0	-0	0	0	0	0	0	-0	0	567.563	561.149	321.469	203.7	0.320849	-3.66557	0.00791108	-0.012848	9.95201
16	-0.00253239	0.0194523	0.0173857	0.0474798	0.00096252	0.0338786	0.0251893	-0.0300384	0.00381881	0.0505143	0.0184414	0.040756	0.0500399	-0.0011807	0.0214454	-2.20026	0.00829863	-1.54422	0	0	0	0	-0	0	0	0	-0.1265	0	-0	0	0	0	0	0	-0	0	0.105	0.015	0	0	-0	0	0	0.098	0.1	0	-0	0	0	0	0	0	-0	0	0.05595	0	0	0	-0	0	0	0	0	0	-0	0	569.123	563.293	320.755	204.872	0.305987	-3.60779	0.00722135	-0.0132102	10.0689
17	-0.00563615	0.019416	0.0174215	0.047469	0.000991184	0.0339191	0.0251892	-0.0300343	0.00382387	0.0498179	0.0218451	0.0569547	0.0500822	-0.00118469	0.0213074	-2.20381	0.00858299	-1.54403	0	0	0	0	-0	0	0	0	-0.1265	0	-0	0	0	0	0	0	-0	0	0.105	0.015	0	0	-0	0	0	0.098	0.1	0	-0	0	0	0	0	0	-0	0	0.05595	0	0	0	-0	0	0	0	0	0	-0	0	569.429	563.741	320.615	205.116	0.304409	-3.59533	0.0067792	-0.0131864	10.1016
18	0.00261542	0.0194711	0.0173935	0.0476353	0.000974862	0.0339227	0.0251957	-0.0300417	0.00383516	0.0532443	0.0252288	0.0859088	0.0498289	-0.00119619	0.0217902	-2.19756	0.00901673	-1.54328	0	0	0	0	-0	0	0	0	-0.1265	0	-0	0	0	0	0	0	-0	0	0.105	0.015	0	0	-0	0	0	0.098	0.1	0	-0	0	0	0	0	0	-0	0	0.05595	0	0	0	-0	0	0	0	0	0	-0	0	570.483	565.198	320.065	206.136	0.293661	-3.55466	0.0063962	-0.0134762	10.1991
19	0.00490699	0.019443	0.0174109	0.0476392	0.00101022	0.0339572	0.0251946	-0.0300388	0.00383605	0.0536624	0.0240076	0.0649548	0.0497463	-0.00120153	0.0219277	-2.19623	0.00929283	-1.54288	0	0	0	0	-0	0	0	0	-0.1265	0	-0	0	0	0	0	0	-0	0	0.105	0.015	0	0	-0	0	0	0.098	0.1	0	-0	0	0	0	0	0	-0	0	0.05595	0	0	0	-0	0	0	0	0	0	-0	0	570.952	565.869	319.803	206.644	0.289848	-3.53406	0.0059966	-0.0135251	10.2465
20	-0.00115376	0.0194635	0.0174018	0.0477085	0.0010003	0.0339631	0.0251928	-0.0300331	0.00383528	0.0474966	0.0416694	0.0499078	0.0498536	-0.00120485	0.0216443	-2.203	0.00968859	-1.54271	0	0	0	0	-0	0	0	0	-0.1265	0	-0	0	0	0	0	0	-0	0	0.105	0.015	0	0	-0	0	0	0.098	0.1	0	-0	0	0	0	0	0	-0	0	0.05595	0	0	0	-0	0	0	0	0	0	-0	0	571.286	566.354	319.61	207.025	0.286523	-3.51986	0.00580371	-0.01361	10.284
21	-0.00145438	0.0195135	0.0173965	0.0476841	0.000970283	0.0339419	0.0251903	-0.0300328	0.00383468	0.0422113	0.0319648	0.0638596	0.0498439	-0.00120621	0.0216455	-2.20385	0.009849	-1.54259	0	0	0	0	-0	0	0	0	-0.1265	0	-0	0	0	0	0	0	-0	0	0.105	0.015	0	0	-0	0	0	0.098	0.1	0	-0	0	0	0	0	0	-0	0	0.05595	0	0	0	-0	0	0	0	0	0	-0	0	571.52	566.7	319.467	207.312	0.284094	-3.50933	0.00570922	-0.0136561	10.3057
22	0.0014814	0.0195301	0.017396	0.0477242	0.000964383	0.0339423	0.0251878	-0.0300337	0.00383904	0.0568063	0.0378507	0.0665055	0.049768	-0.00120815	0.0218011	-2.20131	0.00988527	-1.54245	0	0	0	0	-0	0	0	0	-0.1265	0	-0	0	0	0	0	0	-0	0	0.105	0.015	0	0	-0	0	0	0.098	0.1	0	-0	0	0	0	0	0	-0	0	0.05595	0	0	0	-0	0	0	0	0	0	-0	0	571.693	566.951	319.363	207.525	0.282326	-3.50237	0.00562015	-0.0137072	10.3275
23	-0.0102168	0.0195602	0.0173877	0.0477695	0.000950795	0.0339403	0.0251854	-0.0300308	0.00384116	0.0493843	0.0382513	0.0584597	0.050008	-0.00121024	0.0212318	-2.21348	0.0103485	-1.54244	0	0	0	0	-0	0	0	0	-0.1265	0	-0	0	0	0	0	0	-0	0	0.105	0.015	0	0	-0	0	0	0.098	0.1	0	-0	0	0	0	0	0	-0	0	0.05595	0	0	0	-0	0	0	0	0	0	-0	0	571.895	567.238	319.244	207.777	0.280214	-3.49603	0.00557102	-0.013782	10.3567
24	-0.00876809	0.0196051	0.0173775	0.0477439	0.000924622	0.0339255	0.0251835	-0.0300285	0.00383905	0.0542684	0.0453881	0.0610419	0.0499649	-0.00121071	0.0213157	-2.2124	0.0103946	-1.54237	0	0	0	0	-0	0	0	0	-0.1265	0	-0	0	0	0	0	0	-0	0	0.105	0.015	0	0	-0	0	0	0.098	0.1	0	-0	0	0	0	0	0	-0	0	0.05595	0	0	0	-0	0	0	0	0	0	-0	0	572.043	567.447	319.155	207.964	0.278477	-3.4908	0.00558738	-0.0138294	10.3739
25	-0.00733433	0.0196157	0.0173834	0.0477829	0.000922188	0.0339225	0.0251831	-0.0300279	0.00384172	0.0554017	0.0482538	0.0654244	0.0499289	-0.00121243	0.0213897	-2.21111	0.0103939	-1.54232	0	0	0	0	-0	0	0	0	-0.1265	0	-0	0	0	0	0	0	-0	0	0.105	0.015	0	0	-0	0	0	0.098	0.1	0	-0	0	0	0	0	0	-0	0	0.05595	0	0	0	-0	0	0	0	0	0	-0	0	572.102	567.533	319.121	208.04	0.277885	-3.4888	0.0055467	-0.0138552	10.384
26	0.00540786	0.0196396	0.0173771	0.04782	0.000915053	0.033919	0.025185	-0.0300265	0.00384537	0.0593784	0.0297457	0.0634593	0.0496412	-0.00121502	0.0220395	-2.19895	0.0101876	-1.54204	0	0	0	0	-0	0	0	0	-0.1265	0	-0	0	0	0	0	0	-0	0	0.105	0.015	0	0	-0	0	0	0.098	0.1	0	-0	0	0	0	0	0	-0	0	0.05595	0	0	0	-0	0	0	0	0	0	-0	0	572.335	567.858	318.985	208.35	0.275384	-3.4816	0.00550002	-0.0139352	10.4209
27	0.0247705	0.0196543	0.0173676	0.0478163	0.000914791	0.033919	0.0251888	-0.0300318	0.00385276	0.0497317	0.050943	0.0816103	0.0491936	-0.00121708	0.0230152	-2.18046	0.00985905	-1.5416	0	0	0	0	-0	0	0	0	-0.1265	0	-0	0	0	0	0	0	-0	0	0.105	0.015	0	0	-0	0	0	0.098	0.1	0	-0	0	0	0	0	0	-0	0	0.05595	0	0	0	-0	0	0	0	0	0	-0	0	572.649	568.29	318.786	208.807	0.272065	-3.47026	0.00542364	-0.0140143	10.4682
28	0.0234431	0.0196113	0.0173699	0.0478285	0.000940007	0.0339415	0.0251855	-0.0300332	0.00384347	0.0636933	0.0440803	0.0940492	0.0492078	-0.00121888	0.0229495	-2.18219	0.0100322	-1.54143	0	0	0	0	-0	0	0	0	-0.1265	0	-0	0	0	0	0	0	-0	0	0.105	0.015	0	0	-0	0	0	0.098	0.1	0	-0	0	0	0	0	0	-0	0	0.05595	0	0	0	-0	0	0	0	0	0	-0	0	572.797	568.498	318.687	209.032	0.271012	-3.46401	0.00528214	-0.0140299	10.4902
29	0.0357231	0.0196407	0.0173606	0.0478126	0.000928161	0.033929	0.0251826	-0.0300291	0.00384294	0.0627642	0.0470828	0.0991446	0.0489169	-0.00121791	0.0235606	-2.17028	0.0097502	-1.54124	0	0	0	0	-0	0	0	0	-0.1265	0	-0	0	0	0	0	0	-0	0	0.105	0.015	0	0	-0	0	0	0.098	0.1	0	-0	0	0	0	0	0	-0	0	0.05595	0	0	0	-0	0	0	0	0	0	-0	0	572.921	568.675	318.602	209.226	0.269519	-3.4586	0.00526907	-0.0140613	10.5077
30	0.0329271	0.0196763	0.0173523	0.0478027	0.000907407	0.0339163	0.0251811	-0.0300278	0.00384091	0.0617334	0.0422403	0.103876	0.0489735	-0.00121796	0.0234288	-2.17335	0.00988697	-1.54123	0	0	0	0	-0	0	0	0	-0.1265	0	-0	0	0	0	0	0	-0	0	0.105	0.015	0	0	-0	0	0	0.098	0.1	0	-0	0	0	0	0	0	-0	0	0.05595	0	0	0	-0	0	0	0	0	0	-0	0	573.013	568.803	318.54	209.37	0.268233	-3.45468	0.00530157	-0.0140965	10.5193
31	0.0376832	0.0196885	0.0173517	0.0478466	0.000908372	0.0339151	0.0251813	-0.0300283	0.00384424	0.0560677	0.0389345	0.099312	0.0488531	-0.00121959	0.023666	-2.16898	0.00984227	-1.54108	0	0	0	0	-0	0	0	0	-0.1265	0	-0	0	0	0	0	0	-0	0	0.105	0.015	0	0	-0	0	0	0.098	0.1	0	-0	0	0	0	0	0	-0	0	0.05595	0	0	0	-0	0	0	0	0	0	-0	0	573.145	568.987	318.454	209.583	0.26677	-3.45083	0.00526449	-0.0141485	10.5469
32	0.0312406	0.0196985	0.0173475	0.0478755	0.000910673	0.0339174	0.0251808	-0.0300278	0.00384586	0.0598541	0.035888	0.103484	0.0489943	-0.0012214	0.0233582	-2.17599	0.0101742	-1.54099	0	0	0	0	-0	0	0	0	-0.1265	0	-0	0	0	0	0	0	-0	0	0.105	0.015	0	0	-0	0	0	0.098	0.1	0	-0	0	0	0	0	0	-0	0	0.05595	0	0	0	-0	0	0	0	0	0	-0	0	573.331	569.246	318.331	209.894	0.264712	-3.44534	0.00523016	-0.0142134	10.5857
33	0.0328591	0.0197112	0.0173451	0.0478772	0.000905728	0.0339158	0.0251809	-0.0300275	0.00384606	0.0626505	0.0416445	0.104322	0.0489507	-0.0012218	0.0234408	-2.1746	0.0101786	-1.54093	0	0	0	0	-0	0	0	0	-0.1265	0	-0	0	0	0	0	0	-0	0	0.105	0.015	0	0	-0	0	0	0.098	0.1	0	-0	0	0	0	0	0	-0	0	0.05595	0	0	0	-0	0	0	0	0	0	-0	0	573.406	569.352	318.282	210.021	0.264028	-3.44381	0.00520789	-0.014232	10.6029
34	0.0339655	0.0197086	0.0173485	0.0478934	0.000910364	0.0339193	0.0251812	-0.0300275	0.00384725	0.0601464	0.0376977	0.104475	0.0489225	-0.00122258	0.0234949	-2.17358	0.0101696	-1.54089	0	0	0	0	-0	0	0	0	-0.1265	0	-0	0	0	0	0	0	-0	0	0.105	0.015	0	0	-0	0	0	0.098	0.1	0	-0	0	0	0	0	0	-0	0	0.05595	0	0	0	-0	0	0	0	0	0	-0	0	573.433	569.391	318.264	210.068	0.263807	-3.44297	0.00517873	-0.0142394	10.6101
35	0.0356764	0.0197132	0.0173465	0.0479081	0.000910979	0.0339207	0.0251823	-0.0300276	0.00384948	0.0590418	0.0485421	0.109957	0.0488774	-0.00122347	0.0235818	-2.17212	0.0101786	-1.54081	0	0	0	0	-0	0	0	0	-0.1265	0	-0	0	0	0	0	0	-0	0	0.105	0.015	0	0	-0	0	0	0.098	0.1	0	-0	0	0	0	0	0	-0	0	0.05595	0	0	0	-0	0	0	0	0	0	-0	0	573.514	569.504	318.211	210.206	0.262974	-3.44141	0.00516566	-0.0142681	10.6304
36	0.024071	0.019706	0.0173463	0.0479359	0.000921653	0.0339287	0.0251834	-0.0300296	0.00385369	0.0512995	0.0589741	0.120393	0.0491442	-0.00122502	0.0230178	-2.18409	0.01062	-1.54081	0	0	0	0	-0	0	0	0	-0.1265	0	-0	0	0	0	0	0	-0	0	0.105	0.015	0	0	-0	0	0	0.098	0.1	0	-0	0	0	0	0	0	-0	0	0.05595	0	0	0	-0	0	0	0	0	0	-0	0	573.63	569.663	318.135	210.41	0.261881	-3.43929	0.00512833	-0.0143061	10.6612
37	0.0176992	0.0197025	0.0173411	0.0479277	0.000924295	0.0339354	0.0251819	-0.0300281	0.00385031	0.0492631	0.0577464	0.119958	0.049285	-0.00122486	0.0227059	-2.19064	0.0108572	-1.54083	0	0	0	0	-0	0	0	0	-0.1265	0	-0	0	0	0	0	0	-0	0	0.105	0.015	0	0	-0	0	0	0.098	0.1	0	-0	0	0	0	0	0	-0	0	0.05595	0	0	0	-0	0	0	0	0	0	-0	0	573.687	569.742	318.096	210.512	0.261453	-3.43829	0.0051082	-0.0143137	10.675
38	0.018919	0.0197208	0.0173347	0.0479204	0.000914827	0.0339278	0.0251815	-0.0300289	0.00384905	0.0582003	0.0614182	0.121409	0.0492513	-0.0012248	0.0227704	-2.1897	0.0108775	-1.54076	0	0	0	0	-0	0	0	0	-0.1265	0	-0	0	0	0	0	0	-0	0	0.105	0.015	0	0	-0	0	0	0.098	0.1	0	-0	0	0	0	0	0	-0	0	0.05595	0	0	0	-0	0	0	0	0	0	-0	0	573.77	569.856	318.04	210.663	0.260481	-3.43637	0.00512504	-0.0143409	10.694
39	0.0199488	0.0197209	0.0173328	0.0479323	0.000920805	0.033929	0.0251832	-0.0300285	0.00385016	0.05348	0.0499382	0.119829	0.0492217	-0.00122566	0.0228247	-2.18908	0.010942	-1.54064	0	0	0	0	-0	0	0	0	-0.1265	0	-0	0	0	0	0	0	-0	0	0.105	0.015	0	0	-0	0	0	0.098	0.1	0	-0	0	0	0	0	0	-0	0	0.05595	0	0	0	-0	0	0	0	0	0	-0	0	573.888	570.016	317.958	210.884	0.259123	-3.43289	0.00511336	-0.0143811	10.7221
40	0.0167645	0.0197095	0.0173355	0.0479476	0.000934208	0.0339362	0.0251844	-0.0300279	0.00385173	0.0541791	0.0645192	0.12149	0.0492903	-0.00122673	0.0226688	-2.19255	0.0111142	-1.54059	0	0	0	0	-0	0	0	0	-0.1265	0	-0	0	0	0	0	0	-0	0	0.105	0.015	0	0	-0	0	0	0.098	0.1	0	-0	0	0	0	0	0	-0	0	0.05595	0	0	0	-0	0	0	0	0	0	-0	0	573.971	570.132	317.898	211.048	0.258371	-3.43077	0.00506469	-0.0144002	10.7453
41	0.0160893	0.0197105	0.017331	0.0479718	0.000941271	0.0339409	0.0251858	-0.0300306	0.00385151	0.0578056	0.0730942	0.108862	0.0492968	-0.00122832	0.0226404	-2.19387	0.0112868	-1.54043	0	0	0	0	-0	0	0	0	-0.1265	0	-0	0	0	0	0	0	-0	0	0.105	0.015	0	0	-0	0	0	0.098	0.1	0	-0	0	0	0	0	0	-0	0	0.05595	0	0	0	-0	0	0	0	0	0	-0	0	574.147	570.365	317.769	211.405	0.256393	-3.42712	0.00506868	-0.0144636	10.7952
42	0.0201752	0.0196993	0.0173345	0.0479496	0.000950285	0.0339393	0.0251845	-0.0300299	0.00385032	0.0623571	0.0802966	0.102002	0.0492014	-0.00122867	0.0228435	-2.1901	0.0112413	-1.54029	0	0	0	0	-0	0	0	0	-0.1265	0	-0	0	0	0	0	0	-0	0	0.105	0.015	0	0	-0	0	0	0.098	0.1	0	-0	0	0	0	0	0	-0	0	0.05595	0	0	0	-0	0	0	0	0	0	-0	0	574.226	570.478	317.706	211.582	0.255811	-3.42531	0.00502114	-0.0144689	10.8183
43	0.02201	0.0197114	0.0173288	0.0479521	0.000942916	0.0339355	0.0251819	-0.03003	0.00385109	0.0517899	0.0822182	0.103625	0.0491559	-0.0012286	0.0229362	-2.1885	0.0112327	-1.54022	0	0	0	0	-0	0	0	0	-0.1265	0	-0	0	0	0	0	0	-0	0	0.105	0.015	0	0	-0	0	0	0.098	0.1	0	-0	0	0	0	0	0	-0	0	0.05595	0	0	0	-0	0	0	0	0	0	-0	0	574.286	570.562	317.659	211.712	0.255123	-3.42409	0.00503156	-0.0144889	10.8351
44	0.0295728	0.0197323	0.0173181	0.047974	0.000932332	0.0339335	0.0251831	-0.0300283	0.00385078	0.0518769	0.069385	0.110538	0.0489771	-0.00122875	0.0233119	-2.18129	0.0110678	-1.54008	0	0	0	0	-0	0	0	0	-0.1265	0	-0	0	0	0	0	0	-0	0	0.105	0.015	0	0	-0	0	0	0.098	0.1	0	-0	0	0	0	0	0	-0	0	0.05595	0	0	0	-0	0	0	0	0	0	-0	0	574.376	570.683	317.592	211.904	0.253956	-3.42303	0.00507354	-0.0145379	10.8626
45	0.0241454	0.0197349	0.0173211	0.0479461	0.000931671	0.0339252	0.0251811	-0.0300285	0.00384957	0.0460878	0.0684427	0.114256	0.0491007	-0.00122917	0.0230476	-2.18698	0.0112907	-1.54008	0	0	0	0	-0	0	0	0	-0.1265	0	-0	0	0	0	0	0	-0	0	0.105	0.015	0	0	-0	0	0	0.098	0.1	0	-0	0	0	0	0	0	-0	0	0.05595	0	0	0	-0	0	0	0	0	0	-0	0	574.439	570.772	317.543	212.046	0.253405	-3.42199	0.00506042	-0.0145447	10.8815
46	0.0230475	0.0197454	0.0173163	0.047959	0.000925861	0.0339242	0.0251806	-0.0300279	0.00385013	0.048504	0.072253	0.111349	0.0491233	-0.001229	0.0229945	-2.18818	0.011341	-1.54008	0	0	0	0	-0	0	0	0	-0.1265	0	-0	0	0	0	0	0	-0	0	0.105	0.015	0	0	-0	0	0	0.098	0.1	0	-0	0	0	0	0	0	-0	0	0.05595	0	0	0	-0	0	0	0	0	0	-0	0	574.464	570.808	317.524	212.104	0.253064	-3.42182	0.00507229	-0.0145598	10.8902
47	0.0225846	0.0197527	0.0173124	0.0479776	0.000925876	0.0339255	0.0251808	-0.0300279	0.00385182	0.0463899	0.0664573	0.106907	0.0491303	-0.00122957	0.0229734	-2.18893	0.0114152	-1.54002	0	0	0	0	-0	0	0	0	-0.1265	0	-0	0	0	0	0	0	-0	0	0.105	0.015	0	0	-0	0	0	0.098	0.1	0	-0	0	0	0	0	0	-0	0	0.05595	0	0	0	-0	0	0	0	0	0	-0	0	574.537	570.906	317.47	212.267	0.252152	-3.421	0.00509055	-0.0145958	10.9152
48	0.0254883	0.0197519	0.0173121	0.0479906	0.000930004	0.0339293	0.0251807	-0.0300283	0.00385243	0.0409156	0.0648042	0.102748	0.0490616	-0.00123001	0.0231162	-2.18617	0.0113575	-1.53995	0	0	0	0	-0	0	0	0	-0.1265	0	-0	0	0	0	0	0	-0	0	0.105	0.015	0	0	-0	0	0	0.098	0.1	0	-0	0	0	0	0	0	-0	0	0.05595	0	0	0	-0	0	0	0	0	0	-0	0	574.572	570.956	317.444	212.348	0.251858	-3.42101	0.00507473	-0.0146091	10.9292
49	0.0215956	0.0197586	0.017308	0.0479943	0.000929013	0.0339278	0.0251801	-0.0300281	0.00385249	0.0350009	0.0641798	0.100561	0.0491476	-0.00123057	0.0229279	-2.19043	0.0115533	-1.53992	0	0	0	0	-0	0	0	0	-0.1265	0	-0	0	0	0	0	0	-0	0	0.105	0.015	0	0	-0	0	0	0.098	0.1	0	-0	0	0	0	0	0	-0	0	0.05595	0	0	0	-0	0	0	0	0	0	-0	0	574.662	571.076	317.376	212.556	0.250862	-3.42073	0.0050993	-0.0146457	10.9621
50	0.0199497	0.0197638	0.0173066	0.0479899	0.000926083	0.0339255	0.0251799	-0.0300275	0.00385196	0.0341928	0.0626116	0.103616	0.0491839	-0.00123042	0.0228477	-2.19215	0.0116159	-1.53993	0	0	0	0	-0	0	0	0	-0.1265	0	-0	0	0	0	0	0	-0	0	0.105	0.015	0	0	-0	0	0	0.098	0.1	0	-0	0	0	0	0	0	-0	0	0.05595	0	0	0	-0	0	0	0	0	0	-0	0	574.679	571.1	317.364	212.597	0.250751	-3.42093	0.00509763	-0.0146474	10.9688
51	0.0188223	0.0197676	0.0173051	0.047996	0.000925741	0.0339252	0.0251801	-0.0300276	0.00385209	0.0345631	0.0597063	0.109173	0.0492078	-0.00123068	0.0227932	-2.19342	0.011679	-1.53991	0	0	0	0	-0	0	0	0	-0.1265	0	-0	0	0	0	0	0	-0	0	0.105	0.015	0	0	-0	0	0	0.098	0.1	0	-0	0	0	0	0	0	-0	0	0.05595	0	0	0	-0	0	0	0	0	0	-0	0	574.714	571.149	317.338	212.679	0.250404	-3.42122	0.00510042	-0.0146616	10.9835
52	0.0222879	0.0197682	0.0173044	0.0479986	0.000927863	0.0339251	0.0251797	-0.0300273	0.00385239	0.0353552	0.0579687	0.110852	0.0491267	-0.00123108	0.0229648	-2.19018	0.0116158	-1.53983	0	0	0	0	-0	0	0	0	-0.1265	0	-0	0	0	0	0	0	-0	0	0.105	0.015	0	0	-0	0	0	0.098	0.1	0	-0	0	0	0	0	0	-0	0	0.05595	0	0	0	-0	0	0	0	0	0	-0	0	574.765	571.218	317.301	212.8	0.24986	-3.42104	0.00510676	-0.0146794	11.0031
53	0.0211755	0.0197733	0.0173024	0.0479996	0.00092547	0.0339237	0.0251797	-0.0300282	0.00385281	0.0426857	0.0578927	0.107514	0.0491504	-0.00123113	0.0229112	-2.1914	0.0116702	-1.53982	0	0	0	0	-0	0	0	0	-0.1265	0	-0	0	0	0	0	0	-0	0	0.105	0.015	0	0	-0	0	0	0.098	0.1	0	-0	0	0	0	0	0	-0	0	0.05595	0	0	0	-0	0	0	0	0	0	-0	0	574.792	571.253	317.281	212.864	0.249602	-3.42142	0.00511681	-0.0146884	11.0145
54	0.0163214	0.019771	0.0173009	0.0480115	0.000930124	0.0339266	0.0251814	-0.0300287	0.00385258	0.0418353	0.0517239	0.117193	0.049259	-0.00123168	0.0226736	-2.19651	0.0118716	-1.53982	0	0	0	0	-0	0	0	0	-0.1265	0	-0	0	0	0	0	0	-0	0	0.105	0.015	0	0	-0	0	0	0.098	0.1	0	-0	0	0	0	0	0	-0	0	0.05595	0	0	0	-0	0	0	0	0	0	-0	0	574.85	571.333	317.239	213.004	0.249013	-3.42172	0.00512093	-0.0147124	11.0394
55	0.0135016	0.0197617	0.0173052	0.0479922	0.000936401	0.0339248	0.0251804	-0.030028	0.00385182	0.0376027	0.0490097	0.116464	0.049322	-0.00123192	0.0225347	-2.19945	0.0119885	-1.53982	0	0	0	0	-0	0	0	0	-0.1265	0	-0	0	0	0	0	0	-0	0	0.105	0.015	0	0	-0	0	0	0.098	0.1	0	-0	0	0	0	0	0	-0	0	0.05595	0	0	0	-0	0	0	0	0	0	-0	0	574.877	571.371	317.217	213.074	0.248923	-3.42159	0.00509686	-0.0147057	11.0501
56	0.0137008	0.0197717	0.0172975	0.048014	0.000934511	0.0339248	0.0251793	-0.0300328	0.00385109	0.019297	0.0561174	0.10616	0.0493122	-0.00123265	0.0225474	-2.19979	0.0120868	-1.5397	0	0	0	0	-0	0	0	0	-0.1265	0	-0	0	0	0	0	0	-0	0	0.105	0.015	0	0	-0	0	0	0.098	0.1	0	-0	0	0	0	0	0	-0	0	0.05595	0	0	0	-0	0	0	0	0	0	-0	0	574.997	571.527	317.123	213.377	0.247418	-3.42162	0.00516047	-0.0147641	11.0996
57	0.0240952	0.0197781	0.0172912	0.0479915	0.000932736	0.0339153	0.0251794	-0.0300292	0.00385046	0.0213095	0.0545822	0.114726	0.0490735	-0.00123282	0.023064	-2.19017	0.0119117	-1.53941	0	0	0	0	-0	0	0	0	-0.1265	0	-0	0	0	0	0	0	-0	0	0.105	0.015	0	0	-0	0	0	0.098	0.1	0	-0	0	0	0	0	0	-0	0	0.05595	0	0	0	-0	0	0	0	0	0	-0	0	575.153	571.724	316.989	213.803	0.245487	-3.42087	0.0052546	-0.0148284	11.1621
58	0.0235886	0.019784	0.0172899	0.0479707	0.000928626	0.0339072	0.0251785	-0.0300278	0.00384847	0.0177357	0.059802	0.109205	0.0490821	-0.00123234	0.0230389	-2.19078	0.0119422	-1.53941	0	0	0	0	-0	0	0	0	-0.1265	0	-0	0	0	0	0	0	-0	0	0.105	0.015	0	0	-0	0	0	0.098	0.1	0	-0	0	0	0	0	0	-0	0	0.05595	0	0	0	-0	0	0	0	0	0	-0	0	575.171	571.754	316.973	213.861	0.245469	-3.42095	0.00524162	-0.0148169	11.1696
59	0.024014	0.019786	0.017289	0.0480001	0.000931558	0.0339119	0.0251788	-0.0300276	0.0038512	0.0168819	0.0594657	0.113878	0.0490705	-0.00123277	0.0230584	-2.19049	0.0119529	-1.53938	0	0	0	0	-0	0	0	0	-0.1265	0	-0	0	0	0	0	0	-0	0	0.105	0.015	0	0	-0	0	0	0.098	0.1	0	-0	0	0	0	0	0	-0	0	0.05595	0	0	0	-0	0	0	0	0	0	-0	0	575.199	571.794	316.951	213.94	0.245113	-3.42088	0.00523239	-0.0148327	11.1841
60	0.0255628	0.0197854	0.0172884	0.0480229	0.000935419	0.0339184	0.0251791	-0.0300272	0.00385302	0.0161876	0.0566641	0.115222	0.0490338	-0.00123315	0.0231332	-2.18899	0.0119159	-1.53935	0	0	0	0	-0	0	0	0	-0.1265	0	-0	0	0	0	0	0	-0	0	0.105	0.015	0	0	-0	0	0	0.098	0.1	0	-0	0	0	0	0	0	-0	0	0.05595	0	0	0	-0	0	0	0	0	0	-0	0	575.21	571.811	316.943	213.972	0.244987	-3.42084	0.00521898	-0.0148415	11.1904
61	0.0274997	0.0197878	0.0172871	0.0480346	0.000936527	0.0339213	0.0251792	-0.0300271	0.0038544	0.019972	0.0496969	0.113174	0.0489878	-0.0012335	0.0232281	-2.18716	0.011875	-1.53931	0	0	0	0	-0	0	0	0	-0.1265	0	-0	0	0	0	0	0	-0	0	0.105	0.015	0	0	-0	0	0	0.098	0.1	0	-0	0	0	0	0	0	-0	0	0.05595	0	0	0	-0	0	0	0	0	0	-0	0	575.234	571.844	316.926	214.037	0.244715	-3.4212	0.00522351	-0.0148545	11.2028
62	0.029866	0.0197884	0.0172855	0.0480479	0.000939101	0.0339248	0.0251797	-0.0300278	0.00385505	0.0259754	0.0525181	0.115465	0.0489312	-0.00123391	0.0233439	-2.18496	0.0118296	-1.53925	0	0	0	0	-0	0	0	0	-0.1265	0	-0	0	0	0	0	0	-0	0	0.105	0.015	0	0	-0	0	0	0.098	0.1	0	-0	0	0	0	0	0	-0	0	0.05595	0	0	0	-0	0	0	0	0	0	-0	0	575.268	571.891	316.902	214.133	0.244362	-3.42195	0.00523003	-0.0148716	11.2211
63	0.0296995	0.0197853	0.0172862	0.0480447	0.00094223	0.0339257	0.0251801	-0.0300274	0.00385524	0.0258413	0.0598738	0.118666	0.0489344	-0.00123404	0.0233358	-2.18521	0.0118505	-1.53923	0	0	0	0	-0	0	0	0	-0.1265	0	-0	0	0	0	0	0	-0	0	0.105	0.015	0	0	-0	0	0	0.098	0.1	0	-0	0	0	0	0	0	-0	0	0.05595	0	0	0	-0	0	0	0	0	0	-0	0	575.285	571.915	316.89	214.181	0.244279	-3.4224	0.00522279	-0.0148732	11.2303
64	0.0339371	0.0197831	0.0172855	0.0480567	0.000946547	0.0339289	0.02518	-0.0300272	0.00385519	0.0307969	0.0509045	0.122494	0.0488338	-0.00123453	0.0235431	-2.18116	0.0117492	-1.53914	0	0	0	0	-0	0	0	0	-0.1265	0	-0	0	0	0	0	0	-0	0	0.105	0.015	0	0	-0	0	0	0.098	0.1	0	-0	0	0	0	0	0	-0	0	0.05595	0	0	0	-0	0	0	0	0	0	-0	0	575.323	571.967	316.863	214.286	0.243937	-3.4235	0.00522664	-0.0148883	11.252
65	0.0421073	0.0197908	0.0172828	0.0480464	0.000942467	0.0339237	0.0251792	-0.0300275	0.0038542	0.0366453	0.0471722	0.126234	0.0486394	-0.00123461	0.0239436	-2.17328	0.0115318	-1.539	0	0	0	0	-0	0	0	0	-0.1265	0	-0	0	0	0	0	0	-0	0	0.105	0.015	0	0	-0	0	0	0.098	0.1	0	-0	0	0	0	0	0	-0	0	0.05595	0	0	0	-0	0	0	0	0	0	-0	0	575.375	572.038	316.824	214.441	0.243429	-3.42531	0.0052615	-0.0149066	11.2811
66	0.0327917	0.0198012	0.0172778	0.0480299	0.000936371	0.033915	0.0251787	-0.0300301	0.00385387	0.0224518	0.0481743	0.12888	0.048859	-0.00123452	0.0234921	-2.18299	0.0118877	-1.53905	0	0	0	0	-0	0	0	0	-0.1265	0	-0	0	0	0	0	0	-0	0	0.105	0.015	0	0	-0	0	0	0.098	0.1	0	-0	0	0	0	0	0	-0	0	0.05595	0	0	0	-0	0	0	0	0	0	-0	0	575.449	572.136	316.765	214.665	0.242547	-3.42659	0.00532358	-0.0149352	11.3183
67	0.0337672	0.019794	0.0172762	0.0480241	0.00094188	0.0339149	0.0251787	-0.0300293	0.0038534	0.0324397	0.0469409	0.125174	0.048833	-0.00123431	0.0235391	-2.18221	0.0118898	-1.539	0	0	0	0	-0	0	0	0	-0.1265	0	-0	0	0	0	0	0	-0	0	0.105	0.015	0	0	-0	0	0	0.098	0.1	0	-0	0	0	0	0	0	-0	0	0.05595	0	0	0	-0	0	0	0	0	0	-0	0	575.486	572.184	316.737	214.775	0.242216	-3.4269	0.00533162	-0.0149431	11.3362
68	0.0408971	0.0197895	0.0172748	0.0480558	0.00095038	0.0339227	0.0251805	-0.0300299	0.00385581	0.0407418	0.0484367	0.116589	0.0486625	-0.00123501	0.0238861	-2.17536	0.0117083	-1.53886	0	0	0	0	-0	0	0	0	-0.1265	0	-0	0	0	0	0	0	-0	0	0.105	0.015	0	0	-0	0	0	0.098	0.1	0	-0	0	0	0	0	0	-0	0	0.05595	0	0	0	-0	0	0	0	0	0	-0	0	575.541	572.254	316.699	214.934	0.241541	-3.42729	0.00534551	-0.0149697	11.3653
69	0.0381835	0.0197791	0.0172773	0.0480499	0.000959687	0.0339256	0.0251799	-0.0300279	0.00385472	0.0418373	0.052282	0.114773	0.048726	-0.00123509	0.0237526	-2.17813	0.011809	-1.53887	0	0	0	0	-0	0	0	0	-0.1265	0	-0	0	0	0	0	0	-0	0	0.105	0.015	0	0	-0	0	0	0.098	0.1	0	-0	0	0	0	0	0	-0	0	0.05595	0	0	0	-0	0	0	0	0	0	-0	0	575.55	572.269	316.692	214.967	0.241569	-3.42717	0.00532177	-0.0149616	11.371
70	0.0398358	0.019789	0.0172746	0.0480593	0.000954539	0.0339248	0.0251796	-0.0300274	0.00385544	0.0415824	0.0560345	0.118829	0.0486855	-0.00123513	0.0238331	-2.17655	0.0117637	-1.53885	0	0	0	0	-0	0	0	0	-0.1265	0	-0	0	0	0	0	0	-0	0	0.105	0.015	0	0	-0	0	0	0.098	0.1	0	-0	0	0	0	0	0	-0	0	0.05595	0	0	0	-0	0	0	0	0	0	-0	0	575.564	572.288	316.682	215.011	0.241344	-3.42748	0.00533562	-0.0149702	11.3793
71	0.0427301	0.019793	0.0172733	0.0480717	0.000954549	0.0339263	0.0251792	-0.0300286	0.00385609	0.0314574	0.0576168	0.117004	0.0486152	-0.00123549	0.0239739	-2.17383	0.0116944	-1.53879	0	0	0	0	-0	0	0	0	-0.1265	0	-0	0	0	0	0	0	-0	0	0.105	0.015	0	0	-0	0	0	0.098	0.1	0	-0	0	0	0	0	0	-0	0	0.05595	0	0	0	-0	0	0	0	0	0	-0	0	575.596	572.329	316.661	215.11	0.240945	-3.42842	0.00535779	-0.0149875	11.3984
72	0.0426592	0.0197961	0.0172717	0.0480676	0.000952958	0.0339247	0.0251794	-0.0300284	0.00385585	0.0395227	0.059621	0.116211	0.0486161	-0.00123537	0.0239709	-2.17399	0.0117065	-1.53878	0	0	0	0	-0	0	0	0	-0.1265	0	-0	0	0	0	0	0	-0	0	0.105	0.015	0	0	-0	0	0	0.098	0.1	0	-0	0	0	0	0	0	-0	0	0.05595	0	0	0	-0	0	0	0	0	0	-0	0	575.612	572.351	316.65	215.158	0.24079	-3.42902	0.00536972	-0.0149928	11.4074
73	0.0464261	0.019793	0.0172723	0.0480715	0.000956762	0.0339265	0.0251793	-0.0300273	0.00385603	0.0390841	0.0573326	0.11517	0.0485254	-0.00123552	0.0241536	-2.17028	0.011596	-1.53872	0	0	0	0	-0	0	0	0	-0.1265	0	-0	0	0	0	0	0	-0	0	0.105	0.015	0	0	-0	0	0	0.098	0.1	0	-0	0	0	0	0	0	-0	0	0.05595	0	0	0	-0	0	0	0	0	0	-0	0	575.623	572.367	316.643	215.194	0.240688	-3.42923	0.00536652	-0.0149957	11.4145
74	0.0525846	0.0197993	0.0172702	0.0480726	0.000953603	0.0339245	0.0251789	-0.0300274	0.00385658	0.0454845	0.0519524	0.111964	0.0483753	-0.00123566	0.024453	-2.16427	0.0114146	-1.53864	0	0	0	0	-0	0	0	0	-0.1265	0	-0	0	0	0	0	0	-0	0	0.105	0.015	0	0	-0	0	0	0.098	0.1	0	-0	0	0	0	0	0	-0	0	0.05595	0	0	0	-0	0	0	0	0	0	-0	0	575.649	572.4	316.626	215.274	0.240392	-3.43047	0.00539375	-0.0150069	11.431
75	0.0536621	0.0198028	0.0172686	0.0480713	0.000951403	0.0339231	0.0251795	-0.0300279	0.00385551	0.044352	0.0533432	0.10377	0.0483476	-0.0012356	0.0245052	-2.16326	0.0113871	-1.53862	0	0	0	0	-0	0	0	0	-0.1265	0	-0	0	0	0	0	0	-0	0	0.105	0.015	0	0	-0	0	0	0.098	0.1	0	-0	0	0	0	0	0	-0	0	0.05595	0	0	0	-0	0	0	0	0	0	-0	0	575.662	572.417	316.618	215.314	0.240268	-3.43111	0.00540508	-0.0150114	11.4388
76	0.0521113	0.0197964	0.0172704	0.0480703	0.000958619	0.0339241	0.0251788	-0.030028	0.00385523	0.035265	0.0594926	0.0999312	0.0483849	-0.00123583	0.0244296	-2.16497	0.0114599	-1.53861	0	0	0	0	-0	0	0	0	-0.1265	0	-0	0	0	0	0	0	-0	0	0.105	0.015	0	0	-0	0	0	0.098	0.1	0	-0	0	0	0	0	0	-0	0	0.05595	0	0	0	-0	0	0	0	0	0	-0	0	575.69	572.452	316.6	215.402	0.239935	-3.43121	0.00541377	-0.015018	11.4541
77	0.0593406	0.0198041	0.0172666	0.0480713	0.000954661	0.0339213	0.0251797	-0.0300278	0.00385644	0.0343484	0.0660321	0.107409	0.0482068	-0.00123584	0.0247804	-2.15797	0.0112519	-1.5385	0	0	0	0	-0	0	0	0	-0.1265	0	-0	0	0	0	0	0	-0	0	0.105	0.015	0	0	-0	0	0	0.098	0.1	0	-0	0	0	0	0	0	-0	0	0.05595	0	0	0	-0	0	0	0	0	0	-0	0	575.73	572.504	316.575	215.531	0.239459	-3.43285	0.0054567	-0.0150358	11.479
78	0.0553082	0.0197972	0.0172676	0.0480726	0.00096131	0.0339237	0.0251795	-0.030027	0.00385565	0.0324342	0.073771	0.105202	0.0483051	-0.00123604	0.0245848	-2.16211	0.0113988	-1.53852	0	0	0	0	-0	0	0	0	-0.1265	0	-0	0	0	0	0	0	-0	0	0.105	0.015	0	0	-0	0	0	0.098	0.1	0	-0	0	0	0	0	0	-0	0	0.05595	0	0	0	-0	0	0	0	0	0	-0	0	575.749	572.529	316.562	215.595	0.239313	-3.43323	0.00545359	-0.015037	11.4908
79	0.0527766	0.0198012	0.0172663	0.0480735	0.000960028	0.0339225	0.0251791	-0.0300271	0.00385527	0.0296639	0.0775003	0.100387	0.0483662	-0.001236	0.0244624	-2.16473	0.0114886	-1.53855	0	0	0	0	-0	0	0	0	-0.1265	0	-0	0	0	0	0	0	-0	0	0.105	0.015	0	0	-0	0	0	0.098	0.1	0	-0	0	0	0	0	0	-0	0	0.05595	0	0	0	-0	0	0	0	0	0	-0	0	575.763	572.548	316.554	215.642	0.239192	-3.4342	0.00546373	-0.0150408	11.5015
80	0.051316	0.0198044	0.0172654	0.0480735	0.0009588	0.0339213	0.0251787	-0.0300272	0.00385583	0.0250413	0.0798123	0.10301	0.0484014	-0.00123592	0.0243917	-2.16625	0.0115412	-1.53856	0	0	0	0	-0	0	0	0	-0.1265	0	-0	0	0	0	0	0	-0	0	0.105	0.015	0	0	-0	0	0	0.098	0.1	0	-0	0	0	0	0	0	-0	0	0.05595	0	0	0	-0	0	0	0	0	0	-0	0	575.773	572.563	316.547	215.677	0.23904	-3.43439	0.00547195	-0.0150446	11.5077
81	0.0531521	0.0198056	0.0172639	0.0480863	0.000959766	0.0339237	0.0251789	-0.0300269	0.00385673	0.025907	0.0761796	0.100957	0.0483557	-0.0012362	0.0244802	-2.16455	0.011497	-1.53852	0	0	0	0	-0	0	0	0	-0.1265	0	-0	0	0	0	0	0	-0	0	0.105	0.015	0	0	-0	0	0	0.098	0.1	0	-0	0	0	0	0	0	-0	0	0.05595	0	0	0	-0	0	0	0	0	0	-0	0	575.797	572.594	316.534	215.755	0.238749	-3.43536	0.00548953	-0.0150581	11.5235
82	0.0511439	0.0198064	0.0172633	0.0480903	0.000960658	0.0339247	0.0251791	-0.030027	0.003857	0.0258388	0.0734197	0.0974265	0.0484042	-0.00123631	0.024383	-2.16662	0.011569	-1.53853	0	0	0	0	-0	0	0	0	-0.1265	0	-0	0	0	0	0	0	-0	0	0.105	0.015	0	0	-0	0	0	0.098	0.1	0	-0	0	0	0	0	0	-0	0	0.05595	0	0	0	-0	0	0	0	0	0	-0	0	575.809	572.609	316.528	215.794	0.238623	-3.43581	0.00549559	-0.0150623	11.5313
83	0.0533392	0.019806	0.0172632	0.0480914	0.000962033	0.0339254	0.0251789	-0.030027	0.00385681	0.0225802	0.074182	0.0944754	0.0483503	-0.00123638	0.024489	-2.16448	0.0115039	-1.5385	0	0	0	0	-0	0	0	0	-0.1265	0	-0	0	0	0	0	0	-0	0	0.105	0.015	0	0	-0	0	0	0.098	0.1	0	-0	0	0	0	0	0	-0	0	0.05595	0	0	0	-0	0	0	0	0	0	-0	0	575.817	572.621	316.523	215.822	0.238542	-3.4361	0.00549675	-0.0150643	11.537
84	0.0555125	0.0198082	0.0172622	0.0480893	0.000961388	0.033924	0.0251788	-0.0300269	0.00385673	0.0247281	0.0740056	0.0920143	0.0482963	-0.00123642	0.0245945	-2.16242	0.0114445	-1.53847	0	0	0	0	-0	0	0	0	-0.1265	0	-0	0	0	0	0	0	-0	0	0.105	0.015	0	0	-0	0	0	0.098	0.1	0	-0	0	0	0	0	0	-0	0	0.05595	0	0	0	-0	0	0	0	0	0	-0	0	575.837	572.646	316.512	215.886	0.238317	-3.43698	0.00551773	-0.015071	11.5498
85	0.0579557	0.019809	0.0172616	0.0480906	0.000961694	0.0339239	0.0251789	-0.030027	0.00385673	0.0277446	0.0757162	0.0947821	0.0482357	-0.00123642	0.0247125	-2.16003	0.0113705	-1.53843	0	0	0	0	-0	0	0	0	-0.1265	0	-0	0	0	0	0	0	-0	0	0.105	0.015	0	0	-0	0	0	0.098	0.1	0	-0	0	0	0	0	0	-0	0	0.05595	0	0	0	-0	0	0	0	0	0	-0	0	575.846	572.659	316.507	215.918	0.238228	-3.43749	0.00552301	-0.0150735	11.5565
86	0.0615193	0.0198087	0.0172611	0.0480915	0.000963218	0.0339239	0.0251787	-0.030027	0.00385656	0.0231678	0.0796063	0.0920812	0.048147	-0.00123655	0.0248842	-2.15659	0.0112677	-1.53838	0	0	0	0	-0	0	0	0	-0.1265	0	-0	0	0	0	0	0	-0	0	0.105	0.015	0	0	-0	0	0	0.098	0.1	0	-0	0	0	0	0	0	-0	0	0.05595	0	0	0	-0	0	0	0	0	0	-0	0	575.866	572.687	316.496	215.988	0.238024	-3.43846	0.00553608	-0.0150801	11.5706
87	0.0593723	0.0198121	0.0172598	0.0480865	0.000961145	0.0339217	0.0251787	-0.0300269	0.00385625	0.0256453	0.0817679	0.0895572	0.0481997	-0.0012364	0.0247812	-2.1588	0.0113414	-1.5384	0	0	0	0	-0	0	0	0	-0.1265	0	-0	0	0	0	0	0	-0	0	0.105	0.015	0	0	-0	0	0	0.098	0.1	0	-0	0	0	0	0	0	-0	0	0.05595	0	0	0	-0	0	0	0	0	0	-0	0	575.877	572.701	316.491	216.023	0.237916	-3.43903	0.00554814	-0.0150818	11.5775
88	0.0602054	0.0198104	0.01726	0.0480896	0.000963504	0.0339227	0.0251788	-0.0300268	0.00385645	0.0264533	0.0846307	0.0873082	0.0481787	-0.00123647	0.024821	-2.15801	0.0113195	-1.53838	0	0	0	0	-0	0	0	0	-0.1265	0	-0	0	0	0	0	0	-0	0	0.105	0.015	0	0	-0	0	0	0.098	0.1	0	-0	0	0	0	0	0	-0	0	0.05595	0	0	0	-0	0	0	0	0	0	-0	0	575.885	572.712	316.487	216.049	0.237822	-3.43914	0.00554861	-0.0150835	11.5826
89	0.0575188	0.0198103	0.0172595	0.0480937	0.000964995	0.0339235	0.0251788	-0.0300267	0.00385658	0.0289653	0.079248	0.0900639	0.0482446	-0.00123664	0.0246916	-2.1608	0.0114163	-1.5384	0	0	0	0	-0	0	0	0	-0.1265	0	-0	0	0	0	0	0	-0	0	0.105	0.015	0	0	-0	0	0	0.098	0.1	0	-0	0	0	0	0	0	-0	0	0.05595	0	0	0	-0	0	0	0	0	0	-0	0	575.904	572.734	316.479	216.107	0.237578	-3.43948	0.00556533	-0.0150901	11.5932
90	0.0546896	0.0198118	0.017259	0.0480911	0.000964554	0.0339224	0.025179	-0.0300269	0.00385661	0.0317226	0.0833497	0.0910969	0.0483139	-0.0012366	0.0245553	-2.16368	0.0115119	-1.53843	0	0	0	0	-0	0	0	0	-0.1265	0	-0	0	0	0	0	0	-0	0	0.105	0.015	0	0	-0	0	0	0.098	0.1	0	-0	0	0	0	0	0	-0	0	0.05595	0	0	0	-0	0	0	0	0	0	-0	0	575.913	572.746	316.475	216.136	0.237496	-3.44001	0.00557253	-0.015091	11.5996
91	0.055518	0.0198098	0.0172589	0.0480945	0.000967302	0.0339236	0.0251791	-0.0300271	0.00385674	0.0318373	0.0847738	0.0858209	0.0482929	-0.00123678	0.024595	-2.16296	0.0114961	-1.53841	0	0	0	0	-0	0	0	0	-0.1265	0	-0	0	0	0	0	0	-0	0	0.105	0.015	0	0	-0	0	0	0.098	0.1	0	-0	0	0	0	0	0	-0	0	0.05595	0	0	0	-0	0	0	0	0	0	-0	0	575.931	572.768	316.465	216.199	0.237258	-3.44042	0.00558813	-0.0150973	11.6111
92	0.0557175	0.0198087	0.0172583	0.0480976	0.00096997	0.0339244	0.0251794	-0.0300278	0.0038571	0.0252032	0.0815983	0.0830767	0.0482871	-0.00123695	0.0246045	-2.16293	0.0115049	-1.53839	0	0	0	0	-0	0	0	0	-0.1265	0	-0	0	0	0	0	0	-0	0	0.105	0.015	0	0	-0	0	0	0.098	0.1	0	-0	0	0	0	0	0	-0	0	0.05595	0	0	0	-0	0	0	0	0	0	-0	0	575.959	572.803	316.452	216.293	0.236921	-3.44137	0.00561225	-0.015106	11.6294
93	0.058523	0.0198052	0.0172583	0.0480992	0.000973792	0.033926	0.0251795	-0.0300279	0.0038574	0.0319111	0.0840828	0.0816219	0.0482175	-0.00123698	0.0247397	-2.1602	0.0114219	-1.53834	0	0	0	0	-0	0	0	0	-0.1265	0	-0	0	0	0	0	0	-0	0	0.105	0.015	0	0	-0	0	0	0.098	0.1	0	-0	0	0	0	0	0	-0	0	0.05595	0	0	0	-0	0	0	0	0	0	-0	0	575.973	572.819	316.446	216.339	0.236762	-3.44154	0.0056203	-0.0151077	11.6377
94	0.0586439	0.0198045	0.0172576	0.0480997	0.000974878	0.0339266	0.02518	-0.0300272	0.00385746	0.0300593	0.0760005	0.0810698	0.048214	-0.00123698	0.0247454	-2.16014	0.011423	-1.53834	0	0	0	0	-0	0	0	0	-0.1265	0	-0	0	0	0	0	0	-0	0	0.105	0.015	0	0	-0	0	0	0.098	0.1	0	-0	0	0	0	0	0	-0	0	0.05595	0	0	0	-0	0	0	0	0	0	-0	0	575.982	572.831	316.442	216.373	0.236666	-3.44201	0.00562775	-0.0151093	11.6447
95	0.0652124	0.0198015	0.0172581	0.0481068	0.000979395	0.0339288	0.02518	-0.030028	0.00385812	0.0356789	0.0774638	0.0758094	0.048051	-0.00123729	0.0250613	-2.15371	0.011222	-1.53824	0	0	0	0	-0	0	0	0	-0.1265	0	-0	0	0	0	0	0	-0	0	0.105	0.015	0	0	-0	0	0	0.098	0.1	0	-0	0	0	0	0	0	-0	0	0.05595	0	0	0	-0	0	0	0	0	0	-0	0	576.003	572.859	316.433	216.449	0.236396	-3.44233	0.00563699	-0.0151152	11.6583
96	0.0650542	0.0198036	0.0172567	0.0480945	0.000977186	0.0339256	0.0251795	-0.0300274	0.00385714	0.0367917	0.0819594	0.0805048	0.0480539	-0.00123702	0.0250539	-2.15394	0.0112309	-1.53824	0	0	0	0	-0	0	0	0	-0.1265	0	-0	0	0	0	0	0	-0	0	0.105	0.015	0	0	-0	0	0	0.098	0.1	0	-0	0	0	0	0	0	-0	0	0.05595	0	0	0	-0	0	0	0	0	0	-0	0	576.013	572.871	316.428	216.487	0.236282	-3.4428	0.00565656	-0.0151143	11.6647
97	0.0644655	0.0198041	0.0172556	0.0481068	0.000979045	0.0339276	0.02518	-0.0300277	0.00385729	0.0363318	0.0775119	0.0877433	0.0480678	-0.00123725	0.0250251	-2.15467	0.0112605	-1.53824	0	0	0	0	-0	0	0	0	-0.1265	0	-0	0	0	0	0	0	-0	0	0.105	0.015	0	0	-0	0	0	0.098	0.1	0	-0	0	0	0	0	0	-0	0	0.05595	0	0	0	-0	0	0	0	0	0	-0	0	576.036	572.901	316.418	216.57	0.235953	-3.44348	0.00567699	-0.0151251	11.6803
98	0.0594115	0.0198025	0.0172563	0.0481009	0.000981625	0.0339267	0.0251792	-0.0300273	0.00385724	0.0321024	0.076729	0.0887039	0.048194	-0.00123719	0.024782	-2.15979	0.0114305	-1.53829	0	0	0	0	-0	0	0	0	-0.1265	0	-0	0	0	0	0	0	-0	0	0.105	0.015	0	0	-0	0	0	0.098	0.1	0	-0	0	0	0	0	0	-0	0	0.05595	0	0	0	-0	0	0	0	0	0	-0	0	576.047	572.914	316.414	216.611	0.235809	-3.44368	0.00568648	-0.015124	11.6878
99	0.0554092	0.0198104	0.0172531	0.0481002	0.000976484	0.0339237	0.0251788	-0.0300268	0.00385678	0.0336107	0.0722339	0.0915583	0.0482917	-0.00123716	0.0245897	-2.16395	0.0115678	-1.53833	0	0	0	0	-0	0	0	0	-0.1265	0	-0	0	0	0	0	0	-0	0	0.105	0.015	0	0	-0	0	0	0.098	0.1	0	-0	0	0	0	0	0	-0	0	0.05595	0	0	0	-0	0	0	0	0	0	-0	0	576.073	572.944	316.404	216.701	0.235433	-3.44488	0.00573326	-0.0151349	11.7046
100	0.0531031	0.0198146	0.0172519	0.0480987	0.000974633	0.0339215	0.0251787	-0.0300267	0.00385678	0.0355552	0.0757679	0.0922329	0.0483477	-0.00123706	0.0244783	-2.16634	0.011645	-1.53836	0	0	0	0	-0	0	0	0	-0.1265	0	-0	0	0	0	0	0	-0	0	0.105	0.015	0	0	-0	0	0	0.098	0.1	0	-0	0	0	0	0	0	-0	0	0.05595	0	0	0	-0	0	0	0	0	0	-0	0	576.085	572.96	316.4	216.745	0.235249	-3.4454	0.00575146	-0.0151381	11.7131
