Stefan210/kinematic_calibration/src/kinematic_calibration/validation/experiments/experiments/impact_noise/outlier/larm_randomize_13_measurements_rk_false/optimization_intermediate_results.csv
iteration	HeadPitch_offset	HeadYaw_offset	LElbowRoll_offset	LElbowYaw_offset	LShoulderPitch_offset	LShoulderRoll_offset	marker_transform_larm_tx	marker_transform_larm_ty	marker_transform_larm_tz	marker_transform_larm_rr	marker_transform_larm_rp	marker_transform_larm_ry	camera_transform_tx	camera_transform_ty	camera_transform_tz	camera_transform_rr	camera_transform_rp	camera_transform_ry	HeadPitch_transform_tx	HeadPitch_transform_ty	HeadPitch_transform_tz	HeadPitch_transform_rr	HeadPitch_transform_rp	HeadPitch_transform_ry	HeadYaw_transform_tx	HeadYaw_transform_ty	HeadYaw_transform_tz	HeadYaw_transform_rr	HeadYaw_transform_rp	HeadYaw_transform_ry	LElbowRoll_transform_tx	LElbowRoll_transform_ty	LElbowRoll_transform_tz	LElbowRoll_transform_rr	LElbowRoll_transform_rp	LElbowRoll_transform_ry	LElbowYaw_transform_tx	LElbowYaw_transform_ty	LElbowYaw_transform_tz	LElbowYaw_transform_rr	LElbowYaw_transform_rp	LElbowYaw_transform_ry	LShoulderPitch_transform_tx	LShoulderPitch_transform_ty	LShoulderPitch_transform_tz	LShoulderPitch_transform_rr	LShoulderPitch_transform_rp	LShoulderPitch_transform_ry	LShoulderRoll_transform_tx	LShoulderRoll_transform_ty	LShoulderRoll_transform_tz	LShoulderRoll_transform_rr	LShoulderRoll_transform_rp	LShoulderRoll_transform_ry	LWristYaw_transform_tx	LWristYaw_transform_ty	LWristYaw_transform_tz	LWristYaw_transform_rr	LWristYaw_transform_rp	LWristYaw_transform_ry	l_wrist_joint_transform_tx	l_wrist_joint_transform_ty	l_wrist_joint_transform_tz	l_wrist_joint_transform_rr	l_wrist_joint_transform_rp	l_wrist_joint_transform_ry	camera_fx	camera_fy	camera_cx	camera_cy	camera_D0	camera_D1	camera_D2	camera_D3	camera_D4	
0	0.0249164	-0.0307543	0.000853157	4.65819e-06	-0.000318322	-0.00310766	0.05071	0	0.01774	-2.26369	1.66533e-16	-1.5708	545.901	551.038	324.928	201.58	0.0255298	2.61142	-0.0636736	-0.0350419	0.213964
1	-0.0166645	0.0465641	0.0533114	-0.0206357	0.0826242	-0.0321754	0.0333616	-0.0338296	0.000328692	7.82862e-05	-0.000238955	-0.00237942	0.0332699	-0.00249378	0.0254528	-2.1956	-0.0569778	-1.71289	0	0	0	0	-0	0	0	0	-0.1265	0	-0	0	0	0	0	0	-0	0	0.105	0.015	0	0	-0	0	0	0.098	0.1	0	-0	0	0	0	0	0	-0	0	0.05595	0	0	0	-0	0	0	0	0	0	-0	0	545.901	551.038	324.928	201.579	0.0230398	2.62031	0.0713331	0.00934699	0.216295
2	-0.0139011	0.128943	0.0231625	0.0639112	0.0454113	-0.0209618	0.0316738	-0.0332771	0.00968486	-0.00116347	-0.00148189	-0.00252368	0.0271976	0.00782967	0.0387658	-2.19836	-0.114348	-1.80562	0	0	0	0	-0	0	0	0	-0.1265	0	-0	0	0	0	0	0	-0	0	0.105	0.015	0	0	-0	0	0	0.098	0.1	0	-0	0	0	0	0	0	-0	0	0.05595	0	0	0	-0	0	0	0	0	0	-0	0	545.902	551.037	324.928	201.58	-0.0877924	2.59923	0.169054	0.0100483	0.212394
3	-0.0163054	0.193718	0.00776574	0.118138	0.0357222	0.00913387	0.0314344	-0.0327625	0.0151898	-0.00190957	-0.00218091	-0.00248456	0.0313912	0.0172521	0.0364615	-2.17446	-0.157961	-1.90688	0	0	0	0	-0	0	0	0	-0.1265	0	-0	0	0	0	0	0	-0	0	0.105	0.015	0	0	-0	0	0	0.098	0.1	0	-0	0	0	0	0	0	-0	0	0.05595	0	0	0	-0	0	0	0	0	0	-0	0	545.905	551.034	324.929	201.585	-0.350736	2.56452	0.192013	0.0583028	0.207929
4	-0.0166978	0.241768	-0.0217272	0.229237	0.0327399	0.0233831	0.0293761	-0.0316488	0.0271586	-0.00357023	-0.00387365	-0.00273785	0.0371096	0.0232114	0.0331345	-2.15523	-0.199028	-1.97742	0	0	0	0	-0	0	0	0	-0.1265	0	-0	0	0	0	0	0	-0	0	0.105	0.015	0	0	-0	0	0	0.098	0.1	0	-0	0	0	0	0	0	-0	0	0.05595	0	0	0	-0	0	0	0	0	0	-0	0	545.916	551.021	324.933	201.604	-1.13581	2.46255	0.272367	0.0135039	0.195287
5	-0.0192699	0.323568	-0.0586375	0.266787	0.0290729	0.0605934	0.026968	-0.0299627	0.0319737	-0.00384651	-0.00468858	-0.00288487	0.050427	0.0317999	0.021683	-2.10597	-0.263001	-2.11509	0	0	0	0	-0	0	0	0	-0.1265	0	-0	0	0	0	0	0	-0	0	0.105	0.015	0	0	-0	0	0	0.098	0.1	0	-0	0	0	0	0	0	-0	0	0.05595	0	0	0	-0	0	0	0	0	0	-0	0	545.951	550.975	324.949	201.678	-2.43412	2.38224	0.370576	-0.0213473	0.193475
6	-0.0170327	0.366488	-0.0854412	0.329002	0.0499802	0.0569416	0.0239177	-0.0281643	0.0390208	-0.00501609	-0.00612438	-0.00298154	0.0616704	0.0305622	0.0108018	-2.08257	-0.310751	-2.19088	0	0	0	0	-0	0	0	0	-0.1265	0	-0	0	0	0	0	0	-0	0	0.105	0.015	0	0	-0	0	0	0.098	0.1	0	-0	0	0	0	0	0	-0	0	0.05595	0	0	0	-0	0	0	0	0	0	-0	0	546.016	550.883	324.965	201.861	-3.53407	2.49254	0.464083	-0.113282	0.234488
7	-0.016981	0.424161	-0.116331	0.294181	0.067989	0.0678916	0.0227693	-0.0273318	0.0360397	-0.00486277	-0.00572078	-0.00273163	0.0714575	0.0307283	-0.000103484	-2.04454	-0.355693	-2.29619	0	0	0	0	-0	0	0	0	-0.1265	0	-0	0	0	0	0	0	-0	0	0.105	0.015	0	0	-0	0	0	0.098	0.1	0	-0	0	0	0	0	0	-0	0	0.05595	0	0	0	-0	0	0	0	0	0	-0	0	546.259	550.558	324.988	202.662	-3.87649	3.39495	0.467981	-0.12352	0.437029
8	-0.0167996	0.422882	-0.121042	0.319525	0.0737084	0.0543915	0.0214156	-0.0266821	0.0377316	-0.00175795	-0.00468571	-0.00253249	0.0741219	0.0232092	-0.00540892	-2.04973	-0.359859	-2.28444	0	0	0	0	-0	0	0	0	-0.1265	0	-0	0	0	0	0	0	-0	0	0.105	0.015	0	0	-0	0	0	0.098	0.1	0	-0	0	0	0	0	0	-0	0	0.05595	0	0	0	-0	0	0	0	0	0	-0	0	546.663	549.922	324.981	204.385	-4.42111	5.06395	0.467741	-0.143514	0.665388
9	-0.0128619	0.471004	-0.15	0.276481	0.0713058	0.0604692	0.0209493	-0.0261818	0.033275	-0.00390144	-0.00679825	-0.00292611	0.0783589	0.0243826	-0.00955032	-2.02041	-0.391516	-2.36313	0	0	0	0	-0	0	0	0	-0.1265	0	-0	0	0	0	0	0	-0	0	0.105	0.015	0	0	-0	0	0	0.098	0.1	0	-0	0	0	0	0	0	-0	0	0.05595	0	0	0	-0	0	0	0	0	0	-0	0	547.941	548.037	324.47	209.748	-4.50113	5.85777	0.457	-0.137858	-0.768525
10	-0.0155619	0.455525	-0.14549	0.304872	0.0688977	0.0519168	0.020212	-0.0257653	0.0352244	-0.013121	-0.0134704	-0.0103431	0.0775184	0.0193396	-0.0107765	-2.04711	-0.376808	-2.32002	0	0	0	0	-0	0	0	0	-0.1265	0	-0	0	0	0	0	0	-0	0	0.105	0.015	0	0	-0	0	0	0.098	0.1	0	-0	0	0	0	0	0	-0	0	0.05595	0	0	0	-0	0	0	0	0	0	-0	0	549.421	545.382	323.385	217.2	-4.77715	7.37673	0.444797	-0.141188	-3.33163
11	-0.0051456	0.504874	-0.174306	0.273038	0.0665601	0.0654114	0.0197895	-0.0253462	0.0321953	0.00673778	-0.00802261	-0.0247193	0.0812046	0.0207539	-0.013254	-2.019	-0.397614	-2.40081	0	0	0	0	-0	0	0	0	-0.1265	0	-0	0	0	0	0	0	-0	0	0.105	0.015	0	0	-0	0	0	0.098	0.1	0	-0	0	0	0	0	0	-0	0	0.05595	0	0	0	-0	0	0	0	0	0	-0	0	551.512	541.445	321.515	227.628	-4.91053	9.1635	0.430662	-0.134157	-7.0754
12	-0.00917721	0.49342	-0.171357	0.306909	0.0604987	0.0628948	0.0190925	-0.0250965	0.0347779	0.00109558	0.00607898	-0.0279236	0.0805844	0.015643	-0.0141303	-2.05393	-0.378276	-2.35746	0	0	0	0	-0	0	0	0	-0.1265	0	-0	0	0	0	0	0	-0	0	0.105	0.015	0	0	-0	0	0	0.098	0.1	0	-0	0	0	0	0	0	-0	0	0.05595	0	0	0	-0	0	0	0	0	0	-0	0	553.253	536.072	318.492	240.527	-5.12625	11.4917	0.400898	-0.126688	-12.5507
13	0.0240068	0.538624	-0.196555	0.28927	0.0633632	0.0762749	0.0183589	-0.024996	0.0332973	-0.0428863	0.0165157	-0.0481002	0.0843661	0.0159083	-0.0154805	-2.02305	-0.374578	-2.43541	0	0	0	0	-0	0	0	0	-0.1265	0	-0	0	0	0	0	0	-0	0	0.105	0.015	0	0	-0	0	0	0.098	0.1	0	-0	0	0	0	0	0	-0	0	0.05595	0	0	0	-0	0	0	0	0	0	-0	0	555.741	527.074	313.641	259.002	-5.31061	14.7083	0.365246	-0.101688	-19.0777
14	0.12332	0.5294	-0.194902	0.318893	0.0533251	0.0815725	0.0177565	-0.0251251	0.035941	-0.000855591	0.0292529	-0.0320109	0.0855991	0.0111213	-0.00676433	-1.99386	-0.26874	-2.40987	0	0	0	0	-0	0	0	0	-0.1265	0	-0	0	0	0	0	0	-0	0	0.105	0.015	0	0	-0	0	0	0.098	0.1	0	-0	0	0	0	0	0	-0	0	0.05595	0	0	0	-0	0	0	0	0	0	-0	0	555.306	515.011	306.584	274.69	-5.40486	17.971	0.328985	-0.071676	-28.1943
15	0.122211	0.542067	-0.197954	0.30679	0.0681181	0.0891414	0.0176061	-0.025825	0.0358952	-0.0904851	-0.0310179	-0.0685997	0.0877028	0.0120709	-0.010643	-2.00715	-0.271291	-2.43446	0	0	0	0	-0	0	0	0	-0.1265	0	-0	0	0	0	0	0	-0	0	0.105	0.015	0	0	-0	0	0	0.098	0.1	0	-0	0	0	0	0	0	-0	0	0.05595	0	0	0	-0	0	0	0	0	0	-0	0	553.579	499.909	297.762	293.082	-5.4043	20.8935	0.293202	-0.0266158	-35.2513
16	0.0967692	0.49968	-0.186584	0.333587	0.0584659	0.105574	0.018066	-0.0265263	0.0383115	-0.0974354	0.0243427	-0.0229176	0.0839598	0.0135358	-0.00813347	-2.06323	-0.253963	-2.3424	0	0	0	0	-0	0	0	0	-0.1265	0	-0	0	0	0	0	0	-0	0	0.105	0.015	0	0	-0	0	0	0.098	0.1	0	-0	0	0	0	0	0	-0	0	0.05595	0	0	0	-0	0	0	0	0	0	-0	0	549.343	496.078	295.751	297.041	-5.03786	20.7118	0.300985	-0.0211942	-41.6182
17	0.143902	0.514814	-0.183877	0.333257	0.0674067	0.108319	0.0178961	-0.0271658	0.0388432	-0.0613019	0.0201561	-0.0826681	0.0896449	0.0102643	-0.0109313	-2.04355	-0.231202	-2.39443	0	0	0	0	-0	0	0	0	-0.1265	0	-0	0	0	0	0	0	-0	0	0.105	0.015	0	0	-0	0	0	0.098	0.1	0	-0	0	0	0	0	0	-0	0	0.05595	0	0	0	-0	0	0	0	0	0	-0	0	537.421	494.381	290.479	319.468	-4.93711	22.7743	0.18791	0.00808596	-44.3185
18	0.0713598	0.464518	-0.185287	0.375025	0.053895	0.129398	0.0182586	-0.0267859	0.041881	-0.12854	0.116185	-0.166345	0.0837757	0.0148769	-0.0104119	-2.18667	-0.231912	-2.27247	0	0	0	0	-0	0	0	0	-0.1265	0	-0	0	0	0	0	0	-0	0	0.105	0.015	0	0	-0	0	0	0.098	0.1	0	-0	0	0	0	0	0	-0	0	0.05595	0	0	0	-0	0	0	0	0	0	-0	0	511.636	504.739	281.903	342.647	-3.53617	19.0859	0.104848	0.0470765	-53.198
19	0.0859859	0.492039	-0.168086	0.389283	0.0492808	0.127722	0.0181099	-0.0274744	0.0442208	-0.138536	0.127527	-0.169009	0.0889971	0.00832049	-0.0140583	-2.16984	-0.24988	-2.32528	0	0	0	0	-0	0	0	0	-0.1265	0	-0	0	0	0	0	0	-0	0	0.105	0.015	0	0	-0	0	0	0.098	0.1	0	-0	0	0	0	0	0	-0	0	0.05595	0	0	0	-0	0	0	0	0	0	-0	0	508.556	503.257	283.881	353.431	-4.58108	25.5906	0.0935967	0.0428786	-53.7913
20	0.088213	0.519626	-0.203359	0.416906	0.0265602	0.153315	0.0173743	-0.0267569	0.0447965	-0.158338	0.12201	-0.17071	0.0870897	0.0101025	-0.0107193	-2.19569	-0.232649	-2.32934	0	0	0	0	-0	0	0	0	-0.1265	0	-0	0	0	0	0	0	-0	0	0.105	0.015	0	0	-0	0	0	0.098	0.1	0	-0	0	0	0	0	0	-0	0	0.05595	0	0	0	-0	0	0	0	0	0	-0	0	495.365	504.132	272.082	370.389	-3.59957	22.1791	0.0589066	0.088532	-57.1673
21	0.0914002	0.509637	-0.181858	0.418005	0.0316438	0.1481	0.018071	-0.0275418	0.0461819	-0.166363	0.116134	-0.17542	0.0881624	0.0080712	-0.0123156	-2.20992	-0.239799	-2.32065	0	0	0	0	-0	0	0	0	-0.1265	0	-0	0	0	0	0	0	-0	0	0.105	0.015	0	0	-0	0	0	0.098	0.1	0	-0	0	0	0	0	0	-0	0	0.05595	0	0	0	-0	0	0	0	0	0	-0	0	491.249	504.52	272.754	378.895	-4.26877	25.8335	0.063204	0.0833005	-54.7542
22	0.108376	0.537787	-0.196323	0.437668	0.0150099	0.15943	0.0181419	-0.0267742	0.0475486	-0.261956	0.0426872	-0.111544	0.0890202	0.00656717	-0.0100682	-2.22457	-0.230802	-2.34448	0	0	0	0	-0	0	0	0	-0.1265	0	-0	0	0	0	0	0	-0	0	0.105	0.015	0	0	-0	0	0	0.098	0.1	0	-0	0	0	0	0	0	-0	0	0.05595	0	0	0	-0	0	0	0	0	0	-0	0	473.129	504.654	268.238	395.664	-3.55555	20.2369	0.0507346	0.0954678	-42.0255
23	0.12132	0.527026	-0.188178	0.424272	0.0213368	0.162668	0.0187807	-0.027603	0.0471291	-0.279609	0.0894753	-0.131031	0.0905536	0.00477677	-0.010639	-2.23532	-0.220596	-2.33356	0	0	0	0	-0	0	0	0	-0.1265	0	-0	0	0	0	0	0	-0	0	0.105	0.015	0	0	-0	0	0	0.098	0.1	0	-0	0	0	0	0	0	-0	0	0.05595	0	0	0	-0	0	0	0	0	0	-0	0	468.355	504.911	268.892	402.188	-4.02332	21.9131	0.0603603	0.0837362	-37.619
24	0.175563	0.574636	-0.201499	0.430854	0.00760628	0.166249	0.0187285	-0.0265347	0.0477134	-0.238859	0.104141	-0.189745	0.0922281	0.003014	-0.00512598	-2.19952	-0.199232	-2.39842	0	0	0	0	-0	0	0	0	-0.1265	0	-0	0	0	0	0	0	-0	0	0.105	0.015	0	0	-0	0	0	0.098	0.1	0	-0	0	0	0	0	0	-0	0	0.05595	0	0	0	-0	0	0	0	0	0	-0	0	458.285	504.418	266.814	411.773	-3.08289	15.3925	0.0714143	0.0879589	-26.7039
25	0.178797	0.542365	-0.192211	0.412043	0.0187371	0.170053	0.0188983	-0.0279025	0.0465323	-0.23739	0.105442	-0.190233	0.0922211	0.00248443	-0.00509422	-2.22338	-0.185932	-2.34375	0	0	0	0	-0	0	0	0	-0.1265	0	-0	0	0	0	0	0	-0	0	0.105	0.015	0	0	-0	0	0	0.098	0.1	0	-0	0	0	0	0	0	-0	0	0.05595	0	0	0	-0	0	0	0	0	0	-0	0	458.002	504.412	267.119	412.233	-3.58021	17.1469	0.0593774	0.0851055	-26.2493
26	0.174695	0.575602	-0.203896	0.424827	0.0101354	0.172298	0.018688	-0.027252	0.0472687	-0.236656	0.104906	-0.191035	0.0914245	0.0034451	-0.00575597	-2.19451	-0.197858	-2.3984	0	0	0	0	-0	0	0	0	-0.1265	0	-0	0	0	0	0	0	-0	0	0.105	0.015	0	0	-0	0	0	0.098	0.1	0	-0	0	0	0	0	0	-0	0	0.05595	0	0	0	-0	0	0	0	0	0	-0	0	457.548	504.422	267.084	412.853	-2.93459	15.1655	0.0850842	0.0850695	-26.5155
27	0.17711	0.551691	-0.197127	0.41494	0.0160822	0.17285	0.0185419	-0.0283181	0.0466924	-0.237512	0.106192	-0.191179	0.0916944	0.00327296	-0.00548807	-2.21208	-0.18885	-2.3598	0	0	0	0	-0	0	0	0	-0.1265	0	-0	0	0	0	0	0	-0	0	0.105	0.015	0	0	-0	0	0	0.098	0.1	0	-0	0	0	0	0	0	-0	0	0.05595	0	0	0	-0	0	0	0	0	0	-0	0	457.284	504.424	267.212	413.261	-3.30002	16.2885	0.0730707	0.0840013	-26.0522
28	0.174527	0.563795	-0.203434	0.424496	0.0129533	0.175517	0.0186202	-0.0280315	0.0472632	-0.238548	0.10666	-0.190478	0.0910724	0.00435592	-0.0062368	-2.19648	-0.193106	-2.38443	0	0	0	0	-0	0	0	0	-0.1265	0	-0	0	0	0	0	0	-0	0	0.105	0.015	0	0	-0	0	0	0.098	0.1	0	-0	0	0	0	0	0	-0	0	0.05595	0	0	0	-0	0	0	0	0	0	-0	0	456.757	504.453	267.118	414.001	-2.88009	14.9007	0.0935627	0.0825801	-25.8353
29	0.176495	0.541252	-0.200772	0.417792	0.0183069	0.176731	0.0185652	-0.0288754	0.0468502	-0.237794	0.106438	-0.190688	0.0910413	0.00468616	-0.00580011	-2.2127	-0.184685	-2.34956	0	0	0	0	-0	0	0	0	-0.1265	0	-0	0	0	0	0	0	-0	0	0.105	0.015	0	0	-0	0	0	0.098	0.1	0	-0	0	0	0	0	0	-0	0	0.05595	0	0	0	-0	0	0	0	0	0	-0	0	456.468	504.462	267.109	414.483	-3.1234	15.6395	0.0855722	0.0806459	-25.4398
30	0.174444	0.542737	-0.204296	0.427138	0.0181448	0.178768	0.0186613	-0.0288686	0.0474995	-0.240393	0.107433	-0.191475	0.0901886	0.00624918	-0.00659806	-2.20059	-0.185382	-2.36102	0	0	0	0	-0	0	0	0	-0.1265	0	-0	0	0	0	0	0	-0	0	0.105	0.015	0	0	-0	0	0	0.098	0.1	0	-0	0	0	0	0	0	-0	0	0.05595	0	0	0	-0	0	0	0	0	0	-0	0	455.859	504.484	266.727	415.456	-2.71155	14.2685	0.106342	0.0793779	-25.0801
31	0.173926	0.508331	-0.203832	0.421976	0.0257647	0.182537	0.0187834	-0.0299447	0.0471773	-0.241923	0.103023	-0.196784	0.0899571	0.0074636	-0.0065938	-2.22348	-0.174021	-2.31302	0	0	0	0	-0	0	0	0	-0.1265	0	-0	0	0	0	0	0	-0	0	0.105	0.015	0	0	-0	0	0	0.098	0.1	0	-0	0	0	0	0	0	-0	0	0.05595	0	0	0	-0	0	0	0	0	0	-0	0	454.943	504.489	266.097	417.281	-2.95371	14.9102	0.099077	0.0757002	-24.2791
32	0.16868	0.479322	-0.210109	0.432314	0.0331995	0.190018	0.0192074	-0.030679	0.0479336	-0.243432	0.100476	-0.198917	0.0885876	0.0112906	-0.00838776	-2.22284	-0.166289	-2.29022	0	0	0	0	-0	0	0	0	-0.1265	0	-0	0	0	0	0	0	-0	0	0.105	0.015	0	0	-0	0	0	0.098	0.1	0	-0	0	0	0	0	0	-0	0	0.05595	0	0	0	-0	0	0	0	0	0	-0	0	453.532	504.38	263.992	420.176	-2.47944	13.1506	0.126965	0.0722226	-22.9312
33	0.17689	0.375704	-0.212152	0.420826	0.0543251	0.203271	0.0203109	-0.0330315	0.0471493	-0.24261	0.105401	-0.19417	0.0884285	0.0155978	-0.00889128	-2.26546	-0.12645	-2.16228	0	0	0	0	-0	0	0	0	-0.1265	0	-0	0	0	0	0	0	-0	0	0.105	0.015	0	0	-0	0	0	0.098	0.1	0	-0	0	0	0	0	0	-0	0	0.05595	0	0	0	-0	0	0	0	0	0	-0	0	452.252	504.106	261.31	424.23	-3.28179	15.6968	0.102901	0.0620115	-22.2804
34	0.189732	0.416325	-0.218043	0.418969	0.0458046	0.203535	0.0201234	-0.0313283	0.0475993	-0.245215	0.11692	-0.188963	0.0905055	0.0150689	-0.00829455	-2.2461	-0.144415	-2.21378	0	0	0	0	-0	0	0	0	-0.1265	0	-0	0	0	0	0	0	-0	0	0.105	0.015	0	0	-0	0	0	0.098	0.1	0	-0	0	0	0	0	0	-0	0	0.05595	0	0	0	-0	0	0	0	0	0	-0	0	450.496	503.189	256.941	430.331	-2.82743	12.5281	0.100718	0.0705478	-17.5316
35	0.191021	0.417688	-0.219505	0.419155	0.0456959	0.204604	0.0195291	-0.0321741	0.0475439	-0.245031	0.116846	-0.189082	0.089905	0.0144699	-0.00707286	-2.25426	-0.142905	-2.20571	0	0	0	0	-0	0	0	0	-0.1265	0	-0	0	0	0	0	0	-0	0	0.105	0.015	0	0	-0	0	0	0.098	0.1	0	-0	0	0	0	0	0	-0	0	0.05595	0	0	0	-0	0	0	0	0	0	-0	0	450.496	503.189	256.941	430.331	-2.82677	12.5283	0.0979453	0.0722583	-17.5315
36	0.190694	0.416824	-0.21859	0.418416	0.0451591	0.205015	0.0201759	-0.0317586	0.0475128	-0.245127	0.116953	-0.18898	0.0902714	0.0144927	-0.00773651	-2.25132	-0.144265	-2.20865	0	0	0	0	-0	0	0	0	-0.1265	0	-0	0	0	0	0	0	-0	0	0.105	0.015	0	0	-0	0	0	0.098	0.1	0	-0	0	0	0	0	0	-0	0	0.05595	0	0	0	-0	0	0	0	0	0	-0	0	450.496	503.189	256.941	430.331	-2.82665	12.5284	0.0979662	0.0719997	-17.5314
37	0.191242	0.417037	-0.219556	0.418148	0.0446498	0.205834	0.0199425	-0.0319613	0.0476058	-0.245092	0.116908	-0.189021	0.0901919	0.0143172	-0.00705776	-2.25471	-0.143818	-2.20471	0	0	0	0	-0	0	0	0	-0.1265	0	-0	0	0	0	0	0	-0	0	0.105	0.015	0	0	-0	0	0	0.098	0.1	0	-0	0	0	0	0	0	-0	0	0.05595	0	0	0	-0	0	0	0	0	0	-0	0	450.496	503.189	256.941	430.331	-2.82622	12.5286	0.0967846	0.072682	-17.5314
38	0.19072	0.416167	-0.218927	0.417326	0.0441209	0.205951	0.0201963	-0.0317685	0.0475446	-0.24513	0.116954	-0.188978	0.09039	0.014486	-0.00751702	-2.25127	-0.144642	-2.20724	0	0	0	0	-0	0	0	0	-0.1265	0	-0	0	0	0	0	0	-0	0	0.105	0.015	0	0	-0	0	0	0.098	0.1	0	-0	0	0	0	0	0	-0	0	0.05595	0	0	0	-0	0	0	0	0	0	-0	0	450.496	503.189	256.941	430.331	-2.82606	12.5288	0.0972798	0.072292	-17.5313
39	0.191019	0.416374	-0.219547	0.417256	0.0439613	0.206234	0.0200335	-0.0318955	0.0475659	-0.245103	0.116926	-0.189005	0.09029	0.0143918	-0.00715629	-2.25323	-0.144251	-2.20486	0	0	0	0	-0	0	0	0	-0.1265	0	-0	0	0	0	0	0	-0	0	0.105	0.015	0	0	-0	0	0	0.098	0.1	0	-0	0	0	0	0	0	-0	0	0.05595	0	0	0	-0	0	0	0	0	0	-0	0	450.496	503.189	256.941	430.331	-2.82582	12.529	0.0967493	0.0726771	-17.5312
40	0.190744	0.415825	-0.219282	0.416736	0.0436564	0.206196	0.0201856	-0.0317752	0.0475116	-0.245124	0.116956	-0.188979	0.0903929	0.0144892	-0.00742388	-2.25137	-0.144734	-2.20618	0	0	0	0	-0	0	0	0	-0.1265	0	-0	0	0	0	0	0	-0	0	0.105	0.015	0	0	-0	0	0	0.098	0.1	0	-0	0	0	0	0	0	-0	0	0.05595	0	0	0	-0	0	0	0	0	0	-0	0	450.496	503.189	256.941	430.331	-2.8256	12.5292	0.097096	0.0724638	-17.5311
41	0.190957	0.415933	-0.219725	0.416688	0.0435599	0.206331	0.0200905	-0.0318451	0.0475172	-0.245109	0.11694	-0.188995	0.0903275	0.0144276	-0.00719711	-2.25272	-0.144487	-2.2046	0	0	0	0	-0	0	0	0	-0.1265	0	-0	0	0	0	0	0	-0	0	0.105	0.015	0	0	-0	0	0	0.098	0.1	0	-0	0	0	0	0	0	-0	0	0.05595	0	0	0	-0	0	0	0	0	0	-0	0	450.496	503.189	256.941	430.331	-2.8254	12.5293	0.0967904	0.0727049	-17.5311
42	0.190789	0.415534	-0.219566	0.416334	0.0433801	0.206217	0.0201867	-0.03177	0.0474769	-0.245122	0.116959	-0.188978	0.0903873	0.0144937	-0.00736883	-2.25156	-0.144813	-2.20545	0	0	0	0	-0	0	0	0	-0.1265	0	-0	0	0	0	0	0	-0	0	0.105	0.015	0	0	-0	0	0	0.098	0.1	0	-0	0	0	0	0	0	-0	0	0.05595	0	0	0	-0	0	0	0	0	0	-0	0	450.496	503.189	256.941	430.331	-2.82515	12.5295	0.0970759	0.0725552	-17.531
43	0.191019	0.415457	-0.220099	0.416175	0.0432178	0.206283	0.0201331	-0.0317989	0.0474582	-0.245112	0.116952	-0.188986	0.0903338	0.0144399	-0.00717366	-2.25294	-0.144627	-2.20377	0	0	0	0	-0	0	0	0	-0.1265	0	-0	0	0	0	0	0	-0	0	0.105	0.015	0	0	-0	0	0	0.098	0.1	0	-0	0	0	0	0	0	-0	0	0.05595	0	0	0	-0	0	0	0	0	0	-0	0	450.496	503.189	256.941	430.331	-2.82471	12.5299	0.0968966	0.0727763	-17.5308
44	0.19079	0.415007	-0.219678	0.415855	0.0431805	0.205991	0.0202117	-0.0317536	0.0474298	-0.245121	0.116968	-0.188974	0.0903829	0.014526	-0.00737903	-2.25141	-0.145011	-2.20505	0	0	0	0	-0	0	0	0	-0.1265	0	-0	0	0	0	0	0	-0	0	0.105	0.015	0	0	-0	0	0	0.098	0.1	0	-0	0	0	0	0	0	-0	0	0.05595	0	0	0	-0	0	0	0	0	0	-0	0	450.496	503.189	256.941	430.331	-2.82418	12.5304	0.097352	0.0725688	-17.5306
45	0.191045	0.415102	-0.220147	0.415914	0.0431526	0.2061	0.0201393	-0.0317993	0.0474313	-0.24511	0.116956	-0.188985	0.0903167	0.0144563	-0.00716844	-2.25297	-0.144758	-2.20335	0	0	0	0	-0	0	0	0	-0.1265	0	-0	0	0	0	0	0	-0	0	0.105	0.015	0	0	-0	0	0	0.098	0.1	0	-0	0	0	0	0	0	-0	0	0.05595	0	0	0	-0	0	0	0	0	0	-0	0	450.496	503.189	256.941	430.331	-2.82385	12.5307	0.097109	0.0728155	-17.5305
46	0.190846	0.414816	-0.219786	0.415764	0.0431227	0.205939	0.0202188	-0.0317443	0.0474158	-0.245121	0.116971	-0.188972	0.0903735	0.0145254	-0.00735711	-2.25167	-0.145055	-2.20458	0	0	0	0	-0	0	0	0	-0.1265	0	-0	0	0	0	0	0	-0	0	0.105	0.015	0	0	-0	0	0	0.098	0.1	0	-0	0	0	0	0	0	-0	0	0.05595	0	0	0	-0	0	0	0	0	0	-0	0	450.496	503.189	256.941	430.331	-2.8237	12.5309	0.097447	0.072609	-17.5304
47	0.191008	0.414927	-0.220054	0.415827	0.0431296	0.206	0.0201507	-0.0317958	0.0474254	-0.24511	0.116959	-0.188984	0.0903215	0.0144765	-0.00720087	-2.2527	-0.144857	-2.20349	0	0	0	0	-0	0	0	0	-0.1265	0	-0	0	0	0	0	0	-0	0	0.105	0.015	0	0	-0	0	0	0.098	0.1	0	-0	0	0	0	0	0	-0	0	0.05595	0	0	0	-0	0	0	0	0	0	-0	0	450.496	503.189	256.941	430.331	-2.8235	12.5311	0.0972642	0.0727777	-17.5303
48	0.190856	0.414682	-0.219738	0.415722	0.0431393	0.205854	0.0202102	-0.0317566	0.0474139	-0.245118	0.11697	-0.188974	0.09036	0.0145302	-0.00734934	-2.2517	-0.145091	-2.20439	0	0	0	0	-0	0	0	0	-0.1265	0	-0	0	0	0	0	0	-0	0	0.105	0.015	0	0	-0	0	0	0.098	0.1	0	-0	0	0	0	0	0	-0	0	0.05595	0	0	0	-0	0	0	0	0	0	-0	0	450.496	503.189	256.941	430.331	-2.82321	12.5314	0.0975664	0.0726317	-17.5302
49	0.191008	0.414776	-0.219986	0.415792	0.0431505	0.205921	0.0201562	-0.0317946	0.047422	-0.24511	0.11696	-0.188983	0.0903169	0.0144857	-0.0072141	-2.25265	-0.144915	-2.20339	0	0	0	0	-0	0	0	0	-0.1265	0	-0	0	0	0	0	0	-0	0	0.105	0.015	0	0	-0	0	0	0.098	0.1	0	-0	0	0	0	0	0	-0	0	0.05595	0	0	0	-0	0	0	0	0	0	-0	0	450.496	503.189	256.941	430.331	-2.823	12.5316	0.0974136	0.0727808	-17.5301
50	0.190875	0.414558	-0.219694	0.415715	0.0431683	0.205797	0.0202068	-0.0317618	0.0474149	-0.245117	0.116969	-0.188975	0.0903509	0.0145329	-0.00734306	-2.25178	-0.145114	-2.20418	0	0	0	0	-0	0	0	0	-0.1265	0	-0	0	0	0	0	0	-0	0	0.105	0.015	0	0	-0	0	0	0.098	0.1	0	-0	0	0	0	0	0	-0	0	0.05595	0	0	0	-0	0	0	0	0	0	-0	0	450.496	503.189	256.941	430.331	-2.82267	12.5319	0.0977053	0.0726429	-17.53
51	0.191015	0.414641	-0.219922	0.415785	0.0431784	0.205865	0.0201595	-0.0317942	0.0474226	-0.24511	0.116961	-0.188982	0.0903125	0.0144918	-0.00722037	-2.25266	-0.144952	-2.20326	0	0	0	0	-0	0	0	0	-0.1265	0	-0	0	0	0	0	0	-0	0	0.105	0.015	0	0	-0	0	0	0.098	0.1	0	-0	0	0	0	0	0	-0	0	0.05595	0	0	0	-0	0	0	0	0	0	-0	0	450.496	503.189	256.941	430.332	-2.82246	12.5321	0.0975769	0.0727759	-17.5299
52	0.190888	0.414444	-0.21963	0.415724	0.0432022	0.205749	0.0202048	-0.0317659	0.0474181	-0.245117	0.116969	-0.188975	0.0903437	0.014536	-0.00734118	-2.25183	-0.145136	-2.20402	0	0	0	0	-0	0	0	0	-0.1265	0	-0	0	0	0	0	0	-0	0	0.105	0.015	0	0	-0	0	0	0.098	0.1	0	-0	0	0	0	0	0	-0	0	0.05595	0	0	0	-0	0	0	0	0	0	-0	0	450.496	503.189	256.941	430.332	-2.8221	12.5325	0.0978701	0.0726404	-17.5297
53	0.191026	0.414526	-0.219855	0.415797	0.0432104	0.205821	0.0201605	-0.0317957	0.0474255	-0.245111	0.116961	-0.188982	0.0903071	0.0144956	-0.00722277	-2.25269	-0.144978	-2.20311	0	0	0	0	-0	0	0	0	-0.1265	0	-0	0	0	0	0	0	-0	0	0.105	0.015	0	0	-0	0	0	0.098	0.1	0	-0	0	0	0	0	0	-0	0	0.05595	0	0	0	-0	0	0	0	0	0	-0	0	450.496	503.189	256.941	430.332	-2.82187	12.5328	0.0977526	0.072768	-17.5296
54	0.190896	0.414344	-0.219552	0.415743	0.0432389	0.205706	0.0202037	-0.0317698	0.0474227	-0.245117	0.116968	-0.188976	0.0903379	0.0145394	-0.00734322	-2.25185	-0.14516	-2.20389	0	0	0	0	-0	0	0	0	-0.1265	0	-0	0	0	0	0	0	-0	0	0.105	0.015	0	0	-0	0	0	0.098	0.1	0	-0	0	0	0	0	0	-0	0	0.05595	0	0	0	-0	0	0	0	0	0	-0	0	450.496	503.189	256.941	430.332	-2.82148	12.5332	0.098057	0.0726283	-17.5294
55	0.19104	0.414434	-0.21979	0.415821	0.0432442	0.205786	0.0201594	-0.0317988	0.0474301	-0.24511	0.11696	-0.188983	0.090301	0.0144972	-0.0072218	-2.25274	-0.144997	-2.20296	0	0	0	0	-0	0	0	0	-0.1265	0	-0	0	0	0	0	0	-0	0	0.105	0.015	0	0	-0	0	0	0.098	0.1	0	-0	0	0	0	0	0	-0	0	0.05595	0	0	0	-0	0	0	0	0	0	-0	0	450.496	503.189	256.941	430.332	-2.82123	12.5334	0.0979397	0.0727586	-17.5293
56	0.190899	0.414262	-0.219463	0.415768	0.0432771	0.205668	0.0202033	-0.0317735	0.0474282	-0.245116	0.116968	-0.188976	0.0903334	0.014543	-0.00734894	-2.25184	-0.145187	-2.20382	0	0	0	0	-0	0	0	0	-0.1265	0	-0	0	0	0	0	0	-0	0	0.105	0.015	0	0	-0	0	0	0.098	0.1	0	-0	0	0	0	0	0	-0	0	0.05595	0	0	0	-0	0	0	0	0	0	-0	0	450.496	503.189	256.941	430.332	-2.82081	12.5339	0.0982659	0.0726071	-17.5291
57	0.191056	0.414367	-0.219731	0.415854	0.0432778	0.205762	0.0201566	-0.0318031	0.0474357	-0.24511	0.116959	-0.188983	0.0902943	0.0144965	-0.00721718	-2.25282	-0.14501	-2.20281	0	0	0	0	-0	0	0	0	-0.1265	0	-0	0	0	0	0	0	-0	0	0.105	0.015	0	0	-0	0	0	0.098	0.1	0	-0	0	0	0	0	0	-0	0	0.05595	0	0	0	-0	0	0	0	0	0	-0	0	450.496	503.189	256.941	430.332	-2.82055	12.5342	0.0981382	0.072748	-17.529
58	0.190896	0.4142	-0.219366	0.415795	0.0433154	0.205633	0.020204	-0.0317767	0.0474344	-0.245116	0.116967	-0.188976	0.0903305	0.0145468	-0.00735865	-2.2518	-0.145219	-2.20381	0	0	0	0	-0	0	0	0	-0.1265	0	-0	0	0	0	0	0	-0	0	0.105	0.015	0	0	-0	0	0	0.098	0.1	0	-0	0	0	0	0	0	-0	0	0.05595	0	0	0	-0	0	0	0	0	0	-0	0	450.496	503.189	256.941	430.332	-2.82009	12.5347	0.0984975	0.072576	-17.5288
59	0.191078	0.414329	-0.219686	0.415892	0.0433091	0.205749	0.0201519	-0.0318086	0.047442	-0.24511	0.116958	-0.188984	0.0902867	0.0144929	-0.00720794	-2.25293	-0.145015	-2.20265	0	0	0	0	-0	0	0	0	-0.1265	0	-0	0	0	0	0	0	-0	0	0.105	0.015	0	0	-0	0	0	0.098	0.1	0	-0	0	0	0	0	0	-0	0	0.05595	0	0	0	-0	0	0	0	0	0	-0	0	450.496	503.189	256.941	430.332	-2.81982	12.535	0.098347	0.0727368	-17.5287
60	0.190924	0.414168	-0.219395	0.415812	0.0433001	0.205649	0.0202073	-0.0317717	0.0474354	-0.245118	0.116967	-0.188975	0.0903291	0.0145422	-0.00734765	-2.25194	-0.14522	-2.20364	0	0	0	0	-0	0	0	0	-0.1265	0	-0	0	0	0	0	0	-0	0	0.105	0.015	0	0	-0	0	0	0.098	0.1	0	-0	0	0	0	0	0	-0	0	0.05595	0	0	0	-0	0	0	0	0	0	-0	0	450.496	503.189	256.941	430.332	-2.81968	12.5352	0.0986137	0.0725722	-17.5286
61	0.191053	0.414291	-0.219609	0.415885	0.0433102	0.205718	0.0201556	-0.0318097	0.0474447	-0.24511	0.116958	-0.188984	0.0902902	0.0145009	-0.00722561	-2.25277	-0.145054	-2.2028	0	0	0	0	-0	0	0	0	-0.1265	0	-0	0	0	0	0	0	-0	0	0.105	0.015	0	0	-0	0	0	0.098	0.1	0	-0	0	0	0	0	0	-0	0	0.05595	0	0	0	-0	0	0	0	0	0	-0	0	450.496	503.189	256.941	430.332	-2.81952	12.5354	0.098477	0.0726999	-17.5285
62	0.190923	0.414169	-0.219342	0.415832	0.0433234	0.205629	0.0202005	-0.031781	0.0474403	-0.245116	0.116966	-0.188977	0.090323	0.0145413	-0.00734549	-2.25193	-0.14523	-2.20363	0	0	0	0	-0	0	0	0	-0.1265	0	-0	0	0	0	0	0	-0	0	0.105	0.015	0	0	-0	0	0	0.098	0.1	0	-0	0	0	0	0	0	-0	0	0.05595	0	0	0	-0	0	0	0	0	0	-0	0	450.496	503.189	256.941	430.332	-2.81926	12.5357	0.0987377	0.0725651	-17.5284
63	0.191052	0.414284	-0.219561	0.415905	0.0433305	0.205706	0.020156	-0.0318114	0.0474481	-0.24511	0.116958	-0.188984	0.0902884	0.0145011	-0.00723111	-2.25275	-0.145074	-2.20281	0	0	0	0	-0	0	0	0	-0.1265	0	-0	0	0	0	0	0	-0	0	0.105	0.015	0	0	-0	0	0	0.098	0.1	0	-0	0	0	0	0	0	-0	0	0.05595	0	0	0	-0	0	0	0	0	0	-0	0	450.496	503.189	256.941	430.332	-2.81908	12.5359	0.0986129	0.0726859	-17.5283
64	0.190929	0.414173	-0.219306	0.415854	0.0433418	0.205624	0.0201978	-0.031785	0.0474447	-0.245116	0.116965	-0.188977	0.0903201	0.0145395	-0.0073437	-2.25195	-0.145239	-2.2036	0	0	0	0	-0	0	0	0	-0.1265	0	-0	0	0	0	0	0	-0	0	0.105	0.015	0	0	-0	0	0	0.098	0.1	0	-0	0	0	0	0	0	-0	0	0.05595	0	0	0	-0	0	0	0	0	0	-0	0	450.496	503.189	256.941	430.332	-2.8188	12.5363	0.0988764	0.0725506	-17.5281
65	0.191058	0.414287	-0.21953	0.415926	0.043344	0.205704	0.0201558	-0.0318127	0.0474518	-0.24511	0.116958	-0.188984	0.0902869	0.0144995	-0.00723156	-2.25276	-0.145085	-2.20279	0	0	0	0	-0	0	0	0	-0.1265	0	-0	0	0	0	0	0	-0	0	0.105	0.015	0	0	-0	0	0	0.098	0.1	0	-0	0	0	0	0	0	-0	0	0.05595	0	0	0	-0	0	0	0	0	0	-0	0	450.496	503.189	256.941	430.332	-2.81861	12.5365	0.0987598	0.0726677	-17.528
66	0.19093	0.414184	-0.219268	0.415874	0.0433557	0.205619	0.0201967	-0.0317877	0.0474489	-0.245116	0.116965	-0.188978	0.0903186	0.0145382	-0.00734501	-2.25195	-0.145251	-2.20362	0	0	0	0	-0	0	0	0	-0.1265	0	-0	0	0	0	0	0	-0	0	0.105	0.015	0	0	-0	0	0	0.098	0.1	0	-0	0	0	0	0	0	-0	0	0.05595	0	0	0	-0	0	0	0	0	0	-0	0	450.496	503.189	256.941	430.332	-2.81829	12.5369	0.0990354	0.0725274	-17.5278
67	0.191066	0.414304	-0.219509	0.415948	0.0433536	0.205707	0.0201544	-0.0318149	0.0474556	-0.24511	0.116957	-0.188984	0.0902846	0.0144962	-0.00722854	-2.2528	-0.145092	-2.20276	0	0	0	0	-0	0	0	0	-0.1265	0	-0	0	0	0	0	0	-0	0	0.105	0.015	0	0	-0	0	0	0.098	0.1	0	-0	0	0	0	0	0	-0	0	0.05595	0	0	0	-0	0	0	0	0	0	-0	0	450.496	503.189	256.941	430.332	-2.81809	12.5371	0.0989165	0.0726488	-17.5277
68	0.190927	0.414205	-0.219224	0.415891	0.043368	0.205615	0.0201967	-0.03179	0.0474531	-0.245116	0.116964	-0.188978	0.0903182	0.0145374	-0.00734976	-2.25192	-0.145269	-2.20367	0	0	0	0	-0	0	0	0	-0.1265	0	-0	0	0	0	0	0	-0	0	0.105	0.015	0	0	-0	0	0	0.098	0.1	0	-0	0	0	0	0	0	-0	0	0.05595	0	0	0	-0	0	0	0	0	0	-0	0	450.496	503.189	256.941	430.332	-2.81776	12.5376	0.0992139	0.0724966	-17.5275
69	0.191078	0.414339	-0.219498	0.415972	0.0433608	0.205716	0.0201516	-0.0318181	0.0474597	-0.24511	0.116956	-0.188985	0.0902815	0.0144908	-0.00722186	-2.25287	-0.145094	-2.20273	0	0	0	0	-0	0	0	0	-0.1265	0	-0	0	0	0	0	0	-0	0	0.105	0.015	0	0	-0	0	0	0.098	0.1	0	-0	0	0	0	0	0	-0	0	0.05595	0	0	0	-0	0	0	0	0	0	-0	0	450.496	503.189	256.941	430.332	-2.81754	12.5378	0.0990823	0.0726303	-17.5274
70	0.190953	0.41422	-0.219273	0.415905	0.0433466	0.205643	0.0201988	-0.0317857	0.0474535	-0.245117	0.116964	-0.188977	0.0903174	0.0145302	-0.00733658	-2.25207	-0.145261	-2.20354	0	0	0	0	-0	0	0	0	-0.1265	0	-0	0	0	0	0	0	-0	0	0.105	0.015	0	0	-0	0	0	0.098	0.1	0	-0	0	0	0	0	0	-0	0	0.05595	0	0	0	-0	0	0	0	0	0	-0	0	450.496	503.189	256.941	430.332	-2.81744	12.538	0.0992991	0.0724939	-17.5274
71	0.191054	0.414329	-0.219442	0.415961	0.0433526	0.205698	0.0201561	-0.0318175	0.0474613	-0.24511	0.116957	-0.188984	0.0902865	0.0144974	-0.00723898	-2.25271	-0.145129	-2.2029	0	0	0	0	-0	0	0	0	-0.1265	0	-0	0	0	0	0	0	-0	0	0.105	0.015	0	0	-0	0	0	0.098	0.1	0	-0	0	0	0	0	0	-0	0	0.05595	0	0	0	-0	0	0	0	0	0	-0	0	450.496	503.189	256.941	430.332	-2.81732	12.5382	0.0991916	0.0725927	-17.5273
72	0.190954	0.414255	-0.21925	0.415918	0.0433539	0.205639	0.0201922	-0.0317937	0.047457	-0.245115	0.116963	-0.188979	0.090313	0.0145273	-0.00733172	-2.25207	-0.145264	-2.20356	0	0	0	0	-0	0	0	0	-0.1265	0	-0	0	0	0	0	0	-0	0	0.105	0.015	0	0	-0	0	0	0.098	0.1	0	-0	0	0	0	0	0	-0	0	0.05595	0	0	0	-0	0	0	0	0	0	-0	0	450.496	503.189	256.941	430.332	-2.81712	12.5384	0.0993937	0.0724866	-17.5272
73	0.19105	0.414355	-0.219415	0.415972	0.043358	0.205697	0.0201576	-0.0318178	0.0474632	-0.24511	0.116957	-0.188984	0.0902869	0.0144967	-0.00724496	-2.25267	-0.145146	-2.20296	0	0	0	0	-0	0	0	0	-0.1265	0	-0	0	0	0	0	0	-0	0	0.105	0.015	0	0	-0	0	0	0.098	0.1	0	-0	0	0	0	0	0	-0	0	0.05595	0	0	0	-0	0	0	0	0	0	-0	0	450.496	503.189	256.941	430.332	-2.81698	12.5386	0.0993015	0.0725759	-17.5271
74	0.190959	0.414294	-0.219242	0.415933	0.0433578	0.205646	0.0201894	-0.0317969	0.04746	-0.245115	0.116962	-0.188979	0.0903112	0.0145235	-0.00732741	-2.2521	-0.145266	-2.20356	0	0	0	0	-0	0	0	0	-0.1265	0	-0	0	0	0	0	0	-0	0	0.105	0.015	0	0	-0	0	0	0.098	0.1	0	-0	0	0	0	0	0	-0	0	0.05595	0	0	0	-0	0	0	0	0	0	-0	0	450.496	503.189	256.941	430.332	-2.81677	12.5389	0.0994998	0.0724739	-17.527
75	0.191077	0.414405	-0.219469	0.415991	0.043327	0.205732	0.0201586	-0.0318137	0.0474639	-0.245111	0.116957	-0.188984	0.090286	0.0144866	-0.00723047	-2.25283	-0.145134	-2.20285	0	0	0	0	-0	0	0	0	-0.1265	0	-0	0	0	0	0	0	-0	0	0.105	0.015	0	0	-0	0	0	0.098	0.1	0	-0	0	0	0	0	0	-0	0	0.05595	0	0	0	-0	0	0	0	0	0	-0	0	450.496	503.189	256.941	430.332	-2.81641	12.5394	0.0994732	0.0725582	-17.5268
76	0.190939	0.41437	-0.219163	0.415947	0.0433649	0.205638	0.0201922	-0.031799	0.0474656	-0.245115	0.116963	-0.188979	0.0903151	0.0145235	-0.00734482	-2.25196	-0.145304	-2.2038	0	0	0	0	-0	0	0	0	-0.1265	0	-0	0	0	0	0	0	-0	0	0.105	0.015	0	0	-0	0	0	0.098	0.1	0	-0	0	0	0	0	0	-0	0	0.05595	0	0	0	-0	0	0	0	0	0	-0	0	450.496	503.189	256.941	430.333	-2.81593	12.5401	0.0998081	0.0724006	-17.5265
77	0.191045	0.414488	-0.219347	0.416009	0.0433774	0.205704	0.0201505	-0.0318292	0.0474726	-0.245109	0.116955	-0.188986	0.0902832	0.0144895	-0.00724626	-2.25263	-0.145174	-2.20312	0	0	0	0	-0	0	0	0	-0.1265	0	-0	0	0	0	0	0	-0	0	0.105	0.015	0	0	-0	0	0	0.098	0.1	0	-0	0	0	0	0	0	-0	0	0.05595	0	0	0	-0	0	0	0	0	0	-0	0	450.496	503.189	256.941	430.333	-2.81583	12.5402	0.0996827	0.0725099	-17.5264
78	0.190967	0.414422	-0.219215	0.415971	0.0433665	0.205671	0.0201872	-0.0318016	0.0474674	-0.245115	0.116962	-0.18898	0.0903095	0.0145139	-0.00732553	-2.25212	-0.145289	-2.20365	0	0	0	0	-0	0	0	0	-0.1265	0	-0	0	0	0	0	0	-0	0	0.105	0.015	0	0	-0	0	0	0.098	0.1	0	-0	0	0	0	0	0	-0	0	0.05595	0	0	0	-0	0	0	0	0	0	-0	0	450.496	503.189	256.941	430.333	-2.81571	12.5404	0.09984	0.072421	-17.5263
79	0.19107	0.414524	-0.219412	0.41602	0.043344	0.205746	0.0201571	-0.0318195	0.047472	-0.245111	0.116956	-0.188985	0.0902868	0.0144815	-0.00723699	-2.25276	-0.145166	-2.20303	0	0	0	0	-0	0	0	0	-0.1265	0	-0	0	0	0	0	0	-0	0	0.105	0.015	0	0	-0	0	0	0.098	0.1	0	-0	0	0	0	0	0	-0	0	0.05595	0	0	0	-0	0	0	0	0	0	-0	0	450.496	503.189	256.941	430.333	-2.81549	12.5407	0.0997843	0.0724985	-17.5262
80	0.190955	0.414478	-0.219186	0.415971	0.0433507	0.205676	0.0201888	-0.0318022	0.0474703	-0.245115	0.116962	-0.18898	0.0903133	0.0145131	-0.0073327	-2.25204	-0.145307	-2.2038	0	0	0	0	-0	0	0	0	-0.1265	0	-0	0	0	0	0	0	-0	0	0.105	0.015	0	0	-0	0	0	0.098	0.1	0	-0	0	0	0	0	0	-0	0	0.05595	0	0	0	-0	0	0	0	0	0	-0	0	450.496	503.189	256.941	430.333	-2.81522	12.5412	0.100028	0.0723722	-17.526
81	0.191074	0.4146	-0.219406	0.416035	0.0433434	0.205759	0.0201531	-0.0318246	0.0474753	-0.24511	0.116955	-0.188986	0.0902845	0.0144757	-0.00723211	-2.25278	-0.145169	-2.20308	0	0	0	0	-0	0	0	0	-0.1265	0	-0	0	0	0	0	0	-0	0	0.105	0.015	0	0	-0	0	0	0.098	0.1	0	-0	0	0	0	0	0	-0	0	0.05595	0	0	0	-0	0	0	0	0	0	-0	0	450.496	503.189	256.941	430.333	-2.81505	12.5414	0.0999271	0.0724769	-17.5259
82	0.190945	0.414552	-0.219155	0.415981	0.0433535	0.205684	0.0201896	-0.0318039	0.0474735	-0.245115	0.116962	-0.18898	0.0903152	0.0145112	-0.00734044	-2.25197	-0.145328	-2.20395	0	0	0	0	-0	0	0	0	-0.1265	0	-0	0	0	0	0	0	-0	0	0.105	0.015	0	0	-0	0	0	0.098	0.1	0	-0	0	0	0	0	0	-0	0	0.05595	0	0	0	-0	0	0	0	0	0	-0	0	450.496	503.188	256.941	430.333	-2.81476	12.5419	0.100196	0.0723353	-17.5257
83	0.191086	0.414691	-0.219424	0.416054	0.0433396	0.205786	0.0201491	-0.0318281	0.0474787	-0.24511	0.116954	-0.188986	0.0902823	0.0144673	-0.00722216	-2.25285	-0.145165	-2.20308	0	0	0	0	-0	0	0	0	-0.1265	0	-0	0	0	0	0	0	-0	0	0.105	0.015	0	0	-0	0	0	0.098	0.1	0	-0	0	0	0	0	0	-0	0	0.05595	0	0	0	-0	0	0	0	0	0	-0	0	450.496	503.188	256.941	430.333	-2.81457	12.5422	0.100074	0.0724574	-17.5256
84	0.190962	0.414591	-0.219202	0.415987	0.043326	0.205714	0.0201929	-0.0317991	0.0474732	-0.245116	0.116962	-0.188979	0.0903167	0.0145051	-0.00733278	-2.25206	-0.145325	-2.2039	0	0	0	0	-0	0	0	0	-0.1265	0	-0	0	0	0	0	0	-0	0	0.105	0.015	0	0	-0	0	0	0.098	0.1	0	-0	0	0	0	0	0	-0	0	0.05595	0	0	0	-0	0	0	0	0	0	-0	0	450.496	503.188	256.941	430.333	-2.81449	12.5424	0.100282	0.0723235	-17.5255
85	0.191067	0.414711	-0.219386	0.416045	0.0433299	0.205777	0.0201514	-0.0318289	0.0474802	-0.24511	0.116955	-0.188986	0.0902861	0.0144707	-0.00723391	-2.25273	-0.14519	-2.20324	0	0	0	0	-0	0	0	0	-0.1265	0	-0	0	0	0	0	0	-0	0	0.105	0.015	0	0	-0	0	0	0.098	0.1	0	-0	0	0	0	0	0	-0	0	0.05595	0	0	0	-0	0	0	0	0	0	-0	0	450.496	503.188	256.941	430.333	-2.81438	12.5425	0.100168	0.0724252	-17.5254
86	0.190958	0.414652	-0.219184	0.415995	0.0433303	0.205717	0.0201881	-0.0318054	0.047476	-0.245115	0.116961	-0.18898	0.0903145	0.0145021	-0.00733149	-2.25204	-0.145331	-2.20397	0	0	0	0	-0	0	0	0	-0.1265	0	-0	0	0	0	0	0	-0	0	0.105	0.015	0	0	-0	0	0	0.098	0.1	0	-0	0	0	0	0	0	-0	0	0.05595	0	0	0	-0	0	0	0	0	0	-0	0	450.496	503.188	256.941	430.333	-2.81422	12.5428	0.100373	0.0723098	-17.5253
87	0.191065	0.414768	-0.219377	0.416054	0.0433313	0.205787	0.0201514	-0.0318299	0.0474819	-0.24511	0.116955	-0.188986	0.0902866	0.0144678	-0.00723622	-2.25271	-0.1452	-2.20331	0	0	0	0	-0	0	0	0	-0.1265	0	-0	0	0	0	0	0	-0	0	0.105	0.015	0	0	-0	0	0	0.098	0.1	0	-0	0	0	0	0	0	-0	0	0.05595	0	0	0	-0	0	0	0	0	0	-0	0	450.496	503.188	256.941	430.333	-2.8141	12.543	0.100264	0.0724085	-17.5252
88	0.190958	0.414716	-0.219181	0.416005	0.0433299	0.205731	0.0201866	-0.0318075	0.0474784	-0.245115	0.116961	-0.18898	0.0903148	0.0144984	-0.0073305	-2.25204	-0.145336	-2.20404	0	0	0	0	-0	0	0	0	-0.1265	0	-0	0	0	0	0	0	-0	0	0.105	0.015	0	0	-0	0	0	0.098	0.1	0	-0	0	0	0	0	0	-0	0	0.05595	0	0	0	-0	0	0	0	0	0	-0	0	450.496	503.188	256.941	430.333	-2.81392	12.5433	0.100475	0.0722903	-17.5251
89	0.191068	0.414832	-0.219383	0.416064	0.0433268	0.205805	0.020151	-0.0318305	0.0474838	-0.24511	0.116954	-0.188986	0.0902872	0.0144634	-0.00723451	-2.25273	-0.145203	-2.20336	0	0	0	0	-0	0	0	0	-0.1265	0	-0	0	0	0	0	0	-0	0	0.105	0.015	0	0	-0	0	0	0.098	0.1	0	-0	0	0	0	0	0	-0	0	0.05595	0	0	0	-0	0	0	0	0	0	-0	0	450.496	503.188	256.941	430.333	-2.81379	12.5435	0.100369	0.0723889	-17.525
90	0.190955	0.414782	-0.219175	0.416011	0.043326	0.205745	0.0201864	-0.0318088	0.0474806	-0.245115	0.11696	-0.188981	0.0903162	0.0144952	-0.00733213	-2.25201	-0.145344	-2.20413	0	0	0	0	-0	0	0	0	-0.1265	0	-0	0	0	0	0	0	-0	0	0.105	0.015	0	0	-0	0	0	0.098	0.1	0	-0	0	0	0	0	0	-0	0	0.05595	0	0	0	-0	0	0	0	0	0	-0	0	450.496	503.188	256.941	430.333	-2.81359	12.5439	0.100593	0.0722639	-17.5248
91	0.191074	0.414906	-0.219397	0.416074	0.0433192	0.205827	0.0201496	-0.0318319	0.0474858	-0.245109	0.116954	-0.188987	0.0902872	0.0144576	-0.00722979	-2.25276	-0.145202	-2.2034	0	0	0	0	-0	0	0	0	-0.1265	0	-0	0	0	0	0	0	-0	0	0.105	0.015	0	0	-0	0	0	0.098	0.1	0	-0	0	0	0	0	0	-0	0	0.05595	0	0	0	-0	0	0	0	0	0	-0	0	450.495	503.188	256.941	430.333	-2.81346	12.5441	0.10048	0.0723693	-17.5247
92	0.190977	0.414823	-0.219232	0.41602	0.0433033	0.205776	0.0201877	-0.0318052	0.0474803	-0.245115	0.116961	-0.18898	0.0903161	0.0144873	-0.00731927	-2.25214	-0.145331	-2.20404	0	0	0	0	-0	0	0	0	-0.1265	0	-0	0	0	0	0	0	-0	0	0.105	0.015	0	0	-0	0	0	0.098	0.1	0	-0	0	0	0	0	0	-0	0	0.05595	0	0	0	-0	0	0	0	0	0	-0	0	450.495	503.188	256.941	430.333	-2.8134	12.5442	0.100644	0.0722626	-17.5247
93	0.191052	0.414914	-0.219361	0.416061	0.0433065	0.205819	0.0201541	-0.0318303	0.0474864	-0.24511	0.116955	-0.188986	0.0902926	0.0144625	-0.00724462	-2.25262	-0.14523	-2.20357	0	0	0	0	-0	0	0	0	-0.1265	0	-0	0	0	0	0	0	-0	0	0.105	0.015	0	0	-0	0	0	0.098	0.1	0	-0	0	0	0	0	0	-0	0	0.05595	0	0	0	-0	0	0	0	0	0	-0	0	450.495	503.188	256.941	430.333	-2.81332	12.5443	0.100561	0.0723358	-17.5246
94	0.190978	0.414876	-0.21923	0.416026	0.0433007	0.205782	0.020182	-0.0318114	0.0474824	-0.245114	0.11696	-0.188981	0.0903133	0.0144837	-0.00731365	-2.25215	-0.145329	-2.20407	0	0	0	0	-0	0	0	0	-0.1265	0	-0	0	0	0	0	0	-0	0	0.105	0.015	0	0	-0	0	0	0.098	0.1	0	-0	0	0	0	0	0	-0	0	0.05595	0	0	0	-0	0	0	0	0	0	-0	0	450.495	503.188	256.941	430.333	-2.81321	12.5446	0.100706	0.0722559	-17.5245
95	0.19107	0.414985	-0.219415	0.416071	0.0432769	0.205853	0.020156	-0.0318262	0.0474857	-0.245111	0.116955	-0.188985	0.0902933	0.0144536	-0.00723525	-2.25273	-0.145221	-2.20352	0	0	0	0	-0	0	0	0	-0.1265	0	-0	0	0	0	0	0	-0	0	0.105	0.015	0	0	-0	0	0	0.098	0.1	0	-0	0	0	0	0	0	-0	0	0.05595	0	0	0	-0	0	0	0	0	0	-0	0	450.495	503.188	256.941	430.333	-2.813	12.5449	0.100662	0.0723248	-17.5244
96	0.190961	0.414971	-0.219197	0.416027	0.0432913	0.205789	0.0201839	-0.0318125	0.0474853	-0.245114	0.11696	-0.188981	0.0903179	0.0144821	-0.00732494	-2.25204	-0.145353	-2.20429	0	0	0	0	-0	0	0	0	-0.1265	0	-0	0	0	0	0	0	-0	0	0.105	0.015	0	0	-0	0	0	0.098	0.1	0	-0	0	0	0	0	0	-0	0	0.05595	0	0	0	-0	0	0	0	0	0	-0	0	450.495	503.188	256.941	430.333	-2.81275	12.5455	0.100898	0.0722022	-17.5241
97	0.191035	0.415062	-0.219326	0.416071	0.043302	0.205833	0.020151	-0.031837	0.0474908	-0.245109	0.116954	-0.188987	0.0902937	0.0144576	-0.00725203	-2.25252	-0.145256	-2.20381	0	0	0	0	-0	0	0	0	-0.1265	0	-0	0	0	0	0	0	-0	0	0.105	0.015	0	0	-0	0	0	0.098	0.1	0	-0	0	0	0	0	0	-0	0	0.05595	0	0	0	-0	0	0	0	0	0	-0	0	450.495	503.188	256.941	430.333	-2.81269	12.5456	0.100804	0.0722816	-17.5241
98	0.190988	0.415025	-0.219249	0.416046	0.0432928	0.205818	0.0201782	-0.0318157	0.0474863	-0.245114	0.116959	-0.188982	0.0903121	0.0144725	-0.00730567	-2.2522	-0.145332	-2.20415	0	0	0	0	-0	0	0	0	-0.1265	0	-0	0	0	0	0	0	-0	0	0.105	0.015	0	0	-0	0	0	0.098	0.1	0	-0	0	0	0	0	0	-0	0	0.05595	0	0	0	-0	0	0	0	0	0	-0	0	450.495	503.188	256.941	430.333	-2.81262	12.5457	0.100904	0.0722246	-17.524
99	0.191054	0.415102	-0.219379	0.416078	0.0432784	0.205869	0.0201576	-0.0318282	0.0474898	-0.245111	0.116955	-0.188985	0.0902977	0.0144512	-0.00724708	-2.25261	-0.145251	-2.20377	0	0	0	0	-0	0	0	0	-0.1265	0	-0	0	0	0	0	0	-0	0	0.105	0.015	0	0	-0	0	0	0.098	0.1	0	-0	0	0	0	0	0	-0	0	0.05595	0	0	0	-0	0	0	0	0	0	-0	0	450.495	503.188	256.941	430.333	-2.8125	12.5459	0.100867	0.0722727	-17.5239
100	0.190982	0.415083	-0.219249	0.416044	0.0432732	0.205832	0.020179	-0.0318157	0.0474879	-0.245114	0.116959	-0.188982	0.0903155	0.0144703	-0.00730725	-2.25216	-0.145338	-2.20426	0	0	0	0	-0	0	0	0	-0.1265	0	-0	0	0	0	0	0	-0	0	0.105	0.015	0	0	-0	0	0	0.098	0.1	0	-0	0	0	0	0	0	-0	0	0.05595	0	0	0	-0	0	0	0	0	0	-0	0	450.495	503.188	256.941	430.333	-2.81235	12.5463	0.101021	0.0721909	-17.5238
