Stefan210/kinematic_calibration/src/kinematic_calibration/validation/experiments/experiments/impact_noise/outlier/larm_randomize_15_measurements_rk_false/optimization_intermediate_results.csv
iteration	HeadPitch_offset	HeadYaw_offset	LElbowRoll_offset	LElbowYaw_offset	LShoulderPitch_offset	LShoulderRoll_offset	marker_transform_larm_tx	marker_transform_larm_ty	marker_transform_larm_tz	marker_transform_larm_rr	marker_transform_larm_rp	marker_transform_larm_ry	camera_transform_tx	camera_transform_ty	camera_transform_tz	camera_transform_rr	camera_transform_rp	camera_transform_ry	HeadPitch_transform_tx	HeadPitch_transform_ty	HeadPitch_transform_tz	HeadPitch_transform_rr	HeadPitch_transform_rp	HeadPitch_transform_ry	HeadYaw_transform_tx	HeadYaw_transform_ty	HeadYaw_transform_tz	HeadYaw_transform_rr	HeadYaw_transform_rp	HeadYaw_transform_ry	LElbowRoll_transform_tx	LElbowRoll_transform_ty	LElbowRoll_transform_tz	LElbowRoll_transform_rr	LElbowRoll_transform_rp	LElbowRoll_transform_ry	LElbowYaw_transform_tx	LElbowYaw_transform_ty	LElbowYaw_transform_tz	LElbowYaw_transform_rr	LElbowYaw_transform_rp	LElbowYaw_transform_ry	LShoulderPitch_transform_tx	LShoulderPitch_transform_ty	LShoulderPitch_transform_tz	LShoulderPitch_transform_rr	LShoulderPitch_transform_rp	LShoulderPitch_transform_ry	LShoulderRoll_transform_tx	LShoulderRoll_transform_ty	LShoulderRoll_transform_tz	LShoulderRoll_transform_rr	LShoulderRoll_transform_rp	LShoulderRoll_transform_ry	LWristYaw_transform_tx	LWristYaw_transform_ty	LWristYaw_transform_tz	LWristYaw_transform_rr	LWristYaw_transform_rp	LWristYaw_transform_ry	l_wrist_joint_transform_tx	l_wrist_joint_transform_ty	l_wrist_joint_transform_tz	l_wrist_joint_transform_rr	l_wrist_joint_transform_rp	l_wrist_joint_transform_ry	camera_fx	camera_fy	camera_cx	camera_cy	camera_D0	camera_D1	camera_D2	camera_D3	camera_D4	
0	0.0249164	-0.0307543	0.000853157	4.65819e-06	-0.000318322	-0.00310766	0.05071	0	0.01774	-2.26369	1.66533e-16	-1.5708	545.901	551.038	324.928	201.58	0.0255298	2.61142	-0.0636736	-0.0350419	0.213964
1	-0.0353438	0.00671613	0.104647	0.221151	0.119421	-0.000889494	0.0334512	-0.0366415	0.020552	-0.00237634	-0.00224536	-0.00264256	0.0251054	-0.00179779	0.0102907	-2.12168	-0.010735	-1.68466	0	0	0	0	-0	0	0	0	-0.1265	0	-0	0	0	0	0	0	-0	0	0.105	0.015	0	0	-0	0	0	0.098	0.1	0	-0	0	0	0	0	0	-0	0	0.05595	0	0	0	-0	0	0	0	0	0	-0	0	545.901	551.037	324.928	201.578	0.0523148	2.63218	0.0350678	-0.0122003	0.218793
2	-0.0374409	0.154503	0.10046	0.359584	0.101897	0.0824499	0.0274114	-0.0387822	0.0451572	-0.00574536	-0.00599485	-0.00377999	0.0206099	0.0208441	0.0235283	-2.09223	-0.109773	-1.90108	0	0	0	0	-0	0	0	0	-0.1265	0	-0	0	0	0	0	0	-0	0	0.105	0.015	0	0	-0	0	0	0.098	0.1	0	-0	0	0	0	0	0	-0	0	0.05595	0	0	0	-0	0	0	0	0	0	-0	0	545.9	551.037	324.927	201.579	-0.0508183	2.61554	0.125889	0.0406814	0.215337
3	-0.037116	0.335745	0.0774016	0.351496	0.0687931	0.0756797	0.0241729	-0.0361175	0.0469919	-0.00649488	-0.00677038	-0.00398038	0.0412445	0.0326383	0.0195032	-2.05056	-0.190123	-2.16697	0	0	0	0	-0	0	0	0	-0.1265	0	-0	0	0	0	0	0	-0	0	0.105	0.015	0	0	-0	0	0	0.098	0.1	0	-0	0	0	0	0	0	-0	0	0.05595	0	0	0	-0	0	0	0	0	0	-0	0	545.9	551.037	324.927	201.581	-0.187158	2.58728	0.11069	0.157987	0.210347
4	-0.0438014	0.528959	0.00863421	0.398079	0.0113559	0.0858534	0.0179646	-0.0327298	0.0488555	-0.00738839	-0.00810349	-0.00453338	0.0591921	0.0289753	0.00588527	-1.94266	-0.264211	-2.41197	0	0	0	0	-0	0	0	0	-0.1265	0	-0	0	0	0	0	0	-0	0	0.105	0.015	0	0	-0	0	0	0.098	0.1	0	-0	0	0	0	0	0	-0	0	0.05595	0	0	0	-0	0	0	0	0	0	-0	0	545.9	551.037	324.927	201.584	-0.32443	2.55771	0.0728734	0.208335	0.20508
5	-0.046667	0.659416	-0.0561457	0.421059	-0.0259057	0.105627	0.0144102	-0.0305634	0.0480629	-0.00770694	-0.00874189	-0.00483922	0.070864	0.0183604	-0.00435167	-1.85612	-0.309208	-2.57786	0	0	0	0	-0	0	0	0	-0.1265	0	-0	0	0	0	0	0	-0	0	0.105	0.015	0	0	-0	0	0	0.098	0.1	0	-0	0	0	0	0	0	-0	0	0.05595	0	0	0	-0	0	0	0	0	0	-0	0	545.899	551.038	324.926	201.594	-0.692732	2.45807	0.0593977	0.209549	0.183892
6	-0.0456924	0.688219	-0.0700959	0.434513	-0.0356613	0.103307	0.0136071	-0.0300895	0.0484319	-0.00782861	-0.00889742	-0.0048942	0.0732979	0.0126377	-0.00735739	-1.83199	-0.326569	-2.6194	0	0	0	0	-0	0	0	0	-0.1265	0	-0	0	0	0	0	0	-0	0	0.105	0.015	0	0	-0	0	0	0.098	0.1	0	-0	0	0	0	0	0	-0	0	0.05595	0	0	0	-0	0	0	0	0	0	-0	0	545.898	551.038	324.924	201.61	-1.26468	2.26289	0.117072	0.14262	0.132235
7	-0.0463482	0.710572	-0.0849886	0.430571	-0.0403387	0.109359	0.0134976	-0.0300217	0.0474551	-0.00767039	-0.00886978	-0.00487047	0.0775078	0.0070322	-0.0120911	-1.81077	-0.333094	-2.65624	0	0	0	0	-0	0	0	0	-0.1265	0	-0	0	0	0	0	0	-0	0	0.105	0.015	0	0	-0	0	0	0.098	0.1	0	-0	0	0	0	0	0	-0	0	0.05595	0	0	0	-0	0	0	0	0	0	-0	0	545.892	551.034	324.941	201.635	-1.952	2.07959	0.177444	0.0568286	0.0950613
8	-0.0455448	0.723059	-0.0921621	0.431196	-0.0325135	0.108516	0.0133244	-0.0301448	0.0471746	-0.00760346	-0.00896053	-0.00503007	0.0790878	0.00466941	-0.0149502	-1.79677	-0.342432	-2.68235	0	0	0	0	-0	0	0	0	-0.1265	0	-0	0	0	0	0	0	-0	0	0.105	0.015	0	0	-0	0	0	0.098	0.1	0	-0	0	0	0	0	0	-0	0	0.05595	0	0	0	-0	0	0	0	0	0	-0	0	545.874	551.017	325.019	201.682	-2.1734	2.25703	0.191358	0.0333821	0.247942
9	-0.0454839	0.736713	-0.103826	0.427554	-0.0359914	0.114532	0.0132314	-0.0298222	0.0465703	-0.00786672	-0.00924033	-0.00529826	0.0803862	0.00289773	-0.0159027	-1.78915	-0.345469	-2.69889	0	0	0	0	-0	0	0	0	-0.1265	0	-0	0	0	0	0	0	-0	0	0.105	0.015	0	0	-0	0	0	0.098	0.1	0	-0	0	0	0	0	0	-0	0	0.05595	0	0	0	-0	0	0	0	0	0	-0	0	545.817	550.965	325.255	201.803	-2.28564	2.27517	0.200394	0.0246339	0.36349
10	-0.044508	0.738718	-0.104946	0.428304	-0.0344594	0.113716	0.0131445	-0.0297979	0.0465061	-0.0103096	-0.00814827	-0.00359218	0.0804872	0.00286544	-0.0162714	-1.78659	-0.347659	-2.70477	0	0	0	0	-0	0	0	0	-0.1265	0	-0	0	0	0	0	0	-0	0	0.105	0.015	0	0	-0	0	0	0.098	0.1	0	-0	0	0	0	0	0	-0	0	0.05595	0	0	0	-0	0	0	0	0	0	-0	0	545.646	550.804	326.002	202.151	-2.28444	2.16902	0.201588	0.0219091	0.570159
11	-0.0422043	0.742464	-0.10803	0.427866	-0.0360249	0.11567	0.0131021	-0.029702	0.0463823	-0.0121885	-0.00792162	0.00315414	0.0807495	0.00260791	-0.0161416	-1.7845	-0.34766	-2.71247	0	0	0	0	-0	0	0	0	-0.1265	0	-0	0	0	0	0	0	-0	0	0.105	0.015	0	0	-0	0	0	0.098	0.1	0	-0	0	0	0	0	0	-0	0	0.05595	0	0	0	-0	0	0	0	0	0	-0	0	545.108	550.319	328.215	203.153	-2.2166	1.81233	0.199749	0.0171671	0.961367
12	-0.038375	0.744645	-0.108845	0.429198	-0.0365824	0.116549	0.0130257	-0.0296884	0.0464753	-0.0187374	-0.00883263	0.00470679	0.0808331	0.0026058	-0.0159189	-1.78208	-0.350498	-2.72564	0	0	0	0	-0	0	0	0	-0.1265	0	-0	0	0	0	0	0	-0	0	0.105	0.015	0	0	-0	0	0	0.098	0.1	0	-0	0	0	0	0	0	-0	0	0.05595	0	0	0	-0	0	0	0	0	0	-0	0	543.527	548.815	334.451	206.018	-2.07326	1.18428	0.192904	0.00577722	1.62929
13	0.0153334	0.7514	-0.113387	0.430817	-0.0398148	0.121521	0.0128869	-0.0295953	0.046618	0.0179125	-0.0331623	0.0103331	0.082259	0.00136279	-0.0120201	-1.75682	-0.314978	-2.76514	0	0	0	0	-0	0	0	0	-0.1265	0	-0	0	0	0	0	0	-0	0	0.105	0.015	0	0	-0	0	0	0.098	0.1	0	-0	0	0	0	0	0	-0	0	0.05595	0	0	0	-0	0	0	0	0	0	-0	0	538.744	544.251	350.286	213.329	-1.86483	0.69646	0.171677	-0.0220725	1.4339
14	0.0118409	0.756912	-0.116501	0.434162	-0.0412779	0.126208	0.0126923	-0.0296675	0.0469392	-0.0172823	-0.0454195	-0.0294226	0.0828968	-0.000844803	-0.013318	-1.75354	-0.33091	-2.78934	0	0	0	0	-0	0	0	0	-0.1265	0	-0	0	0	0	0	0	-0	0	0.105	0.015	0	0	-0	0	0	0.098	0.1	0	-0	0	0	0	0	0	-0	0	0.05595	0	0	0	-0	0	0	0	0	0	-0	0	534.587	539.358	362.215	218.809	-2.11947	2.09788	0.170423	-0.0482681	-0.778157
15	-0.0111169	0.766135	-0.124548	0.440114	-0.0414495	0.132244	0.0121812	-0.0295346	0.047377	0.020874	-0.00567801	-0.00612046	0.0838878	-0.00432632	-0.0171434	-1.74705	-0.370259	-2.83364	0	0	0	0	-0	0	0	0	-0.1265	0	-0	0	0	0	0	0	-0	0	0.105	0.015	0	0	-0	0	0	0.098	0.1	0	-0	0	0	0	0	0	-0	0	0.05595	0	0	0	-0	0	0	0	0	0	-0	0	526.885	532.35	382.191	224.733	-2.25379	2.86619	0.15429	-0.0801565	-1.74429
16	-0.0171767	0.769243	-0.127036	0.457483	-0.0416631	0.131031	0.0110136	-0.0293251	0.048707	0.00211412	-0.0266888	-0.00113975	0.0840848	-0.00769767	-0.0192967	-1.73465	-0.391674	-2.85218	0	0	0	0	-0	0	0	0	-0.1265	0	-0	0	0	0	0	0	-0	0	0.105	0.015	0	0	-0	0	0	0.098	0.1	0	-0	0	0	0	0	0	-0	0	0.05595	0	0	0	-0	0	0	0	0	0	-0	0	522.808	529.418	392.333	226.537	-2.6065	3.42018	0.168194	-0.108569	-1.79628
17	-0.0192209	0.796396	-0.144534	0.458828	-0.0512894	0.143565	0.0101775	-0.0293058	0.0484199	0.00177071	-0.0211599	-0.00103934	0.0854606	-0.0131091	-0.021612	-1.70424	-0.401561	-2.88815	0	0	0	0	-0	0	0	0	-0.1265	0	-0	0	0	0	0	0	-0	0	0.105	0.015	0	0	-0	0	0	0.098	0.1	0	-0	0	0	0	0	0	-0	0	0.05595	0	0	0	-0	0	0	0	0	0	-0	0	520.375	528.271	397.508	226.513	-2.68044	3.28485	0.163626	-0.115709	-1.52467
18	-0.0117812	0.813	-0.149113	0.459625	-0.0553178	0.145249	0.00970258	-0.0298697	0.04826	-0.00142334	-0.0190624	0.00240551	0.0854059	-0.0141501	-0.0218564	-1.67621	-0.403096	-2.91888	0	0	0	0	-0	0	0	0	-0.1265	0	-0	0	0	0	0	0	-0	0	0.105	0.015	0	0	-0	0	0	0.098	0.1	0	-0	0	0	0	0	0	-0	0	0.05595	0	0	0	-0	0	0	0	0	0	-0	0	518.351	527.494	401.832	226.131	-2.66647	2.9519	0.165226	-0.134515	-1.20594
19	-0.0246667	0.828524	-0.160855	0.451742	-0.0613093	0.155352	0.00995603	-0.0298771	0.0474161	-0.00662131	-0.0121731	0.008397	0.0858549	-0.0160109	-0.0233691	-1.65853	-0.417449	-2.95363	0	0	0	0	-0	0	0	0	-0.1265	0	-0	0	0	0	0	0	-0	0	0.105	0.015	0	0	-0	0	0	0.098	0.1	0	-0	0	0	0	0	0	-0	0	0.05595	0	0	0	-0	0	0	0	0	0	-0	0	513.502	525.724	410.945	224.892	-2.51674	2.42644	0.155897	-0.149057	-0.859959
20	-0.0349009	0.838945	-0.164604	0.452477	-0.0628469	0.158449	0.00973298	-0.0300314	0.0474366	-0.0134418	0.0105056	0.0229145	0.0856838	-0.0166329	-0.0246861	-1.63698	-0.435688	-2.99037	0	0	0	0	-0	0	0	0	-0.1265	0	-0	0	0	0	0	0	-0	0	0.105	0.015	0	0	-0	0	0	0.098	0.1	0	-0	0	0	0	0	0	-0	0	0.05595	0	0	0	-0	0	0	0	0	0	-0	0	505.87	523.27	423.142	223.275	-2.43337	2.07017	0.154196	-0.176581	-0.661987
21	-0.0304274	0.842003	-0.165386	0.450642	-0.0621232	0.161422	0.00973732	-0.0302315	0.0473907	-0.0091963	0.0086904	0.0310839	0.0858818	-0.0168093	-0.0245633	-1.62624	-0.434406	-3.00624	0	0	0	0	-0	0	0	0	-0.1265	0	-0	0	0	0	0	0	-0	0	0.105	0.015	0	0	-0	0	0	0.098	0.1	0	-0	0	0	0	0	0	-0	0	0.05595	0	0	0	-0	0	0	0	0	0	-0	0	501.855	522.269	428.99	222.91	-2.43076	1.98215	0.153936	-0.191889	-0.613755
22	-0.00666734	0.843304	-0.165206	0.450216	-0.0616857	0.162647	0.00968311	-0.0303461	0.0474972	0.00630396	0.00475351	0.0320031	0.086466	-0.0167389	-0.0225326	-1.61348	-0.415503	-3.02593	0	0	0	0	-0	0	0	0	-0.1265	0	-0	0	0	0	0	0	-0	0	0.105	0.015	0	0	-0	0	0	0.098	0.1	0	-0	0	0	0	0	0	-0	0	0.05595	0	0	0	-0	0	0	0	0	0	-0	0	495.845	520.929	437.424	222.473	-2.37187	1.78356	0.151011	-0.208638	-0.513745
23	-0.0239393	0.845649	-0.166715	0.449717	-0.0613551	0.165052	0.00966246	-0.0303953	0.0475281	0.0206061	-0.00416771	0.0292954	0.0861538	-0.0167481	-0.024126	-1.60483	-0.437102	-3.04784	0	0	0	0	-0	0	0	0	-0.1265	0	-0	0	0	0	0	0	-0	0	0.105	0.015	0	0	-0	0	0	0.098	0.1	0	-0	0	0	0	0	0	-0	0	0.05595	0	0	0	-0	0	0	0	0	0	-0	0	488.33	519.393	447.02	222.013	-2.30566	1.58403	0.147128	-0.226799	-0.421574
24	-0.0270916	0.847968	-0.167896	0.449534	-0.0608378	0.167131	0.00959507	-0.030466	0.047581	0.0174915	-0.0182958	0.039137	0.0861174	-0.0166429	-0.024502	-1.5935	-0.445047	-3.07124	0	0	0	0	-0	0	0	0	-0.1265	0	-0	0	0	0	0	0	-0	0	0.105	0.015	0	0	-0	0	0	0.098	0.1	0	-0	0	0	0	0	0	-0	0	0.05595	0	0	0	-0	0	0	0	0	0	-0	0	479.705	517.831	456.884	221.686	-2.24826	1.41321	0.143546	-0.246374	-0.348796
25	0.0095774	0.849682	-0.169101	0.44959	-0.0601229	0.168941	0.0095148	-0.030523	0.047664	0.032896	-0.0149229	0.0393511	0.0870626	-0.0163986	-0.0214051	-1.57748	-0.414126	-3.10155	0	0	0	0	-0	0	0	0	-0.1265	0	-0	0	0	0	0	0	-0	0	0.105	0.015	0	0	-0	0	0	0.098	0.1	0	-0	0	0	0	0	0	-0	0	0.05595	0	0	0	-0	0	0	0	0	0	-0	0	467.331	515.686	469.496	221.188	-2.16426	1.20415	0.13802	-0.269804	-0.266201
26	0.026642	0.852251	-0.171046	0.449407	-0.0597336	0.171177	0.00944348	-0.0305623	0.0476959	0.0491475	0.0181478	0.0453072	0.0874553	-0.0162651	-0.0200337	-1.56899	-0.400386	-3.12156	0	0	0	0	-0	0	0	0	-0.1265	0	-0	0	0	0	0	0	-0	0	0.105	0.015	0	0	-0	0	0	0.098	0.1	0	-0	0	0	0	0	0	-0	0	0.05595	0	0	0	-0	0	0	0	0	0	-0	0	458.306	514.369	477.19	221.207	-2.13874	1.11925	0.13558	-0.287733	-0.236997
27	0.011486	0.850571	-0.169762	0.449953	-0.0582117	0.171013	0.00933767	-0.0306591	0.0479475	0.059563	-0.060207	0.0404872	0.0870521	-0.0157365	-0.0213381	-1.56151	-0.420525	3.14073	0	0	0	0	-0	0	0	0	-0.1265	0	-0	0	0	0	0	0	-0	0	0.105	0.015	0	0	-0	0	0	0.098	0.1	0	-0	0	0	0	0	0	-0	0	0.05595	0	0	0	-0	0	0	0	0	0	-0	0	445.686	512.431	487.172	221.174	-2.0823	0.989943	0.131016	-0.308157	-0.192365
28	0.025127	0.850468	-0.170995	0.449388	-0.0573068	0.172585	0.00932752	-0.0306533	0.0477752	0.0591485	-0.0636927	0.0247913	0.0874287	-0.0154717	-0.020223	-1.55627	-0.40921	3.1263	0	0	0	0	-0	0	0	0	-0.1265	0	-0	0	0	0	0	0	-0	0	0.105	0.015	0	0	-0	0	0	0.098	0.1	0	-0	0	0	0	0	0	-0	0	0.05595	0	0	0	-0	0	0	0	0	0	-0	0	436.679	511.13	493.177	221.218	-2.05693	0.926365	0.128402	-0.322512	-0.172729
29	0.00506322	0.849964	-0.169714	0.450477	-0.0565213	0.171539	0.00909489	-0.0308104	0.047963	0.118462	-0.0683165	0.0718535	0.0868581	-0.0149627	-0.0219212	-1.54908	-0.434462	3.10839	0	0	0	0	-0	0	0	0	-0.1265	0	-0	0	0	0	0	0	-0	0	0.105	0.015	0	0	-0	0	0	0.098	0.1	0	-0	0	0	0	0	0	-0	0	0.05595	0	0	0	-0	0	0	0	0	0	-0	0	424.157	509.193	500.721	221.338	-2.02195	0.84458	0.125435	-0.341302	-0.147835
30	0.00655979	0.846937	-0.169601	0.449844	-0.055023	0.171353	0.00919871	-0.0307114	0.0479242	0.0749714	-0.0841346	0.0829433	0.0869248	-0.014527	-0.0217906	-1.543	-0.435924	3.09181	0	0	0	0	-0	0	0	0	-0.1265	0	-0	0	0	0	0	0	-0	0	0.105	0.015	0	0	-0	0	0	0.098	0.1	0	-0	0	0	0	0	0	-0	0	0.05595	0	0	0	-0	0	0	0	0	0	-0	0	410.508	506.561	507.697	220.922	-1.97123	0.757387	0.121442	-0.357341	-0.122984
31	0.0404511	0.847268	-0.169874	0.45012	-0.0543715	0.171331	0.00905793	-0.030709	0.0479827	0.0977835	-0.0310902	0.101695	0.0876379	-0.0141842	-0.0188983	-1.54073	-0.404883	3.08135	0	0	0	0	-0	0	0	0	-0.1265	0	-0	0	0	0	0	0	-0	0	0.105	0.015	0	0	-0	0	0	0.098	0.1	0	-0	0	0	0	0	0	-0	0	0.05595	0	0	0	-0	0	0	0	0	0	-0	0	401.014	504.716	511.433	221.125	-1.95673	0.721009	0.119961	-0.370557	-0.113762
32	0.0411988	0.844022	-0.168821	0.449653	-0.052741	0.170315	0.00904274	-0.0306501	0.0478882	0.120674	-0.0135848	0.0981356	0.0876023	-0.0137893	-0.0188483	-1.5405	-0.406323	3.07581	0	0	0	0	-0	0	0	0	-0.1265	0	-0	0	0	0	0	0	-0	0	0.105	0.015	0	0	-0	0	0	0.098	0.1	0	-0	0	0	0	0	0	-0	0	0.05595	0	0	0	-0	0	0	0	0	0	-0	0	393.649	503.116	514.141	221.468	-1.94247	0.690982	0.118241	-0.37995	-0.10588
33	0.019212	0.842864	-0.167895	0.449933	-0.0521328	0.169361	0.00902098	-0.0306695	0.0480171	0.169139	0.04227	0.0706796	0.0871025	-0.0134086	-0.020738	-1.53568	-0.431781	3.0658	0	0	0	0	-0	0	0	0	-0.1265	0	-0	0	0	0	0	0	-0	0	0.105	0.015	0	0	-0	0	0	0.098	0.1	0	-0	0	0	0	0	0	-0	0	0.05595	0	0	0	-0	0	0	0	0	0	-0	0	383.596	500.709	517.348	221.802	-1.92403	0.653916	0.116491	-0.392354	-0.0966007
34	0.0602479	0.840962	-0.168615	0.448889	-0.0508086	0.169503	0.00899888	-0.0305918	0.0478837	0.132932	0.00559396	0.0653235	0.0880665	-0.0131806	-0.0172375	-1.53832	-0.39193	3.06117	0	0	0	0	-0	0	0	0	-0.1265	0	-0	0	0	0	0	0	-0	0	0.105	0.015	0	0	-0	0	0	0.098	0.1	0	-0	0	0	0	0	0	-0	0	0.05595	0	0	0	-0	0	0	0	0	0	-0	0	376.873	498.771	519.162	222.105	-1.90406	0.625896	0.11463	-0.398954	-0.0898361
35	0.0765701	0.839597	-0.167662	0.449058	-0.0502475	0.168472	0.00889846	-0.0305553	0.0478883	0.133686	0.0525497	0.064379	0.0882151	-0.0129126	-0.0157798	-1.53962	-0.37783	3.059	0	0	0	0	-0	0	0	0	-0.1265	0	-0	0	0	0	0	0	-0	0	0.105	0.015	0	0	-0	0	0	0.098	0.1	0	-0	0	0	0	0	0	-0	0	0.05595	0	0	0	-0	0	0	0	0	0	-0	0	372.065	497.36	520.267	222.586	-1.90209	0.614068	0.114088	-0.405927	-0.0870498
36	0.042996	0.837397	-0.166575	0.448813	-0.0493659	0.167568	0.00892477	-0.0306065	0.0478912	0.183335	0.0707796	0.0388975	0.0876427	-0.0126469	-0.0187398	-1.53612	-0.4134	3.05373	0	0	0	0	-0	0	0	0	-0.1265	0	-0	0	0	0	0	0	-0	0	0.105	0.015	0	0	-0	0	0	0.098	0.1	0	-0	0	0	0	0	0	-0	0	0.05595	0	0	0	-0	0	0	0	0	0	-0	0	365.499	495.245	521.664	223.09	-1.89028	0.593521	0.112712	-0.413217	-0.0822097
37	0.0628957	0.836523	-0.167062	0.448202	-0.0488367	0.167584	0.00889145	-0.030498	0.0477892	0.193385	0.0888337	0.0240573	0.0880398	-0.0125184	-0.0170099	-1.53775	-0.394682	3.05094	0	0	0	0	-0	0	0	0	-0.1265	0	-0	0	0	0	0	0	-0	0	0.105	0.015	0	0	-0	0	0	0.098	0.1	0	-0	0	0	0	0	0	-0	0	0.05595	0	0	0	-0	0	0	0	0	0	-0	0	360.989	493.604	522.475	223.513	-1.8801	0.578339	0.111669	-0.417949	-0.0787505
38	0.0662779	0.834987	-0.16564	0.448569	-0.0482585	0.166538	0.00882145	-0.030555	0.047811	0.209308	0.0817506	0.000430982	0.0879812	-0.0122906	-0.0167244	-1.53861	-0.392563	3.05164	0	0	0	0	-0	0	0	0	-0.1265	0	-0	0	0	0	0	0	-0	0	0.105	0.015	0	0	-0	0	0	0.098	0.1	0	-0	0	0	0	0	0	-0	0	0.05595	0	0	0	-0	0	0	0	0	0	-0	0	359.141	493.007	522.781	223.827	-1.88583	0.577989	0.111773	-0.421846	-0.0786684
39	0.0577193	0.833949	-0.165527	0.448186	-0.0478628	0.166351	0.00883677	-0.0305333	0.0477981	0.215047	0.0620478	-0.0168943	0.0878627	-0.0121961	-0.017466	-1.53824	-0.401979	3.05002	0	0	0	0	-0	0	0	0	-0.1265	0	-0	0	0	0	0	0	-0	0	0.105	0.015	0	0	-0	0	0	0.098	0.1	0	-0	0	0	0	0	0	-0	0	0.05595	0	0	0	-0	0	0	0	0	0	-0	0	356.693	492.188	523.204	224.19	-1.88213	0.571046	0.111123	-0.424639	-0.0770567
40	0.0876552	0.833215	-0.16518	0.448132	-0.0476868	0.165847	0.008843	-0.0305901	0.0477764	0.221176	0.0290503	0.0857038	0.0883887	-0.0120697	-0.0148248	-1.53871	-0.374369	3.04346	0	0	0	0	-0	0	0	0	-0.1265	0	-0	0	0	0	0	0	-0	0	0.105	0.015	0	0	-0	0	0	0.098	0.1	0	-0	0	0	0	0	0	-0	0	0.05595	0	0	0	-0	0	0	0	0	0	-0	0	347.681	488.089	524.542	224.804	-1.8559	0.539825	0.109101	-0.432311	-0.0701743
41	0.0987065	0.832056	-0.165297	0.447372	-0.0471795	0.165559	0.00887039	-0.0304853	0.0477486	0.247494	0.0404969	0.0444151	0.0885686	-0.0119757	-0.0138872	-1.54053	-0.364197	3.04181	0	0	0	0	-0	0	0	0	-0.1265	0	-0	0	0	0	0	0	-0	0	0.105	0.015	0	0	-0	0	0	0.098	0.1	0	-0	0	0	0	0	0	-0	0	0.05595	0	0	0	-0	0	0	0	0	0	-0	0	343.773	486.016	524.802	225.421	-1.84854	0.528954	0.108211	-0.436424	-0.0678707
42	0.109073	0.830612	-0.164689	0.44728	-0.0465455	0.165047	0.00883346	-0.0305166	0.0478043	0.29778	0.027243	0.0165262	0.0887139	-0.0118107	-0.0130027	-1.54203	-0.355052	3.04075	0	0	0	0	-0	0	0	0	-0.1265	0	-0	0	0	0	0	0	-0	0	0.105	0.015	0	0	-0	0	0	0.098	0.1	0	-0	0	0	0	0	0	-0	0	0.05595	0	0	0	-0	0	0	0	0	0	-0	0	340.222	484.025	525.03	226.087	-1.84115	0.519554	0.107383	-0.439817	-0.0659524
43	0.0971995	0.829022	-0.164648	0.44647	-0.0459511	0.164891	0.00886912	-0.0304395	0.0477165	0.302006	-0.00648149	-0.00263683	0.0886373	-0.0117441	-0.0140681	-1.54167	-0.367465	3.03944	0	0	0	0	-0	0	0	0	-0.1265	0	-0	0	0	0	0	0	-0	0	0.105	0.015	0	0	-0	0	0	0.098	0.1	0	-0	0	0	0	0	0	-0	0	0.05595	0	0	0	-0	0	0	0	0	0	-0	0	337.789	482.513	525.173	226.519	-1.83096	0.510491	0.106529	-0.440991	-0.0640822
44	0.114383	0.828294	-0.163921	0.446877	-0.0458107	0.164295	0.00881819	-0.0304457	0.0477698	0.319378	0.0354482	0.00611084	0.0888299	-0.011625	-0.0125495	-1.5436	-0.351671	3.03898	0	0	0	0	-0	0	0	0	-0.1265	0	-0	0	0	0	0	0	-0	0	0.105	0.015	0	0	-0	0	0	0.098	0.1	0	-0	0	0	0	0	0	-0	0	0.05595	0	0	0	-0	0	0	0	0	0	-0	0	334.791	480.682	525.289	227.185	-1.8284	0.504374	0.106039	-0.444709	-0.0628519
45	0.106974	0.8271	-0.163942	0.446186	-0.0453385	0.164218	0.00885989	-0.0304235	0.0476967	0.339026	0.0165378	-0.0202295	0.0887928	-0.0115765	-0.0132236	-1.54356	-0.359527	3.03781	0	0	0	0	-0	0	0	0	-0.1265	0	-0	0	0	0	0	0	-0	0	0.105	0.015	0	0	-0	0	0	0.098	0.1	0	-0	0	0	0	0	0	-0	0	0.05595	0	0	0	-0	0	0	0	0	0	-0	0	332.735	479.317	525.378	227.634	-1.81989	0.496971	0.105258	-0.445693	-0.0613458
46	0.118838	0.826595	-0.163534	0.446451	-0.0452715	0.163851	0.00880956	-0.0304144	0.0476981	0.349138	0.0289796	0.00256481	0.0889232	-0.0114984	-0.0121743	-1.54505	-0.34857	3.03762	0	0	0	0	-0	0	0	0	-0.1265	0	-0	0	0	0	0	0	-0	0	0.105	0.015	0	0	-0	0	0	0.098	0.1	0	-0	0	0	0	0	0	-0	0	0.05595	0	0	0	-0	0	0	0	0	0	-0	0	330.816	478.042	525.431	228.138	-1.81834	0.49309	0.10491	-0.44815	-0.0605773
47	0.143079	0.825689	-0.163161	0.446217	-0.0450505	0.16352	0.00881419	-0.0304062	0.0476909	0.323689	0.0273665	-0.00832853	0.0892277	-0.0114489	-0.0100278	-1.54813	-0.325321	3.03719	0	0	0	0	-0	0	0	0	-0.1265	0	-0	0	0	0	0	0	-0	0	0.105	0.015	0	0	-0	0	0	0.098	0.1	0	-0	0	0	0	0	0	-0	0	0.05595	0	0	0	-0	0	0	0	0	0	-0	0	328.201	476.2	525.519	228.789	-1.81123	0.48556	0.104102	-0.450248	-0.0590584
48	0.134908	0.824958	-0.163123	0.44602	-0.0448472	0.16342	0.00882475	-0.0303898	0.0476752	0.345284	0.0396096	0.00588404	0.0891445	-0.0113966	-0.0107582	-1.54781	-0.333802	3.03682	0	0	0	0	-0	0	0	0	-0.1265	0	-0	0	0	0	0	0	-0	0	0.105	0.015	0	0	-0	0	0	0.098	0.1	0	-0	0	0	0	0	0	-0	0	0.05595	0	0	0	-0	0	0	0	0	0	-0	0	327.172	475.46	525.542	229.081	-1.80816	0.482472	0.103776	-0.451071	-0.0584591
49	0.120523	0.824455	-0.162879	0.446034	-0.0446963	0.163233	0.00880755	-0.0303982	0.0477073	0.387421	0.0273566	0.0122086	0.0889914	-0.0113525	-0.0120499	-1.54648	-0.34862	3.0357	0	0	0	0	-0	0	0	0	-0.1265	0	-0	0	0	0	0	0	-0	0	0.105	0.015	0	0	-0	0	0	0.098	0.1	0	-0	0	0	0	0	0	-0	0	0.05595	0	0	0	-0	0	0	0	0	0	-0	0	325.806	474.462	525.574	229.478	-1.80486	0.478846	0.103364	-0.452283	-0.0577539
50	0.099388	0.823625	-0.162671	0.445647	-0.0445152	0.163114	0.00887231	-0.0304215	0.0476388	0.387625	0.0412829	-0.0589533	0.0887737	-0.0113516	-0.0139387	-1.54427	-0.370237	3.03321	0	0	0	0	-0	0	0	0	-0.1265	0	-0	0	0	0	0	0	-0	0	0.105	0.015	0	0	-0	0	0	0.098	0.1	0	-0	0	0	0	0	0	-0	0	0.05595	0	0	0	-0	0	0	0	0	0	-0	0	323.142	472.257	525.617	230.084	-1.79257	0.469101	0.102399	-0.453265	-0.0558563
51	0.11196	0.823535	-0.162793	0.445688	-0.0445854	0.163058	0.00884689	-0.0303405	0.0476863	0.381173	0.000930473	-0.0552143	0.0889372	-0.0113258	-0.0128263	-1.54592	-0.358166	3.0331	0	0	0	0	-0	0	0	0	-0.1265	0	-0	0	0	0	0	0	-0	0	0.105	0.015	0	0	-0	0	0	0.098	0.1	0	-0	0	0	0	0	0	-0	0	0.05595	0	0	0	-0	0	0	0	0	0	-0	0	321.903	471.191	525.594	230.516	-1.79041	0.466028	0.102097	-0.454682	-0.055278
52	0.098246	0.822651	-0.162585	0.445434	-0.0441875	0.162946	0.0088148	-0.0303774	0.0476961	0.327449	0.0112622	-0.0766975	0.0887883	-0.0112749	-0.0140717	-1.54485	-0.372021	3.03233	0	0	0	0	-0	0	0	0	-0.1265	0	-0	0	0	0	0	0	-0	0	0.105	0.015	0	0	-0	0	0	0.098	0.1	0	-0	0	0	0	0	0	-0	0	0.05595	0	0	0	-0	0	0	0	0	0	-0	0	320.99	470.387	525.59	230.82	-1.78486	0.462459	0.10163	-0.454625	-0.0546233
53	0.112611	0.821571	-0.162057	0.445218	-0.0440616	0.162587	0.00885152	-0.0303835	0.0477269	0.26732	0.0366843	-0.0789918	0.0889998	-0.0112708	-0.0127898	-1.54692	-0.358328	3.03235	0	0	0	0	-0	0	0	0	-0.1265	0	-0	0	0	0	0	0	-0	0	0.105	0.015	0	0	-0	0	0	0.098	0.1	0	-0	0	0	0	0	0	-0	0	0.05595	0	0	0	-0	0	0	0	0	0	-0	0	319.128	468.611	525.577	231.29	-1.77569	0.455548	0.100961	-0.455134	-0.0533022
54	0.124903	0.820992	-0.162156	0.444869	-0.0439038	0.162688	0.0089168	-0.0303492	0.0476569	0.256832	-0.00368596	-0.0950933	0.0891993	-0.0112713	-0.0117025	-1.54873	-0.346153	3.03252	0	0	0	0	-0	0	0	0	-0.1265	0	-0	0	0	0	0	0	-0	0	0.105	0.015	0	0	-0	0	0	0.098	0.1	0	-0	0	0	0	0	0	-0	0	0.05595	0	0	0	-0	0	0	0	0	0	-0	0	318.275	467.716	525.537	231.506	-1.76847	0.451179	0.100529	-0.454672	-0.0525052
55	0.113275	0.821051	-0.161952	0.445126	-0.0440014	0.162537	0.00887609	-0.0303414	0.047685	0.279355	-0.0366471	-0.112628	0.0890497	-0.011262	-0.0127528	-1.54725	-0.358339	3.03092	0	0	0	0	-0	0	0	0	-0.1265	0	-0	0	0	0	0	0	-0	0	0.105	0.015	0	0	-0	0	0	0.098	0.1	0	-0	0	0	0	0	0	-0	0	0.05595	0	0	0	-0	0	0	0	0	0	-0	0	316.456	465.91	525.429	232.144	-1.76382	0.446462	0.100052	-0.456237	-0.0516474
56	0.134057	0.820008	-0.161575	0.444677	-0.0437814	0.162304	0.00882991	-0.0303167	0.0477075	0.219864	0.012618	-0.158041	0.0893543	-0.0112695	-0.0109253	-1.5501	-0.338192	3.03056	0	0	0	0	-0	0	0	0	-0.1265	0	-0	0	0	0	0	0	-0	0	0.105	0.015	0	0	-0	0	0	0.098	0.1	0	-0	0	0	0	0	0	-0	0	0.05595	0	0	0	-0	0	0	0	0	0	-0	0	314.197	463.462	525.353	232.849	-1.75067	0.437571	0.0990834	-0.456334	-0.0500068
57	0.15505	0.818355	-0.160825	0.444607	-0.0435311	0.161732	0.00892199	-0.0303382	0.047601	0.225866	0.0109835	-0.130808	0.0895678	-0.0112162	-0.00904343	-1.55334	-0.317761	3.03207	0	0	0	0	-0	0	0	0	-0.1265	0	-0	0	0	0	0	0	-0	0	0.105	0.015	0	0	-0	0	0	0.098	0.1	0	-0	0	0	0	0	0	-0	0	0.05595	0	0	0	-0	0	0	0	0	0	-0	0	313.118	462.272	525.289	233.115	-1.74407	0.433339	0.0987072	-0.456239	-0.0492436
58	0.147821	0.81894	-0.161124	0.444793	-0.0437779	0.161828	0.00889511	-0.0303099	0.047623	0.22676	0.0236357	-0.146676	0.0894761	-0.0112085	-0.00968233	-1.55233	-0.325254	3.03132	0	0	0	0	-0	0	0	0	-0.1265	0	-0	0	0	0	0	0	-0	0	0.105	0.015	0	0	-0	0	0	0.098	0.1	0	-0	0	0	0	0	0	-0	0	0.05595	0	0	0	-0	0	0	0	0	0	-0	0	312.646	461.827	525.26	233.35	-1.74536	0.432961	0.0987216	-0.45743	-0.049193
59	0.162623	0.818556	-0.161078	0.444573	-0.043538	0.161801	0.00891172	-0.0303105	0.0476045	0.228619	0.0345143	-0.169477	0.0896453	-0.0111949	-0.00838336	-1.55439	-0.310666	3.0314	0	0	0	0	-0	0	0	0	-0.1265	0	-0	0	0	0	0	0	-0	0	0.105	0.015	0	0	-0	0	0	0.098	0.1	0	-0	0	0	0	0	0	-0	0	0.05595	0	0	0	-0	0	0	0	0	0	-0	0	312.052	461.229	525.247	233.645	-1.74175	0.430712	0.0983264	-0.457368	-0.0487852
60	0.163873	0.81846	-0.161153	0.444595	-0.0435667	0.161803	0.00890374	-0.0302998	0.0476128	0.219588	0.0464421	-0.164587	0.0896502	-0.0111782	-0.00826388	-1.55472	-0.309577	3.03147	0	0	0	0	-0	0	0	0	-0.1265	0	-0	0	0	0	0	0	-0	0	0.105	0.015	0	0	-0	0	0	0.098	0.1	0	-0	0	0	0	0	0	-0	0	0.05595	0	0	0	-0	0	0	0	0	0	-0	0	311.807	460.99	525.24	233.773	-1.74148	0.430185	0.0982658	-0.45772	-0.0486978
61	0.159704	0.818176	-0.161044	0.444546	-0.0434595	0.161742	0.00891019	-0.0303007	0.0476103	0.209233	0.033227	-0.165965	0.0896246	-0.011166	-0.00864545	-1.55448	-0.313844	3.03123	0	0	0	0	-0	0	0	0	-0.1265	0	-0	0	0	0	0	0	-0	0	0.105	0.015	0	0	-0	0	0	0.098	0.1	0	-0	0	0	0	0	0	-0	0	0.05595	0	0	0	-0	0	0	0	0	0	-0	0	311.477	460.663	525.236	233.939	-1.7398	0.429058	0.0980687	-0.457777	-0.0484948
62	0.158419	0.818079	-0.161032	0.444541	-0.0434749	0.161741	0.00892014	-0.0302984	0.0476161	0.224953	0.0495106	-0.180929	0.0896188	-0.0111619	-0.00875958	-1.55452	-0.315312	3.03092	0	0	0	0	-0	0	0	0	-0.1265	0	-0	0	0	0	0	0	-0	0	0.105	0.015	0	0	-0	0	0	0.098	0.1	0	-0	0	0	0	0	0	-0	0	0.05595	0	0	0	-0	0	0	0	0	0	-0	0	311	460.187	525.226	234.173	-1.73818	0.427677	0.0978508	-0.458111	-0.048247
63	0.172995	0.81792	-0.161011	0.444454	-0.0434564	0.161783	0.00891807	-0.0302895	0.047607	0.227985	0.0560577	-0.195364	0.0897675	-0.0111694	-0.00746148	-1.55649	-0.301083	3.03072	0	0	0	0	-0	0	0	0	-0.1265	0	-0	0	0	0	0	0	-0	0	0.105	0.015	0	0	-0	0	0	0.098	0.1	0	-0	0	0	0	0	0	-0	0	0.05595	0	0	0	-0	0	0	0	0	0	-0	0	310.049	459.164	525.2	234.617	-1.7335	0.424367	0.0973566	-0.458391	-0.0476531
64	0.162022	0.817581	-0.160945	0.444493	-0.0434305	0.161673	0.00891551	-0.030282	0.0476088	0.229688	0.0703062	-0.19983	0.0896759	-0.0111424	-0.00844433	-1.5555	-0.312151	3.03052	0	0	0	0	-0	0	0	0	-0.1265	0	-0	0	0	0	0	0	-0	0	0.105	0.015	0	0	-0	0	0	0.098	0.1	0	-0	0	0	0	0	0	-0	0	0.05595	0	0	0	-0	0	0	0	0	0	-0	0	309.787	458.889	525.194	234.752	-1.73296	0.423741	0.0972727	-0.45868	-0.0475457
65	0.160348	0.817317	-0.160782	0.444426	-0.0433909	0.161623	0.0089329	-0.0302983	0.0476183	0.211133	0.0667317	-0.175547	0.089671	-0.0111455	-0.00860174	-1.55558	-0.31414	3.02979	0	0	0	0	-0	0	0	0	-0.1265	0	-0	0	0	0	0	0	-0	0	0.105	0.015	0	0	-0	0	0	0.098	0.1	0	-0	0	0	0	0	0	-0	0	0.05595	0	0	0	-0	0	0	0	0	0	-0	0	308.811	457.827	525.182	235.2	-1.72802	0.420317	0.0967677	-0.458934	-0.0469347
66	0.172469	0.817041	-0.160895	0.444295	-0.0433548	0.161697	0.00895117	-0.0302597	0.0476148	0.20992	0.104141	-0.207597	0.0897992	-0.0111414	-0.00751503	-1.55734	-0.302166	3.03005	0	0	0	0	-0	0	0	0	-0.1265	0	-0	0	0	0	0	0	-0	0	0.105	0.015	0	0	-0	0	0	0.098	0.1	0	-0	0	0	0	0	0	-0	0	0.05595	0	0	0	-0	0	0	0	0	0	-0	0	308.364	457.301	525.168	235.415	-1.72491	0.418369	0.0965041	-0.458877	-0.0465937
67	0.16459	0.816875	-0.160872	0.444332	-0.0432864	0.161688	0.00892828	-0.0302688	0.0476053	0.206948	0.107049	-0.194582	0.0897426	-0.0111213	-0.00822858	-1.55658	-0.310134	3.02964	0	0	0	0	-0	0	0	0	-0.1265	0	-0	0	0	0	0	0	-0	0	0.105	0.015	0	0	-0	0	0	0.098	0.1	0	-0	0	0	0	0	0	-0	0	0.05595	0	0	0	-0	0	0	0	0	0	-0	0	308.025	456.914	525.158	235.594	-1.72309	0.417191	0.0963404	-0.458971	-0.0464025
68	0.171872	0.816536	-0.160689	0.44435	-0.0432467	0.161493	0.00892745	-0.0302658	0.0476048	0.210566	0.0951222	-0.192632	0.0897919	-0.0111029	-0.00757321	-1.55765	-0.303069	3.03013	0	0	0	0	-0	0	0	0	-0.1265	0	-0	0	0	0	0	0	-0	0	0.105	0.015	0	0	-0	0	0	0.098	0.1	0	-0	0	0	0	0	0	-0	0	0.05595	0	0	0	-0	0	0	0	0	0	-0	0	307.883	456.763	525.158	235.671	-1.72322	0.417011	0.0963079	-0.45921	-0.0463645
69	0.157215	0.81641	-0.160596	0.444329	-0.0432495	0.161475	0.00892853	-0.0302692	0.0476045	0.214175	0.0956494	-0.197667	0.0896845	-0.0111048	-0.00889108	-1.55609	-0.31783	3.02921	0	0	0	0	-0	0	0	0	-0.1265	0	-0	0	0	0	0	0	-0	0	0.105	0.015	0	0	-0	0	0	0.098	0.1	0	-0	0	0	0	0	0	-0	0	0.05595	0	0	0	-0	0	0	0	0	0	-0	0	307.319	456.163	525.159	235.936	-1.72049	0.415093	0.0960122	-0.4594	-0.0460245
70	0.158023	0.816222	-0.160594	0.444299	-0.043243	0.161464	0.00893617	-0.0302749	0.0476107	0.222633	0.0849936	-0.21671	0.0896898	-0.0110983	-0.00881709	-1.55639	-0.31714	3.02913	0	0	0	0	-0	0	0	0	-0.1265	0	-0	0	0	0	0	0	-0	0	0.105	0.015	0	0	-0	0	0	0.098	0.1	0	-0	0	0	0	0	0	-0	0	0.05595	0	0	0	-0	0	0	0	0	0	-0	0	306.995	455.801	525.158	236.097	-1.71886	0.413933	0.0958452	-0.459513	-0.0458207
71	0.165757	0.81604	-0.160587	0.444245	-0.0431977	0.161473	0.00894285	-0.0302635	0.0476006	0.214921	0.0811247	-0.201681	0.0897688	-0.011095	-0.00812598	-1.55747	-0.309499	3.02932	0	0	0	0	-0	0	0	0	-0.1265	0	-0	0	0	0	0	0	-0	0	0.105	0.015	0	0	-0	0	0	0.098	0.1	0	-0	0	0	0	0	0	-0	0	0.05595	0	0	0	-0	0	0	0	0	0	-0	0	306.764	455.53	525.157	236.21	-1.71707	0.412879	0.0956918	-0.459428	-0.0456372
72	0.18362	0.815973	-0.160524	0.444316	-0.0432093	0.161422	0.00893153	-0.0302674	0.0476114	0.207092	0.0686401	-0.216021	0.0899076	-0.0110847	-0.00652301	-1.55963	-0.291878	3.02986	0	0	0	0	-0	0	0	0	-0.1265	0	-0	0	0	0	0	0	-0	0	0.105	0.015	0	0	-0	0	0	0.098	0.1	0	-0	0	0	0	0	0	-0	0	0.05595	0	0	0	-0	0	0	0	0	0	-0	0	306.524	455.265	525.156	236.334	-1.71649	0.412291	0.0956078	-0.459674	-0.0455386
73	0.192001	0.815799	-0.160576	0.444169	-0.0431567	0.161453	0.00894671	-0.0302546	0.0475967	0.211666	0.0679301	-0.22687	0.0899657	-0.011088	-0.00576782	-1.56079	-0.283586	3.03003	0	0	0	0	-0	0	0	0	-0.1265	0	-0	0	0	0	0	0	-0	0	0.105	0.015	0	0	-0	0	0	0.098	0.1	0	-0	0	0	0	0	0	-0	0	0.05595	0	0	0	-0	0	0	0	0	0	-0	0	306.356	455.062	525.158	236.42	-1.71454	0.411261	0.0954564	-0.45945	-0.0453569
74	0.197335	0.81575	-0.160463	0.444324	-0.0431674	0.16137	0.00893225	-0.030257	0.0476058	0.209066	0.0708001	-0.223563	0.0899797	-0.0110707	-0.00529033	-1.5614	-0.278359	3.0303	0	0	0	0	-0	0	0	0	-0.1265	0	-0	0	0	0	0	0	-0	0	0.105	0.015	0	0	-0	0	0	0.098	0.1	0	-0	0	0	0	0	0	-0	0	0.05595	0	0	0	-0	0	0	0	0	0	-0	0	306.284	454.982	525.157	236.459	-1.71516	0.411407	0.0954855	-0.459734	-0.0453889
75	0.196336	0.81565	-0.160459	0.444241	-0.0431319	0.161363	0.008939	-0.0302559	0.0476024	0.209848	0.08114	-0.222192	0.0899798	-0.0110705	-0.00538059	-1.56138	-0.27939	3.03022	0	0	0	0	-0	0	0	0	-0.1265	0	-0	0	0	0	0	0	-0	0	0.105	0.015	0	0	-0	0	0	0.098	0.1	0	-0	0	0	0	0	0	-0	0	0.05595	0	0	0	-0	0	0	0	0	0	-0	0	306.189	454.874	525.159	236.51	-1.71445	0.410998	0.0954122	-0.459692	-0.045315
76	0.176109	0.815598	-0.160385	0.444273	-0.0431509	0.161346	0.00892578	-0.0302742	0.0476055	0.228568	0.0746667	-0.182357	0.0898718	-0.0110719	-0.0072027	-1.55912	-0.299634	3.02923	0	0	0	0	-0	0	0	0	-0.1265	0	-0	0	0	0	0	0	-0	0	0.105	0.015	0	0	-0	0	0	0.098	0.1	0	-0	0	0	0	0	0	-0	0	0.05595	0	0	0	-0	0	0	0	0	0	-0	0	305.77	454.41	525.162	236.714	-1.71254	0.409618	0.0952011	-0.459874	-0.0450737
77	0.183643	0.815379	-0.160402	0.444166	-0.0431462	0.161329	0.00894874	-0.030257	0.0476072	0.208648	0.06783	-0.185656	0.0899196	-0.0110759	-0.00651957	-1.56022	-0.292215	3.02945	0	0	0	0	-0	0	0	0	-0.1265	0	-0	0	0	0	0	0	-0	0	0.105	0.015	0	0	-0	0	0	0.098	0.1	0	-0	0	0	0	0	0	-0	0	0.05595	0	0	0	-0	0	0	0	0	0	-0	0	305.577	454.173	525.166	236.807	-1.71079	0.408583	0.0950592	-0.459747	-0.0448868
78	0.192165	0.815327	-0.160368	0.444229	-0.0431209	0.161346	0.00894417	-0.0302513	0.0476037	0.207972	0.0587544	-0.181184	0.0899734	-0.0110661	-0.0057583	-1.56124	-0.283757	3.02967	0	0	0	0	-0	0	0	0	-0.1265	0	-0	0	0	0	0	0	-0	0	0.105	0.015	0	0	-0	0	0	0.098	0.1	0	-0	0	0	0	0	0	-0	0	0.05595	0	0	0	-0	0	0	0	0	0	-0	0	305.432	453.997	525.164	236.878	-1.70986	0.40804	0.094987	-0.459757	-0.0448022
79	0.199604	0.815268	-0.160324	0.444244	-0.0431204	0.161298	0.00894006	-0.0302566	0.0476059	0.213724	0.0624063	-0.164672	0.0900118	-0.0110597	-0.00508989	-1.56217	-0.276487	3.02979	0	0	0	0	-0	0	0	0	-0.1265	0	-0	0	0	0	0	0	-0	0	0.105	0.015	0	0	-0	0	0	0.098	0.1	0	-0	0	0	0	0	0	-0	0	0.05595	0	0	0	-0	0	0	0	0	0	-0	0	305.203	453.747	525.164	236.991	-1.70929	0.407478	0.0949025	-0.459975	-0.0447053
80	0.190136	0.815121	-0.160278	0.444194	-0.0430999	0.161279	0.00895125	-0.0302483	0.0476041	0.216462	0.0426816	-0.137277	0.0899677	-0.01106	-0.00594361	-1.56122	-0.28599	3.02929	0	0	0	0	-0	0	0	0	-0.1265	0	-0	0	0	0	0	0	-0	0	0.105	0.015	0	0	-0	0	0	0.098	0.1	0	-0	0	0	0	0	0	-0	0	0.05595	0	0	0	-0	0	0	0	0	0	-0	0	304.889	453.382	525.167	237.142	-1.70739	0.406261	0.094721	-0.45999	-0.0444916
81	0.185484	0.815052	-0.160274	0.444202	-0.0431006	0.161295	0.00895294	-0.0302544	0.0476054	0.211804	0.0348815	-0.110879	0.0899416	-0.0110558	-0.00636389	-1.56078	-0.29071	3.02892	0	0	0	0	-0	0	0	0	-0.1265	0	-0	0	0	0	0	0	-0	0	0.105	0.015	0	0	-0	0	0	0.098	0.1	0	-0	0	0	0	0	0	-0	0	0.05595	0	0	0	-0	0	0	0	0	0	-0	0	304.564	453.002	525.166	237.304	-1.70567	0.405106	0.0945567	-0.460087	-0.0442966
82	0.185632	0.81492	-0.160305	0.444156	-0.0430668	0.161293	0.00894993	-0.0302461	0.0476031	0.206941	0.0294753	-0.12176	0.0899485	-0.0110494	-0.00635077	-1.56092	-0.29058	3.02896	0	0	0	0	-0	0	0	0	-0.1265	0	-0	0	0	0	0	0	-0	0	0.105	0.015	0	0	-0	0	0	0.098	0.1	0	-0	0	0	0	0	0	-0	0	0.05595	0	0	0	-0	0	0	0	0	0	-0	0	304.498	452.923	525.167	237.339	-1.70512	0.404776	0.0945121	-0.460059	-0.04424
83	0.181324	0.814791	-0.160204	0.444196	-0.0430436	0.161221	0.00894746	-0.0302463	0.0476053	0.214323	0.0269759	-0.124339	0.0899175	-0.0110404	-0.0067396	-1.56048	-0.294933	3.02886	0	0	0	0	-0	0	0	0	-0.1265	0	-0	0	0	0	0	0	-0	0	0.105	0.015	0	0	-0	0	0	0.098	0.1	0	-0	0	0	0	0	0	-0	0	0.05595	0	0	0	-0	0	0	0	0	0	-0	0	304.404	452.816	525.168	237.388	-1.70479	0.404525	0.0944741	-0.460123	-0.0441983
84	0.177103	0.814734	-0.160198	0.444169	-0.0430382	0.161221	0.00894771	-0.0302467	0.0476091	0.198986	0.032399	-0.125344	0.0898918	-0.0110397	-0.00711842	-1.56005	-0.299181	3.02863	0	0	0	0	-0	0	0	0	-0.1265	0	-0	0	0	0	0	0	-0	0	0.105	0.015	0	0	-0	0	0	0.098	0.1	0	-0	0	0	0	0	0	-0	0	0.05595	0	0	0	-0	0	0	0	0	0	-0	0	304.263	452.662	525.171	237.456	-1.70401	0.40401	0.0943957	-0.460152	-0.0441091
85	0.179408	0.814627	-0.160162	0.444151	-0.0430207	0.161211	0.00895483	-0.0302423	0.0476047	0.200185	0.0455806	-0.137457	0.0899117	-0.0110388	-0.00691221	-1.56042	-0.296949	3.0286	0	0	0	0	-0	0	0	0	-0.1265	0	-0	0	0	0	0	0	-0	0	0.105	0.015	0	0	-0	0	0	0.098	0.1	0	-0	0	0	0	0	0	-0	0	0.05595	0	0	0	-0	0	0	0	0	0	-0	0	304.063	452.434	525.173	237.55	-1.70272	0.403212	0.0942781	-0.460142	-0.0439709
86	0.181492	0.814601	-0.160163	0.44418	-0.0430254	0.161205	0.0089506	-0.0302453	0.0476125	0.19784	0.0608693	-0.130592	0.089925	-0.0110322	-0.00672495	-1.5607	-0.294915	3.02866	0	0	0	0	-0	0	0	0	-0.1265	0	-0	0	0	0	0	0	-0	0	0.105	0.015	0	0	-0	0	0	0.098	0.1	0	-0	0	0	0	0	0	-0	0	0.05595	0	0	0	-0	0	0	0	0	0	-0	0	303.983	452.342	525.174	237.592	-1.70257	0.403029	0.0942572	-0.460245	-0.0439427
87	0.188794	0.814498	-0.160162	0.444106	-0.0429898	0.161216	0.00895738	-0.0302456	0.0476135	0.210933	0.045937	-0.138966	0.0899833	-0.0110348	-0.00606967	-1.56166	-0.287693	3.02878	0	0	0	0	-0	0	0	0	-0.1265	0	-0	0	0	0	0	0	-0	0	0.105	0.015	0	0	-0	0	0	0.098	0.1	0	-0	0	0	0	0	0	-0	0	0.05595	0	0	0	-0	0	0	0	0	0	-0	0	303.824	452.153	525.177	237.67	-1.70113	0.402235	0.0941362	-0.460127	-0.0438047
88	0.18511	0.814411	-0.160139	0.444095	-0.0429881	0.161218	0.00895415	-0.0302637	0.0476152	0.196895	0.0320916	-0.168794	0.0899636	-0.0110358	-0.00640116	-1.56131	-0.291415	3.02851	0	0	0	0	-0	0	0	0	-0.1265	0	-0	0	0	0	0	0	-0	0	0.105	0.015	0	0	-0	0	0	0.098	0.1	0	-0	0	0	0	0	0	-0	0	0.05595	0	0	0	-0	0	0	0	0	0	-0	0	303.596	451.869	525.177	237.776	-1.69949	0.401254	0.094007	-0.460087	-0.0436379
89	0.193796	0.814247	-0.160105	0.444052	-0.0429801	0.161181	0.00896357	-0.0302335	0.0476111	0.184388	0.0543475	-0.176029	0.0900229	-0.0110378	-0.00561774	-1.56245	-0.282815	3.02883	0	0	0	0	-0	0	0	0	-0.1265	0	-0	0	0	0	0	0	-0	0	0.105	0.015	0	0	-0	0	0	0.098	0.1	0	-0	0	0	0	0	0	-0	0	0.05595	0	0	0	-0	0	0	0	0	0	-0	0	303.494	451.726	525.178	237.824	-1.69846	0.40067	0.0939297	-0.459991	-0.043533
90	0.193846	0.814244	-0.160054	0.444144	-0.0429789	0.16116	0.00895572	-0.0302419	0.0476113	0.170545	0.0576858	-0.172608	0.0900146	-0.0110256	-0.00561592	-1.56243	-0.282814	3.02881	0	0	0	0	-0	0	0	0	-0.1265	0	-0	0	0	0	0	0	-0	0	0.105	0.015	0	0	-0	0	0	0.098	0.1	0	-0	0	0	0	0	0	-0	0	0.05595	0	0	0	-0	0	0	0	0	0	-0	0	303.409	451.624	525.176	237.866	-1.69832	0.400527	0.0939208	-0.460106	-0.0435182
91	0.181486	0.814177	-0.160034	0.44409	-0.0429678	0.16114	0.0089608	-0.0302357	0.0476124	0.176086	0.0379946	-0.168128	0.0899495	-0.0110282	-0.00672969	-1.56106	-0.295173	3.02824	0	0	0	0	-0	0	0	0	-0.1265	0	-0	0	0	0	0	0	-0	0	0.105	0.015	0	0	-0	0	0	0.098	0.1	0	-0	0	0	0	0	0	-0	0	0.05595	0	0	0	-0	0	0	0	0	0	-0	0	303.205	451.378	525.178	237.968	-1.69724	0.399793	0.0938085	-0.460149	-0.043389
92	0.173874	0.814122	-0.160068	0.444066	-0.0429544	0.161168	0.00896077	-0.0302351	0.0476043	0.184804	0.0377301	-0.164183	0.0898979	-0.0110253	-0.00741422	-1.56023	-0.302754	3.02792	0	0	0	0	-0	0	0	0	-0.1265	0	-0	0	0	0	0	0	-0	0	0.105	0.015	0	0	-0	0	0	0.098	0.1	0	-0	0	0	0	0	0	-0	0	0.05595	0	0	0	-0	0	0	0	0	0	-0	0	303.105	451.257	525.178	238.019	-1.69635	0.399304	0.0937426	-0.460098	-0.0433087
93	0.174984	0.814054	-0.159997	0.444123	-0.0429533	0.161099	0.00895854	-0.0302375	0.0476064	0.180159	0.0386894	-0.156075	0.089897	-0.011017	-0.00731502	-1.56038	-0.301705	3.02802	0	0	0	0	-0	0	0	0	-0.1265	0	-0	0	0	0	0	0	-0	0	0.105	0.015	0	0	-0	0	0	0.098	0.1	0	-0	0	0	0	0	0	-0	0	0.05595	0	0	0	-0	0	0	0	0	0	-0	0	303.062	451.209	525.179	238.042	-1.69666	0.399354	0.0937523	-0.460248	-0.0433172
94	0.184924	0.814024	-0.159986	0.444089	-0.0429501	0.161107	0.00895517	-0.030241	0.0476065	0.167195	0.0412206	-0.174571	0.0899735	-0.0110196	-0.00642256	-1.56161	-0.291879	3.02821	0	0	0	0	-0	0	0	0	-0.1265	0	-0	0	0	0	0	0	-0	0	0.105	0.015	0	0	-0	0	0	0.098	0.1	0	-0	0	0	0	0	0	-0	0	0.05595	0	0	0	-0	0	0	0	0	0	-0	0	302.893	451.013	525.182	238.128	-1.69564	0.398709	0.0936482	-0.460256	-0.0432056
95	0.185441	0.813922	-0.159966	0.444086	-0.0429454	0.16108	0.00896213	-0.0302352	0.0476036	0.171308	0.044032	-0.176785	0.0899731	-0.0110161	-0.00637404	-1.56175	-0.291391	3.02829	0	0	0	0	-0	0	0	0	-0.1265	0	-0	0	0	0	0	0	-0	0	0.105	0.015	0	0	-0	0	0	0.098	0.1	0	-0	0	0	0	0	0	-0	0	0.05595	0	0	0	-0	0	0	0	0	0	-0	0	302.853	450.966	525.183	238.148	-1.69539	0.398543	0.0936254	-0.460258	-0.0431757
96	0.178082	0.813927	-0.159936	0.444116	-0.0429518	0.161079	0.00896145	-0.0302388	0.0476078	0.176856	0.0475058	-0.18985	0.0899254	-0.0110145	-0.00703828	-1.56089	-0.298755	3.0279	0	0	0	0	-0	0	0	0	-0.1265	0	-0	0	0	0	0	0	-0	0	0.105	0.015	0	0	-0	0	0	0.098	0.1	0	-0	0	0	0	0	0	-0	0	0.05595	0	0	0	-0	0	0	0	0	0	-0	0	302.694	450.782	525.185	238.231	-1.6947	0.398049	0.0935487	-0.460343	-0.0430935
97	0.188185	0.813866	-0.159954	0.44406	-0.0429438	0.161101	0.00895882	-0.0302387	0.0476038	0.1625	0.0627834	-0.227193	0.0900022	-0.0110177	-0.00613039	-1.56218	-0.288773	3.02804	0	0	0	0	-0	0	0	0	-0.1265	0	-0	0	0	0	0	0	-0	0	0.105	0.015	0	0	-0	0	0	0.098	0.1	0	-0	0	0	0	0	0	-0	0	0.05595	0	0	0	-0	0	0	0	0	0	-0	0	302.469	450.512	525.189	238.343	-1.69314	0.397103	0.0934081	-0.46031	-0.0429311
98	0.189423	0.813725	-0.159884	0.444099	-0.0429382	0.161032	0.00896342	-0.030235	0.0476075	0.154716	0.0586596	-0.223828	0.0900014	-0.0110088	-0.00601791	-1.56241	-0.287596	3.02819	0	0	0	0	-0	0	0	0	-0.1265	0	-0	0	0	0	0	0	-0	0	0.105	0.015	0	0	-0	0	0	0.098	0.1	0	-0	0	0	0	0	0	-0	0	0.05595	0	0	0	-0	0	0	0	0	0	-0	0	302.406	450.438	525.19	238.374	-1.69304	0.396964	0.0933917	-0.46039	-0.042907
99	0.184637	0.813706	-0.159905	0.44407	-0.0429217	0.161064	0.00896439	-0.0302326	0.0476059	0.15279	0.0528254	-0.221661	0.0899778	-0.0110081	-0.00644972	-1.56188	-0.292361	3.02794	0	0	0	0	-0	0	0	0	-0.1265	0	-0	0	0	0	0	0	-0	0	0.105	0.015	0	0	-0	0	0	0.098	0.1	0	-0	0	0	0	0	0	-0	0	0.05595	0	0	0	-0	0	0	0	0	0	-0	0	302.32	450.339	525.192	238.417	-1.69232	0.396569	0.0933328	-0.460347	-0.0428421
100	0.183565	0.813664	-0.159892	0.444083	-0.0429122	0.161046	0.00896346	-0.030232	0.0476063	0.149675	0.051763	-0.21745	0.0899695	-0.0110035	-0.00654641	-1.56178	-0.293451	3.02792	0	0	0	0	-0	0	0	0	-0.1265	0	-0	0	0	0	0	0	-0	0	0.105	0.015	0	0	-0	0	0	0.098	0.1	0	-0	0	0	0	0	0	-0	0	0.05595	0	0	0	-0	0	0	0	0	0	-0	0	302.286	450.299	525.192	238.435	-1.69226	0.396495	0.0933247	-0.460391	-0.0428308
