Stefan210/kinematic_calibration/src/kinematic_calibration/validation/experiments/experiments/impact_noise/outlier/larm_randomize_2_measurements_rk_false/optimization_intermediate_results.csv
iteration	HeadPitch_offset	HeadYaw_offset	LElbowRoll_offset	LElbowYaw_offset	LShoulderPitch_offset	LShoulderRoll_offset	marker_transform_larm_tx	marker_transform_larm_ty	marker_transform_larm_tz	marker_transform_larm_rr	marker_transform_larm_rp	marker_transform_larm_ry	camera_transform_tx	camera_transform_ty	camera_transform_tz	camera_transform_rr	camera_transform_rp	camera_transform_ry	HeadPitch_transform_tx	HeadPitch_transform_ty	HeadPitch_transform_tz	HeadPitch_transform_rr	HeadPitch_transform_rp	HeadPitch_transform_ry	HeadYaw_transform_tx	HeadYaw_transform_ty	HeadYaw_transform_tz	HeadYaw_transform_rr	HeadYaw_transform_rp	HeadYaw_transform_ry	LElbowRoll_transform_tx	LElbowRoll_transform_ty	LElbowRoll_transform_tz	LElbowRoll_transform_rr	LElbowRoll_transform_rp	LElbowRoll_transform_ry	LElbowYaw_transform_tx	LElbowYaw_transform_ty	LElbowYaw_transform_tz	LElbowYaw_transform_rr	LElbowYaw_transform_rp	LElbowYaw_transform_ry	LShoulderPitch_transform_tx	LShoulderPitch_transform_ty	LShoulderPitch_transform_tz	LShoulderPitch_transform_rr	LShoulderPitch_transform_rp	LShoulderPitch_transform_ry	LShoulderRoll_transform_tx	LShoulderRoll_transform_ty	LShoulderRoll_transform_tz	LShoulderRoll_transform_rr	LShoulderRoll_transform_rp	LShoulderRoll_transform_ry	LWristYaw_transform_tx	LWristYaw_transform_ty	LWristYaw_transform_tz	LWristYaw_transform_rr	LWristYaw_transform_rp	LWristYaw_transform_ry	l_wrist_joint_transform_tx	l_wrist_joint_transform_ty	l_wrist_joint_transform_tz	l_wrist_joint_transform_rr	l_wrist_joint_transform_rp	l_wrist_joint_transform_ry	camera_fx	camera_fy	camera_cx	camera_cy	camera_D0	camera_D1	camera_D2	camera_D3	camera_D4	
0	0.0249164	-0.0307543	0.000853157	4.65819e-06	-0.000318322	-0.00310766	0.05071	0	0.01774	-2.26369	1.66533e-16	-1.5708	545.901	551.038	324.928	201.58	0.0255298	2.61142	-0.0636736	-0.0350419	0.213964
1	-0.0120878	-0.0317994	-0.00974994	0.161596	0.0344779	-0.0148968	0.0256785	-0.0282854	0.0168104	-0.0019483	-0.00190184	-0.00276867	0.0537837	-0.00279855	0.0174788	-2.21458	0.0180403	-1.5193	0	0	0	0	-0	0	0	0	-0.1265	0	-0	0	0	0	0	0	-0	0	0.105	0.015	0	0	-0	0	0	0.098	0.1	0	-0	0	0	0	0	0	-0	0	0.05595	0	0	0	-0	0	0	0	0	0	-0	0	545.901	551.039	324.928	201.58	0.0138661	2.60744	-0.0647339	0.0753545	0.213204
2	-0.0136382	-0.0225898	-0.0244801	0.207699	0.0241335	-0.0081801	0.0233929	-0.0280178	0.0200969	-0.00232979	-0.00239272	-0.00299775	0.0514283	-0.0016826	0.0191556	-2.20905	0.0145414	-1.53787	0	0	0	0	-0	0	0	0	-0.1265	0	-0	0	0	0	0	0	-0	0	0.105	0.015	0	0	-0	0	0	0.098	0.1	0	-0	0	0	0	0	0	-0	0	0.05595	0	0	0	-0	0	0	0	0	0	-0	0	545.904	551.039	324.926	201.584	-0.0601621	2.55625	-0.0557866	0.0718066	0.199528
3	-0.0138528	-0.018945	-0.0272521	0.213964	0.0183471	-0.00697509	0.0232018	-0.0278962	0.0202287	-0.00236349	-0.00241445	-0.00300649	0.0518304	-0.00134775	0.0186919	-2.20813	0.0123221	-1.54264	0	0	0	0	-0	0	0	0	-0.1265	0	-0	0	0	0	0	0	-0	0	0.105	0.015	0	0	-0	0	0	0.098	0.1	0	-0	0	0	0	0	0	-0	0	0.05595	0	0	0	-0	0	0	0	0	0	-0	0	545.911	551.04	324.922	201.593	-0.226049	2.4352	-0.0310698	0.0625086	0.167744
4	-0.0136418	-0.0181577	-0.0293007	0.214059	0.0162492	-0.0083828	0.0230729	-0.0277787	0.0201419	-0.00239397	-0.002409	-0.00299105	0.0526338	-0.00122858	0.0178278	-2.20869	0.0123727	-1.54369	0	0	0	0	-0	0	0	0	-0.1265	0	-0	0	0	0	0	0	-0	0	0.105	0.015	0	0	-0	0	0	0.098	0.1	0	-0	0	0	0	0	0	-0	0	0.05595	0	0	0	-0	0	0	0	0	0	-0	0	545.929	551.04	324.916	201.611	-0.392654	2.20608	-0.00577096	0.0526735	0.106916
5	-0.013168	-0.0183394	-0.0307642	0.213551	0.0155495	-0.00906182	0.0229739	-0.0277106	0.0200472	-0.00234965	-0.00239132	-0.00295541	0.05277	-0.00121521	0.0178153	-2.20984	0.0133424	-1.54344	0	0	0	0	-0	0	0	0	-0.1265	0	-0	0	0	0	0	0	-0	0	0.105	0.015	0	0	-0	0	0	0.098	0.1	0	-0	0	0	0	0	0	-0	0	0.05595	0	0	0	-0	0	0	0	0	0	-0	0	545.98	551.038	324.91	201.646	-0.356439	1.79545	0.00014071	0.0496755	0.00393019
6	-0.0129631	-0.0193037	-0.0321446	0.213592	0.0157721	-0.0085234	0.0228981	-0.0276863	0.0199954	-0.00206633	-0.00233554	-0.00296687	0.0521242	-0.00126079	0.018631	-2.21155	0.0150066	-1.54192	0	0	0	0	-0	0	0	0	-0.1265	0	-0	0	0	0	0	0	-0	0	0.105	0.015	0	0	-0	0	0	0.098	0.1	0	-0	0	0	0	0	0	-0	0	0.05595	0	0	0	-0	0	0	0	0	0	-0	0	546.113	551.032	324.904	201.718	-0.109908	1.08196	-0.0112381	0.0522586	-0.115687
7	-0.0120759	-0.0198048	-0.0334304	0.214481	0.0158425	-0.00769083	0.0228409	-0.027668	0.020012	-0.00202863	-0.00338592	-0.00300492	0.0511594	-0.00135286	0.0198067	-2.21272	0.0162921	-1.54027	0	0	0	0	-0	0	0	0	-0.1265	0	-0	0	0	0	0	0	-0	0	0.105	0.015	0	0	-0	0	0	0.098	0.1	0	-0	0	0	0	0	0	-0	0	0.05595	0	0	0	-0	0	0	0	0	0	-0	0	546.458	551.016	324.833	201.873	0.190307	0.165483	-0.0238096	0.054942	-0.00797383
8	-0.0127816	-0.0198975	-0.0341646	0.216021	0.0158347	-0.00709962	0.0228087	-0.027654	0.020109	0.00175825	-0.00202147	-0.00420709	0.0502747	-0.00144887	0.0208188	-2.21554	0.0173202	-1.53844	0	0	0	0	-0	0	0	0	-0.1265	0	-0	0	0	0	0	0	-0	0	0.105	0.015	0	0	-0	0	0	0.098	0.1	0	-0	0	0	0	0	0	-0	0	0.05595	0	0	0	-0	0	0	0	0	0	-0	0	547.426	550.961	324.356	202.234	0.419671	-0.786241	-0.029388	0.0560218	0.926759
9	-0.0106288	-0.0199256	-0.0346309	0.217673	0.0156646	-0.006808	0.0227795	-0.0276444	0.0202312	-0.00243245	0.00763982	-0.0100496	0.0491908	-0.00154332	0.02216	-2.2166	0.0196237	-1.53511	0	0	0	0	-0	0	0	0	-0.1265	0	-0	0	0	0	0	0	-0	0	0.105	0.015	0	0	-0	0	0	0.098	0.1	0	-0	0	0	0	0	0	-0	0	0.05595	0	0	0	-0	0	0	0	0	0	-0	0	550.118	550.831	322.475	203.078	0.610693	-2.13118	-0.0270079	0.0563391	3.89692
10	-0.00253324	-0.0200898	-0.0354028	0.219801	0.0151991	-0.00657777	0.0227182	-0.0276447	0.0203972	-0.000737663	-0.0146817	-0.015239	0.0470413	-0.00170716	0.024941	-2.21491	0.0261061	-1.52688	0	0	0	0	-0	0	0	0	-0.1265	0	-0	0	0	0	0	0	-0	0	0.105	0.015	0	0	-0	0	0	0.098	0.1	0	-0	0	0	0	0	0	-0	0	0.05595	0	0	0	-0	0	0	0	0	0	-0	0	556.747	550.938	317.006	204.761	0.904154	-4.8644	-0.0164126	0.0560956	11.4682
11	-0.00765861	-0.0212974	-0.0367859	0.222848	0.0152348	-0.00564303	0.0227262	-0.0277138	0.0206357	-0.0470708	-0.0727814	0.0296741	0.0444065	-0.00192836	0.0278869	-2.22658	0.0388662	-1.51307	0	0	0	0	-0	0	0	0	-0.1265	0	-0	0	0	0	0	0	-0	0	0.105	0.015	0	0	-0	0	0	0.098	0.1	0	-0	0	0	0	0	0	-0	0	0.05595	0	0	0	-0	0	0	0	0	0	-0	0	565.79	553.11	307.344	206.034	1.32456	-8.75425	-0.0102029	0.0543791	23.4032
12	0.0258971	-0.0236219	-0.0384359	0.226387	0.0165051	-0.00349846	0.0225929	-0.0280686	0.0207964	-0.13766	-0.0949381	-0.0928517	0.0405938	-0.00221896	0.0326569	-2.19699	0.0537534	-1.49375	0	0	0	0	-0	0	0	0	-0.1265	0	-0	0	0	0	0	0	-0	0	0.105	0.015	0	0	-0	0	0	0.098	0.1	0	-0	0	0	0	0	0	-0	0	0.05595	0	0	0	-0	0	0	0	0	0	-0	0	571.017	559.725	294.697	205.956	2.06578	-13.4029	-0.0385143	0.0487715	35.2333
13	-0.0110903	-0.0251586	-0.0387051	0.230006	0.0186638	-0.000514187	0.0225345	-0.027951	0.0210218	-0.258245	-0.0810679	-0.151893	0.0379933	-0.0028251	0.0349455	-2.23578	0.0882228	-1.46144	0	0	0	0	-0	0	0	0	-0.1265	0	-0	0	0	0	0	0	-0	0	0.105	0.015	0	0	-0	0	0	0.098	0.1	0	-0	0	0	0	0	0	-0	0	0.05595	0	0	0	-0	0	0	0	0	0	-0	0	568.715	574.288	268.518	204.688	3.49786	-20.234	-0.125606	0.0162235	46.6799
14	-0.0445223	-0.0254763	-0.0368001	0.235413	0.0207032	0.00269143	0.0228505	-0.0279264	0.0215479	-0.215008	-0.0484215	-0.186169	0.034856	-0.00359779	0.0391301	-2.27231	0.100728	-1.45389	0	0	0	0	-0	0	0	0	-0.1265	0	-0	0	0	0	0	0	-0	0	0.105	0.015	0	0	-0	0	0	0.098	0.1	0	-0	0	0	0	0	0	-0	0	0.05595	0	0	0	-0	0	0	0	0	0	-0	0	565.851	579.743	259.85	204.95	5.65251	-27.5036	-0.248216	-0.0279853	47.0029
15	-0.00402659	-0.0191559	-0.0377345	0.239019	0.0170766	0.00437764	0.0231517	-0.0279874	0.022222	-0.330666	-0.00703737	-0.0733346	0.0314863	-0.00370762	0.0435689	-2.23424	0.103626	-1.44506	0	0	0	0	-0	0	0	0	-0.1265	0	-0	0	0	0	0	0	-0	0	0.105	0.015	0	0	-0	0	0	0.098	0.1	0	-0	0	0	0	0	0	-0	0	0.05595	0	0	0	-0	0	0	0	0	0	-0	0	563.99	587.297	249.472	206.493	6.85929	-32.0315	-0.316725	-0.0788361	49.8872
16	-0.012393	-0.0176267	-0.0387263	0.239594	0.0156033	0.00493046	0.0230192	-0.0278196	0.0220671	-0.309549	0.0807011	-0.0115001	0.0311622	-0.00355552	0.0440134	-2.24426	0.105316	-1.44605	0	0	0	0	-0	0	0	0	-0.1265	0	-0	0	0	0	0	0	-0	0	0.105	0.015	0	0	-0	0	0	0.098	0.1	0	-0	0	0	0	0	0	-0	0	0.05595	0	0	0	-0	0	0	0	0	0	-0	0	563.812	590.264	247.517	207.522	7.24789	-33.4991	-0.338756	-0.0940959	51.2547
17	-0.036637	-0.0157736	-0.0394839	0.23977	0.014507	0.00505134	0.023045	-0.0278118	0.0220146	-0.359082	0.100217	0.0825403	0.0320116	-0.0034949	0.0436221	-2.27213	0.107941	-1.45007	0	0	0	0	-0	0	0	0	-0.1265	0	-0	0	0	0	0	0	-0	0	0.105	0.015	0	0	-0	0	0	0.098	0.1	0	-0	0	0	0	0	0	-0	0	0.05595	0	0	0	-0	0	0	0	0	0	-0	0	564.911	595.683	246.851	209.265	7.42274	-35.0291	-0.345763	-0.0971521	54.7489
18	-0.00529144	-0.0154186	-0.039752	0.239883	0.0142338	0.00504055	0.0228626	-0.0276547	0.0219229	-0.303947	0.0772107	0.12053	0.0305876	-0.00347283	0.0447093	-2.24269	0.103638	-1.44741	0	0	0	0	-0	0	0	0	-0.1265	0	-0	0	0	0	0	0	-0	0	0.105	0.015	0	0	-0	0	0	0.098	0.1	0	-0	0	0	0	0	0	-0	0	0.05595	0	0	0	-0	0	0	0	0	0	-0	0	565.59	598.25	247.018	210.164	7.48818	-35.7024	-0.348981	-0.0967884	56.3586
19	-0.00182347	-0.0149749	-0.0397935	0.239567	0.0140929	0.00509559	0.0229069	-0.0276185	0.021896	-0.323291	0.0453792	0.119377	0.0304446	-0.00346322	0.0447759	-2.23997	0.102918	-1.44752	0	0	0	0	-0	0	0	0	-0.1265	0	-0	0	0	0	0	0	-0	0	0.105	0.015	0	0	-0	0	0	0.098	0.1	0	-0	0	0	0	0	0	-0	0	0.05595	0	0	0	-0	0	0	0	0	0	-0	0	565.879	599.283	247.111	210.514	7.49005	-35.9192	-0.348426	-0.0963147	57.0254
20	-0.0111814	-0.0148547	-0.0398735	0.239654	0.0140298	0.00510223	0.0228938	-0.0276167	0.0218861	-0.321247	0.0455449	0.0891517	0.030843	-0.00345708	0.0445176	-2.24998	0.103829	-1.44876	0	0	0	0	-0	0	0	0	-0.1265	0	-0	0	0	0	0	0	-0	0	0.105	0.015	0	0	-0	0	0	0.098	0.1	0	-0	0	0	0	0	0	-0	0	0.05595	0	0	0	-0	0	0	0	0	0	-0	0	566.154	600.224	247.232	210.837	7.51173	-36.1587	-0.349503	-0.0960629	57.6143
21	-0.0172235	-0.0145856	-0.0399419	0.239628	0.0139001	0.00510372	0.0228823	-0.0276049	0.0218957	-0.343707	0.0692982	0.0941105	0.0310778	-0.00345661	0.0443802	-2.25699	0.104189	-1.44995	0	0	0	0	-0	0	0	0	-0.1265	0	-0	0	0	0	0	0	-0	0	0.105	0.015	0	0	-0	0	0	0.098	0.1	0	-0	0	0	0	0	0	-0	0	0.05595	0	0	0	-0	0	0	0	0	0	-0	0	566.594	601.606	247.444	211.286	7.54066	-36.5166	-0.350687	-0.0953043	58.4876
22	-0.0120784	-0.0144901	-0.0399524	0.239606	0.0138618	0.0051112	0.0228904	-0.027601	0.0218754	-0.34186	0.0485345	0.113672	0.0308372	-0.00345698	0.0445518	-2.25226	0.103409	-1.44963	0	0	0	0	-0	0	0	0	-0.1265	0	-0	0	0	0	0	0	-0	0	0.105	0.015	0	0	-0	0	0	0.098	0.1	0	-0	0	0	0	0	0	-0	0	0.05595	0	0	0	-0	0	0	0	0	0	-0	0	566.773	602.168	247.538	211.485	7.55271	-36.6641	-0.351222	-0.0949835	58.8361
23	-0.0125891	-0.0141258	-0.0400699	0.239656	0.0137011	0.00513124	0.0228937	-0.0276184	0.0219027	-0.378304	0.0563472	0.132898	0.0307758	-0.00346104	0.0446525	-2.25436	0.102843	-1.4506	0	0	0	0	-0	0	0	0	-0.1265	0	-0	0	0	0	0	0	-0	0	0.105	0.015	0	0	-0	0	0	0.098	0.1	0	-0	0	0	0	0	0	-0	0	0.05595	0	0	0	-0	0	0	0	0	0	-0	0	567.573	604.385	247.929	212.185	7.60601	-37.2835	-0.353171	-0.0936795	60.2602
24	-0.066491	-0.0135709	-0.0402124	0.239691	0.0134613	0.00516652	0.0229026	-0.0276127	0.021984	-0.337315	-0.0155467	0.10998	0.0330195	-0.00347312	0.0432059	-2.31073	0.108093	-1.45775	0	0	0	0	-0	0	0	0	-0.1265	0	-0	0	0	0	0	0	-0	0	0.105	0.015	0	0	-0	0	0	0.098	0.1	0	-0	0	0	0	0	0	-0	0	0.05595	0	0	0	-0	0	0	0	0	0	-0	0	568.988	608.023	248.572	213.303	7.69626	-38.3136	-0.356567	-0.0914763	62.6005
25	-0.0266032	-0.0133035	-0.0402273	0.239697	0.0133585	0.0052168	0.0229339	-0.0276194	0.0218784	-0.310753	0.0079567	0.0647578	0.0311914	-0.0034778	0.0445559	-2.27225	0.102945	-1.45426	0	0	0	0	-0	0	0	0	-0.1265	0	-0	0	0	0	0	0	-0	0	0.105	0.015	0	0	-0	0	0	0.098	0.1	0	-0	0	0	0	0	0	-0	0	0.05595	0	0	0	-0	0	0	0	0	0	-0	0	569.645	609.815	248.904	213.976	7.74411	-38.8562	-0.358262	-0.0902029	63.6953
26	-0.0190236	-0.0130994	-0.0403831	0.239948	0.0132702	0.00525628	0.0229217	-0.027634	0.0219254	-0.304436	-0.0254837	0.013075	0.0307658	-0.00348302	0.0448379	-2.2657	0.101659	-1.45397	0	0	0	0	-0	0	0	0	-0.1265	0	-0	0	0	0	0	0	-0	0	0.105	0.015	0	0	-0	0	0	0.098	0.1	0	-0	0	0	0	0	0	-0	0	0.05595	0	0	0	-0	0	0	0	0	0	-0	0	570.176	611.119	249.176	214.45	7.78171	-39.2502	-0.359671	-0.0897456	64.4987
27	0.0228291	-0.0126424	-0.0405061	0.239992	0.0130822	0.00530545	0.0228877	-0.0275942	0.0218893	-0.329567	-0.0411036	0.00445719	0.0287414	-0.00349394	0.0463114	-2.22615	0.0958764	-1.4511	0	0	0	0	-0	0	0	0	-0.1265	0	-0	0	0	0	0	0	-0	0	0.105	0.015	0	0	-0	0	0	0.098	0.1	0	-0	0	0	0	0	0	-0	0	0.05595	0	0	0	-0	0	0	0	0	0	-0	0	571.356	613.956	249.722	215.476	7.85911	-40.1221	-0.362054	-0.0878543	66.2242
28	-0.0337894	-0.0119545	-0.040695	0.24005	0.0128317	0.00540275	0.0229569	-0.0275913	0.0219861	-0.341705	0.0407846	0.0317945	0.0311003	-0.00350963	0.0449192	-2.28546	0.101417	-1.4583	0	0	0	0	-0	0	0	0	-0.1265	0	-0	0	0	0	0	0	-0	0	0.105	0.015	0	0	-0	0	0	0.098	0.1	0	-0	0	0	0	0	0	-0	0	0.05595	0	0	0	-0	0	0	0	0	0	-0	0	573.166	617.902	250.371	216.716	7.95641	-41.3013	-0.364821	-0.0857818	68.758
29	0.0232847	-0.0117316	-0.0407693	0.240287	0.0127426	0.00548157	0.0228976	-0.027585	0.0219274	-0.345949	0.0814035	0.0534017	0.028367	-0.00351572	0.0467902	-2.23009	0.0942807	-1.45346	0	0	0	0	-0	0	0	0	-0.1265	0	-0	0	0	0	0	0	-0	0	0.105	0.015	0	0	-0	0	0	0.098	0.1	0	-0	0	0	0	0	0	-0	0	0.05595	0	0	0	-0	0	0	0	0	0	-0	0	574.043	619.838	250.72	217.53	8.02274	-41.9892	-0.366738	-0.084587	69.8737
30	-0.0215883	-0.0109836	-0.0409952	0.240359	0.01246	0.00557603	0.0228776	-0.0275705	0.0218839	-0.36765	0.0996946	0.0168878	0.0301356	-0.00353581	0.045779	-2.27777	0.0984061	-1.45942	0	0	0	0	-0	0	0	0	-0.1265	0	-0	0	0	0	0	0	-0	0	0.105	0.015	0	0	-0	0	0	0.098	0.1	0	-0	0	0	0	0	0	-0	0	0.05595	0	0	0	-0	0	0	0	0	0	-0	0	576.095	623.832	251.323	218.804	8.12352	-43.2193	-0.369088	-0.0827497	72.3689
31	-0.0163398	-0.0108392	-0.0410632	0.240517	0.0124074	0.0056191	0.0228773	-0.0275551	0.0219115	-0.356773	0.0690283	0.0172589	0.0298349	-0.00353948	0.0459447	-2.27305	0.0975652	-1.45911	0	0	0	0	-0	0	0	0	-0.1265	0	-0	0	0	0	0	0	-0	0	0.105	0.015	0	0	-0	0	0	0.098	0.1	0	-0	0	0	0	0	0	-0	0	0.05595	0	0	0	-0	0	0	0	0	0	-0	0	576.442	624.545	251.451	219.107	8.1441	-43.4501	-0.369847	-0.0826509	72.7809
32	-0.00117871	-0.0106747	-0.0411254	0.240585	0.0123428	0.00565457	0.0228755	-0.0275744	0.0219001	-0.376789	0.0677314	-0.0143336	0.0290745	-0.00354149	0.0464718	-2.25876	0.0955823	-1.45807	0	0	0	0	-0	0	0	0	-0.1265	0	-0	0	0	0	0	0	-0	0	0.105	0.015	0	0	-0	0	0	0.098	0.1	0	-0	0	0	0	0	0	-0	0	0.05595	0	0	0	-0	0	0	0	0	0	-0	0	576.919	625.504	251.623	219.532	8.17184	-43.783	-0.370327	-0.0820456	73.3128
33	0.00280985	-0.0104259	-0.0412127	0.240663	0.0122424	0.00568367	0.0228963	-0.0275846	0.0219258	-0.373267	0.095129	0.0247609	0.028785	-0.00354929	0.0467082	-2.25598	0.0947487	-1.4583	0	0	0	0	-0	0	0	0	-0.1265	0	-0	0	0	0	0	0	-0	0	0.105	0.015	0	0	-0	0	0	0.098	0.1	0	-0	0	0	0	0	0	-0	0	0.05595	0	0	0	-0	0	0	0	0	0	-0	0	577.633	626.883	251.867	220.11	8.21377	-44.2708	-0.371115	-0.0813049	74.1121
34	1.72234e-05	-0.0104099	-0.0412289	0.240762	0.01223	0.00569499	0.022873	-0.0275551	0.0219146	-0.372356	0.108889	0.0351757	0.0288891	-0.00355144	0.0466467	-2.259	0.0949876	-1.45866	0	0	0	0	-0	0	0	0	-0.1265	0	-0	0	0	0	0	0	-0	0	0.105	0.015	0	0	-0	0	0	0.098	0.1	0	-0	0	0	0	0	0	-0	0	0.05595	0	0	0	-0	0	0	0	0	0	-0	0	577.774	627.17	251.919	220.248	8.22509	-44.3788	-0.371538	-0.0811664	74.2645
35	0.00201218	-0.0102993	-0.0412579	0.240775	0.0122014	0.00572684	0.0228728	-0.0275597	0.0219124	-0.358616	0.11621	0.053772	0.0287707	-0.00355222	0.0467376	-2.25737	0.0946367	-1.45866	0	0	0	0	-0	0	0	0	-0.1265	0	-0	0	0	0	0	0	-0	0	0.105	0.015	0	0	-0	0	0	0.098	0.1	0	-0	0	0	0	0	0	-0	0	0.05595	0	0	0	-0	0	0	0	0	0	-0	0	577.973	627.561	251.988	220.431	8.23632	-44.5251	-0.371568	-0.0809766	74.4793
36	0.0134125	-0.00999713	-0.0413615	0.240839	0.0120848	0.00576764	0.0228959	-0.0276198	0.0219185	-0.386392	0.101793	-0.00835758	0.0281065	-0.00356008	0.047233	-2.24744	0.0928992	-1.45833	0	0	0	0	-0	0	0	0	-0.1265	0	-0	0	0	0	0	0	-0	0	0.105	0.015	0	0	-0	0	0	0.098	0.1	0	-0	0	0	0	0	0	-0	0	0.05595	0	0	0	-0	0	0	0	0	0	-0	0	578.868	629.259	252.269	221.115	8.28856	-45.1382	-0.372414	-0.0800342	75.4425
37	0.00562606	-0.00987964	-0.0414151	0.24095	0.0120159	0.00576732	0.0228911	-0.0275439	0.021911	-0.397661	0.138765	-0.0460925	0.0284012	-0.00356743	0.0470876	-2.25593	0.0935588	-1.45941	0	0	0	0	-0	0	0	0	-0.1265	0	-0	0	0	0	0	0	-0	0	0.105	0.015	0	0	-0	0	0	0.098	0.1	0	-0	0	0	0	0	0	-0	0	0.05595	0	0	0	-0	0	0	0	0	0	-0	0	579.308	630.09	252.417	221.479	8.31705	-45.4428	-0.373184	-0.0796096	75.8988
38	-0.0196003	-0.00972006	-0.0414871	0.241085	0.0119852	0.00584027	0.0228697	-0.0275475	0.021932	-0.412302	0.139379	-0.0333993	0.0295165	-0.00356923	0.0464531	-2.28188	0.0960759	-1.46213	0	0	0	0	-0	0	0	0	-0.1265	0	-0	0	0	0	0	0	-0	0	0.105	0.015	0	0	-0	0	0	0.098	0.1	0	-0	0	0	0	0	0	-0	0	0.05595	0	0	0	-0	0	0	0	0	0	-0	0	579.79	630.95	252.557	221.857	8.34449	-45.7819	-0.373358	-0.0792114	76.3785
39	-0.0132133	-0.00961742	-0.0414902	0.241053	0.0119499	0.00586333	0.0228704	-0.0275409	0.0219252	-0.410675	0.120714	-0.026203	0.0291846	-0.00357028	0.0466642	-2.27582	0.0952675	-1.46171	0	0	0	0	-0	0	0	0	-0.1265	0	-0	0	0	0	0	0	-0	0	0.105	0.015	0	0	-0	0	0	0.098	0.1	0	-0	0	0	0	0	0	-0	0	0.05595	0	0	0	-0	0	0	0	0	0	-0	0	579.985	631.305	252.612	222.021	8.35578	-45.9191	-0.373488	-0.0790031	76.5693
40	-0.0130204	-0.00952938	-0.0415299	0.241111	0.0119182	0.00587964	0.0228714	-0.0275431	0.0219314	-0.402872	0.139818	-0.0247441	0.0291364	-0.00357263	0.0467166	-2.27606	0.0951112	-1.46188	0	0	0	0	-0	0	0	0	-0.1265	0	-0	0	0	0	0	0	-0	0	0.105	0.015	0	0	-0	0	0	0.098	0.1	0	-0	0	0	0	0	0	-0	0	0.05595	0	0	0	-0	0	0	0	0	0	-0	0	580.251	631.789	252.69	222.24	8.37134	-46.1045	-0.373678	-0.0787898	76.8329
41	-0.0223998	-0.0091797	-0.0416546	0.241206	0.0117868	0.00593422	0.0228973	-0.027545	0.0219499	-0.387027	0.183517	-0.0316976	0.0293884	-0.00358433	0.0466836	-2.28711	0.0955947	-1.4636	0	0	0	0	-0	0	0	0	-0.1265	0	-0	0	0	0	0	0	-0	0	0.105	0.015	0	0	-0	0	0	0.098	0.1	0	-0	0	0	0	0	0	-0	0	0.05595	0	0	0	-0	0	0	0	0	0	-0	0	581.462	633.841	252.984	223.02	8.43685	-46.8776	-0.374549	-0.0777943	78.0066
42	-0.0246357	-0.00916668	-0.0416803	0.241366	0.0117765	0.0059583	0.0228653	-0.0275387	0.0219401	-0.388421	0.186552	-0.050292	0.029464	-0.00358583	0.046641	-2.28955	0.0957592	-1.46388	0	0	0	0	-0	0	0	0	-0.1265	0	-0	0	0	0	0	0	-0	0	0.105	0.015	0	0	-0	0	0	0.098	0.1	0	-0	0	0	0	0	0	-0	0	0.05595	0	0	0	-0	0	0	0	0	0	-0	0	581.62	634.125	253.027	223.152	8.44859	-46.9962	-0.374921	-0.0777071	78.1576
43	0.0139984	-0.00891411	-0.0417511	0.241372	0.0116874	0.00599883	0.0228771	-0.0275629	0.0219623	-0.347503	0.203248	-0.0527988	0.0275638	-0.00359192	0.0479145	-2.25195	0.0912648	-1.46077	0	0	0	0	-0	0	0	0	-0.1265	0	-0	0	0	0	0	0	-0	0	0.105	0.015	0	0	-0	0	0	0.098	0.1	0	-0	0	0	0	0	0	-0	0	0.05595	0	0	0	-0	0	0	0	0	0	-0	0	582.298	635.252	253.188	223.612	8.48371	-47.4319	-0.375179	-0.0771924	78.7864
44	0.0361482	-0.00864985	-0.0418298	0.241429	0.0115794	0.00603637	0.0228721	-0.0275461	0.0219434	-0.34848	0.198062	-0.0859436	0.0263153	-0.00360144	0.04868	-2.23111	0.0884596	-1.45943	0	0	0	0	-0	0	0	0	-0.1265	0	-0	0	0	0	0	0	-0	0	0.105	0.015	0	0	-0	0	0	0.098	0.1	0	-0	0	0	0	0	0	-0	0	0.05595	0	0	0	-0	0	0	0	0	0	-0	0	583.289	636.864	253.394	224.2	8.53507	-48.0477	-0.37585	-0.076428	79.7154
45	0.0302388	-0.00848391	-0.041909	0.241586	0.0115213	0.00607925	0.0228859	-0.0275175	0.0219674	-0.36064	0.249323	-0.105381	0.0264962	-0.00360729	0.0486134	-2.23774	0.0888963	-1.4603	0	0	0	0	-0	0	0	0	-0.1265	0	-0	0	0	0	0	0	-0	0	0.105	0.015	0	0	-0	0	0	0.098	0.1	0	-0	0	0	0	0	0	-0	0	0.05595	0	0	0	-0	0	0	0	0	0	-0	0	583.879	637.804	253.515	224.56	8.56514	-48.4088	-0.376241	-0.0761615	80.2363
46	0.0702947	-0.00816921	-0.0420435	0.241762	0.0114103	0.00616111	0.0228126	-0.0276048	0.0220739	-0.465477	0.271966	-0.141862	0.0243255	-0.0036171	0.0499289	-2.19929	0.0839868	-1.45758	0	0	0	0	-0	0	0	0	-0.1265	0	-0	0	0	0	0	0	-0	0	0.105	0.015	0	0	-0	0	0	0.098	0.1	0	-0	0	0	0	0	0	-0	0	0.05595	0	0	0	-0	0	0	0	0	0	-0	0	585.158	639.801	253.747	225.252	8.63213	-49.1975	-0.377045	-0.0753755	81.3535
47	0.0891323	-0.00760472	-0.0420847	0.24154	0.011157	0.00616744	0.0228423	-0.0276039	0.0219747	-0.537961	0.262967	-0.181555	0.0230621	-0.00363478	0.0506574	-2.18237	0.0813872	-1.4572	0	0	0	0	-0	0	0	0	-0.1265	0	-0	0	0	0	0	0	-0	0	0.105	0.015	0	0	-0	0	0	0.098	0.1	0	-0	0	0	0	0	0	-0	0	0.05595	0	0	0	-0	0	0	0	0	0	-0	0	586.967	642.626	253.988	226.099	8.70209	-50.1576	-0.377789	-0.0740613	83.0299
48	0.0977598	-0.00756692	-0.0421926	0.241867	0.0111317	0.00618508	0.0228665	-0.0275322	0.0219735	-0.516333	0.285393	-0.191396	0.022555	-0.00363966	0.0508958	-2.17413	0.0802947	-1.45658	0	0	0	0	-0	0	0	0	-0.1265	0	-0	0	0	0	0	0	-0	0	0.105	0.015	0	0	-0	0	0	0.098	0.1	0	-0	0	0	0	0	0	-0	0	0.05595	0	0	0	-0	0	0	0	0	0	-0	0	587.322	643.159	254.059	226.286	8.72001	-50.3504	-0.378303	-0.0742687	83.3344
49	0.086043	-0.00753958	-0.0422608	0.242039	0.0111382	0.00624837	0.0228495	-0.0275254	0.0219772	-0.528723	0.271284	-0.209898	0.0231052	-0.00363666	0.0506672	-2.18607	0.0815348	-1.4576	0	0	0	0	-0	0	0	0	-0.1265	0	-0	0	0	0	0	0	-0	0	0.105	0.015	0	0	-0	0	0	0.098	0.1	0	-0	0	0	0	0	0	-0	0	0.05595	0	0	0	-0	0	0	0	0	0	-0	0	587.571	643.526	254.103	226.411	8.73118	-50.4971	-0.378346	-0.0741835	83.5347
50	0.0882426	-0.00748268	-0.0422707	0.242032	0.011121	0.00627004	0.0228458	-0.0275149	0.0219761	-0.514476	0.258066	-0.203991	0.022974	-0.00363605	0.0507351	-2.18398	0.0812449	-1.4575	0	0	0	0	-0	0	0	0	-0.1265	0	-0	0	0	0	0	0	-0	0	0.105	0.015	0	0	-0	0	0	0.098	0.1	0	-0	0	0	0	0	0	-0	0	0.05595	0	0	0	-0	0	0	0	0	0	-0	0	587.672	643.673	254.119	226.463	8.73618	-50.5585	-0.378376	-0.0741506	83.6158
51	0.0919285	-0.00737952	-0.0423099	0.242062	0.0110877	0.00629432	0.0228578	-0.0275563	0.0219994	-0.553144	0.227301	-0.227109	0.0227128	-0.00363935	0.0508965	-2.18074	0.0807135	-1.45743	0	0	0	0	-0	0	0	0	-0.1265	0	-0	0	0	0	0	0	-0	0	0.105	0.015	0	0	-0	0	0	0.098	0.1	0	-0	0	0	0	0	0	-0	0	0.05595	0	0	0	-0	0	0	0	0	0	-0	0	588.081	644.276	254.182	226.656	8.7552	-50.797	-0.37852	-0.073942	83.9508
52	0.0917823	-0.00735027	-0.0423174	0.242083	0.0110585	0.00628517	0.0228441	-0.0275221	0.021982	-0.529015	0.232892	-0.220665	0.0226774	-0.00364252	0.0509331	-2.1811	0.0806879	-1.45756	0	0	0	0	-0	0	0	0	-0.1265	0	-0	0	0	0	0	0	-0	0	0.105	0.015	0	0	-0	0	0	0.098	0.1	0	-0	0	0	0	0	0	-0	0	0.05595	0	0	0	-0	0	0	0	0	0	-0	0	588.287	644.574	254.215	226.761	8.76672	-50.9202	-0.378771	-0.073771	84.1137
53	0.0844532	-0.007257	-0.0423535	0.242133	0.0110386	0.00631877	0.0228477	-0.0275123	0.0219946	-0.553796	0.259616	-0.223359	0.0229972	-0.00364472	0.0508221	-2.18872	0.0814209	-1.45831	0	0	0	0	-0	0	0	0	-0.1265	0	-0	0	0	0	0	0	-0	0	0.105	0.015	0	0	-0	0	0	0.098	0.1	0	-0	0	0	0	0	0	-0	0	0.05595	0	0	0	-0	0	0	0	0	0	-0	0	588.59	645.021	254.259	226.903	8.78022	-51.0983	-0.378798	-0.0736889	84.3666
54	0.089659	-0.00710648	-0.0424114	0.242189	0.0109857	0.00635719	0.0228545	-0.0275096	0.0219763	-0.524079	0.225	-0.180489	0.0226057	-0.00364974	0.0510715	-2.18418	0.0806671	-1.45822	0	0	0	0	-0	0	0	0	-0.1265	0	-0	0	0	0	0	0	-0	0	0.105	0.015	0	0	-0	0	0	0.098	0.1	0	-0	0	0	0	0	0	-0	0	0.05595	0	0	0	-0	0	0	0	0	0	-0	0	589.265	645.99	254.343	227.187	8.81163	-51.4816	-0.379116	-0.0733828	84.9164
55	0.11442	-0.00686416	-0.0425297	0.242336	0.0108957	0.00641321	0.0228353	-0.0275633	0.0220085	-0.574038	0.206802	-0.223323	0.0211104	-0.00366152	0.051866	-2.16047	0.0776023	-1.45677	0	0	0	0	-0	0	0	0	-0.1265	0	-0	0	0	0	0	0	-0	0	0.105	0.015	0	0	-0	0	0	0.098	0.1	0	-0	0	0	0	0	0	-0	0	0.05595	0	0	0	-0	0	0	0	0	0	-0	0	590.502	647.691	254.464	227.575	8.8624	-52.0942	-0.379862	-0.0731104	85.9156
56	0.114662	-0.00680146	-0.0425069	0.242276	0.0108473	0.00640757	0.0228431	-0.0275102	0.0219918	-0.566353	0.188141	-0.228481	0.0210563	-0.00366289	0.0518765	-2.16035	0.0775551	-1.4569	0	0	0	0	-0	0	0	0	-0.1265	0	-0	0	0	0	0	0	-0	0	0.105	0.015	0	0	-0	0	0	0.098	0.1	0	-0	0	0	0	0	0	-0	0	0.05595	0	0	0	-0	0	0	0	0	0	-0	0	590.666	647.926	254.482	227.641	8.86782	-52.1715	-0.379968	-0.0729063	86.0513
57	0.101392	-0.00677292	-0.0425499	0.2424	0.0108531	0.00643929	0.0228412	-0.0275139	0.0219919	-0.560434	0.182929	-0.203297	0.0217058	-0.00366337	0.0516306	-2.17377	0.0789961	-1.45798	0	0	0	0	-0	0	0	0	-0.1265	0	-0	0	0	0	0	0	-0	0	0.105	0.015	0	0	-0	0	0	0.098	0.1	0	-0	0	0	0	0	0	-0	0	0.05595	0	0	0	-0	0	0	0	0	0	-0	0	590.896	648.247	254.504	227.73	8.87551	-52.2876	-0.379924	-0.0728995	86.2315
58	0.0464204	-0.00656221	-0.0426317	0.242445	0.0107703	0.00647508	0.0228268	-0.0275219	0.0220405	-0.616632	0.20231	-0.209091	0.0243583	-0.00367153	0.0506213	-2.22933	0.0848532	-1.46289	0	0	0	0	-0	0	0	0	-0.1265	0	-0	0	0	0	0	0	-0	0	0.105	0.015	0	0	-0	0	0	0.098	0.1	0	-0	0	0	0	0	0	-0	0	0.05595	0	0	0	-0	0	0	0	0	0	-0	0	591.879	649.617	254.585	228.012	8.9144	-52.7619	-0.380565	-0.0726772	87.0331
59	0.0506523	-0.0065205	-0.0425893	0.242364	0.0107492	0.00648878	0.0228409	-0.0275128	0.0219887	-0.615037	0.197802	-0.185974	0.0241017	-0.00367002	0.0506758	-2.2252	0.084365	-1.46263	0	0	0	0	-0	0	0	0	-0.1265	0	-0	0	0	0	0	0	-0	0	0.105	0.015	0	0	-0	0	0	0.098	0.1	0	-0	0	0	0	0	0	-0	0	0.05595	0	0	0	-0	0	0	0	0	0	-0	0	592.013	649.803	254.591	228.057	8.91579	-52.8249	-0.380354	-0.072375	87.1409
60	0.03968	-0.00643158	-0.0426858	0.242547	0.0107151	0.00650522	0.022832	-0.0275049	0.0220061	-0.612031	0.188693	-0.194423	0.0245583	-0.00367665	0.05052	-2.23655	0.085419	-1.4637	0	0	0	0	-0	0	0	0	-0.1265	0	-0	0	0	0	0	0	-0	0	0.105	0.015	0	0	-0	0	0	0.098	0.1	0	-0	0	0	0	0	0	-0	0	0.05595	0	0	0	-0	0	0	0	0	0	-0	0	592.566	650.56	254.638	228.215	8.93902	-53.0858	-0.380866	-0.0725104	87.5926
61	0.0588866	-0.00631413	-0.0427208	0.242559	0.0106674	0.00653459	0.02282	-0.0275088	0.0220387	-0.559428	0.156939	-0.180828	0.0234951	-0.0036793	0.0510928	-2.21776	0.0832349	-1.46231	0	0	0	0	-0	0	0	0	-0.1265	0	-0	0	0	0	0	0	-0	0	0.105	0.015	0	0	-0	0	0	0.098	0.1	0	-0	0	0	0	0	0	-0	0	0.05595	0	0	0	-0	0	0	0	0	0	-0	0	593.112	651.305	254.675	228.363	8.95756	-53.3361	-0.381084	-0.0723251	88.0392
62	0.0689627	-0.00622256	-0.0427211	0.242527	0.0106267	0.00654494	0.0228249	-0.0275105	0.0220263	-0.516335	0.134763	-0.17535	0.0229084	-0.00368109	0.0513883	-2.20798	0.082068	-1.46167	0	0	0	0	-0	0	0	0	-0.1265	0	-0	0	0	0	0	0	-0	0	0.105	0.015	0	0	-0	0	0	0.098	0.1	0	-0	0	0	0	0	0	-0	0	0.05595	0	0	0	-0	0	0	0	0	0	-0	0	593.51	651.853	254.695	228.48	8.96902	-53.5151	-0.381109	-0.0720943	88.3659
63	0.0697777	-0.00617147	-0.0427546	0.242593	0.0106025	0.00655273	0.0228333	-0.0275104	0.0220064	-0.516037	0.140498	-0.153124	0.0228121	-0.00368363	0.0514593	-2.20738	0.0819207	-1.4617	0	0	0	0	-0	0	0	0	-0.1265	0	-0	0	0	0	0	0	-0	0	0.105	0.015	0	0	-0	0	0	0.098	0.1	0	-0	0	0	0	0	0	-0	0	0.05595	0	0	0	-0	0	0	0	0	0	-0	0	593.806	652.263	254.715	228.563	8.98012	-53.6523	-0.381311	-0.0720839	88.6091
64	0.0700677	-0.00609931	-0.0428094	0.242673	0.0105713	0.00657027	0.0228419	-0.0274939	0.022023	-0.530022	0.180539	-0.165658	0.0227172	-0.0036875	0.0515517	-2.20737	0.081802	-1.46181	0	0	0	0	-0	0	0	0	-0.1265	0	-0	0	0	0	0	0	-0	0	0.105	0.015	0	0	-0	0	0	0.098	0.1	0	-0	0	0	0	0	0	-0	0	0.05595	0	0	0	-0	0	0	0	0	0	-0	0	594.252	652.865	254.747	228.66	8.99625	-53.8467	-0.381663	-0.0720824	88.9757
65	0.0742998	-0.00610025	-0.0428158	0.242716	0.010572	0.00658875	0.0228282	-0.0275016	0.022012	-0.527618	0.170305	-0.150934	0.0224827	-0.00368603	0.0516607	-2.20319	0.0813233	-1.46149	0	0	0	0	-0	0	0	0	-0.1265	0	-0	0	0	0	0	0	-0	0	0.105	0.015	0	0	-0	0	0	0.098	0.1	0	-0	0	0	0	0	0	-0	0	0.05595	0	0	0	-0	0	0	0	0	0	-0	0	594.344	652.988	254.753	228.683	8.99871	-53.8902	-0.381641	-0.0719864	89.0469
66	0.072173	-0.00600837	-0.0428433	0.242712	0.0105365	0.00659839	0.0228366	-0.0275141	0.0220246	-0.517611	0.197033	-0.132261	0.0225253	-0.00368995	0.0516867	-2.20554	0.0814838	-1.46181	0	0	0	0	-0	0	0	0	-0.1265	0	-0	0	0	0	0	0	-0	0	0.105	0.015	0	0	-0	0	0	0.098	0.1	0	-0	0	0	0	0	0	-0	0	0.05595	0	0	0	-0	0	0	0	0	0	-0	0	594.717	653.489	254.774	228.759	9.01185	-54.0508	-0.381904	-0.0719883	89.3531
67	0.049201	-0.00592607	-0.0428774	0.242743	0.0104954	0.00660876	0.0228302	-0.0275193	0.0219993	-0.487202	0.177198	-0.080521	0.0236124	-0.00369449	0.0512739	-2.22877	0.0838692	-1.46388	0	0	0	0	-0	0	0	0	-0.1265	0	-0	0	0	0	0	0	-0	0	0.105	0.015	0	0	-0	0	0	0.098	0.1	0	-0	0	0	0	0	0	-0	0	0.05595	0	0	0	-0	0	0	0	0	0	-0	0	595.266	654.23	254.802	228.864	9.03081	-54.29	-0.382285	-0.0718469	89.8118
68	0.0412262	-0.00586911	-0.0429058	0.24278	0.0104714	0.00662231	0.0228335	-0.0274963	0.0220188	-0.486449	0.148676	-0.0618706	0.02397	-0.00369725	0.0511299	-2.23687	0.084663	-1.46463	0	0	0	0	-0	0	0	0	-0.1265	0	-0	0	0	0	0	0	-0	0	0.105	0.015	0	0	-0	0	0	0.098	0.1	0	-0	0	0	0	0	0	-0	0	0.05595	0	0	0	-0	0	0	0	0	0	-0	0	595.549	654.597	254.817	228.904	9.03948	-54.3969	-0.382492	-0.071898	90.0419
69	0.043829	-0.00582321	-0.0429246	0.242811	0.0104574	0.00664505	0.0228244	-0.0274982	0.0220197	-0.489802	0.134144	-0.0524934	0.0237785	-0.00369802	0.0512522	-2.23444	0.0843277	-1.46451	0	0	0	0	-0	0	0	0	-0.1265	0	-0	0	0	0	0	0	-0	0	0.105	0.015	0	0	-0	0	0	0.098	0.1	0	-0	0	0	0	0	0	-0	0	0.05595	0	0	0	-0	0	0	0	0	0	-0	0	595.893	655.053	254.828	228.96	9.04876	-54.5352	-0.382587	-0.0717814	90.3192
70	0.0455897	-0.00578615	-0.0429297	0.242809	0.0104412	0.00665217	0.0228214	-0.027498	0.022019	-0.485757	0.142506	-0.0579616	0.0236653	-0.00369848	0.0513198	-2.23275	0.0841137	-1.46442	0	0	0	0	-0	0	0	0	-0.1265	0	-0	0	0	0	0	0	-0	0	0.105	0.015	0	0	-0	0	0	0.098	0.1	0	-0	0	0	0	0	0	-0	0	0.05595	0	0	0	-0	0	0	0	0	0	-0	0	596.031	655.238	254.833	228.983	9.05245	-54.5883	-0.382644	-0.0717597	90.431
71	0.0597546	-0.00574909	-0.0429412	0.242812	0.010426	0.00665793	0.0228193	-0.0274981	0.0220189	-0.481398	0.146289	-0.0519429	0.022907	-0.00369973	0.0516904	-2.21872	0.0825691	-1.4633	0	0	0	0	-0	0	0	0	-0.1265	0	-0	0	0	0	0	0	-0	0	0.105	0.015	0	0	-0	0	0	0.098	0.1	0	-0	0	0	0	0	0	-0	0	0.05595	0	0	0	-0	0	0	0	0	0	-0	0	596.212	655.488	254.839	229.012	9.05824	-54.663	-0.382768	-0.0717435	90.5816
72	0.0607033	-0.00573303	-0.042944	0.242811	0.0104192	0.00666242	0.0228196	-0.0274978	0.0220206	-0.475514	0.137336	-0.0565779	0.0228423	-0.00369997	0.0517208	-2.21781	0.0824547	-1.46325	0	0	0	0	-0	0	0	0	-0.1265	0	-0	0	0	0	0	0	-0	0	0.105	0.015	0	0	-0	0	0	0.098	0.1	0	-0	0	0	0	0	0	-0	0	0.05595	0	0	0	-0	0	0	0	0	0	-0	0	596.29	655.59	254.842	229.024	9.06018	-54.6923	-0.38279	-0.0717266	90.6445
73	0.0528456	-0.0056846	-0.0429649	0.242827	0.0103986	0.00666751	0.0228177	-0.027498	0.0220239	-0.490202	0.147396	-0.0553894	0.023194	-0.00370271	0.0516002	-2.2258	0.0832481	-1.46399	0	0	0	0	-0	0	0	0	-0.1265	0	-0	0	0	0	0	0	-0	0	0.105	0.015	0	0	-0	0	0	0.098	0.1	0	-0	0	0	0	0	0	-0	0	0.05595	0	0	0	-0	0	0	0	0	0	-0	0	596.613	656.009	254.849	229.067	9.06862	-54.8077	-0.382968	-0.0717083	90.9048
74	0.0509698	-0.00563082	-0.0429815	0.242836	0.0103733	0.00667518	0.0228186	-0.0275134	0.0220157	-0.512965	0.150743	-0.0896289	0.0232393	-0.00370443	0.0516119	-2.22781	0.0833989	-1.46424	0	0	0	0	-0	0	0	0	-0.1265	0	-0	0	0	0	0	0	-0	0	0.105	0.015	0	0	-0	0	0	0.098	0.1	0	-0	0	0	0	0	0	-0	0	0.05595	0	0	0	-0	0	0	0	0	0	-0	0	596.916	656.424	254.857	229.105	9.0769	-54.9218	-0.38317	-0.0716653	91.1694
75	0.0543684	-0.00561108	-0.0429938	0.242851	0.0103571	0.00667261	0.0228174	-0.0274997	0.0220218	-0.523851	0.143077	-0.099391	0.0230417	-0.00370578	0.0517163	-2.22447	0.0830182	-1.46399	0	0	0	0	-0	0	0	0	-0.1265	0	-0	0	0	0	0	0	-0	0	0.105	0.015	0	0	-0	0	0	0.098	0.1	0	-0	0	0	0	0	0	-0	0	0.05595	0	0	0	-0	0	0	0	0	0	-0	0	597.044	656.593	254.862	229.119	9.08088	-54.9669	-0.383313	-0.0716749	91.2766
76	0.0352643	-0.0055294	-0.0430234	0.242866	0.0103267	0.00668847	0.0228373	-0.027495	0.0220271	-0.523355	0.179418	-0.118635	0.0239437	-0.00370909	0.0513691	-2.24374	0.0849607	-1.46573	0	0	0	0	-0	0	0	0	-0.1265	0	-0	0	0	0	0	0	-0	0	0.105	0.015	0	0	-0	0	0	0.098	0.1	0	-0	0	0	0	0	0	-0	0	0.05595	0	0	0	-0	0	0	0	0	0	-0	0	597.553	657.283	254.871	229.164	9.09367	-55.1457	-0.383647	-0.0716314	91.7073
77	0.0334771	-0.00554974	-0.0430347	0.242931	0.0103284	0.0066986	0.0228155	-0.0274962	0.0220278	-0.515846	0.18768	-0.120197	0.0240206	-0.00370773	0.05133	-2.24554	0.0851409	-1.46588	0	0	0	0	-0	0	0	0	-0.1265	0	-0	0	0	0	0	0	-0	0	0.105	0.015	0	0	-0	0	0	0.098	0.1	0	-0	0	0	0	0	0	-0	0	0.05595	0	0	0	-0	0	0	0	0	0	-0	0	597.622	657.375	254.873	229.17	9.09548	-55.1738	-0.383677	-0.07157	91.7665
78	0.0402685	-0.00547343	-0.0430438	0.242895	0.0103009	0.00670597	0.0228263	-0.0275089	0.0220384	-0.511561	0.163657	-0.143229	0.0236237	-0.00371038	0.0515505	-2.23888	0.0843781	-1.4654	0	0	0	0	-0	0	0	0	-0.1265	0	-0	0	0	0	0	0	-0	0	0.105	0.015	0	0	-0	0	0	0.098	0.1	0	-0	0	0	0	0	0	-0	0	0.05595	0	0	0	-0	0	0	0	0	0	-0	0	597.913	657.756	254.876	229.193	9.1031	-55.2753	-0.383871	-0.0715865	92.0145
79	0.0349125	-0.00547209	-0.0430481	0.24291	0.0102909	0.00670289	0.0228184	-0.0275008	0.022028	-0.526	0.155998	-0.132989	0.0238734	-0.00371129	0.0514494	-2.24428	0.0849273	-1.46589	0	0	0	0	-0	0	0	0	-0.1265	0	-0	0	0	0	0	0	-0	0	0.105	0.015	0	0	-0	0	0	0.098	0.1	0	-0	0	0	0	0	0	-0	0	0.05595	0	0	0	-0	0	0	0	0	0	-0	0	598.059	657.946	254.879	229.206	9.10696	-55.3267	-0.383983	-0.0715168	92.1333
80	0.0473604	-0.00542703	-0.0430644	0.242921	0.0102758	0.00671156	0.0228147	-0.0274983	0.0220261	-0.524558	0.161425	-0.118441	0.0231994	-0.00371286	0.0517852	-2.23194	0.0835816	-1.4649	0	0	0	0	-0	0	0	0	-0.1265	0	-0	0	0	0	0	0	-0	0	0.105	0.015	0	0	-0	0	0	0.098	0.1	0	-0	0	0	0	0	0	-0	0	0.05595	0	0	0	-0	0	0	0	0	0	-0	0	598.27	658.231	254.882	229.221	9.11164	-55.3934	-0.384119	-0.0715537	92.309
81	0.0379386	-0.00537323	-0.0430822	0.242919	0.0102536	0.00672129	0.0228163	-0.0275009	0.0220209	-0.514773	0.154024	-0.0910805	0.0236322	-0.00371475	0.0516219	-2.24144	0.0845282	-1.46577	0	0	0	0	-0	0	0	0	-0.1265	0	-0	0	0	0	0	0	-0	0	0.105	0.015	0	0	-0	0	0	0.098	0.1	0	-0	0	0	0	0	0	-0	0	0.05595	0	0	0	-0	0	0	0	0	0	-0	0	598.589	658.652	254.884	229.234	9.11901	-55.495	-0.384344	-0.0715592	92.576
82	0.03742	-0.00535815	-0.0430934	0.242938	0.0102429	0.00672446	0.0228142	-0.0274938	0.0220266	-0.513536	0.167051	-0.100058	0.0236378	-0.00371526	0.0516313	-2.242	0.0845641	-1.46584	0	0	0	0	-0	0	0	0	-0.1265	0	-0	0	0	0	0	0	-0	0	0.105	0.015	0	0	-0	0	0	0.098	0.1	0	-0	0	0	0	0	0	-0	0	0.05595	0	0	0	-0	0	0	0	0	0	-0	0	598.718	658.823	254.886	229.239	9.1217	-55.5332	-0.384444	-0.0715593	92.6863
83	0.0464358	-0.00533034	-0.0431008	0.24294	0.0102327	0.00673246	0.0228069	-0.0274936	0.0220315	-0.483698	0.140984	-0.0790525	0.0231435	-0.00371586	0.0518764	-2.23306	0.0835899	-1.46513	0	0	0	0	-0	0	0	0	-0.1265	0	-0	0	0	0	0	0	-0	0	0.105	0.015	0	0	-0	0	0	0.098	0.1	0	-0	0	0	0	0	0	-0	0	0.05595	0	0	0	-0	0	0	0	0	0	-0	0	598.89	659.058	254.886	229.246	9.12581	-55.592	-0.384564	-0.0715379	92.8391
84	0.0537836	-0.00528128	-0.043108	0.242923	0.0102118	0.00673741	0.022817	-0.0274974	0.0220303	-0.476007	0.162045	-0.0762495	0.0227198	-0.0037173	0.0520908	-2.2258	0.0827781	-1.46459	0	0	0	0	-0	0	0	0	-0.1265	0	-0	0	0	0	0	0	-0	0	0.105	0.015	0	0	-0	0	0	0.098	0.1	0	-0	0	0	0	0	0	-0	0	0.05595	0	0	0	-0	0	0	0	0	0	-0	0	599.144	659.402	254.886	229.254	9.13104	-55.6718	-0.384727	-0.0715144	93.0682
85	0.0593281	-0.00528268	-0.0431186	0.242955	0.0102064	0.00673783	0.022812	-0.0274961	0.0220258	-0.474266	0.156818	-0.0594281	0.0224116	-0.00371774	0.0522344	-2.2203	0.0821791	-1.46415	0	0	0	0	-0	0	0	0	-0.1265	0	-0	0	0	0	0	0	-0	0	0.105	0.015	0	0	-0	0	0	0.098	0.1	0	-0	0	0	0	0	0	-0	0	0.05595	0	0	0	-0	0	0	0	0	0	-0	0	599.253	659.545	254.886	229.257	9.1335	-55.7035	-0.384834	-0.0715064	93.159
86	0.0628562	-0.00525306	-0.0431284	0.242957	0.010194	0.00674211	0.0228085	-0.0274981	0.0220318	-0.494426	0.156763	-0.061126	0.0222029	-0.00371871	0.0523394	-2.21682	0.0817812	-1.4639	0	0	0	0	-0	0	0	0	-0.1265	0	-0	0	0	0	0	0	-0	0	0.105	0.015	0	0	-0	0	0	0.098	0.1	0	-0	0	0	0	0	0	-0	0	0.05595	0	0	0	-0	0	0	0	0	0	-0	0	599.395	659.741	254.887	229.258	9.13685	-55.7469	-0.384977	-0.071531	93.2866
87	0.0545515	-0.0051557	-0.0431582	0.242947	0.0101492	0.00674691	0.0228089	-0.0274907	0.0220275	-0.510863	0.17949	-0.0787592	0.0225319	-0.0037233	0.0522687	-2.22526	0.0825889	-1.46472	0	0	0	0	-0	0	0	0	-0.1265	0	-0	0	0	0	0	0	-0	0	0.105	0.015	0	0	-0	0	0	0.098	0.1	0	-0	0	0	0	0	0	-0	0	0.05595	0	0	0	-0	0	0	0	0	0	-0	0	600.023	660.595	254.88	229.251	9.14979	-55.9276	-0.385552	-0.0715529	93.8612
88	0.0503962	-0.00513712	-0.0431685	0.242968	0.0101377	0.00675878	0.0228098	-0.0274903	0.0220316	-0.51933	0.201558	-0.0859576	0.0227214	-0.00372274	0.0522043	-2.22944	0.0830041	-1.4651	0	0	0	0	-0	0	0	0	-0.1265	0	-0	0	0	0	0	0	-0	0	0.105	0.015	0	0	-0	0	0	0.098	0.1	0	-0	0	0	0	0	0	-0	0	0.05595	0	0	0	-0	0	0	0	0	0	-0	0	600.198	660.831	254.88	229.247	9.15263	-55.9772	-0.385648	-0.0715266	94.0172
89	0.0413075	-0.00513035	-0.0431708	0.242974	0.0101327	0.00676184	0.0228059	-0.0274924	0.0220283	-0.519911	0.206511	-0.0858383	0.0231855	-0.00372246	0.0520085	-2.23853	0.083951	-1.46587	0	0	0	0	-0	0	0	0	-0.1265	0	-0	0	0	0	0	0	-0	0	0.105	0.015	0	0	-0	0	0	0.098	0.1	0	-0	0	0	0	0	0	-0	0	0.05595	0	0	0	-0	0	0	0	0	0	-0	0	600.262	660.919	254.88	229.245	9.1537	-55.9955	-0.385694	-0.0715017	94.0757
90	0.031604	-0.00508529	-0.0431846	0.242969	0.0101127	0.00676375	0.0228056	-0.0274944	0.0220304	-0.506569	0.205548	-0.0878331	0.0236465	-0.00372459	0.0518309	-2.24826	0.0849288	-1.46675	0	0	0	0	-0	0	0	0	-0.1265	0	-0	0	0	0	0	0	-0	0	0.105	0.015	0	0	-0	0	0	0.098	0.1	0	-0	0	0	0	0	0	-0	0	0.05595	0	0	0	-0	0	0	0	0	0	-0	0	600.523	661.281	254.878	229.234	9.15908	-56.0656	-0.385983	-0.0715378	94.3095
91	0.0424074	-0.00497835	-0.0432228	0.242967	0.0100595	0.00676675	0.022792	-0.0275085	0.0220277	-0.460658	0.181322	-0.0466837	0.0229635	-0.00372984	0.0522252	-2.23759	0.0837163	-1.46598	0	0	0	0	-0	0	0	0	-0.1265	0	-0	0	0	0	0	0	-0	0	0.105	0.015	0	0	-0	0	0	0.098	0.1	0	-0	0	0	0	0	0	-0	0	0.05595	0	0	0	-0	0	0	0	0	0	-0	0	601.293	662.338	254.859	229.181	9.17206	-56.2508	-0.386789	-0.0716171	95.0181
92	0.0489617	-0.00494988	-0.0432153	0.242925	0.0100363	0.00676588	0.0228075	-0.0275032	0.0220281	-0.475441	0.167523	-0.0650145	0.0226044	-0.00372901	0.0523895	-2.23107	0.0830156	-1.46549	0	0	0	0	-0	0	0	0	-0.1265	0	-0	0	0	0	0	0	-0	0	0.105	0.015	0	0	-0	0	0	0.098	0.1	0	-0	0	0	0	0	0	-0	0	0.05595	0	0	0	-0	0	0	0	0	0	-0	0	601.398	662.485	254.859	229.171	9.17248	-56.2729	-0.386824	-0.0715463	95.123
93	0.0534121	-0.00494615	-0.0432343	0.242975	0.010031	0.00676816	0.0228059	-0.0274933	0.0220372	-0.465698	0.145981	-0.0721873	0.0223338	-0.00373028	0.0525274	-2.22665	0.082524	-1.46514	0	0	0	0	-0	0	0	0	-0.1265	0	-0	0	0	0	0	0	-0	0	0.105	0.015	0	0	-0	0	0	0.098	0.1	0	-0	0	0	0	0	0	-0	0	0.05595	0	0	0	-0	0	0	0	0	0	-0	0	601.615	662.793	254.858	229.151	9.17691	-56.3306	-0.387113	-0.0715544	95.337
94	0.0557109	-0.00489816	-0.0432472	0.242975	0.0100091	0.00677723	0.0228005	-0.0274939	0.0220364	-0.445219	0.131568	-0.0740605	0.0221608	-0.00373113	0.0526343	-2.22439	0.0822424	-1.46502	0	0	0	0	-0	0	0	0	-0.1265	0	-0	0	0	0	0	0	-0	0	0.105	0.015	0	0	-0	0	0	0.098	0.1	0	-0	0	0	0	0	0	-0	0	0.05595	0	0	0	-0	0	0	0	0	0	-0	0	601.933	663.254	254.85	229.12	9.18202	-56.4084	-0.387469	-0.0715441	95.6425
95	0.0653992	-0.004865	-0.0432537	0.242964	0.00999196	0.00678124	0.0228068	-0.0274904	0.0220255	-0.453286	0.154349	-0.0942115	0.0216188	-0.00373165	0.0528844	-2.21474	0.0811924	-1.46427	0	0	0	0	-0	0	0	0	-0.1265	0	-0	0	0	0	0	0	-0	0	0.105	0.015	0	0	-0	0	0	0.098	0.1	0	-0	0	0	0	0	0	-0	0	0.05595	0	0	0	-0	0	0	0	0	0	-0	0	602.134	663.534	254.846	229.098	9.18487	-56.4554	-0.387664	-0.0715415	95.8399
96	0.0443935	-0.00483534	-0.0432778	0.242993	0.00997636	0.00678667	0.0227992	-0.0275005	0.0220383	-0.480809	0.151253	-0.0962013	0.0226769	-0.00373357	0.0524831	-2.23571	0.0833764	-1.46603	0	0	0	0	-0	0	0	0	-0.1265	0	-0	0	0	0	0	0	-0	0	0.105	0.015	0	0	-0	0	0	0.098	0.1	0	-0	0	0	0	0	0	-0	0	0.05595	0	0	0	-0	0	0	0	0	0	-0	0	602.443	663.958	254.838	229.055	9.18988	-56.5206	-0.388056	-0.0716236	96.1321
97	0.0448339	-0.0047683	-0.0432837	0.242945	0.00993867	0.00678394	0.0227916	-0.0275171	0.0220522	-0.530783	0.156509	-0.105133	0.0225784	-0.00373599	0.0525638	-2.23529	0.0832892	-1.46609	0	0	0	0	-0	0	0	0	-0.1265	0	-0	0	0	0	0	0	-0	0	0.105	0.015	0	0	-0	0	0	0.098	0.1	0	-0	0	0	0	0	0	-0	0	0.05595	0	0	0	-0	0	0	0	0	0	-0	0	602.899	664.588	254.819	228.99	9.19521	-56.6072	-0.38856	-0.0716301	96.5631
98	0.0529542	-0.00472262	-0.0432813	0.2429	0.00990313	0.00676883	0.022808	-0.0275253	0.0220147	-0.553344	0.155045	-0.152378	0.0221049	-0.00373737	0.0527988	-2.22719	0.0824099	-1.46549	0	0	0	0	-0	0	0	0	-0.1265	0	-0	0	0	0	0	0	-0	0	0.105	0.015	0	0	-0	0	0	0.098	0.1	0	-0	0	0	0	0	0	-0	0	0.05595	0	0	0	-0	0	0	0	0	0	-0	0	603.228	665.06	254.807	228.947	9.19639	-56.6566	-0.388862	-0.0715549	96.8842
99	0.0500053	-0.00471595	-0.0433189	0.242972	0.00988983	0.00676533	0.0227894	-0.0274925	0.0220333	-0.587361	0.172524	-0.171305	0.0222185	-0.00373987	0.0527789	-2.23013	0.0826951	-1.46573	0	0	0	0	-0	0	0	0	-0.1265	0	-0	0	0	0	0	0	-0	0	0.105	0.015	0	0	-0	0	0	0.098	0.1	0	-0	0	0	0	0	0	-0	0	0.05595	0	0	0	-0	0	0	0	0	0	-0	0	603.477	665.41	254.805	228.894	9.20103	-56.6978	-0.389361	-0.0717196	97.1316
100	0.0358525	-0.00464956	-0.0433186	0.24292	0.00986914	0.00678402	0.0228092	-0.0275095	0.0220374	-0.581714	0.152042	-0.199738	0.0229115	-0.00373951	0.0525226	-2.24423	0.0841317	-1.46698	0	0	0	0	-0	0	0	0	-0.1265	0	-0	0	0	0	0	0	-0	0	0.105	0.015	0	0	-0	0	0	0.098	0.1	0	-0	0	0	0	0	0	-0	0	0.05595	0	0	0	-0	0	0	0	0	0	-0	0	603.847	665.931	254.782	228.823	9.20209	-56.756	-0.389617	-0.071702	97.5011
