Stefan210/kinematic_calibration/src/kinematic_calibration/validation/experiments/experiments/anzahl_messungen/BC_A/larm_71/optimization_intermediate_results.csv
iteration	HeadPitch_offset	HeadYaw_offset	LElbowRoll_offset	LElbowYaw_offset	LShoulderPitch_offset	LShoulderRoll_offset	marker_transform_larm_tx	marker_transform_larm_ty	marker_transform_larm_tz	marker_transform_larm_rr	marker_transform_larm_rp	marker_transform_larm_ry	camera_transform_tx	camera_transform_ty	camera_transform_tz	camera_transform_rr	camera_transform_rp	camera_transform_ry	HeadPitch_transform_tx	HeadPitch_transform_ty	HeadPitch_transform_tz	HeadPitch_transform_rr	HeadPitch_transform_rp	HeadPitch_transform_ry	HeadYaw_transform_tx	HeadYaw_transform_ty	HeadYaw_transform_tz	HeadYaw_transform_rr	HeadYaw_transform_rp	HeadYaw_transform_ry	LElbowRoll_transform_tx	LElbowRoll_transform_ty	LElbowRoll_transform_tz	LElbowRoll_transform_rr	LElbowRoll_transform_rp	LElbowRoll_transform_ry	LElbowYaw_transform_tx	LElbowYaw_transform_ty	LElbowYaw_transform_tz	LElbowYaw_transform_rr	LElbowYaw_transform_rp	LElbowYaw_transform_ry	LShoulderPitch_transform_tx	LShoulderPitch_transform_ty	LShoulderPitch_transform_tz	LShoulderPitch_transform_rr	LShoulderPitch_transform_rp	LShoulderPitch_transform_ry	LShoulderRoll_transform_tx	LShoulderRoll_transform_ty	LShoulderRoll_transform_tz	LShoulderRoll_transform_rr	LShoulderRoll_transform_rp	LShoulderRoll_transform_ry	LWristYaw_transform_tx	LWristYaw_transform_ty	LWristYaw_transform_tz	LWristYaw_transform_rr	LWristYaw_transform_rp	LWristYaw_transform_ry	l_wrist_joint_transform_tx	l_wrist_joint_transform_ty	l_wrist_joint_transform_tz	l_wrist_joint_transform_rr	l_wrist_joint_transform_rp	l_wrist_joint_transform_ry	camera_fx	camera_fy	camera_cx	camera_cy	camera_D0	camera_D1	camera_D2	camera_D3	camera_D4	
0	0.0249164	-0.0307543	0.000853157	4.65819e-06	-0.000318322	-0.00310766	0.05071	0	0.01774	-2.26369	1.66533e-16	-1.5708	545.901	551.038	324.928	201.58	0.0255298	2.61142	-0.0636736	-0.0350419	0.213964
1	-0.0151747	0.0281789	0.0149196	0.0315477	-0.0118399	0.0287091	0.0240781	-0.030106	0.00284837	-0.000240583	-0.000519343	-0.00314594	0.0566809	-0.000431125	0.0178067	-2.20261	-0.00775269	-1.56028	0	0	0	0	-0	0	0	0	-0.1265	0	-0	0	0	0	0	0	-0	0	0.105	0.015	0	0	-0	0	0	0.098	0.1	0	-0	0	0	0	0	0	-0	0	0.05595	0	0	0	-0	0	0	0	0	0	-0	0	545.901	551.039	324.928	201.581	-0.0145926	2.59789	-0.0853991	0.0464363	0.210954
2	-0.0138153	0.0401182	0.0132465	0.0375853	-0.0197282	0.0364043	0.024101	-0.0301647	0.00320077	-0.000282826	-0.000553931	-0.00315001	0.0551938	-0.000486954	0.0215764	-2.20902	-0.0108774	-1.57045	0	0	0	0	-0	0	0	0	-0.1265	0	-0	0	0	0	0	0	-0	0	0.105	0.015	0	0	-0	0	0	0.098	0.1	0	-0	0	0	0	0	0	-0	0	0.05595	0	0	0	-0	0	0	0	0	0	-0	0	545.902	551.039	324.924	201.585	-0.150473	2.51195	-0.0469356	0.0177601	0.182549
3	-0.0149558	0.0367436	0.0124183	0.0382117	-0.0164665	0.0368476	0.024196	-0.0300819	0.00315853	-0.000280345	-0.000551978	-0.00313025	0.05653	-2.49894e-05	0.018399	-2.20365	-0.0103836	-1.56922	0	0	0	0	-0	0	0	0	-0.1265	0	-0	0	0	0	0	0	-0	0	0.105	0.015	0	0	-0	0	0	0.098	0.1	0	-0	0	0	0	0	0	-0	0	0.05595	0	0	0	-0	0	0	0	0	0	-0	0	545.906	551.039	324.919	201.591	-0.40345	2.35162	-0.0245424	0.00984644	0.131012
4	-0.0156926	0.03528	0.0126576	0.0375851	-0.0144961	0.0371704	0.0243417	-0.0300072	0.00297923	-0.000259833	-0.000533585	-0.003118	0.0575466	0.000280761	0.0158522	-2.20007	-0.0108635	-1.56857	0	0	0	0	-0	0	0	0	-0.1265	0	-0	0	0	0	0	0	-0	0	0.105	0.015	0	0	-0	0	0	0.098	0.1	0	-0	0	0	0	0	0	-0	0	0.05595	0	0	0	-0	0	0	0	0	0	-0	0	545.913	551.038	324.912	201.601	-0.608719	2.10363	0.00524737	-0.000989341	0.0395024
5	-0.0159627	0.0339141	0.0126422	0.0360424	-0.0133803	0.0365368	0.0243998	-0.0299589	0.00279856	-0.000241283	-0.000501657	-0.00310958	0.0571987	0.000390286	0.0155711	-2.199	-0.0107165	-1.568	0	0	0	0	-0	0	0	0	-0.1265	0	-0	0	0	0	0	0	-0	0	0.105	0.015	0	0	-0	0	0	0.098	0.1	0	-0	0	0	0	0	0	-0	0	0.05595	0	0	0	-0	0	0	0	0	0	-0	0	545.933	551.029	324.902	201.613	-0.539769	1.74012	0.00784947	-0.00365688	-0.113551
6	-0.0160338	0.0320371	0.0124889	0.0339305	-0.0123661	0.0353795	0.0244155	-0.0299312	0.00261446	-0.000225379	-0.000444399	-0.00309654	0.0559362	0.000404559	0.0165169	-2.19902	-0.00995849	-1.56662	0	0	0	0	-0	0	0	0	-0.1265	0	-0	0	0	0	0	0	-0	0	0.105	0.015	0	0	-0	0	0	0.098	0.1	0	-0	0	0	0	0	0	-0	0	0.05595	0	0	0	-0	0	0	0	0	0	-0	0	545.978	551.007	324.892	201.627	-0.305227	1.1928	-0.00340032	-0.00327036	-0.334533
7	-0.0160315	0.0308161	0.0124531	0.0321027	-0.0118094	0.0344207	0.0244236	-0.0299156	0.00245877	-0.000275533	-0.000424518	-0.00302203	0.0547506	0.000375054	0.0175347	-2.19929	-0.00941405	-1.56557	0	0	0	0	-0	0	0	0	-0.1265	0	-0	0	0	0	0	0	-0	0	0.105	0.015	0	0	-0	0	0	0.098	0.1	0	-0	0	0	0	0	0	-0	0	0.05595	0	0	0	-0	0	0	0	0	0	-0	0	546.086	550.954	324.883	201.629	-0.076345	0.634503	-0.0140563	-0.00286464	-0.487295
8	-0.0160593	0.030545	0.0125013	0.0312294	-0.0117733	0.0339977	0.0244279	-0.0299118	0.00238273	-8.20559e-05	-0.000446804	-0.00263865	0.0541045	0.000333971	0.0181709	-2.19971	-0.00920395	-1.56515	0	0	0	0	-0	0	0	0	-0.1265	0	-0	0	0	0	0	0	-0	0	0.105	0.015	0	0	-0	0	0	0.098	0.1	0	-0	0	0	0	0	0	-0	0	0.05595	0	0	0	-0	0	0	0	0	0	-0	0	546.378	550.808	324.845	201.599	0.0480526	0.248582	-0.0181864	-0.00289876	-0.358221
9	-0.0155792	0.0307236	0.0125267	0.030946	-0.0119398	0.0339233	0.0244302	-0.0299158	0.00235593	0.000521954	0.000234132	-0.00246527	0.0537324	0.000294574	0.0186347	-2.19967	-0.00899726	-1.56494	0	0	0	0	-0	0	0	0	-0.1265	0	-0	0	0	0	0	0	-0	0	0.105	0.015	0	0	-0	0	0	0.098	0.1	0	-0	0	0	0	0	0	-0	0	0.05595	0	0	0	-0	0	0	0	0	0	-0	0	547.186	550.407	324.708	201.489	0.103575	-0.114342	-0.0164786	-0.00323339	0.288516
10	-0.0149817	0.0312724	0.0125382	0.0306887	-0.0123106	0.0339712	0.0244328	-0.0299273	0.00232987	0.00101781	0.000777993	-0.0028151	0.0531472	0.000225659	0.0194162	-2.19977	-0.00853911	-1.56462	0	0	0	0	-0	0	0	0	-0.1265	0	-0	0	0	0	0	0	-0	0	0.105	0.015	0	0	-0	0	0	0.098	0.1	0	-0	0	0	0	0	0	-0	0	0.05595	0	0	0	-0	0	0	0	0	0	-0	0	549.209	549.425	324.361	201.153	0.168105	-0.787117	-0.00947438	-0.00397265	1.81843
11	-0.0177193	0.0322484	0.0126036	0.0302308	-0.0129062	0.0340863	0.0244375	-0.0299492	0.00228639	-0.0029077	0.00550849	0.000455889	0.0521881	0.000108006	0.0205941	-2.20313	-0.00773337	-1.56411	0	0	0	0	-0	0	0	0	-0.1265	0	-0	0	0	0	0	0	-0	0	0.105	0.015	0	0	-0	0	0	0.098	0.1	0	-0	0	0	0	0	0	-0	0	0.05595	0	0	0	-0	0	0	0	0	0	-0	0	553.172	547.729	323.766	200.243	0.253638	-1.83262	0.00407938	-0.00522577	4.29401
12	-0.0242997	0.0332102	0.0127027	0.0297158	-0.0134221	0.0342266	0.0244459	-0.0299748	0.00223728	-0.00219574	0.0120413	-0.0147411	0.0511036	-2.27258e-05	0.0218315	-2.20843	-0.00683257	-1.56358	0	0	0	0	-0	0	0	0	-0.1265	0	-0	0	0	0	0	0	-0	0	0.105	0.015	0	0	-0	0	0	0.098	0.1	0	-0	0	0	0	0	0	-0	0	0.05595	0	0	0	-0	0	0	0	0	0	-0	0	558.477	546.693	323.207	198.045	0.3154	-2.76877	0.0191831	-0.00644434	6.58862
13	-0.0703297	0.0335113	0.0126544	0.0295113	-0.0135346	0.0343349	0.024449	-0.0300033	0.00219362	-0.0400835	0.0384489	-0.0480811	0.051031	-0.000120806	0.0208261	-2.24803	-0.00647522	-1.56359	0	0	0	0	-0	0	0	0	-0.1265	0	-0	0	0	0	0	0	-0	0	0.105	0.015	0	0	-0	0	0	0.098	0.1	0	-0	0	0	0	0	0	-0	0	0.05595	0	0	0	-0	0	0	0	0	0	-0	0	563.767	548.839	323.592	193.077	0.325094	-2.96075	0.0245556	-0.00659932	6.8929
14	-0.0856179	0.0334015	0.012533	0.029562	-0.0134292	0.0344034	0.0244442	-0.0299881	0.00223259	-0.00929077	0.0207378	-0.0631412	0.0506734	-0.00017928	0.0209487	-2.25481	-0.00773515	-1.565	0	0	0	0	-0	0	0	0	-0.1265	0	-0	0	0	0	0	0	-0	0	0.105	0.015	0	0	-0	0	0	0.098	0.1	0	-0	0	0	0	0	0	-0	0	0.05595	0	0	0	-0	0	0	0	0	0	-0	0	567.7	552.443	325.139	187.285	0.298158	-2.5905	0.0220646	-0.00591378	5.69723
15	-0.0634303	0.0334184	0.0125157	0.0295545	-0.0134192	0.0344356	0.0244569	-0.0299898	0.00221832	-0.00523287	0.0243477	-0.0929457	0.0499825	-0.00020406	0.0223932	-2.22942	-0.00799882	-1.56536	0	0	0	0	-0	0	0	0	-0.1265	0	-0	0	0	0	0	0	-0	0	0.105	0.015	0	0	-0	0	0	0.098	0.1	0	-0	0	0	0	0	0	-0	0	0.05595	0	0	0	-0	0	0	0	0	0	-0	0	569.225	553.805	325.412	185.064	0.282108	-2.46811	0.0217961	-0.00600372	5.39096
16	-0.051405	0.033382	0.012492	0.0295523	-0.0133895	0.0344513	0.024455	-0.0299799	0.00220628	0.00942582	-0.00187196	-0.0707498	0.049552	-0.000216145	0.0231598	-2.21535	-0.00816468	-1.56562	0	0	0	0	-0	0	0	0	-0.1265	0	-0	0	0	0	0	0	-0	0	0.105	0.015	0	0	-0	0	0	0.098	0.1	0	-0	0	0	0	0	0	-0	0	0.05595	0	0	0	-0	0	0	0	0	0	-0	0	570.073	554.728	325.61	183.683	0.276275	-2.39222	0.0209549	-0.00594614	5.1669
17	-0.0605229	0.0333579	0.012478	0.0295597	-0.0133709	0.0344622	0.0244664	-0.0299705	0.00220476	0.0333433	-0.0537111	-0.0549707	0.0496691	-0.000224075	0.0228116	-2.22313	-0.00811094	-1.56558	0	0	0	0	-0	0	0	0	-0.1265	0	-0	0	0	0	0	0	-0	0	0.105	0.015	0	0	-0	0	0	0.098	0.1	0	-0	0	0	0	0	0	-0	0	0.05595	0	0	0	-0	0	0	0	0	0	-0	0	570.607	555.335	325.68	182.784	0.272338	-2.34226	0.0203565	-0.00593086	5.02467
18	-0.0744807	0.0332861	0.0124426	0.0295841	-0.013323	0.0344795	0.0244214	-0.0300182	0.00223196	0.107713	-0.0889897	-0.0663178	0.0498501	-0.000235188	0.0222841	-2.23473	-0.00792313	-1.56541	0	0	0	0	-0	0	0	0	-0.1265	0	-0	0	0	0	0	0	-0	0	0.105	0.015	0	0	-0	0	0	0.098	0.1	0	-0	0	0	0	0	0	-0	0	0.05595	0	0	0	-0	0	0	0	0	0	-0	0	571.466	556.425	325.721	181.217	0.26578	-2.2485	0.018971	-0.00588174	4.76284
19	-0.0682707	0.0332661	0.0124201	0.0296331	-0.0133105	0.0344859	0.024449	-0.0299822	0.00222365	0.0856933	-0.0990435	-0.0627582	0.0496495	-0.000241833	0.0226694	-2.22754	-0.00775083	-1.56528	0	0	0	0	-0	0	0	0	-0.1265	0	-0	0	0	0	0	0	-0	0	0.105	0.015	0	0	-0	0	0	0.098	0.1	0	-0	0	0	0	0	0	-0	0	0.05595	0	0	0	-0	0	0	0	0	0	-0	0	571.847	556.889	325.611	180.547	0.263267	-2.21688	0.0184884	-0.00595863	4.67746
20	-0.0684049	0.033259	0.0124257	0.0296001	-0.0133062	0.0344818	0.0244454	-0.0299743	0.00222083	0.0745456	-0.100775	-0.0612477	0.049634	-0.000243559	0.0226814	-2.22742	-0.00768574	-1.56523	0	0	0	0	-0	0	0	0	-0.1265	0	-0	0	0	0	0	0	-0	0	0.105	0.015	0	0	-0	0	0	0.098	0.1	0	-0	0	0	0	0	0	-0	0	0.05595	0	0	0	-0	0	0	0	0	0	-0	0	571.93	557.012	325.572	180.38	0.263751	-2.21328	0.018291	-0.00598235	4.66122
21	-0.0662399	0.0332313	0.0124121	0.0296124	-0.0132906	0.0344877	0.0244473	-0.0299786	0.00222607	0.0917249	-0.103655	-0.0779918	0.0495381	-0.000247554	0.0228471	-2.22433	-0.00741898	-1.565	0	0	0	0	-0	0	0	0	-0.1265	0	-0	0	0	0	0	0	-0	0	0.105	0.015	0	0	-0	0	0	0.098	0.1	0	-0	0	0	0	0	0	-0	0	0.05595	0	0	0	-0	0	0	0	0	0	-0	0	572.227	557.445	325.394	179.77	0.262513	-2.18604	0.0176447	-0.00604036	4.58506
22	-0.0560659	0.0332151	0.0124061	0.0296143	-0.0132819	0.0344861	0.024449	-0.0299757	0.00222188	0.0845787	-0.110837	-0.062983	0.0492819	-0.000250017	0.0233787	-2.21373	-0.00730406	-1.56491	0	0	0	0	-0	0	0	0	-0.1265	0	-0	0	0	0	0	0	-0	0	0.105	0.015	0	0	-0	0	0	0.098	0.1	0	-0	0	0	0	0	0	-0	0	0.05595	0	0	0	-0	0	0	0	0	0	-0	0	572.358	557.655	325.277	179.484	0.262751	-2.17689	0.0172889	-0.00609249	4.55547
23	-0.0474612	0.033203	0.0124029	0.0296133	-0.0132759	0.0344854	0.024449	-0.029974	0.0022223	0.0758015	-0.123937	-0.0652791	0.0490621	-0.000251509	0.0238194	-2.20481	-0.00721356	-1.56484	0	0	0	0	-0	0	0	0	-0.1265	0	-0	0	0	0	0	0	-0	0	0.105	0.015	0	0	-0	0	0	0.098	0.1	0	-0	0	0	0	0	0	-0	0	0.05595	0	0	0	-0	0	0	0	0	0	-0	0	572.445	557.811	325.176	179.279	0.263139	-2.17103	0.0169968	-0.00613147	4.53573
24	-0.0356523	0.0331937	0.0124	0.0296144	-0.0132712	0.0344847	0.0244452	-0.0299717	0.00222202	0.0833034	-0.122981	-0.0663197	0.048768	-0.000252583	0.02441	-2.19277	-0.0071703	-1.56481	0	0	0	0	-0	0	0	0	-0.1265	0	-0	0	0	0	0	0	-0	0	0.105	0.015	0	0	-0	0	0	0.098	0.1	0	-0	0	0	0	0	0	-0	0	0.05595	0	0	0	-0	0	0	0	0	0	-0	0	572.506	557.925	325.094	179.128	0.263315	-2.16601	0.0167799	-0.0061634	4.52008
25	-0.0387637	0.0331875	0.0123976	0.0296163	-0.0132685	0.0344841	0.0244471	-0.0299712	0.00222257	0.0851306	-0.11197	-0.0637635	0.0488318	-0.00025347	0.0242662	-2.19571	-0.00706278	-1.5647	0	0	0	0	-0	0	0	0	-0.1265	0	-0	0	0	0	0	0	-0	0	0.105	0.015	0	0	-0	0	0	0.098	0.1	0	-0	0	0	0	0	0	-0	0	0.05595	0	0	0	-0	0	0	0	0	0	-0	0	572.553	558.009	325.028	179.018	0.263589	-2.16338	0.0166209	-0.00618949	4.51095
26	-0.0338259	0.0331745	0.0123923	0.0296201	-0.0132622	0.0344851	0.024447	-0.0299738	0.00222466	0.0757642	-0.109022	-0.0498863	0.0486944	-0.000254963	0.024527	-2.1904	-0.0068748	-1.56452	0	0	0	0	-0	0	0	0	-0.1265	0	-0	0	0	0	0	0	-0	0	0.105	0.015	0	0	-0	0	0	0.098	0.1	0	-0	0	0	0	0	0	-0	0	0.05595	0	0	0	-0	0	0	0	0	0	-0	0	572.657	558.196	324.864	178.77	0.263738	-2.15563	0.016284	-0.00625127	4.48815
27	-0.0344247	0.0331691	0.0123915	0.029619	-0.0132593	0.0344823	0.0244454	-0.0299709	0.00222233	0.0704479	-0.111406	-0.0504426	0.0487048	-0.000255501	0.0245007	-2.19094	-0.00683736	-1.56448	0	0	0	0	-0	0	0	0	-0.1265	0	-0	0	0	0	0	0	-0	0	0.105	0.015	0	0	-0	0	0	0.098	0.1	0	-0	0	0	0	0	0	-0	0	0.05595	0	0	0	-0	0	0	0	0	0	-0	0	572.668	558.224	324.839	178.735	0.26416	-2.15531	0.0162002	-0.00626262	4.48476
28	-0.0401509	0.0331625	0.012389	0.0296214	-0.0132566	0.0344831	0.0244463	-0.0299714	0.00222229	0.0701845	-0.113834	-0.0410647	0.0488366	-0.00025623	0.0242316	-2.19646	-0.00666738	-1.56431	0	0	0	0	-0	0	0	0	-0.1265	0	-0	0	0	0	0	0	-0	0	0.105	0.015	0	0	-0	0	0	0.098	0.1	0	-0	0	0	0	0	0	-0	0	0.05595	0	0	0	-0	0	0	0	0	0	-0	0	572.719	558.329	324.737	178.599	0.264349	-2.15158	0.0159991	-0.00630101	4.47357
29	-0.0474392	0.033157	0.0123879	0.0296206	-0.0132539	0.0344817	0.0244452	-0.0299702	0.00222253	0.0673994	-0.114408	-0.0410951	0.0490076	-0.000256745	0.0238804	-2.20365	-0.00654834	-1.56419	0	0	0	0	-0	0	0	0	-0.1265	0	-0	0	0	0	0	0	-0	0	0.105	0.015	0	0	-0	0	0	0.098	0.1	0	-0	0	0	0	0	0	-0	0	0.05595	0	0	0	-0	0	0	0	0	0	-0	0	572.742	558.381	324.683	178.532	0.264724	-2.15045	0.0158761	-0.00632197	4.46846
30	-0.0512617	0.0331535	0.0123868	0.0296213	-0.0132525	0.0344811	0.0244457	-0.0299703	0.00222261	0.0702496	-0.108991	-0.0422018	0.0490944	-0.000257096	0.0236959	-2.20739	-0.00646797	-1.56411	0	0	0	0	-0	0	0	0	-0.1265	0	-0	0	0	0	0	0	-0	0	0.105	0.015	0	0	-0	0	0	0.098	0.1	0	-0	0	0	0	0	0	-0	0	0.05595	0	0	0	-0	0	0	0	0	0	-0	0	572.758	558.421	324.642	178.482	0.264944	-2.14949	0.0157859	-0.00633794	4.46481
31	-0.0535145	0.0331499	0.0123857	0.0296218	-0.0132509	0.0344807	0.0244461	-0.0299702	0.00222242	0.0686648	-0.116099	-0.0383945	0.0491443	-0.00025741	0.0235887	-2.20956	-0.00639517	-1.56404	0	0	0	0	-0	0	0	0	-0.1265	0	-0	0	0	0	0	0	-0	0	0.105	0.015	0	0	-0	0	0	0.098	0.1	0	-0	0	0	0	0	0	-0	0	0.05595	0	0	0	-0	0	0	0	0	0	-0	0	572.776	558.462	324.598	178.43	0.265145	-2.14848	0.0156965	-0.00635454	4.46114
32	-0.0512429	0.0331439	0.0123836	0.0296234	-0.0132484	0.0344808	0.024446	-0.0299697	0.00222252	0.0673301	-0.107534	-0.0409959	0.049084	-0.000257996	0.0237079	-2.20712	-0.00628056	-1.56393	0	0	0	0	-0	0	0	0	-0.1265	0	-0	0	0	0	0	0	-0	0	0.105	0.015	0	0	-0	0	0	0.098	0.1	0	-0	0	0	0	0	0	-0	0	0.05595	0	0	0	-0	0	0	0	0	0	-0	0	572.815	558.547	324.498	178.317	0.265407	-2.14583	0.0155202	-0.00639278	4.45276
33	-0.0560052	0.0331389	0.0123824	0.0296231	-0.0132462	0.0344795	0.0244452	-0.0299696	0.00222277	0.068302	-0.10959	-0.0400034	0.0491926	-0.000258468	0.0234786	-2.21179	-0.00617312	-1.56383	0	0	0	0	-0	0	0	0	-0.1265	0	-0	0	0	0	0	0	-0	0	0.105	0.015	0	0	-0	0	0	0.098	0.1	0	-0	0	0	0	0	0	-0	0	0.05595	0	0	0	-0	0	0	0	0	0	-0	0	572.835	558.596	324.442	178.256	0.265782	-2.14497	0.0154023	-0.00641476	4.44863
34	-0.0524876	0.0331366	0.0123818	0.0296233	-0.0132452	0.0344787	0.0244451	-0.0299696	0.00222283	0.0685753	-0.108994	-0.040875	0.0491075	-0.000258717	0.0236535	-2.20823	-0.00616577	-1.56382	0	0	0	0	-0	0	0	0	-0.1265	0	-0	0	0	0	0	0	-0	0	0.105	0.015	0	0	-0	0	0	0.098	0.1	0	-0	0	0	0	0	0	-0	0	0.05595	0	0	0	-0	0	0	0	0	0	-0	0	572.843	558.617	324.418	178.231	0.266024	-2.14503	0.0153499	-0.00642421	4.44766
35	-0.0487441	0.0331335	0.0123808	0.0296242	-0.013244	0.0344785	0.0244454	-0.0299696	0.00222324	0.0709634	-0.113879	-0.0439089	0.049016	-0.000258962	0.0238402	-2.20441	-0.00612798	-1.56378	0	0	0	0	-0	0	0	0	-0.1265	0	-0	0	0	0	0	0	-0	0	0.105	0.015	0	0	-0	0	0	0.098	0.1	0	-0	0	0	0	0	0	-0	0	0.05595	0	0	0	-0	0	0	0	0	0	-0	0	572.859	558.657	324.368	178.18	0.266172	-2.14383	0.0152608	-0.00644308	4.44387
36	-0.0447101	0.0331288	0.0123791	0.0296252	-0.0132422	0.0344781	0.0244452	-0.0299696	0.00222305	0.0741042	-0.112792	-0.0441332	0.0489152	-0.000259365	0.0240424	-2.20026	-0.00605941	-1.56371	0	0	0	0	-0	0	0	0	-0.1265	0	-0	0	0	0	0	0	-0	0	0.105	0.015	0	0	-0	0	0	0.098	0.1	0	-0	0	0	0	0	0	-0	0	0.05595	0	0	0	-0	0	0	0	0	0	-0	0	572.883	558.718	324.293	178.104	0.266499	-2.14265	0.0151251	-0.00647205	4.43942
37	-0.0374419	0.033122	0.0123769	0.0296269	-0.0132395	0.0344777	0.0244459	-0.0299704	0.00222279	0.0773582	-0.1136	-0.0360995	0.0487334	-0.000260002	0.0244053	-2.19281	-0.00595441	-1.56359	0	0	0	0	-0	0	0	0	-0.1265	0	-0	0	0	0	0	0	-0	0	0.105	0.015	0	0	-0	0	0	0.098	0.1	0	-0	0	0	0	0	0	-0	0	0.05595	0	0	0	-0	0	0	0	0	0	-0	0	572.922	558.812	324.17	177.986	0.266914	-2.14039	0.0149222	-0.00651989	4.43182
38	-0.0366721	0.0331123	0.0123737	0.0296287	-0.0132358	0.0344767	0.024446	-0.0299683	0.00222438	0.0569985	-0.0878173	-0.0343922	0.0487033	-0.000260943	0.0244531	-2.19178	-0.00572087	-1.56336	0	0	0	0	-0	0	0	0	-0.1265	0	-0	0	0	0	0	0	-0	0	0.105	0.015	0	0	-0	0	0	0.098	0.1	0	-0	0	0	0	0	0	-0	0	0.05595	0	0	0	-0	0	0	0	0	0	-0	0	572.977	558.947	323.98	177.816	0.267718	-2.13831	0.0146204	-0.00659448	4.42325
39	-0.0400527	0.0331068	0.0123733	0.0296262	-0.0132332	0.0344735	0.0244452	-0.0299691	0.00222326	0.0600841	-0.0862806	-0.0339057	0.048783	-0.000261413	0.024291	-2.19511	-0.00565149	-1.56329	0	0	0	0	-0	0	0	0	-0.1265	0	-0	0	0	0	0	0	-0	0	0.105	0.015	0	0	-0	0	0	0.098	0.1	0	-0	0	0	0	0	0	-0	0	0.05595	0	0	0	-0	0	0	0	0	0	-0	0	572.983	558.971	323.947	177.788	0.268271	-2.13871	0.0145295	-0.00660705	4.4216
40	-0.0431258	0.0331026	0.0123719	0.0296282	-0.0132319	0.0344733	0.024445	-0.0299691	0.00222359	0.0549004	-0.0846983	-0.0322017	0.0488542	-0.000261709	0.0241445	-2.19807	-0.00551737	-1.56316	0	0	0	0	-0	0	0	0	-0.1265	0	-0	0	0	0	0	0	-0	0	0.105	0.015	0	0	-0	0	0	0.098	0.1	0	-0	0	0	0	0	0	-0	0	0.05595	0	0	0	-0	0	0	0	0	0	-0	0	573.002	559.031	323.858	177.714	0.268653	-2.13788	0.0143857	-0.00664138	4.41818
41	-0.0392883	0.0330985	0.012371	0.0296282	-0.0132304	0.0344721	0.0244456	-0.0299692	0.00222338	0.0567833	-0.0814899	-0.0372578	0.0487586	-0.000262026	0.0243347	-2.19415	-0.00546745	-1.5631	0	0	0	0	-0	0	0	0	-0.1265	0	-0	0	0	0	0	0	-0	0	0.105	0.015	0	0	-0	0	0	0.098	0.1	0	-0	0	0	0	0	0	-0	0	0.05595	0	0	0	-0	0	0	0	0	0	-0	0	573.013	559.071	323.796	177.663	0.269071	-2.13768	0.0142748	-0.00666548	4.41602
42	-0.0453587	0.0330921	0.0123688	0.02963	-0.0132286	0.0344717	0.024447	-0.0299685	0.00222407	0.0576095	-0.0941665	-0.038319	0.0489	-0.000262581	0.0240452	-2.20002	-0.00521273	-1.56286	0	0	0	0	-0	0	0	0	-0.1265	0	-0	0	0	0	0	0	-0	0	0.105	0.015	0	0	-0	0	0	0.098	0.1	0	-0	0	0	0	0	0	-0	0	0.05595	0	0	0	-0	0	0	0	0	0	-0	0	573.047	559.173	323.629	177.533	0.269748	-2.13671	0.0140347	-0.00673123	4.41145
43	-0.0556628	0.0330819	0.0123659	0.0296308	-0.0132256	0.0344697	0.0244454	-0.0299743	0.00222416	0.0380713	-0.096088	-0.0373705	0.0491376	-0.000263518	0.0235512	-2.21003	-0.00480695	-1.56249	0	0	0	0	-0	0	0	0	-0.1265	0	-0	0	0	0	0	0	-0	0	0.105	0.015	0	0	-0	0	0	0.098	0.1	0	-0	0	0	0	0	0	-0	0	0.05595	0	0	0	-0	0	0	0	0	0	-0	0	573.096	559.321	323.372	177.346	0.270957	-2.13605	0.013671	-0.00683314	4.40582
44	-0.0655371	0.0330718	0.0123638	0.0296321	-0.0132216	0.034466	0.0244456	-0.0299689	0.00222372	0.0400021	-0.0975516	-0.030401	0.0493628	-0.000264144	0.0230695	-2.21975	-0.00454939	-1.56228	0	0	0	0	-0	0	0	0	-0.1265	0	-0	0	0	0	0	0	-0	0	0.105	0.015	0	0	-0	0	0	0.098	0.1	0	-0	0	0	0	0	0	-0	0	0.05595	0	0	0	-0	0	0	0	0	0	-0	0	573.112	559.4	323.237	177.251	0.27208	-2.13642	0.0134234	-0.00688531	4.40244
45	-0.0834811	0.0330629	0.0123615	0.0296329	-0.0132202	0.0344644	0.0244475	-0.0299757	0.0022336	0.0183925	-0.0833223	-0.0106041	0.0497666	-0.00026498	0.0221918	-2.23738	-0.00399628	-1.56182	0	0	0	0	-0	0	0	0	-0.1265	0	-0	0	0	0	0	0	-0	0	0.105	0.015	0	0	-0	0	0	0.098	0.1	0	-0	0	0	0	0	0	-0	0	0.05595	0	0	0	-0	0	0	0	0	0	-0	0	573.157	559.563	322.924	177.047	0.27346	-2.1364	0.013011	-0.00701045	4.39875
46	-0.0825802	0.0330505	0.0123577	0.0296341	-0.0132159	0.0344586	0.0244469	-0.0299674	0.00222904	0.00101879	-0.0575287	-0.00321874	0.0497341	-0.000265693	0.0222376	-2.23631	-0.00378508	-1.56162	0	0	0	0	-0	0	0	0	-0.1265	0	-0	0	0	0	0	0	-0	0	0.105	0.015	0	0	-0	0	0	0.098	0.1	0	-0	0	0	0	0	0	-0	0	0.05595	0	0	0	-0	0	0	0	0	0	-0	0	573.169	559.651	322.759	176.944	0.27494	-2.13812	0.0127178	-0.00707525	4.39794
47	-0.0874514	0.0330442	0.0123578	0.0296316	-0.0132143	0.034456	0.024445	-0.0299677	0.00222409	-0.00270065	-0.0561779	-0.00589816	0.0498398	-0.000266078	0.0219977	-2.24106	-0.00357358	-1.56145	0	0	0	0	-0	0	0	0	-0.1265	0	-0	0	0	0	0	0	-0	0	0.105	0.015	0	0	-0	0	0	0.098	0.1	0	-0	0	0	0	0	0	-0	0	0.05595	0	0	0	-0	0	0	0	0	0	-0	0	573.177	559.721	322.629	176.867	0.275943	-2.13903	0.0124964	-0.00712413	4.39705
48	-0.0839396	0.0330404	0.0123579	0.0296309	-0.013213	0.0344544	0.0244456	-0.0299675	0.00222445	-0.00368076	-0.0624442	-0.0079049	0.0497603	-0.00026632	0.0221742	-2.23749	-0.00353511	-1.5614	0	0	0	0	-0	0	0	0	-0.1265	0	-0	0	0	0	0	0	-0	0	0.105	0.015	0	0	-0	0	0	0.098	0.1	0	-0	0	0	0	0	0	-0	0	0.05595	0	0	0	-0	0	0	0	0	0	-0	0	573.179	559.75	322.575	176.835	0.276577	-2.14004	0.0123899	-0.0071447	4.39724
49	-0.0810001	0.0330362	0.0123566	0.0296322	-0.0132126	0.0344533	0.0244455	-0.0299682	0.0022245	0.00270498	-0.0592225	-0.0105868	0.0496931	-0.00026652	0.0223222	-2.23443	-0.00338723	-1.56125	0	0	0	0	-0	0	0	0	-0.1265	0	-0	0	0	0	0	0	-0	0	0.105	0.015	0	0	-0	0	0	0.098	0.1	0	-0	0	0	0	0	0	-0	0	0.05595	0	0	0	-0	0	0	0	0	0	-0	0	573.188	559.819	322.437	176.755	0.277367	-2.14096	0.0121924	-0.0071994	4.3977
50	-0.0809985	0.0330313	0.0123557	0.029632	-0.0132111	0.034451	0.0244456	-0.0299683	0.00222493	0.00872826	-0.0590027	-0.0176169	0.049691	-0.000266788	0.0223238	-2.23435	-0.00327426	-1.56114	0	0	0	0	-0	0	0	0	-0.1265	0	-0	0	0	0	0	0	-0	0	0.105	0.015	0	0	-0	0	0	0.098	0.1	0	-0	0	0	0	0	0	-0	0	0.05595	0	0	0	-0	0	0	0	0	0	-0	0	573.191	559.863	322.349	176.706	0.278124	-2.142	0.0120434	-0.00723343	4.39788
