Stefan210/kinematic_calibration/src/kinematic_calibration/validation/experiments/experiments/single_point_vs_pose/marker_pose/rarm_240/optimization_intermediate_results.csv
iteration	HeadPitch_offset	HeadYaw_offset	RElbowRoll_offset	RElbowYaw_offset	RShoulderPitch_offset	RShoulderRoll_offset	marker_transform_rarm_tx	marker_transform_rarm_ty	marker_transform_rarm_tz	marker_transform_rarm_rr	marker_transform_rarm_rp	marker_transform_rarm_ry	camera_transform_tx	camera_transform_ty	camera_transform_tz	camera_transform_rr	camera_transform_rp	camera_transform_ry	HeadPitch_transform_tx	HeadPitch_transform_ty	HeadPitch_transform_tz	HeadPitch_transform_rr	HeadPitch_transform_rp	HeadPitch_transform_ry	HeadYaw_transform_tx	HeadYaw_transform_ty	HeadYaw_transform_tz	HeadYaw_transform_rr	HeadYaw_transform_rp	HeadYaw_transform_ry	RElbowRoll_transform_tx	RElbowRoll_transform_ty	RElbowRoll_transform_tz	RElbowRoll_transform_rr	RElbowRoll_transform_rp	RElbowRoll_transform_ry	RElbowYaw_transform_tx	RElbowYaw_transform_ty	RElbowYaw_transform_tz	RElbowYaw_transform_rr	RElbowYaw_transform_rp	RElbowYaw_transform_ry	RShoulderPitch_transform_tx	RShoulderPitch_transform_ty	RShoulderPitch_transform_tz	RShoulderPitch_transform_rr	RShoulderPitch_transform_rp	RShoulderPitch_transform_ry	RShoulderRoll_transform_tx	RShoulderRoll_transform_ty	RShoulderRoll_transform_tz	RShoulderRoll_transform_rr	RShoulderRoll_transform_rp	RShoulderRoll_transform_ry	RWristYaw_transform_tx	RWristYaw_transform_ty	RWristYaw_transform_tz	RWristYaw_transform_rr	RWristYaw_transform_rp	RWristYaw_transform_ry	r_wrist_joint_transform_tx	r_wrist_joint_transform_ty	r_wrist_joint_transform_tz	r_wrist_joint_transform_rr	r_wrist_joint_transform_rp	r_wrist_joint_transform_ry	camera_fx	camera_fy	camera_cx	camera_cy	camera_D0	camera_D1	camera_D2	camera_D3	camera_D4	
0	0.0230449	0.0294606	-0.0013508	-0.00116347	0.000678263	0.00258603	0.05071	0	0.01774	-2.26369	1.66533e-16	-1.5708	545.901	551.038	324.928	201.58	0.0255298	2.61142	-0.0636736	-0.0350419	0.213964
1	-0.0133608	-0.0280388	-0.0131772	-0.0188507	-0.0140286	-0.0410468	0.0256399	0.0364683	-0.00143912	-0.596349	0.267764	0.172294	0.0522566	0.00151017	0.0234927	-2.2112	0.00776403	-1.54556	0	0	0	0	-0	0	0	0	-0.1265	0	-0	0	0	0	0	0	-0	0	0.105	-0.015	0	0	-0	0	0	-0.098	0.1	0	-0	0	0	0	0	0	-0	0	0.05595	0	0	0	-0	0	0	0	0	0	-0	0	545.902	551.039	324.931	201.582	-0.0827567	2.55225	-0.0805435	-0.0659102	0.195893
2	-0.00851524	-0.0516823	-0.034325	0.0125168	-0.0289272	-0.0353187	0.0226315	0.0295054	0.000260109	-0.856281	0.279884	0.0461509	0.0500516	0.00249894	0.0299241	-2.23158	0.0270728	-1.53758	0	0	0	0	-0	0	0	0	-0.1265	0	-0	0	0	0	0	0	-0	0	0.105	-0.015	0	0	-0	0	0	-0.098	0.1	0	-0	0	0	0	0	0	-0	0	0.05595	0	0	0	-0	0	0	0	0	0	-0	0	545.905	551.039	324.937	201.589	-0.212548	2.40475	0.0399038	-0.023837	0.131249
3	-0.0135228	-0.0309652	-0.0308194	0.00567827	-0.0140871	-0.0442542	0.0233816	0.0274164	-0.000196801	-1.04771	0.249177	0.00458354	0.0531748	0.00161646	0.0225156	-2.21002	0.01379	-1.55172	0	0	0	0	-0	0	0	0	-0.1265	0	-0	0	0	0	0	0	-0	0	0.105	-0.015	0	0	-0	0	0	-0.098	0.1	0	-0	0	0	0	0	0	-0	0	0.05595	0	0	0	-0	0	0	0	0	0	-0	0	545.912	551.039	324.948	201.597	-0.570152	2.10641	-0.0196912	0.00281682	0.0184132
4	-0.0138719	-0.0276558	-0.0272081	0.00134137	-0.0104496	-0.0498759	0.0235044	0.0280302	-0.00022716	-1.20135	0.186999	0.0657883	0.055144	5.27423e-06	0.0183927	-2.20759	0.0128134	-1.55034	0	0	0	0	-0	0	0	0	-0.1265	0	-0	0	0	0	0	0	-0	0	0.105	-0.015	0	0	-0	0	0	-0.098	0.1	0	-0	0	0	0	0	0	-0	0	0.05595	0	0	0	-0	0	0	0	0	0	-0	0	545.92	551.039	324.958	201.608	-0.825194	1.7118	0.0334556	0.0302368	-0.172284
5	-0.0148854	-0.0180499	-0.0159368	-0.00179458	-0.00441253	-0.0541027	0.0230817	0.0294458	0.000163738	-1.43398	0.134949	0.186246	0.0560694	-0.00200463	0.0151928	-2.20281	0.0105622	-1.5501	0	0	0	0	-0	0	0	0	-0.1265	0	-0	0	0	0	0	0	-0	0	0.105	-0.015	0	0	-0	0	0	-0.098	0.1	0	-0	0	0	0	0	0	-0	0	0.05595	0	0	0	-0	0	0	0	0	0	-0	0	545.934	551.035	324.967	201.617	-0.7167	1.23013	0.0219217	0.0243848	-0.465385
6	-0.0144765	-0.0192241	-0.000464457	-0.00272236	-0.011063	-0.0460162	0.0221268	0.0296325	0.000193278	-1.68452	0.137667	0.261937	0.0543242	-0.0028378	0.0169873	-2.20489	0.0133581	-1.54153	0	0	0	0	-0	0	0	0	-0.1265	0	-0	0	0	0	0	0	-0	0	0.105	-0.015	0	0	-0	0	0	-0.098	0.1	0	-0	0	0	0	0	0	-0	0	0.05595	0	0	0	-0	0	0	0	0	0	-0	0	545.952	551.026	324.97	201.62	-0.369136	0.869832	0.00651225	0.00402577	-0.725875
7	-0.0143298	-0.0203034	0.00434858	0.00112386	-0.0142903	-0.0418375	0.0217934	0.0286566	-0.00048184	-1.70312	0.151803	0.23138	0.0533915	-0.00316734	0.0179419	-2.20567	0.0158293	-1.53761	0	0	0	0	-0	0	0	0	-0.1265	0	-0	0	0	0	0	0	-0	0	0.105	-0.015	0	0	-0	0	0	-0.098	0.1	0	-0	0	0	0	0	0	-0	0	0.05595	0	0	0	-0	0	0	0	0	0	-0	0	545.981	551.01	324.973	201.62	-0.172501	0.618509	0.000385095	-0.0080556	-0.858159
8	-0.0143259	-0.0201106	0.00472305	0.00175981	-0.0142591	-0.0418283	0.0217963	0.0286204	-0.000529143	-1.70509	0.152926	0.227504	0.0530528	-0.00316657	0.0183059	-2.20582	0.0155718	-1.53782	0	0	0	0	-0	0	0	0	-0.1265	0	-0	0	0	0	0	0	-0	0	0.105	-0.015	0	0	-0	0	0	-0.098	0.1	0	-0	0	0	0	0	0	-0	0	0.05595	0	0	0	-0	0	0	0	0	0	-0	0	546.057	550.967	324.986	201.619	-0.0930772	0.460897	-0.00391635	-0.0110957	-0.801865
9	-0.0142908	-0.0200327	0.0048139	0.00180457	-0.0142801	-0.0418484	0.0217921	0.0286117	-0.000532062	-1.70495	0.153073	0.226441	0.0528567	-0.00315066	0.0185212	-2.20605	0.0153211	-1.53812	0	0	0	0	-0	0	0	0	-0.1265	0	-0	0	0	0	0	0	-0	0	0.105	-0.015	0	0	-0	0	0	-0.098	0.1	0	-0	0	0	0	0	0	-0	0	0.05595	0	0	0	-0	0	0	0	0	0	-0	0	546.266	550.846	325.023	201.616	-0.0487199	0.271233	-0.00466439	-0.0117228	-0.547105
10	-0.0140707	-0.0199196	0.00490809	0.00179469	-0.0143101	-0.0418759	0.0217847	0.0286051	-0.000534824	-1.70421	0.153123	0.225659	0.0525931	-0.00312882	0.018807	-2.20614	0.0149049	-1.53865	0	0	0	0	-0	0	0	0	-0.1265	0	-0	0	0	0	0	0	-0	0	0.105	-0.015	0	0	-0	0	0	-0.098	0.1	0	-0	0	0	0	0	0	-0	0	0.05595	0	0	0	-0	0	0	0	0	0	-0	0	546.803	550.532	325.113	201.604	0.0039752	0.00116214	-0.00456941	-0.0122045	-0.144405
11	-0.013807	-0.0198252	0.00497979	0.00180862	-0.014364	-0.0417931	0.0217699	0.0286015	-0.000542872	-1.7029	0.153137	0.225479	0.0523172	-0.00310138	0.0190916	-2.20603	0.0143483	-1.53932	0	0	0	0	-0	0	0	0	-0.1265	0	-0	0	0	0	0	0	-0	0	0.105	-0.015	0	0	-0	0	0	-0.098	0.1	0	-0	0	0	0	0	0	-0	0	0.05595	0	0	0	-0	0	0	0	0	0	-0	0	547.965	549.888	325.309	201.587	0.0375125	-0.194674	-0.00311298	-0.0127125	0.161456
12	-0.0125904	-0.0197764	0.00501017	0.00185783	-0.0144251	-0.0415805	0.0217494	0.0286028	-0.000556399	-1.70125	0.153115	0.226147	0.0520817	-0.00307515	0.019346	-2.20484	0.0136237	-1.5401	0	0	0	0	-0	0	0	0	-0.1265	0	-0	0	0	0	0	0	-0	0	0.105	-0.015	0	0	-0	0	0	-0.098	0.1	0	-0	0	0	0	0	0	-0	0	0.05595	0	0	0	-0	0	0	0	0	0	-0	0	549.788	549.192	325.677	201.627	0.0305727	-0.204072	-0.00023513	-0.0130629	0.197072
13	-0.0172751	-0.0197508	0.00502926	0.00189528	-0.0144706	-0.0414006	0.0217343	0.0286043	-0.000566181	-1.70008	0.153104	0.226762	0.0519923	-0.00305021	0.0192725	-2.2102	0.0127264	-1.54135	0	0	0	0	-0	0	0	0	-0.1265	0	-0	0	0	0	0	0	-0	0	0.105	-0.015	0	0	-0	0	0	-0.098	0.1	0	-0	0	0	0	0	0	-0	0	0.05595	0	0	0	-0	0	0	0	0	0	-0	0	551.784	549.612	326.371	201.898	0.00922818	-0.131656	0.00194245	-0.0129779	0.107072
14	0.0030289	-0.0197617	0.00506318	0.00189579	-0.0145334	-0.0413063	0.0217276	0.0286019	-0.000568151	-1.69981	0.153132	0.226676	0.0513801	-0.0030188	0.0205831	-2.19228	0.00980997	-1.54371	0	0	0	0	-0	0	0	0	-0.1265	0	-0	0	0	0	0	0	-0	0	0.105	-0.015	0	0	-0	0	0	-0.098	0.1	0	-0	0	0	0	0	0	-0	0	0.05595	0	0	0	-0	0	0	0	0	0	-0	0	554.171	552.194	328.119	202.762	-0.0114561	-0.0433572	0.00246416	-0.0120825	-0.0113532
15	-0.0291317	-0.0198152	0.00509483	0.00187356	-0.0146199	-0.0412388	0.021724	0.0285983	-0.000566937	-1.69991	0.153137	0.226356	0.0518281	-0.00299204	0.0191521	-2.22742	0.00764579	-1.54746	0	0	0	0	-0	0	0	0	-0.1265	0	-0	0	0	0	0	0	-0	0	0.105	-0.015	0	0	-0	0	0	-0.098	0.1	0	-0	0	0	0	0	0	-0	0	0.05595	0	0	0	-0	0	0	0	0	0	-0	0	556.261	555.033	330.539	203.949	-0.0289412	0.0422933	0.00247876	-0.0108267	-0.134958
16	-0.0517846	-0.0199118	0.00511908	0.00182878	-0.0147332	-0.041167	0.0217206	0.0285952	-0.000564199	-1.70003	0.153097	0.226131	0.0520845	-0.00297096	0.0181736	-2.25337	0.00412015	-1.55176	0	0	0	0	-0	0	0	0	-0.1265	0	-0	0	0	0	0	0	-0	0	0.105	-0.015	0	0	-0	0	0	-0.098	0.1	0	-0	0	0	0	0	0	-0	0	0.05595	0	0	0	-0	0	0	0	0	0	-0	0	558.041	557.61	333.712	205.372	-0.045231	0.130183	0.00252628	-0.00924599	-0.271536
17	-0.0326869	-0.020005	0.00512664	0.00178046	-0.0148303	-0.0411113	0.0217183	0.0285938	-0.000561449	-1.70009	0.153023	0.226094	0.0516421	-0.0029594	0.0192837	-2.23669	0.000316898	-1.55514	0	0	0	0	-0	0	0	0	-0.1265	0	-0	0	0	0	0	0	-0	0	0.105	-0.015	0	0	-0	0	0	-0.098	0.1	0	-0	0	0	0	0	0	-0	0	0.05595	0	0	0	-0	0	0	0	0	0	-0	0	559.114	559.21	336.449	206.482	-0.0572449	0.199514	0.00268406	-0.00787737	-0.387448
18	-0.0337437	-0.0201566	0.00512863	0.00170913	-0.0149748	-0.0410393	0.0217153	0.0285935	-0.000557275	-1.70011	0.152903	0.226212	0.0515707	-0.00295136	0.0193314	-2.24063	-0.00502713	-1.56075	0	0	0	0	-0	0	0	0	-0.1265	0	-0	0	0	0	0	0	-0	0	0.105	-0.015	0	0	-0	0	0	-0.098	0.1	0	-0	0	0	0	0	0	-0	0	0.05595	0	0	0	-0	0	0	0	0	0	-0	0	560.131	560.918	340.865	207.865	-0.0702696	0.282622	0.00281258	-0.00572976	-0.535394
19	-0.0236191	-0.0202079	0.00511975	0.00167632	-0.0150225	-0.0410161	0.0217143	0.0285942	-0.000555856	-1.70011	0.15283	0.226359	0.051365	-0.00294903	0.0198693	-2.23128	-0.00642909	-1.56218	0	0	0	0	-0	0	0	0	-0.1265	0	-0	0	0	0	0	0	-0	0	0.105	-0.015	0	0	-0	0	0	-0.098	0.1	0	-0	0	0	0	0	0	-0	0	0.05595	0	0	0	-0	0	0	0	0	0	-0	0	560.389	561.234	341.954	208.257	-0.0763425	0.313787	0.00315883	-0.00509276	-0.590738
20	-0.0333565	-0.0202243	0.00511727	0.00166724	-0.0150379	-0.041008	0.0217139	0.0285945	-0.000555469	-1.70011	0.152809	0.226417	0.0515515	-0.00294834	0.0193739	-2.2413	-0.00681705	-1.56263	0	0	0	0	-0	0	0	0	-0.1265	0	-0	0	0	0	0	0	-0	0	0.105	-0.015	0	0	-0	0	0	-0.098	0.1	0	-0	0	0	0	0	0	-0	0	0.05595	0	0	0	-0	0	0	0	0	0	-0	0	560.473	561.347	342.354	208.405	-0.0781678	0.323124	0.00326846	-0.00487312	-0.607121
21	-0.0207871	-0.0202653	0.0051162	0.00164887	-0.0150741	-0.040991	0.0217132	0.0285947	-0.000554404	-1.7001	0.152777	0.22648	0.0512945	-0.00294778	0.0200368	-2.22944	-0.00827021	-1.56412	0	0	0	0	-0	0	0	0	-0.1265	0	-0	0	0	0	0	0	-0	0	0.105	-0.015	0	0	-0	0	0	-0.098	0.1	0	-0	0	0	0	0	0	-0	0	0.05595	0	0	0	-0	0	0	0	0	0	-0	0	560.647	561.649	343.475	208.767	-0.0808125	0.34241	0.0033323	-0.00433152	-0.64483
22	-0.00671148	-0.0203176	0.00511282	0.00162411	-0.0151206	-0.0409703	0.0217124	0.0285951	-0.000553052	-1.70009	0.15273	0.226576	0.0509975	-0.00294729	0.0207729	-2.21614	-0.0100075	-1.56602	0	0	0	0	-0	0	0	0	-0.1265	0	-0	0	0	0	0	0	-0	0	0.105	-0.015	0	0	-0	0	0	-0.098	0.1	0	-0	0	0	0	0	0	-0	0	0.05595	0	0	0	-0	0	0	0	0	0	-0	0	560.839	561.985	344.868	209.171	-0.084314	0.366207	0.0034425	-0.0036377	-0.691051
23	0.00117492	-0.0203449	0.00510882	0.00160973	-0.015145	-0.0409594	0.0217119	0.0285955	-0.000552394	-1.70008	0.152698	0.226654	0.0508255	-0.00294693	0.0211777	-2.20863	-0.0107719	-1.56692	0	0	0	0	-0	0	0	0	-0.1265	0	-0	0	0	0	0	0	-0	0	0.105	-0.015	0	0	-0	0	0	-0.098	0.1	0	-0	0	0	0	0	0	-0	0	0.05595	0	0	0	-0	0	0	0	0	0	-0	0	560.926	562.112	345.503	209.368	-0.0865457	0.378205	0.0035838	-0.00329582	-0.713034
24	-0.00070242	-0.0203485	0.00510722	0.00160651	-0.0151483	-0.0409585	0.0217119	0.0285957	-0.000552269	-1.70008	0.15269	0.226679	0.0508643	-0.00294673	0.0210814	-2.21053	-0.010805	-1.56696	0	0	0	0	-0	0	0	0	-0.1265	0	-0	0	0	0	0	0	-0	0	0.105	-0.015	0	0	-0	0	0	-0.098	0.1	0	-0	0	0	0	0	0	-0	0	0.05595	0	0	0	-0	0	0	0	0	0	-0	0	560.934	562.117	345.541	209.381	-0.0870428	0.379455	0.00363286	-0.00325876	-0.714304
25	0.00329369	-0.0203534	0.00510697	0.00160413	-0.0151526	-0.0409561	0.0217117	0.0285957	-0.000552151	-1.70007	0.152686	0.226693	0.0507789	-0.00294669	0.0212859	-2.20661	-0.0109756	-1.56717	0	0	0	0	-0	0	0	0	-0.1265	0	-0	0	0	0	0	0	-0	0	0.105	-0.015	0	0	-0	0	0	-0.098	0.1	0	-0	0	0	0	0	0	-0	0	0.05595	0	0	0	-0	0	0	0	0	0	-0	0	560.953	562.143	345.674	209.425	-0.087413	0.381979	0.00365266	-0.00319351	-0.71933
26	-0.00557254	-0.0203672	0.00510627	0.00159789	-0.0151646	-0.0409507	0.0217115	0.0285958	-0.0005518	-1.70007	0.152674	0.226718	0.050965	-0.00294674	0.0208387	-2.2157	-0.0113795	-1.56755	0	0	0	0	-0	0	0	0	-0.1265	0	-0	0	0	0	0	0	-0	0	0.105	-0.015	0	0	-0	0	0	-0.098	0.1	0	-0	0	0	0	0	0	-0	0	0.05595	0	0	0	-0	0	0	0	0	0	-0	0	560.996	562.219	346.048	209.539	-0.0881927	0.387977	0.00368018	-0.00301124	-0.731648
27	-0.0116753	-0.0203751	0.00510516	0.00159396	-0.0151716	-0.0409476	0.0217114	0.028596	-0.000551619	-1.70007	0.152666	0.22674	0.0510895	-0.00294667	0.0205281	-2.22191	-0.0115742	-1.56771	0	0	0	0	-0	0	0	0	-0.1265	0	-0	0	0	0	0	0	-0	0	0.105	-0.015	0	0	-0	0	0	-0.098	0.1	0	-0	0	0	0	0	0	-0	0	0.05595	0	0	0	-0	0	0	0	0	0	-0	0	561.019	562.254	346.23	209.596	-0.0887798	0.391147	0.00371962	-0.00291405	-0.737498
28	-0.0226685	-0.0204006	0.00510399	0.00158235	-0.0151938	-0.0409383	0.021711	0.0285961	-0.000550945	-1.70006	0.152645	0.226785	0.0513105	-0.00294689	0.0199718	-2.23326	-0.0123859	-1.56848	0	0	0	0	-0	0	0	0	-0.1265	0	-0	0	0	0	0	0	-0	0	0.105	-0.015	0	0	-0	0	0	-0.098	0.1	0	-0	0	0	0	0	0	-0	0	0.05595	0	0	0	-0	0	0	0	0	0	-0	0	561.093	562.395	346.94	209.79	-0.0901357	0.402149	0.00375053	-0.002569	-0.760437
29	-0.0211031	-0.0204335	0.00510141	0.00156685	-0.0152228	-0.0409262	0.0217105	0.0285965	-0.000550128	-1.70004	0.152615	0.226855	0.0512722	-0.00294694	0.0200576	-2.23211	-0.0134312	-1.56957	0	0	0	0	-0	0	0	0	-0.1265	0	-0	0	0	0	0	0	-0	0	0.105	-0.015	0	0	-0	0	0	-0.098	0.1	0	-0	0	0	0	0	0	-0	0	0.05595	0	0	0	-0	0	0	0	0	0	-0	0	561.19	562.563	347.806	210.013	-0.0922054	0.416428	0.00382782	-0.00213275	-0.78908
30	-0.0321318	-0.0204894	0.00509753	0.00153992	-0.0152724	-0.0409069	0.0217098	0.028597	-0.000548655	-1.70002	0.152565	0.226973	0.0514869	-0.00294731	0.019503	-2.24376	-0.015287	-1.57135	0	0	0	0	-0	0	0	0	-0.1265	0	-0	0	0	0	0	0	-0	0	0.105	-0.015	0	0	-0	0	0	-0.098	0.1	0	-0	0	0	0	0	0	-0	0	0.05595	0	0	0	-0	0	0	0	0	0	-0	0	561.343	562.847	349.356	210.341	-0.0954821	0.440796	0.00390088	-0.00135997	-0.839195
31	-0.0414461	-0.0205032	0.00509325	0.00153187	-0.0152851	-0.0409015	0.0217094	0.0285975	-0.000548444	-1.70002	0.152544	0.22704	0.0516666	-0.0029469	0.0190221	-2.25322	-0.0155323	-1.57144	0	0	0	0	-0	0	0	0	-0.1265	0	-0	0	0	0	0	0	-0	0	0.105	-0.015	0	0	-0	0	0	-0.098	0.1	0	-0	0	0	0	0	0	-0	0	0.05595	0	0	0	-0	0	0	0	0	0	-0	0	561.379	562.86	349.55	210.423	-0.0970419	0.445615	0.00407536	-0.00122222	-0.845761
32	-0.0429452	-0.0205037	0.00509256	0.00153114	-0.0152857	-0.0409015	0.0217094	0.0285976	-0.000548419	-1.70002	0.152541	0.227053	0.051693	-0.00294682	0.0189437	-2.25473	-0.0155411	-1.57142	0	0	0	0	-0	0	0	0	-0.1265	0	-0	0	0	0	0	0	-0	0	0.105	-0.015	0	0	-0	0	0	-0.098	0.1	0	-0	0	0	0	0	0	-0	0	0.05595	0	0	0	-0	0	0	0	0	0	-0	0	561.381	562.86	349.556	210.425	-0.0971838	0.445828	0.0040925	-0.00121265	-0.845778
33	-0.0431792	-0.0205044	0.00509247	0.00153048	-0.0152863	-0.040901	0.0217094	0.0285976	-0.000548389	-1.70002	0.15254	0.227057	0.0516972	-0.00294678	0.0189318	-2.25498	-0.0155657	-1.57145	0	0	0	0	-0	0	0	0	-0.1265	0	-0	0	0	0	0	0	-0	0	0.105	-0.015	0	0	-0	0	0	-0.098	0.1	0	-0	0	0	0	0	0	-0	0	0.05595	0	0	0	-0	0	0	0	0	0	-0	0	561.384	562.861	349.576	210.433	-0.0972448	0.446154	0.00410114	-0.00120233	-0.846444
34	-0.0433464	-0.0205056	0.00509233	0.00152987	-0.0152874	-0.0409004	0.0217094	0.0285976	-0.000548363	-1.70001	0.152538	0.227061	0.0517003	-0.00294678	0.0189232	-2.25517	-0.0156017	-1.57148	0	0	0	0	-0	0	0	0	-0.1265	0	-0	0	0	0	0	0	-0	0	0.105	-0.015	0	0	-0	0	0	-0.098	0.1	0	-0	0	0	0	0	0	-0	0	0.05595	0	0	0	-0	0	0	0	0	0	-0	0	561.387	562.864	349.606	210.446	-0.0973345	0.446717	0.00410994	-0.0011873	-0.847598
35	-0.0390609	-0.0205075	0.00509215	0.00152898	-0.0152889	-0.0408996	0.0217093	0.0285977	-0.000548318	-1.70001	0.152537	0.227066	0.0516192	-0.00294682	0.0191449	-2.25091	-0.015654	-1.5716	0	0	0	0	-0	0	0	0	-0.1265	0	-0	0	0	0	0	0	-0	0	0.105	-0.015	0	0	-0	0	0	-0.098	0.1	0	-0	0	0	0	0	0	-0	0	0.05595	0	0	0	-0	0	0	0	0	0	-0	0	561.392	562.87	349.652	210.464	-0.0974332	0.447416	0.00411984	-0.00116425	-0.849093
36	-0.0361504	-0.0205085	0.00509197	0.0015285	-0.0152898	-0.0408992	0.0217093	0.0285977	-0.000548296	-1.70001	0.152536	0.227069	0.051563	-0.00294682	0.019295	-2.24802	-0.0156787	-1.57168	0	0	0	0	-0	0	0	0	-0.1265	0	-0	0	0	0	0	0	-0	0	0.105	-0.015	0	0	-0	0	0	-0.098	0.1	0	-0	0	0	0	0	0	-0	0	0.05595	0	0	0	-0	0	0	0	0	0	-0	0	561.394	562.873	349.674	210.474	-0.0975034	0.447804	0.00412689	-0.00115192	-0.849856
37	-0.0355203	-0.0205107	0.00509182	0.0015275	-0.0152916	-0.0408984	0.0217093	0.0285977	-0.000548239	-1.70001	0.152534	0.227073	0.0515506	-0.00294687	0.0193276	-2.24743	-0.0157453	-1.57176	0	0	0	0	-0	0	0	0	-0.1265	0	-0	0	0	0	0	0	-0	0	0.105	-0.015	0	0	-0	0	0	-0.098	0.1	0	-0	0	0	0	0	0	-0	0	0.05595	0	0	0	-0	0	0	0	0	0	-0	0	561.399	562.882	349.73	210.496	-0.0976259	0.448793	0.00413481	-0.00112424	-0.851998
38	-0.0353226	-0.0205158	0.00509148	0.00152524	-0.0152958	-0.0408966	0.0217092	0.0285977	-0.00054811	-1.70001	0.15253	0.227082	0.0515464	-0.00294696	0.0193384	-2.24732	-0.0158998	-1.57192	0	0	0	0	-0	0	0	0	-0.1265	0	-0	0	0	0	0	0	-0	0	0.105	-0.015	0	0	-0	0	0	-0.098	0.1	0	-0	0	0	0	0	0	-0	0	0.05595	0	0	0	-0	0	0	0	0	0	-0	0	561.411	562.903	349.859	210.545	-0.0978614	0.450754	0.00415073	-0.0010606	-0.856297
39	-0.0319559	-0.0205176	0.00509104	0.00152419	-0.0152974	-0.0408959	0.0217091	0.0285978	-0.000548066	-1.70001	0.152527	0.227089	0.0514814	-0.00294694	0.0195119	-2.24398	-0.0159372	-1.57201	0	0	0	0	-0	0	0	0	-0.1265	0	-0	0	0	0	0	0	-0	0	0.105	-0.015	0	0	-0	0	0	-0.098	0.1	0	-0	0	0	0	0	0	-0	0	0.05595	0	0	0	-0	0	0	0	0	0	-0	0	561.415	562.907	349.893	210.558	-0.0980275	0.451488	0.0041665	-0.00103986	-0.857582
40	-0.0295434	-0.0205203	0.00509088	0.00152301	-0.0152997	-0.0408948	0.0217091	0.0285978	-0.000548004	-1.70001	0.152525	0.227095	0.0514337	-0.00294696	0.0196365	-2.24161	-0.016017	-1.57214	0	0	0	0	-0	0	0	0	-0.1265	0	-0	0	0	0	0	0	-0	0	0.105	-0.015	0	0	-0	0	0	-0.098	0.1	0	-0	0	0	0	0	0	-0	0	0.05595	0	0	0	-0	0	0	0	0	0	-0	0	561.423	562.918	349.963	210.585	-0.0981571	0.452484	0.00417762	-0.00100542	-0.859749
41	-0.031897	-0.0205223	0.00509061	0.00152197	-0.0153015	-0.0408941	0.0217091	0.0285978	-0.000547951	-1.70001	0.152523	0.2271	0.0514797	-0.00294696	0.0195156	-2.244	-0.0160766	-1.57216	0	0	0	0	-0	0	0	0	-0.1265	0	-0	0	0	0	0	0	-0	0	0.105	-0.015	0	0	-0	0	0	-0.098	0.1	0	-0	0	0	0	0	0	-0	0	0.05595	0	0	0	-0	0	0	0	0	0	-0	0	561.428	562.926	350.01	210.603	-0.0982893	0.453296	0.00418868	-0.0009804	-0.861388
42	-0.0366497	-0.0205251	0.00509037	0.00152068	-0.0153038	-0.040893	0.021709	0.0285979	-0.000547882	-1.70001	0.15252	0.227106	0.0515723	-0.00294702	0.019271	-2.2488	-0.0161651	-1.57217	0	0	0	0	-0	0	0	0	-0.1265	0	-0	0	0	0	0	0	-0	0	0.105	-0.015	0	0	-0	0	0	-0.098	0.1	0	-0	0	0	0	0	0	-0	0	0.05595	0	0	0	-0	0	0	0	0	0	-0	0	561.434	562.935	350.078	210.628	-0.0984205	0.454287	0.0042	-0.000945952	-0.86354
43	-0.0383377	-0.0205259	0.00509014	0.00152029	-0.0153045	-0.0408927	0.021709	0.0285979	-0.000547869	-1.70001	0.152519	0.22711	0.0516043	-0.002947	0.0191837	-2.25049	-0.0161843	-1.57216	0	0	0	0	-0	0	0	0	-0.1265	0	-0	0	0	0	0	0	-0	0	0.105	-0.015	0	0	-0	0	0	-0.098	0.1	0	-0	0	0	0	0	0	-0	0	0.05595	0	0	0	-0	0	0	0	0	0	-0	0	561.435	562.937	350.092	210.634	-0.0985075	0.454652	0.00420768	-0.000937097	-0.864155
44	-0.0334807	-0.0205274	0.00509005	0.00151952	-0.0153057	-0.0408922	0.021709	0.0285979	-0.000547826	-1.7	0.152518	0.227113	0.0515109	-0.00294702	0.0194346	-2.24566	-0.0162246	-1.57229	0	0	0	0	-0	0	0	0	-0.1265	0	-0	0	0	0	0	0	-0	0	0.105	-0.015	0	0	-0	0	0	-0.098	0.1	0	-0	0	0	0	0	0	-0	0	0.05595	0	0	0	-0	0	0	0	0	0	-0	0	561.44	562.943	350.131	210.648	-0.098584	0.45526	0.00421332	-0.000917715	-0.865479
45	-0.0344383	-0.0205296	0.00508985	0.00151859	-0.0153076	-0.0408913	0.0217089	0.0285979	-0.000547776	-1.7	0.152516	0.227117	0.0515288	-0.00294705	0.0193853	-2.24666	-0.0162941	-1.57234	0	0	0	0	-0	0	0	0	-0.1265	0	-0	0	0	0	0	0	-0	0	0.105	-0.015	0	0	-0	0	0	-0.098	0.1	0	-0	0	0	0	0	0	-0	0	0.05595	0	0	0	-0	0	0	0	0	0	-0	0	561.446	562.953	350.188	210.669	-0.0987339	0.456365	0.00422122	-0.000889095	-0.867791
46	-0.0287617	-0.0205353	0.00508952	0.00151598	-0.0153124	-0.0408893	0.0217089	0.028598	-0.000547628	-1.7	0.152511	0.227128	0.0514183	-0.00294714	0.0196786	-2.24107	-0.0164639	-1.57262	0	0	0	0	-0	0	0	0	-0.1265	0	-0	0	0	0	0	0	-0	0	0.105	-0.015	0	0	-0	0	0	-0.098	0.1	0	-0	0	0	0	0	0	-0	0	0.05595	0	0	0	-0	0	0	0	0	0	-0	0	561.461	562.978	350.337	210.719	-0.099014	0.458679	0.0042369	-0.000815454	-0.872841
47	-0.02371	-0.0205366	0.00508909	0.00151519	-0.0153137	-0.0408889	0.0217088	0.028598	-0.000547602	-1.7	0.152509	0.227134	0.0513181	-0.00294708	0.0199381	-2.23603	-0.0164778	-1.57273	0	0	0	0	-0	0	0	0	-0.1265	0	-0	0	0	0	0	0	-0	0	0.105	-0.015	0	0	-0	0	0	-0.098	0.1	0	-0	0	0	0	0	0	-0	0	0.05595	0	0	0	-0	0	0	0	0	0	-0	0	561.464	562.981	350.357	210.727	-0.0991438	0.459034	0.00425184	-0.000801256	-0.873272
48	-0.0269857	-0.0205382	0.005089	0.00151444	-0.015315	-0.0408882	0.0217088	0.028598	-0.000547565	-1.7	0.152507	0.227138	0.0513826	-0.00294709	0.01977	-2.23934	-0.0165324	-1.57272	0	0	0	0	-0	0	0	0	-0.1265	0	-0	0	0	0	0	0	-0	0	0.105	-0.015	0	0	-0	0	0	-0.098	0.1	0	-0	0	0	0	0	0	-0	0	0.05595	0	0	0	-0	0	0	0	0	0	-0	0	561.468	562.986	350.397	210.741	-0.0992252	0.45961	0.00425988	-0.000780881	-0.874514
49	-0.028649	-0.0205405	0.00508877	0.00151332	-0.015317	-0.0408873	0.0217088	0.0285981	-0.000547504	-1.7	0.152505	0.227143	0.0514151	-0.00294712	0.0196847	-2.24104	-0.0166058	-1.57277	0	0	0	0	-0	0	0	0	-0.1265	0	-0	0	0	0	0	0	-0	0	0.105	-0.015	0	0	-0	0	0	-0.098	0.1	0	-0	0	0	0	0	0	-0	0	0.05595	0	0	0	-0	0	0	0	0	0	-0	0	561.474	562.996	350.456	210.762	-0.0993737	0.460704	0.00426821	-0.000751176	-0.876817
50	-0.0301647	-0.0205411	0.00508858	0.00151291	-0.0153175	-0.0408872	0.0217087	0.0285981	-0.000547487	-1.7	0.152504	0.227146	0.0514449	-0.00294711	0.0196067	-2.24256	-0.0166209	-1.57276	0	0	0	0	-0	0	0	0	-0.1265	0	-0	0	0	0	0	0	-0	0	0.105	-0.015	0	0	-0	0	0	-0.098	0.1	0	-0	0	0	0	0	0	-0	0	0.05595	0	0	0	-0	0	0	0	0	0	-0	0	561.476	562.997	350.466	210.765	-0.0994384	0.460942	0.00427428	-0.000744405	-0.877184
51	-0.0305754	-0.0205419	0.00508852	0.00151257	-0.0153182	-0.0408868	0.0217087	0.0285981	-0.000547469	-1.7	0.152504	0.227148	0.0514529	-0.00294712	0.0195857	-2.24298	-0.0166466	-1.57277	0	0	0	0	-0	0	0	0	-0.1265	0	-0	0	0	0	0	0	-0	0	0.105	-0.015	0	0	-0	0	0	-0.098	0.1	0	-0	0	0	0	0	0	-0	0	0.05595	0	0	0	-0	0	0	0	0	0	-0	0	561.478	563	350.487	210.773	-0.0994881	0.46132	0.0042774	-0.000733998	-0.877996
52	-0.032626	-0.0205424	0.00508847	0.0015123	-0.0153186	-0.0408867	0.0217087	0.0285981	-0.000547456	-1.7	0.152503	0.227149	0.0514929	-0.00294711	0.0194803	-2.24504	-0.0166631	-1.57275	0	0	0	0	-0	0	0	0	-0.1265	0	-0	0	0	0	0	0	-0	0	0.105	-0.015	0	0	-0	0	0	-0.098	0.1	0	-0	0	0	0	0	0	-0	0	0.05595	0	0	0	-0	0	0	0	0	0	-0	0	561.479	563.002	350.497	210.777	-0.0995124	0.461434	0.00428046	-0.00072835	-0.878214
53	-0.0332249	-0.0205433	0.0050884	0.00151191	-0.0153194	-0.0408863	0.0217087	0.0285981	-0.000547435	-1.7	0.152502	0.227151	0.0515044	-0.00294712	0.0194495	-2.24566	-0.0166917	-1.57277	0	0	0	0	-0	0	0	0	-0.1265	0	-0	0	0	0	0	0	-0	0	0.105	-0.015	0	0	-0	0	0	-0.098	0.1	0	-0	0	0	0	0	0	-0	0	0.05595	0	0	0	-0	0	0	0	0	0	-0	0	561.482	563.006	350.52	210.785	-0.0995613	0.461813	0.00428368	-0.000716967	-0.879031
54	-0.0353845	-0.0205438	0.00508833	0.00151161	-0.0153198	-0.0408861	0.0217087	0.0285981	-0.000547421	-1.7	0.152502	0.227152	0.0515464	-0.00294711	0.0193384	-2.24782	-0.0167096	-1.57275	0	0	0	0	-0	0	0	0	-0.1265	0	-0	0	0	0	0	0	-0	0	0.105	-0.015	0	0	-0	0	0	-0.098	0.1	0	-0	0	0	0	0	0	-0	0	0.05595	0	0	0	-0	0	0	0	0	0	-0	0	561.483	563.008	350.531	210.789	-0.0995942	0.461979	0.00428684	-0.000710742	-0.879345
55	-0.0355996	-0.0205447	0.00508825	0.0015112	-0.0153206	-0.0408857	0.0217087	0.0285981	-0.000547401	-1.7	0.152501	0.227155	0.0515504	-0.00294713	0.0193273	-2.24805	-0.0167402	-1.57278	0	0	0	0	-0	0	0	0	-0.1265	0	-0	0	0	0	0	0	-0	0	0.105	-0.015	0	0	-0	0	0	-0.098	0.1	0	-0	0	0	0	0	0	-0	0	0.05595	0	0	0	-0	0	0	0	0	0	-0	0	561.486	563.011	350.556	210.797	-0.0996624	0.46248	0.00429095	-0.000698237	-0.880403
56	-0.0328744	-0.0205453	0.00508815	0.00151091	-0.0153211	-0.0408856	0.0217087	0.0285981	-0.000547386	-1.7	0.1525	0.227156	0.0514977	-0.00294713	0.0194678	-2.24534	-0.0167496	-1.57284	0	0	0	0	-0	0	0	0	-0.1265	0	-0	0	0	0	0	0	-0	0	0.105	-0.015	0	0	-0	0	0	-0.098	0.1	0	-0	0	0	0	0	0	-0	0	0.05595	0	0	0	-0	0	0	0	0	0	-0	0	561.487	563.013	350.569	210.802	-0.0996914	0.462637	0.00429395	-0.000691472	-0.880712
57	-0.0349788	-0.0205463	0.00508809	0.00151047	-0.015322	-0.0408851	0.0217087	0.0285981	-0.000547362	-1.7	0.1525	0.227158	0.0515384	-0.00294714	0.0193596	-2.24746	-0.0167869	-1.57284	0	0	0	0	-0	0	0	0	-0.1265	0	-0	0	0	0	0	0	-0	0	0.105	-0.015	0	0	-0	0	0	-0.098	0.1	0	-0	0	0	0	0	0	-0	0	0.05595	0	0	0	-0	0	0	0	0	0	-0	0	561.49	563.018	350.596	210.811	-0.0997481	0.463076	0.00429769	-0.000677828	-0.881663
58	-0.0360719	-0.0205466	0.00508802	0.00151027	-0.0153222	-0.0408851	0.0217087	0.0285981	-0.000547353	-1.7	0.152499	0.227159	0.0515594	-0.00294713	0.0193032	-2.24855	-0.0167936	-1.57282	0	0	0	0	-0	0	0	0	-0.1265	0	-0	0	0	0	0	0	-0	0	0.105	-0.015	0	0	-0	0	0	-0.098	0.1	0	-0	0	0	0	0	0	-0	0	0.05595	0	0	0	-0	0	0	0	0	0	-0	0	561.49	563.019	350.6	210.813	-0.0997711	0.46315	0.00429979	-0.000675187	-0.881759
59	-0.0357777	-0.0205469	0.00508799	0.00151015	-0.0153225	-0.040885	0.0217086	0.0285981	-0.000547346	-1.7	0.152499	0.22716	0.0515537	-0.00294714	0.0193184	-2.24826	-0.0168022	-1.57284	0	0	0	0	-0	0	0	0	-0.1265	0	-0	0	0	0	0	0	-0	0	0.105	-0.015	0	0	-0	0	0	-0.098	0.1	0	-0	0	0	0	0	0	-0	0	0.05595	0	0	0	-0	0	0	0	0	0	-0	0	561.491	563.02	350.607	210.815	-0.0997824	0.463244	0.00430065	-0.000671346	-0.88197
60	-0.0331961	-0.0205473	0.00508796	0.00150992	-0.0153229	-0.0408848	0.0217086	0.0285981	-0.000547335	-1.7	0.152498	0.227161	0.0515038	-0.00294713	0.0194516	-2.24569	-0.0168107	-1.57289	0	0	0	0	-0	0	0	0	-0.1265	0	-0	0	0	0	0	0	-0	0	0.105	-0.015	0	0	-0	0	0	-0.098	0.1	0	-0	0	0	0	0	0	-0	0	0.05595	0	0	0	-0	0	0	0	0	0	-0	0	561.493	563.021	350.619	210.819	-0.0998125	0.463442	0.00430311	-0.000665561	-0.882379
61	-0.0345385	-0.0205476	0.00508793	0.0015098	-0.0153231	-0.0408847	0.0217086	0.0285982	-0.000547329	-1.7	0.152498	0.227162	0.0515297	-0.00294713	0.0193824	-2.24704	-0.0168203	-1.57288	0	0	0	0	-0	0	0	0	-0.1265	0	-0	0	0	0	0	0	-0	0	0.105	-0.015	0	0	-0	0	0	-0.098	0.1	0	-0	0	0	0	0	0	-0	0	0.05595	0	0	0	-0	0	0	0	0	0	-0	0	561.493	563.022	350.624	210.821	-0.0998303	0.463547	0.00430441	-0.000662483	-0.882587
62	-0.0373399	-0.020548	0.00508789	0.00150957	-0.0153235	-0.0408845	0.0217086	0.0285982	-0.000547317	-1.7	0.152498	0.227163	0.0515839	-0.00294714	0.0192381	-2.24985	-0.0168413	-1.57285	0	0	0	0	-0	0	0	0	-0.1265	0	-0	0	0	0	0	0	-0	0	0.105	-0.015	0	0	-0	0	0	-0.098	0.1	0	-0	0	0	0	0	0	-0	0	0.05595	0	0	0	-0	0	0	0	0	0	-0	0	561.495	563.025	350.637	210.826	-0.099872	0.463847	0.00430633	-0.000656123	-0.883208
63	-0.0356652	-0.0205488	0.00508782	0.00150926	-0.0153241	-0.0408843	0.0217086	0.0285982	-0.0005473	-1.7	0.152497	0.227164	0.0515515	-0.00294716	0.0193244	-2.24818	-0.0168604	-1.5729	0	0	0	0	-0	0	0	0	-0.1265	0	-0	0	0	0	0	0	-0	0	0.105	-0.015	0	0	-0	0	0	-0.098	0.1	0	-0	0	0	0	0	0	-0	0	0.05595	0	0	0	-0	0	0	0	0	0	-0	0	561.496	563.027	350.656	210.832	-0.0998994	0.464073	0.00430888	-0.000646761	-0.883717
64	-0.0376579	-0.0205492	0.00508777	0.001509	-0.0153245	-0.0408841	0.0217086	0.0285982	-0.000547286	-1.7	0.152497	0.227165	0.0515899	-0.00294716	0.0192217	-2.25018	-0.0168757	-1.57288	0	0	0	0	-0	0	0	0	-0.1265	0	-0	0	0	0	0	0	-0	0	0.105	-0.015	0	0	-0	0	0	-0.098	0.1	0	-0	0	0	0	0	0	-0	0	0.05595	0	0	0	-0	0	0	0	0	0	-0	0	561.497	563.028	350.665	210.836	-0.0999233	0.464201	0.00431118	-0.000641692	-0.883967
65	-0.041513	-0.02055	0.00508772	0.00150869	-0.0153251	-0.0408839	0.0217086	0.0285982	-0.000547269	-1.7	0.152496	0.227167	0.0516638	-0.00294716	0.019023	-2.25405	-0.0169086	-1.57284	0	0	0	0	-0	0	0	0	-0.1265	0	-0	0	0	0	0	0	-0	0	0.105	-0.015	0	0	-0	0	0	-0.098	0.1	0	-0	0	0	0	0	0	-0	0	0.05595	0	0	0	-0	0	0	0	0	0	-0	0	561.499	563.033	350.686	210.843	-0.0999642	0.46454	0.00431304	-0.000631442	-0.884704
66	-0.0438818	-0.0205512	0.00508761	0.00150818	-0.0153262	-0.0408834	0.0217086	0.0285982	-0.000547244	-1.7	0.152495	0.227169	0.0517084	-0.00294718	0.0189006	-2.25644	-0.0169499	-1.57283	0	0	0	0	-0	0	0	0	-0.1265	0	-0	0	0	0	0	0	-0	0	0.105	-0.015	0	0	-0	0	0	-0.098	0.1	0	-0	0	0	0	0	0	-0	0	0.05595	0	0	0	-0	0	0	0	0	0	-0	0	561.503	563.037	350.716	210.853	-0.100044	0.465095	0.00431839	-0.000616228	-0.885857
67	-0.0465697	-0.0205518	0.00508753	0.00150777	-0.0153268	-0.0408832	0.0217086	0.0285982	-0.000547224	-1.7	0.152494	0.227171	0.051759	-0.00294716	0.0187617	-2.25913	-0.0169735	-1.57281	0	0	0	0	-0	0	0	0	-0.1265	0	-0	0	0	0	0	0	-0	0	0.105	-0.015	0	0	-0	0	0	-0.098	0.1	0	-0	0	0	0	0	0	-0	0	0.05595	0	0	0	-0	0	0	0	0	0	-0	0	561.505	563.04	350.73	210.858	-0.100085	0.465309	0.00432222	-0.000608091	-0.886274
68	-0.0482092	-0.0205523	0.00508746	0.00150756	-0.0153271	-0.040883	0.0217086	0.0285982	-0.000547213	-1.7	0.152494	0.227173	0.0517896	-0.00294717	0.0186768	-2.26078	-0.0169903	-1.57279	0	0	0	0	-0	0	0	0	-0.1265	0	-0	0	0	0	0	0	-0	0	0.105	-0.015	0	0	-0	0	0	-0.098	0.1	0	-0	0	0	0	0	0	-0	0	0.05595	0	0	0	-0	0	0	0	0	0	-0	0	561.506	563.042	350.742	210.862	-0.100121	0.465545	0.00432417	-0.000602242	-0.886751
69	-0.0490596	-0.0205532	0.0050874	0.00150712	-0.0153279	-0.0408826	0.0217085	0.0285982	-0.000547189	-1.7	0.152493	0.227175	0.0518053	-0.00294718	0.0186328	-2.26165	-0.0170219	-1.57281	0	0	0	0	-0	0	0	0	-0.1265	0	-0	0	0	0	0	0	-0	0	0.105	-0.015	0	0	-0	0	0	-0.098	0.1	0	-0	0	0	0	0	0	-0	0	0.05595	0	0	0	-0	0	0	0	0	0	-0	0	561.509	563.046	350.766	210.87	-0.100182	0.46601	0.00432715	-0.000590022	-0.887739
70	-0.0500101	-0.0205546	0.00508729	0.00150646	-0.0153291	-0.0408821	0.0217085	0.0285982	-0.000547156	-1.69999	0.152492	0.227178	0.0518229	-0.00294718	0.0185838	-2.26262	-0.0170673	-1.57283	0	0	0	0	-0	0	0	0	-0.1265	0	-0	0	0	0	0	0	-0	0	0.105	-0.015	0	0	-0	0	0	-0.098	0.1	0	-0	0	0	0	0	0	-0	0	0.05595	0	0	0	-0	0	0	0	0	0	-0	0	561.513	563.052	350.801	210.882	-0.100283	0.466711	0.00433296	-0.000571972	-0.889186
71	-0.0545873	-0.0205565	0.00508715	0.00150555	-0.0153308	-0.0408814	0.0217085	0.0285982	-0.000547104	-1.69999	0.15249	0.227181	0.0519077	-0.00294719	0.018347	-2.26723	-0.0171389	-1.57282	0	0	0	0	-0	0	0	0	-0.1265	0	-0	0	0	0	0	0	-0	0	0.105	-0.015	0	0	-0	0	0	-0.098	0.1	0	-0	0	0	0	0	0	-0	0	0.05595	0	0	0	-0	0	0	0	0	0	-0	0	561.519	563.061	350.852	210.898	-0.100367	0.467371	0.00433877	-0.000546326	-0.890633
72	-0.0561663	-0.0205593	0.00508689	0.00150434	-0.0153332	-0.0408804	0.0217084	0.0285983	-0.000547042	-1.69999	0.152487	0.227188	0.0519361	-0.00294725	0.018265	-2.26885	-0.0172295	-1.57288	0	0	0	0	-0	0	0	0	-0.1265	0	-0	0	0	0	0	0	-0	0	0.105	-0.015	0	0	-0	0	0	-0.098	0.1	0	-0	0	0	0	0	0	-0	0	0.05595	0	0	0	-0	0	0	0	0	0	-0	0	561.524	563.071	350.923	210.921	-0.100528	0.468546	0.00434905	-0.000510419	-0.893126
73	-0.0566408	-0.0205647	0.00508657	0.00150177	-0.0153379	-0.0408786	0.0217084	0.0285983	-0.000546899	-1.69999	0.152483	0.227198	0.0519442	-0.00294729	0.0182414	-2.2694	-0.0174102	-1.57304	0	0	0	0	-0	0	0	0	-0.1265	0	-0	0	0	0	0	0	-0	0	0.105	-0.015	0	0	-0	0	0	-0.098	0.1	0	-0	0	0	0	0	0	-0	0	0.05595	0	0	0	-0	0	0	0	0	0	-0	0	561.541	563.098	351.068	210.962	-0.100846	0.471016	0.00436152	-0.000437698	-0.898394
74	-0.0579912	-0.0205656	0.00508613	0.00150116	-0.0153387	-0.0408784	0.0217084	0.0285984	-0.000546883	-1.69999	0.152481	0.227203	0.0519689	-0.00294724	0.0181712	-2.27075	-0.0174195	-1.57303	0	0	0	0	-0	0	0	0	-0.1265	0	-0	0	0	0	0	0	-0	0	0.105	-0.015	0	0	-0	0	0	-0.098	0.1	0	-0	0	0	0	0	0	-0	0	0.05595	0	0	0	-0	0	0	0	0	0	-0	0	561.542	563.098	351.073	210.964	-0.100957	0.471196	0.00437458	-0.00043082	-0.898406
75	-0.0569642	-0.0205659	0.00508611	0.00150098	-0.015339	-0.0408781	0.0217083	0.0285984	-0.000546878	-1.69999	0.152481	0.227205	0.0519501	-0.00294723	0.0182246	-2.26973	-0.0174288	-1.57306	0	0	0	0	-0	0	0	0	-0.1265	0	-0	0	0	0	0	0	-0	0	0.105	-0.015	0	0	-0	0	0	-0.098	0.1	0	-0	0	0	0	0	0	-0	0	0.05595	0	0	0	-0	0	0	0	0	0	-0	0	561.544	563.098	351.083	210.968	-0.10099	0.471361	0.00437856	-0.00042597	-0.898732
76	-0.0592724	-0.0205664	0.00508608	0.00150072	-0.0153395	-0.0408779	0.0217083	0.0285984	-0.000546865	-1.69999	0.15248	0.227207	0.0519921	-0.00294722	0.0181048	-2.27205	-0.0174509	-1.57303	0	0	0	0	-0	0	0	0	-0.1265	0	-0	0	0	0	0	0	-0	0	0.105	-0.015	0	0	-0	0	0	-0.098	0.1	0	-0	0	0	0	0	0	-0	0	0.05595	0	0	0	-0	0	0	0	0	0	-0	0	561.546	563.1	351.096	210.972	-0.10102	0.47157	0.00438129	-0.000418981	-0.899178
77	-0.0581656	-0.0205665	0.00508604	0.00150063	-0.0153396	-0.0408778	0.0217083	0.0285984	-0.000546862	-1.69999	0.15248	0.227207	0.0519719	-0.00294721	0.0181623	-2.27094	-0.0174508	-1.57305	0	0	0	0	-0	0	0	0	-0.1265	0	-0	0	0	0	0	0	-0	0	0.105	-0.015	0	0	-0	0	0	-0.098	0.1	0	-0	0	0	0	0	0	-0	0	0.05595	0	0	0	-0	0	0	0	0	0	-0	0	561.546	563.101	351.098	210.973	-0.101029	0.471574	0.00438267	-0.000417657	-0.899158
78	-0.0583217	-0.0205667	0.00508601	0.00150056	-0.0153397	-0.0408778	0.0217083	0.0285984	-0.000546859	-1.69999	0.15248	0.227208	0.0519747	-0.00294722	0.0181542	-2.2711	-0.0174559	-1.57306	0	0	0	0	-0	0	0	0	-0.1265	0	-0	0	0	0	0	0	-0	0	0.105	-0.015	0	0	-0	0	0	-0.098	0.1	0	-0	0	0	0	0	0	-0	0	0.05595	0	0	0	-0	0	0	0	0	0	-0	0	561.546	563.101	351.102	210.974	-0.101046	0.471691	0.00438337	-0.000415679	-0.899392
79	-0.0561625	-0.0205669	0.00508601	0.00150044	-0.0153399	-0.0408777	0.0217083	0.0285984	-0.000546851	-1.69999	0.15248	0.227208	0.0519355	-0.00294721	0.0182665	-2.26894	-0.0174581	-1.5731	0	0	0	0	-0	0	0	0	-0.1265	0	-0	0	0	0	0	0	-0	0	0.105	-0.015	0	0	-0	0	0	-0.098	0.1	0	-0	0	0	0	0	0	-0	0	0.05595	0	0	0	-0	0	0	0	0	0	-0	0	561.547	563.102	351.108	210.976	-0.101047	0.47172	0.00438392	-0.000412806	-0.899476
80	-0.0577405	-0.0205672	0.00508598	0.00150032	-0.0153402	-0.0408776	0.0217083	0.0285984	-0.000546846	-1.69999	0.152479	0.227209	0.0519642	-0.00294722	0.0181845	-2.27053	-0.0174721	-1.57308	0	0	0	0	-0	0	0	0	-0.1265	0	-0	0	0	0	0	0	-0	0	0.105	-0.015	0	0	-0	0	0	-0.098	0.1	0	-0	0	0	0	0	0	-0	0	0.05595	0	0	0	-0	0	0	0	0	0	-0	0	561.548	563.103	351.116	210.979	-0.101071	0.471886	0.00438548	-0.000408511	-0.899823
81	-0.057536	-0.0205677	0.00508592	0.00150009	-0.0153406	-0.0408774	0.0217083	0.0285984	-0.000546834	-1.69999	0.152479	0.22721	0.0519604	-0.00294723	0.0181951	-2.27033	-0.0174871	-1.5731	0	0	0	0	-0	0	0	0	-0.1265	0	-0	0	0	0	0	0	-0	0	0.105	-0.015	0	0	-0	0	0	-0.098	0.1	0	-0	0	0	0	0	0	-0	0	0.05595	0	0	0	-0	0	0	0	0	0	-0	0	561.549	563.105	351.129	210.983	-0.101115	0.472193	0.00438757	-0.000402102	-0.900454
82	-0.0566839	-0.0205684	0.00508588	0.0014997	-0.0153412	-0.0408771	0.0217083	0.0285984	-0.000546814	-1.69999	0.152478	0.227212	0.0519448	-0.00294723	0.0182396	-2.26949	-0.0175079	-1.57314	0	0	0	0	-0	0	0	0	-0.1265	0	-0	0	0	0	0	0	-0	0	0.105	-0.015	0	0	-0	0	0	-0.098	0.1	0	-0	0	0	0	0	0	-0	0	0.05595	0	0	0	-0	0	0	0	0	0	-0	0	561.551	563.108	351.147	210.99	-0.101153	0.472452	0.00439097	-0.00039275	-0.901007
83	-0.054694	-0.0205694	0.0050858	0.00149925	-0.0153421	-0.0408767	0.0217083	0.0285984	-0.000546788	-1.69999	0.152477	0.227213	0.0519084	-0.00294724	0.0183431	-2.26752	-0.0175361	-1.57321	0	0	0	0	-0	0	0	0	-0.1265	0	-0	0	0	0	0	0	-0	0	0.105	-0.015	0	0	-0	0	0	-0.098	0.1	0	-0	0	0	0	0	0	-0	0	0.05595	0	0	0	-0	0	0	0	0	0	-0	0	561.554	563.113	351.174	210.999	-0.101201	0.472843	0.00439378	-0.000379256	-0.901857
84	-0.0528505	-0.02057	0.0050857	0.00149897	-0.0153426	-0.0408765	0.0217083	0.0285984	-0.000546777	-1.69999	0.152477	0.227215	0.0518745	-0.00294724	0.0184388	-2.26568	-0.0175477	-1.57325	0	0	0	0	-0	0	0	0	-0.1265	0	-0	0	0	0	0	0	-0	0	0.105	-0.015	0	0	-0	0	0	-0.098	0.1	0	-0	0	0	0	0	0	-0	0	0.05595	0	0	0	-0	0	0	0	0	0	-0	0	561.556	563.115	351.187	211.003	-0.101254	0.473131	0.00439765	-0.000372021	-0.902408
85	-0.0520012	-0.0205702	0.00508567	0.00149888	-0.0153427	-0.0408765	0.0217083	0.0285984	-0.000546772	-1.69999	0.152476	0.227216	0.0518587	-0.00294723	0.0184828	-2.26483	-0.0175489	-1.57327	0	0	0	0	-0	0	0	0	-0.1265	0	-0	0	0	0	0	0	-0	0	0.105	-0.015	0	0	-0	0	0	-0.098	0.1	0	-0	0	0	0	0	0	-0	0	0.05595	0	0	0	-0	0	0	0	0	0	-0	0	561.556	563.116	351.19	211.004	-0.101266	0.473179	0.00439869	-0.000370332	-0.902492
86	-0.0520343	-0.0205704	0.00508565	0.00149875	-0.0153429	-0.0408764	0.0217083	0.0285984	-0.000546766	-1.69999	0.152476	0.227216	0.0518593	-0.00294723	0.0184812	-2.26487	-0.0175558	-1.57328	0	0	0	0	-0	0	0	0	-0.1265	0	-0	0	0	0	0	0	-0	0	0.105	-0.015	0	0	-0	0	0	-0.098	0.1	0	-0	0	0	0	0	0	-0	0	0.05595	0	0	0	-0	0	0	0	0	0	-0	0	561.557	563.117	351.195	211.006	-0.101288	0.473326	0.00439971	-0.000367506	-0.902786
87	-0.0538588	-0.0205707	0.00508562	0.0014986	-0.0153432	-0.0408762	0.0217083	0.0285984	-0.00054676	-1.69999	0.152476	0.227217	0.051893	-0.00294723	0.0183866	-2.2667	-0.0175704	-1.57326	0	0	0	0	-0	0	0	0	-0.1265	0	-0	0	0	0	0	0	-0	0	0.105	-0.015	0	0	-0	0	0	-0.098	0.1	0	-0	0	0	0	0	0	-0	0	0.05595	0	0	0	-0	0	0	0	0	0	-0	0	561.558	563.118	351.203	211.009	-0.101309	0.473459	0.00440168	-0.000363326	-0.903063
88	-0.0527221	-0.0205709	0.00508561	0.0014985	-0.0153434	-0.0408762	0.0217082	0.0285984	-0.000546754	-1.69999	0.152476	0.227218	0.0518719	-0.00294723	0.0184456	-2.26556	-0.0175726	-1.57328	0	0	0	0	-0	0	0	0	-0.1265	0	-0	0	0	0	0	0	-0	0	0.105	-0.015	0	0	-0	0	0	-0.098	0.1	0	-0	0	0	0	0	0	-0	0	0.05595	0	0	0	-0	0	0	0	0	0	-0	0	561.559	563.119	351.208	211.01	-0.101309	0.473452	0.00440246	-0.000361132	-0.903054
89	-0.0536759	-0.020571	0.00508558	0.00149845	-0.0153435	-0.0408761	0.0217082	0.0285984	-0.000546752	-1.69999	0.152476	0.227218	0.0518895	-0.00294723	0.0183962	-2.26652	-0.0175787	-1.57327	0	0	0	0	-0	0	0	0	-0.1265	0	-0	0	0	0	0	0	-0	0	0.105	-0.015	0	0	-0	0	0	-0.098	0.1	0	-0	0	0	0	0	0	-0	0	0.05595	0	0	0	-0	0	0	0	0	0	-0	0	561.559	563.119	351.211	211.011	-0.101318	0.473505	0.00440329	-0.000359517	-0.903158
90	-0.0547172	-0.0205713	0.00508557	0.00149832	-0.0153437	-0.040876	0.0217082	0.0285984	-0.000546745	-1.69999	0.152475	0.227219	0.0519086	-0.00294723	0.0183421	-2.26757	-0.0175896	-1.57326	0	0	0	0	-0	0	0	0	-0.1265	0	-0	0	0	0	0	0	-0	0	0.105	-0.015	0	0	-0	0	0	-0.098	0.1	0	-0	0	0	0	0	0	-0	0	0.05595	0	0	0	-0	0	0	0	0	0	-0	0	561.559	563.12	351.217	211.013	-0.101325	0.473565	0.00440423	-0.000356131	-0.903297
91	-0.0526319	-0.0205717	0.00508552	0.00149815	-0.015344	-0.0408759	0.0217082	0.0285984	-0.000546735	-1.69999	0.152475	0.22722	0.0518704	-0.00294725	0.0184503	-2.26549	-0.0175967	-1.57331	0	0	0	0	-0	0	0	0	-0.1265	0	-0	0	0	0	0	0	-0	0	0.105	-0.015	0	0	-0	0	0	-0.098	0.1	0	-0	0	0	0	0	0	-0	0	0.05595	0	0	0	-0	0	0	0	0	0	-0	0	561.56	563.121	351.227	211.017	-0.101353	0.47378	0.00440573	-0.000351088	-0.903759
92	-0.0523838	-0.0205723	0.00508546	0.00149791	-0.0153445	-0.0408757	0.0217082	0.0285985	-0.000546721	-1.69999	0.152475	0.227221	0.0518657	-0.00294726	0.0184632	-2.26525	-0.0176141	-1.57333	0	0	0	0	-0	0	0	0	-0.1265	0	-0	0	0	0	0	0	-0	0	0.105	-0.015	0	0	-0	0	0	-0.098	0.1	0	-0	0	0	0	0	0	-0	0	0.05595	0	0	0	-0	0	0	0	0	0	-0	0	561.561	563.124	351.242	211.022	-0.101391	0.474076	0.00440688	-0.000343617	-0.904389
93	-0.0502641	-0.0205731	0.00508544	0.00149748	-0.0153452	-0.0408754	0.0217082	0.0285985	-0.000546699	-1.69999	0.152474	0.227222	0.0518264	-0.00294725	0.0185734	-2.26314	-0.0176352	-1.57339	0	0	0	0	-0	0	0	0	-0.1265	0	-0	0	0	0	0	0	-0	0	0.105	-0.015	0	0	-0	0	0	-0.098	0.1	0	-0	0	0	0	0	0	-0	0	0.05595	0	0	0	-0	0	0	0	0	0	-0	0	561.565	563.128	351.264	211.029	-0.101433	0.474385	0.00440988	-0.000332718	-0.905046
94	-0.0489645	-0.0205733	0.00508535	0.00149738	-0.0153454	-0.0408753	0.0217082	0.0285985	-0.000546696	-1.69999	0.152474	0.227223	0.0518022	-0.00294725	0.0186407	-2.26184	-0.0176353	-1.57342	0	0	0	0	-0	0	0	0	-0.1265	0	-0	0	0	0	0	0	-0	0	0.105	-0.015	0	0	-0	0	0	-0.098	0.1	0	-0	0	0	0	0	0	-0	0	0.05595	0	0	0	-0	0	0	0	0	0	-0	0	561.565	563.128	351.266	211.03	-0.101469	0.474537	0.00441234	-0.000330595	-0.905299
95	-0.0505064	-0.0205735	0.00508534	0.00149728	-0.0153456	-0.0408752	0.0217082	0.0285985	-0.000546692	-1.69999	0.152473	0.227224	0.0518308	-0.00294725	0.0185608	-2.26339	-0.0176467	-1.5734	0	0	0	0	-0	0	0	0	-0.1265	0	-0	0	0	0	0	0	-0	0	0.105	-0.015	0	0	-0	0	0	-0.098	0.1	0	-0	0	0	0	0	0	-0	0	0.05595	0	0	0	-0	0	0	0	0	0	-0	0	561.566	563.129	351.272	211.032	-0.101477	0.47459	0.00441355	-0.000327578	-0.905418
96	-0.0496975	-0.0205739	0.00508532	0.00149708	-0.0153459	-0.0408751	0.0217082	0.0285985	-0.000546681	-1.69999	0.152473	0.227225	0.0518157	-0.00294725	0.0186028	-2.26258	-0.0176554	-1.57342	0	0	0	0	-0	0	0	0	-0.1265	0	-0	0	0	0	0	0	-0	0	0.105	-0.015	0	0	-0	0	0	-0.098	0.1	0	-0	0	0	0	0	0	-0	0	0.05595	0	0	0	-0	0	0	0	0	0	-0	0	561.567	563.131	351.281	211.035	-0.101507	0.474795	0.00441506	-0.000323046	-0.905836
97	-0.0514137	-0.0205741	0.00508528	0.00149699	-0.0153461	-0.040875	0.0217082	0.0285985	-0.000546677	-1.69999	0.152473	0.227225	0.0518476	-0.00294725	0.0185139	-2.2643	-0.0176653	-1.5734	0	0	0	0	-0	0	0	0	-0.1265	0	-0	0	0	0	0	0	-0	0	0.105	-0.015	0	0	-0	0	0	-0.098	0.1	0	-0	0	0	0	0	0	-0	0	0.05595	0	0	0	-0	0	0	0	0	0	-0	0	561.567	563.132	351.286	211.036	-0.101524	0.474906	0.00441598	-0.000320634	-0.906058
98	-0.0503792	-0.0205742	0.00508525	0.00149695	-0.0153462	-0.040875	0.0217082	0.0285985	-0.000546675	-1.69999	0.152473	0.227226	0.0518284	-0.00294725	0.0185675	-2.26327	-0.0176666	-1.57342	0	0	0	0	-0	0	0	0	-0.1265	0	-0	0	0	0	0	0	-0	0	0.105	-0.015	0	0	-0	0	0	-0.098	0.1	0	-0	0	0	0	0	0	-0	0	0.05595	0	0	0	-0	0	0	0	0	0	-0	0	561.568	563.132	351.289	211.037	-0.10154	0.475	0.00441687	-0.000318883	-0.90624
99	-0.0492265	-0.0205743	0.00508525	0.00149688	-0.0153463	-0.0408749	0.0217082	0.0285985	-0.000546672	-1.69999	0.152473	0.227226	0.051807	-0.00294725	0.0186272	-2.26212	-0.0176666	-1.57345	0	0	0	0	-0	0	0	0	-0.1265	0	-0	0	0	0	0	0	-0	0	0.105	-0.015	0	0	-0	0	0	-0.098	0.1	0	-0	0	0	0	0	0	-0	0	0.05595	0	0	0	-0	0	0	0	0	0	-0	0	561.568	563.132	351.291	211.038	-0.101543	0.475013	0.00441762	-0.000317579	-0.906269
100	-0.0498002	-0.0205745	0.00508525	0.00149678	-0.0153465	-0.0408749	0.0217082	0.0285985	-0.000546666	-1.69999	0.152472	0.227226	0.0518176	-0.00294725	0.0185976	-2.2627	-0.0176749	-1.57344	0	0	0	0	-0	0	0	0	-0.1265	0	-0	0	0	0	0	0	-0	0	0.105	-0.015	0	0	-0	0	0	-0.098	0.1	0	-0	0	0	0	0	0	-0	0	0.05595	0	0	0	-0	0	0	0	0	0	-0	0	561.569	563.134	351.297	211.04	-0.101543	0.475033	0.00441789	-0.000314847	-0.906329
