Stefan210/kinematic_calibration/src/kinematic_calibration/validation/experiments/experiments/anzahl_messungen/BC_A/larm_13/optimization_intermediate_results.csv
iteration	HeadPitch_offset	HeadYaw_offset	LElbowRoll_offset	LElbowYaw_offset	LShoulderPitch_offset	LShoulderRoll_offset	marker_transform_larm_tx	marker_transform_larm_ty	marker_transform_larm_tz	marker_transform_larm_rr	marker_transform_larm_rp	marker_transform_larm_ry	camera_transform_tx	camera_transform_ty	camera_transform_tz	camera_transform_rr	camera_transform_rp	camera_transform_ry	HeadPitch_transform_tx	HeadPitch_transform_ty	HeadPitch_transform_tz	HeadPitch_transform_rr	HeadPitch_transform_rp	HeadPitch_transform_ry	HeadYaw_transform_tx	HeadYaw_transform_ty	HeadYaw_transform_tz	HeadYaw_transform_rr	HeadYaw_transform_rp	HeadYaw_transform_ry	LElbowRoll_transform_tx	LElbowRoll_transform_ty	LElbowRoll_transform_tz	LElbowRoll_transform_rr	LElbowRoll_transform_rp	LElbowRoll_transform_ry	LElbowYaw_transform_tx	LElbowYaw_transform_ty	LElbowYaw_transform_tz	LElbowYaw_transform_rr	LElbowYaw_transform_rp	LElbowYaw_transform_ry	LShoulderPitch_transform_tx	LShoulderPitch_transform_ty	LShoulderPitch_transform_tz	LShoulderPitch_transform_rr	LShoulderPitch_transform_rp	LShoulderPitch_transform_ry	LShoulderRoll_transform_tx	LShoulderRoll_transform_ty	LShoulderRoll_transform_tz	LShoulderRoll_transform_rr	LShoulderRoll_transform_rp	LShoulderRoll_transform_ry	LWristYaw_transform_tx	LWristYaw_transform_ty	LWristYaw_transform_tz	LWristYaw_transform_rr	LWristYaw_transform_rp	LWristYaw_transform_ry	l_wrist_joint_transform_tx	l_wrist_joint_transform_ty	l_wrist_joint_transform_tz	l_wrist_joint_transform_rr	l_wrist_joint_transform_rp	l_wrist_joint_transform_ry	camera_fx	camera_fy	camera_cx	camera_cy	camera_D0	camera_D1	camera_D2	camera_D3	camera_D4	
0	0.0249164	-0.0307543	0.000853157	4.65819e-06	-0.000318322	-0.00310766	0.05071	0	0.01774	-2.26369	1.66533e-16	-1.5708	545.901	551.038	324.928	201.58	0.0255298	2.61142	-0.0636736	-0.0350419	0.213964
1	-0.016415	0.0128525	0.03464	0.0013508	0.00565212	-0.0267163	0.0246555	-0.0277135	-0.000651477	0.000177716	-0.000169671	-0.00283846	0.0513014	-0.00338883	0.0173198	-2.19794	-0.00928805	-1.5594	0	0	0	0	-0	0	0	0	-0.1265	0	-0	0	0	0	0	0	-0	0	0.105	0.015	0	0	-0	0	0	0.098	0.1	0	-0	0	0	0	0	0	-0	0	0.05595	0	0	0	-0	0	0	0	0	0	-0	0	545.902	551.038	324.928	201.581	0.00528237	2.59929	-0.138865	0.0209925	0.210578
2	-0.0181264	0.0138194	0.036874	0.00391821	-0.001536	-0.0433828	0.0246094	-0.0272497	-0.000920706	0.000207464	-0.000145841	-0.00279929	0.050272	-0.00471415	0.0177296	-2.19126	-0.0100593	-1.55926	0	0	0	0	-0	0	0	0	-0.1265	0	-0	0	0	0	0	0	-0	0	0.105	0.015	0	0	-0	0	0	0.098	0.1	0	-0	0	0	0	0	0	-0	0	0.05595	0	0	0	-0	0	0	0	0	0	-0	0	545.904	551.038	324.925	201.584	-0.0428626	2.53213	-0.138312	0.000782039	0.183845
3	-0.0183361	0.0170291	0.0363368	-0.00445657	0.000387662	-0.0354328	0.0246251	-0.0274442	-0.00136574	0.000252243	-9.95799e-05	-0.00281487	0.0514945	-0.00406559	0.0163951	-2.19009	-0.0100851	-1.5656	0	0	0	0	-0	0	0	0	-0.1265	0	-0	0	0	0	0	0	-0	0	0.105	0.015	0	0	-0	0	0	0.098	0.1	0	-0	0	0	0	0	0	-0	0	0.05595	0	0	0	-0	0	0	0	0	0	-0	0	545.911	551.037	324.919	201.592	-0.151252	2.35673	-0.118917	0.00774833	0.113019
4	-0.0172413	0.0211268	0.0305713	-0.00772886	0.00558314	-0.0166838	0.024717	-0.0276541	-0.00115361	0.000218301	-0.000116027	-0.0028317	0.0534839	-0.00306341	0.0147833	-2.194	-0.0059408	-1.565	0	0	0	0	-0	0	0	0	-0.1265	0	-0	0	0	0	0	0	-0	0	0.105	0.015	0	0	-0	0	0	0.098	0.1	0	-0	0	0	0	0	0	-0	0	0.05595	0	0	0	-0	0	0	0	0	0	-0	0	545.927	551.034	324.903	201.609	-0.335137	1.93342	-0.0665622	-0.00320493	-0.0669459
5	-0.0167128	0.0281373	0.0269231	-0.0191614	0.00819281	0.0115242	0.0248096	-0.0284336	-0.00144191	0.000245266	-0.00011085	-0.00289189	0.0557672	-0.00150212	0.0137454	-2.19571	-0.00258433	-1.571	0	0	0	0	-0	0	0	0	-0.1265	0	-0	0	0	0	0	0	-0	0	0.105	0.015	0	0	-0	0	0	0.098	0.1	0	-0	0	0	0	0	0	-0	0	0.05595	0	0	0	-0	0	0	0	0	0	-0	0	545.957	551.028	324.886	201.627	-0.38492	1.28546	-0.0271725	0.00126444	-0.362017
6	-0.0166834	0.0307	0.0211445	-0.0206726	0.00345148	0.0280321	0.0245533	-0.0292338	-0.00127224	0.000251038	-0.000113328	-0.00305146	0.0553672	-0.000182549	0.0152904	-2.19634	-0.00339926	-1.57096	0	0	0	0	-0	0	0	0	-0.1265	0	-0	0	0	0	0	0	-0	0	0.105	0.015	0	0	-0	0	0	0.098	0.1	0	-0	0	0	0	0	0	-0	0	0.05595	0	0	0	-0	0	0	0	0	0	-0	0	545.995	551.013	324.874	201.631	-0.185988	0.744076	-0.0196256	0.00323861	-0.636839
7	-0.0167968	0.0309828	0.0186763	-0.0202735	-0.000226483	0.031964	0.0243734	-0.0295951	-0.00119448	0.000178638	-0.000238125	-0.00303458	0.0543873	0.000304851	0.0166886	-2.1965	-0.00509429	-1.57063	0	0	0	0	-0	0	0	0	-0.1265	0	-0	0	0	0	0	0	-0	0	0.105	0.015	0	0	-0	0	0	0.098	0.1	0	-0	0	0	0	0	0	-0	0	0.05595	0	0	0	-0	0	0	0	0	0	-0	0	546.058	550.976	324.863	201.622	-0.0127852	0.408831	-0.0231343	0.00624781	-0.809343
8	-0.0167422	0.0307875	0.0181305	-0.0199054	-0.00123327	0.0328365	0.0243299	-0.0296915	-0.00115963	0.000199698	7.28903e-05	-0.00308945	0.0540092	0.000401979	0.0172031	-2.19665	-0.00541621	-1.56989	0	0	0	0	-0	0	0	0	-0.1265	0	-0	0	0	0	0	0	-0	0	0.105	0.015	0	0	-0	0	0	0.098	0.1	0	-0	0	0	0	0	0	-0	0	0.05595	0	0	0	-0	0	0	0	0	0	-0	0	546.207	550.874	324.829	201.594	0.0513253	0.280301	-0.0246222	0.00687848	-0.870976
9	-0.0172858	0.0303971	0.0182051	-0.01953	-0.00120531	0.032809	0.0243321	-0.029692	-0.00113818	-0.000935881	-0.000253285	-0.00343085	0.0539383	0.000384864	0.0172819	-2.19723	-0.00511055	-1.56905	0	0	0	0	-0	0	0	0	-0.1265	0	-0	0	0	0	0	0	-0	0	0.105	0.015	0	0	-0	0	0	0.098	0.1	0	-0	0	0	0	0	0	-0	0	0.05595	0	0	0	-0	0	0	0	0	0	-0	0	546.625	550.581	324.727	201.513	0.0558483	0.266338	-0.0242622	0.00661347	-0.867888
10	-0.0166653	0.0294275	0.0187083	-0.0187359	-0.000678499	0.032364	0.0243582	-0.0296513	-0.00110122	0.00241127	0.000479191	-0.00279256	0.0538819	0.000295057	0.0173821	-2.1966	-0.00410938	-1.56716	0	0	0	0	-0	0	0	0	-0.1265	0	-0	0	0	0	0	0	-0	0	0.105	0.015	0	0	-0	0	0	0.098	0.1	0	-0	0	0	0	0	0	-0	0	0.05595	0	0	0	-0	0	0	0	0	0	-0	0	547.764	549.794	324.452	201.29	0.0380904	0.29054	-0.0225292	0.00575314	-0.832836
11	-0.0168459	0.0272382	0.0198468	-0.0169063	0.000530951	0.0313213	0.0244184	-0.0295547	-0.00101668	0.00777095	0.00255015	-0.00140578	0.0537884	8.70918e-05	0.0175131	-2.19665	-0.00185086	-1.56291	0	0	0	0	-0	0	0	0	-0.1265	0	-0	0	0	0	0	0	-0	0	0.105	0.015	0	0	-0	0	0	0.098	0.1	0	-0	0	0	0	0	0	-0	0	0.05595	0	0	0	-0	0	0	0	0	0	-0	0	550.431	548.052	323.856	200.738	-0.00647051	0.361492	-0.0184682	0.00380477	-0.771287
12	-0.0113509	0.0238214	0.0215306	-0.0138704	0.00239308	0.0296861	0.0245122	-0.0294083	-0.000873127	0.0360969	0.00169609	-0.00159135	0.0535244	-0.000247051	0.018049	-2.19047	0.00154122	-1.55642	0	0	0	0	-0	0	0	0	-0.1265	0	-0	0	0	0	0	0	-0	0	0.105	0.015	0	0	-0	0	0	0.098	0.1	0	-0	0	0	0	0	0	-0	0	0.05595	0	0	0	-0	0	0	0	0	0	-0	0	555.002	545.657	323.051	199.582	-0.0856996	0.514259	-0.0119201	0.000738422	-0.734041
13	-0.0279296	0.0220008	0.0224464	-0.0122387	0.0033892	0.0288459	0.0245701	-0.0293164	-0.000808242	0.0655381	0.00541294	0.00831194	0.0537152	-0.000442475	0.0173207	-2.2061	0.00356273	-1.55316	0	0	0	0	-0	0	0	0	-0.1265	0	-0	0	0	0	0	0	-0	0	0.105	0.015	0	0	-0	0	0	0.098	0.1	0	-0	0	0	0	0	0	-0	0	0.05595	0	0	0	-0	0	0	0	0	0	-0	0	557.821	544.674	322.76	198.604	-0.132882	0.611307	-0.00848579	-0.000761124	-0.722714
14	-0.0159292	0.0207286	0.0229343	-0.0108595	0.0040216	0.0283079	0.0246171	-0.0292297	-0.000766269	0.0850725	-0.0311544	0.0346977	0.053403	-0.00057984	0.0181054	-2.19251	0.0045498	-1.55098	0	0	0	0	-0	0	0	0	-0.1265	0	-0	0	0	0	0	0	-0	0	0.105	0.015	0	0	-0	0	0	0.098	0.1	0	-0	0	0	0	0	0	-0	0	0.05595	0	0	0	-0	0	0	0	0	0	-0	0	560.294	544.614	322.701	197.354	-0.178433	0.734774	-0.00598492	-0.00203246	-0.812383
15	-0.0367306	0.0199442	0.0228992	-0.00950285	0.00419646	0.0281112	0.0246215	-0.0292381	-0.000663738	0.162164	-0.0500961	0.00489876	0.0536301	-0.000660228	0.0171645	-2.20966	0.00543163	-1.55014	0	0	0	0	-0	0	0	0	-0.1265	0	-0	0	0	0	0	0	-0	0	0.105	0.015	0	0	-0	0	0	0.098	0.1	0	-0	0	0	0	0	0	-0	0	0.05595	0	0	0	-0	0	0	0	0	0	-0	0	563.292	546.295	323.004	194.985	-0.243556	0.997306	-0.00452969	-0.00308758	-1.19537
16	-0.0474679	0.0197571	0.0227786	-0.00898803	0.00417546	0.0281281	0.0246433	-0.0291608	-0.000672499	0.211057	-0.0433421	0.00341341	0.053749	-0.00067958	0.0166578	-2.21865	0.00565783	-1.55015	0	0	0	0	-0	0	0	0	-0.1265	0	-0	0	0	0	0	0	-0	0	0.105	0.015	0	0	-0	0	0	0.098	0.1	0	-0	0	0	0	0	0	-0	0	0.05595	0	0	0	-0	0	0	0	0	0	-0	0	564.524	547.292	323.235	193.876	-0.270571	1.10688	-0.00411474	-0.00344641	-1.35945
17	-0.0414269	0.0196898	0.022628	-0.00865395	0.00410141	0.028146	0.0246396	-0.0291123	-0.000663827	0.192138	-0.0456057	0.00214399	0.0536048	-0.000682939	0.0170271	-2.2113	0.00541991	-1.55023	0	0	0	0	-0	0	0	0	-0.1265	0	-0	0	0	0	0	0	-0	0	0.105	0.015	0	0	-0	0	0	0.098	0.1	0	-0	0	0	0	0	0	-0	0	0.05595	0	0	0	-0	0	0	0	0	0	-0	0	565.339	548.072	323.427	193.083	-0.290023	1.19507	-0.00396592	-0.00363959	-1.50224
18	-0.0618949	0.0196654	0.0223852	-0.00824832	0.00395144	0.0282223	0.024621	-0.0291324	-0.000618903	0.119159	-0.00315098	0.0234118	0.0538943	-0.00067984	0.015992	-2.22991	0.00559197	-1.55066	0	0	0	0	-0	0	0	0	-0.1265	0	-0	0	0	0	0	0	-0	0	0.105	0.015	0	0	-0	0	0	0.098	0.1	0	-0	0	0	0	0	0	-0	0	0.05595	0	0	0	-0	0	0	0	0	0	-0	0	566.416	549.254	323.724	191.973	-0.316111	1.31872	-0.00391411	-0.00383248	-1.708
19	-0.0710349	0.0196563	0.0222074	-0.00795449	0.00384486	0.0282927	0.0246217	-0.0291028	-0.000627383	0.0574203	0.0398203	0.0318487	0.0539908	-0.000677608	0.0155427	-2.23776	0.00556908	-1.55095	0	0	0	0	-0	0	0	0	-0.1265	0	-0	0	0	0	0	0	-0	0	0.105	0.015	0	0	-0	0	0	0.098	0.1	0	-0	0	0	0	0	0	-0	0	0.05595	0	0	0	-0	0	0	0	0	0	-0	0	567.188	550.125	323.956	191.186	-0.334291	1.40124	-0.0038505	-0.00397762	-1.84137
20	-0.0588487	0.0196619	0.0220627	-0.00774308	0.00375206	0.0283369	0.0246413	-0.0290703	-0.000627073	0.0627679	0.0490116	0.0469498	0.0537708	-0.000673618	0.0162321	-2.22462	0.00514706	-1.5511	0	0	0	0	-0	0	0	0	-0.1265	0	-0	0	0	0	0	0	-0	0	0.105	0.015	0	0	-0	0	0	0.098	0.1	0	-0	0	0	0	0	0	-0	0	0.05595	0	0	0	-0	0	0	0	0	0	-0	0	567.745	550.768	324.134	190.618	-0.34785	1.4645	-0.00381972	-0.0040673	-1.94483
21	-0.0579277	0.0196743	0.0218533	-0.00746003	0.00361407	0.0284033	0.0246356	-0.0290561	-0.000621049	0.0765969	0.0319661	0.0553108	0.053708	-0.000666451	0.0163262	-2.22234	0.00485467	-1.55143	0	0	0	0	-0	0	0	0	-0.1265	0	-0	0	0	0	0	0	-0	0	0.105	0.015	0	0	-0	0	0	0.098	0.1	0	-0	0	0	0	0	0	-0	0	0.05595	0	0	0	-0	0	0	0	0	0	-0	0	568.536	551.703	324.398	189.807	-0.366781	1.55459	-0.00384546	-0.00416689	-2.09267
22	-0.0841639	0.0197026	0.0215634	-0.00706876	0.00341696	0.0285121	0.0246363	-0.0290434	-0.0006036	0.0906495	0.0408938	0.0601949	0.0540758	-0.000656839	0.0149833	-2.24669	0.00495018	-1.55205	0	0	0	0	-0	0	0	0	-0.1265	0	-0	0	0	0	0	0	-0	0	0.105	0.015	0	0	-0	0	0	0.098	0.1	0	-0	0	0	0	0	0	-0	0	0.05595	0	0	0	-0	0	0	0	0	0	-0	0	569.65	553.035	324.784	188.681	-0.39285	1.67574	-0.00385264	-0.00430322	-2.28818
23	-0.0857788	0.0197214	0.0213424	-0.00676632	0.00327351	0.0285837	0.0246439	-0.0290422	-0.000596591	0.0952796	0.0348941	0.0931392	0.054041	-0.000649236	0.014939	-2.24698	0.00464781	-1.55241	0	0	0	0	-0	0	0	0	-0.1265	0	-0	0	0	0	0	0	-0	0	0.105	0.015	0	0	-0	0	0	0.098	0.1	0	-0	0	0	0	0	0	-0	0	0.05595	0	0	0	-0	0	0	0	0	0	-0	0	570.458	553.991	325.079	187.888	-0.411668	1.76057	-0.00381141	-0.00441324	-2.42154
24	-0.0874479	0.019731	0.0211883	-0.00655191	0.0031735	0.0286336	0.02463	-0.0290195	-0.00058011	0.109118	0.0176631	0.0847501	0.0540352	-0.000644349	0.0148833	-2.24771	0.00443332	-1.55269	0	0	0	0	-0	0	0	0	-0.1265	0	-0	0	0	0	0	0	-0	0	0.105	0.015	0	0	-0	0	0	0.098	0.1	0	-0	0	0	0	0	0	-0	0	0.05595	0	0	0	-0	0	0	0	0	0	-0	0	571.044	554.676	325.301	187.32	-0.424979	1.81977	-0.00378442	-0.00448645	-2.51334
25	-0.091654	0.0197375	0.021117	-0.00644921	0.00313089	0.0286531	0.0246302	-0.0290139	-0.000579828	0.110772	0.00632114	0.0875709	0.0540858	-0.000642233	0.014669	-2.25154	0.0044078	-1.55282	0	0	0	0	-0	0	0	0	-0.1265	0	-0	0	0	0	0	0	-0	0	0.105	0.015	0	0	-0	0	0	0.098	0.1	0	-0	0	0	0	0	0	-0	0	0.05595	0	0	0	-0	0	0	0	0	0	-0	0	571.28	554.953	325.393	187.092	-0.430483	1.84322	-0.00373724	-0.00453313	-2.54932
26	-0.103918	0.0197464	0.0210338	-0.00633894	0.00307295	0.0286826	0.0246288	-0.0290092	-0.000575507	0.10512	0.0186865	0.086872	0.0542483	-0.000639293	0.0140252	-2.26329	0.00448338	-1.55303	0	0	0	0	-0	0	0	0	-0.1265	0	-0	0	0	0	0	0	-0	0	0.105	0.015	0	0	-0	0	0	0.098	0.1	0	-0	0	0	0	0	0	-0	0	0.05595	0	0	0	-0	0	0	0	0	0	-0	0	571.599	555.331	325.519	186.787	-0.43765	1.87527	-0.00372952	-0.00456416	-2.59892
27	-0.102064	0.0197491	0.0209977	-0.00628769	0.00305048	0.0286932	0.0246298	-0.0290085	-0.000573221	0.110878	0.0278243	0.087351	0.0542119	-0.000638232	0.0141323	-2.26123	0.00439083	-1.55308	0	0	0	0	-0	0	0	0	-0.1265	0	-0	0	0	0	0	0	-0	0	0.105	0.015	0	0	-0	0	0	0.098	0.1	0	-0	0	0	0	0	0	-0	0	0.05595	0	0	0	-0	0	0	0	0	0	-0	0	571.729	555.483	325.571	186.663	-0.440601	1.88789	-0.00371235	-0.00458496	-2.61806
28	-0.100488	0.0197626	0.0208672	-0.00611633	0.00295823	0.0287425	0.0246323	-0.0289986	-0.000564868	0.101562	0.0573618	0.0919492	0.0541621	-0.000633719	0.0142505	-2.25885	0.00412322	-1.55333	0	0	0	0	-0	0	0	0	-0.1265	0	-0	0	0	0	0	0	-0	0	0.105	0.015	0	0	-0	0	0	0.098	0.1	0	-0	0	0	0	0	0	-0	0	0.05595	0	0	0	-0	0	0	0	0	0	-0	0	572.244	556.095	325.78	186.173	-0.45187	1.93793	-0.00371093	-0.00462755	-2.69482
29	-0.127935	0.0197813	0.0206745	-0.00586137	0.00282596	0.0288087	0.0246297	-0.0289946	-0.000553526	0.106316	0.0448289	0.0739554	0.054514	-0.000627047	0.0128095	-2.28514	0.00424327	-1.55381	0	0	0	0	-0	0	0	0	-0.1265	0	-0	0	0	0	0	0	-0	0	0.105	0.015	0	0	-0	0	0	0.098	0.1	0	-0	0	0	0	0	0	-0	0	0.05595	0	0	0	-0	0	0	0	0	0	-0	0	572.978	556.964	326.086	185.48	-0.46792	2.00807	-0.00368631	-0.00469736	-2.80113
30	-0.119217	0.0197911	0.0205735	-0.00572307	0.00275963	0.0288387	0.0246295	-0.0289874	-0.000550661	0.111931	0.0611143	0.084171	0.0543649	-0.000623553	0.0133023	-2.27587	0.00390312	-1.55395	0	0	0	0	-0	0	0	0	-0.1265	0	-0	0	0	0	0	0	-0	0	0.105	0.015	0	0	-0	0	0	0.098	0.1	0	-0	0	0	0	0	0	-0	0	0.05595	0	0	0	-0	0	0	0	0	0	-0	0	573.341	557.388	326.242	185.145	-0.475983	2.04217	-0.00364144	-0.00474316	-2.85167
31	-0.123044	0.0198041	0.0204518	-0.00556282	0.00267589	0.0288799	0.0246258	-0.0289819	-0.000549651	0.116523	0.0517952	0.0998914	0.0543896	-0.00061937	0.0131224	-2.27899	0.00372772	-1.55421	0	0	0	0	-0	0	0	0	-0.1265	0	-0	0	0	0	0	0	-0	0	0.105	0.015	0	0	-0	0	0	0.098	0.1	0	-0	0	0	0	0	0	-0	0	0.05595	0	0	0	-0	0	0	0	0	0	-0	0	573.802	557.933	326.444	184.721	-0.485885	2.08454	-0.00361548	-0.00478491	-2.91471
32	-0.119359	0.0198188	0.0203314	-0.00540432	0.00259163	0.0289198	0.0246279	-0.0289749	-0.000534416	0.121536	0.0300363	0.083859	0.0543176	-0.000615078	0.0133511	-2.27463	0.00342167	-1.55444	0	0	0	0	-0	0	0	0	-0.1265	0	-0	0	0	0	0	0	-0	0	0.105	0.015	0	0	-0	0	0	0.098	0.1	0	-0	0	0	0	0	0	-0	0	0.05595	0	0	0	-0	0	0	0	0	0	-0	0	574.254	558.465	326.647	184.309	-0.495637	2.12593	-0.00357843	-0.00482535	-2.97577
33	-0.100918	0.0198261	0.020238	-0.00527882	0.00253146	0.0289458	0.0246243	-0.028972	-0.000531021	0.113898	0.0417988	0.101391	0.0540535	-0.000611824	0.0143727	-2.2557	0.00294021	-1.55456	0	0	0	0	-0	0	0	0	-0.1265	0	-0	0	0	0	0	0	-0	0	0.105	0.015	0	0	-0	0	0	0.098	0.1	0	-0	0	0	0	0	0	-0	0	0.05595	0	0	0	-0	0	0	0	0	0	-0	0	574.587	558.854	326.798	184.01	-0.502802	2.156	-0.00354289	-0.00486258	-3.01981
34	-0.109053	0.0198485	0.0200597	-0.005049	0.00240228	0.0290118	0.0246214	-0.0289646	-0.000531774	0.0981598	0.0460597	0.0851618	0.0541227	-0.000605757	0.0139755	-2.2628	0.00268243	-1.55499	0	0	0	0	-0	0	0	0	-0.1265	0	-0	0	0	0	0	0	-0	0	0.105	0.015	0	0	-0	0	0	0.098	0.1	0	-0	0	0	0	0	0	-0	0	0.05595	0	0	0	-0	0	0	0	0	0	-0	0	575.294	559.69	327.129	183.38	-0.517435	2.21706	-0.00350387	-0.0049104	-3.10808
35	-0.110653	0.0198524	0.0200242	-0.00499736	0.00238239	0.0290153	0.0246191	-0.0289562	-0.000525781	0.0993897	0.0363369	0.087716	0.054139	-0.000604527	0.0138929	-2.26425	0.00264836	-1.55504	0	0	0	0	-0	0	0	0	-0.1265	0	-0	0	0	0	0	0	-0	0	0.105	0.015	0	0	-0	0	0	0.098	0.1	0	-0	0	0	0	0	0	-0	0	0.05595	0	0	0	-0	0	0	0	0	0	-0	0	575.392	559.802	327.175	183.295	-0.519805	2.22631	-0.00346152	-0.00493564	-3.12117
36	-0.113436	0.0198555	0.019988	-0.0049484	0.002358	0.0290255	0.0246197	-0.0289558	-0.000523213	0.0927634	0.0287183	0.0825344	0.0541705	-0.000603311	0.0137505	-2.26685	0.0026164	-1.55512	0	0	0	0	-0	0	0	0	-0.1265	0	-0	0	0	0	0	0	-0	0	0.105	0.015	0	0	-0	0	0	0.098	0.1	0	-0	0	0	0	0	0	-0	0	0.05595	0	0	0	-0	0	0	0	0	0	-0	0	575.525	559.954	327.239	183.18	-0.522595	2.2378	-0.0034431	-0.00494841	-3.13772
37	-0.104278	0.0198581	0.0199565	-0.00490602	0.00233635	0.0290355	0.024618	-0.0289532	-0.000521708	0.0953925	0.0289415	0.0769677	0.0540379	-0.000602309	0.0142542	-2.25751	0.00240227	-1.55517	0	0	0	0	-0	0	0	0	-0.1265	0	-0	0	0	0	0	0	-0	0	0.105	0.015	0	0	-0	0	0	0.098	0.1	0	-0	0	0	0	0	0	-0	0	0.05595	0	0	0	-0	0	0	0	0	0	-0	0	575.648	560.096	327.298	183.073	-0.525115	2.24806	-0.00343039	-0.00495856	-3.15225
38	-0.0909726	0.019866	0.019881	-0.00480673	0.00228187	0.0290615	0.0246181	-0.0289491	-0.000519899	0.0990387	0.0180658	0.0841858	0.0538296	-0.000599856	0.0149918	-2.24378	0.00202109	-1.55532	0	0	0	0	-0	0	0	0	-0.1265	0	-0	0	0	0	0	0	-0	0	0.105	0.015	0	0	-0	0	0	0.098	0.1	0	-0	0	0	0	0	0	-0	0	0.05595	0	0	0	-0	0	0	0	0	0	-0	0	575.949	560.445	327.445	182.812	-0.531241	2.27307	-0.00340296	-0.0049785	-3.18767
39	-0.0989073	0.01987	0.0198397	-0.00475111	0.00225413	0.029072	0.0246168	-0.0289469	-0.000516239	0.0998177	0.0189411	0.0788864	0.0539355	-0.000598435	0.0145718	-2.25151	0.00205651	-1.55542	0	0	0	0	-0	0	0	0	-0.1265	0	-0	0	0	0	0	0	-0	0	0.105	0.015	0	0	-0	0	0	0.098	0.1	0	-0	0	0	0	0	0	-0	0	0.05595	0	0	0	-0	0	0	0	0	0	-0	0	576.097	560.616	327.52	182.684	-0.534395	2.28583	-0.00337906	-0.00499375	-3.20571
40	-0.114344	0.0198882	0.0196809	-0.00454736	0.00213887	0.029127	0.0246148	-0.0289381	-0.000508472	0.109651	0.00463456	0.0767593	0.0541243	-0.000593066	0.0137792	-2.26605	0.001909	-1.55584	0	0	0	0	-0	0	0	0	-0.1265	0	-0	0	0	0	0	0	-0	0	0.105	0.015	0	0	-0	0	0	0.098	0.1	0	-0	0	0	0	0	0	-0	0	0.05595	0	0	0	-0	0	0	0	0	0	-0	0	576.725	561.348	327.841	182.143	-0.547012	2.33698	-0.00332714	-0.0050279	-3.27747
41	-0.119938	0.0198976	0.0195942	-0.0044316	0.00208084	0.0291495	0.0246172	-0.0289354	-0.000502867	0.108027	-0.00762108	0.066082	0.054179	-0.000590212	0.0134939	-2.27122	0.00179226	-1.55603	0	0	0	0	-0	0	0	0	-0.1265	0	-0	0	0	0	0	0	-0	0	0.105	0.015	0	0	-0	0	0	0.098	0.1	0	-0	0	0	0	0	0	-0	0	0.05595	0	0	0	-0	0	0	0	0	0	-0	0	577.036	561.709	328.002	181.882	-0.553436	2.36225	-0.00327195	-0.00506057	-3.31235
42	-0.106469	0.0199058	0.019513	-0.00432601	0.00202461	0.029173	0.0246161	-0.0289353	-0.000499679	0.0938606	-0.0119105	0.0785038	0.0539802	-0.000587445	0.0142427	-2.25734	0.00139684	-1.5562	0	0	0	0	-0	0	0	0	-0.1265	0	-0	0	0	0	0	0	-0	0	0.105	0.015	0	0	-0	0	0	0.098	0.1	0	-0	0	0	0	0	0	-0	0	0.05595	0	0	0	-0	0	0	0	0	0	-0	0	577.342	562.062	328.163	181.628	-0.559593	2.38675	-0.00323223	-0.00508268	-3.34622
43	-0.0994181	0.0199123	0.0194549	-0.00424944	0.00198333	0.0291906	0.0246172	-0.0289301	-0.000499892	0.0978444	-0.000568224	0.063803	0.0538625	-0.000585564	0.0146358	-2.24998	0.00114951	-1.55633	0	0	0	0	-0	0	0	0	-0.1265	0	-0	0	0	0	0	0	-0	0	0.105	0.015	0	0	-0	0	0	0.098	0.1	0	-0	0	0	0	0	0	-0	0	0.05595	0	0	0	-0	0	0	0	0	0	-0	0	577.566	562.32	328.284	181.442	-0.5641	2.40441	-0.0031986	-0.00509864	-3.37028
44	-0.101736	0.0199169	0.0194102	-0.00419095	0.00195223	0.0292021	0.0246127	-0.0289255	-0.000496336	0.0921445	-0.000682327	0.055674	0.0538859	-0.00058404	0.0145205	-2.25208	0.00107378	-1.55644	0	0	0	0	-0	0	0	0	-0.1265	0	-0	0	0	0	0	0	-0	0	0.105	0.015	0	0	-0	0	0	0.098	0.1	0	-0	0	0	0	0	0	-0	0	0.05595	0	0	0	-0	0	0	0	0	0	-0	0	577.731	562.51	328.375	181.306	-0.567453	2.41758	-0.00317179	-0.00511081	-3.3883
45	-0.102607	0.0199193	0.0193901	-0.00416298	0.00193904	0.0292068	0.0246121	-0.0289236	-0.000494274	0.092	-0.00421916	0.0496922	0.0538948	-0.000583412	0.0144775	-2.25286	0.00104133	-1.55649	0	0	0	0	-0	0	0	0	-0.1265	0	-0	0	0	0	0	0	-0	0	0.105	0.015	0	0	-0	0	0	0.098	0.1	0	-0	0	0	0	0	0	-0	0	0.05595	0	0	0	-0	0	0	0	0	0	-0	0	577.799	562.587	328.412	181.25	-0.568874	2.42305	-0.00315195	-0.00511981	-3.39583
46	-0.0933718	0.0199238	0.0193501	-0.00411148	0.00191025	0.0292191	0.0246112	-0.0289211	-0.000492765	0.0914749	-0.0042561	0.046818	0.0537525	-0.000582078	0.0149851	-2.24342	0.000806397	-1.55658	0	0	0	0	-0	0	0	0	-0.1265	0	-0	0	0	0	0	0	-0	0	0.105	0.015	0	0	-0	0	0	0.098	0.1	0	-0	0	0	0	0	0	-0	0	0.05595	0	0	0	-0	0	0	0	0	0	-0	0	577.954	562.765	328.497	181.124	-0.571939	2.43506	-0.00313033	-0.00512843	-3.41215
47	-0.0935824	0.0199303	0.0192933	-0.0040384	0.00186884	0.0292374	0.0246111	-0.0289183	-0.000492043	0.0822764	0.00817574	0.0409833	0.0537406	-0.000580311	0.0149875	-2.24333	0.000658308	-1.55673	0	0	0	0	-0	0	0	0	-0.1265	0	-0	0	0	0	0	0	-0	0	0.105	0.015	0	0	-0	0	0	0.098	0.1	0	-0	0	0	0	0	0	-0	0	0.05595	0	0	0	-0	0	0	0	0	0	-0	0	578.18	563.026	328.625	180.939	-0.576318	2.45192	-0.00310006	-0.00514048	-3.43468
48	-0.0998298	0.0199343	0.0192586	-0.00399284	0.00184497	0.029245	0.0246099	-0.0289169	-0.00048822	0.0891502	0.00581747	0.0392338	0.0538277	-0.000579012	0.0146587	-2.24941	0.000661706	-1.55682	0	0	0	0	-0	0	0	0	-0.1265	0	-0	0	0	0	0	0	-0	0	0.105	0.015	0	0	-0	0	0	0.098	0.1	0	-0	0	0	0	0	0	-0	0	0.05595	0	0	0	-0	0	0	0	0	0	-0	0	578.301	563.162	328.693	180.842	-0.578831	2.4618	-0.0030742	-0.00515028	-3.44824
49	-0.100902	0.0199354	0.0192449	-0.00397407	0.0018362	0.0292485	0.0246102	-0.0289156	-0.00048743	0.0884754	0.0101614	0.0427407	0.0538397	-0.000578646	0.0146037	-2.25042	0.000643064	-1.55685	0	0	0	0	-0	0	0	0	-0.1265	0	-0	0	0	0	0	0	-0	0	0.105	0.015	0	0	-0	0	0	0.098	0.1	0	-0	0	0	0	0	0	-0	0	0.05595	0	0	0	-0	0	0	0	0	0	-0	0	578.35	563.219	328.721	180.802	-0.579814	2.46548	-0.00306279	-0.00515608	-3.45312
50	-0.103738	0.0199387	0.0192182	-0.00394054	0.00181678	0.0292563	0.0246103	-0.0289144	-0.000485833	0.0902809	0.00288288	0.037738	0.0538754	-0.00057767	0.0144574	-2.25312	0.000611979	-1.55692	0	0	0	0	-0	0	0	0	-0.1265	0	-0	0	0	0	0	0	-0	0	0.105	0.015	0	0	-0	0	0	0.098	0.1	0	-0	0	0	0	0	0	-0	0	0.05595	0	0	0	-0	0	0	0	0	0	-0	0	578.451	563.335	328.779	180.721	-0.581802	2.47326	-0.00304804	-0.00516078	-3.46367
