Stefan210/kinematic_calibration/src/kinematic_calibration/validation/experiments/experiments/single_point_vs_pose/marker_single_point/rarm_200/optimization_intermediate_results.csv
iteration	HeadPitch_offset	HeadYaw_offset	RElbowRoll_offset	RElbowYaw_offset	RShoulderPitch_offset	RShoulderRoll_offset	marker_transform_rarm_tx	marker_transform_rarm_ty	marker_transform_rarm_tz	marker_transform_rarm_rr	marker_transform_rarm_rp	marker_transform_rarm_ry	camera_transform_tx	camera_transform_ty	camera_transform_tz	camera_transform_rr	camera_transform_rp	camera_transform_ry	HeadPitch_transform_tx	HeadPitch_transform_ty	HeadPitch_transform_tz	HeadPitch_transform_rr	HeadPitch_transform_rp	HeadPitch_transform_ry	HeadYaw_transform_tx	HeadYaw_transform_ty	HeadYaw_transform_tz	HeadYaw_transform_rr	HeadYaw_transform_rp	HeadYaw_transform_ry	RElbowRoll_transform_tx	RElbowRoll_transform_ty	RElbowRoll_transform_tz	RElbowRoll_transform_rr	RElbowRoll_transform_rp	RElbowRoll_transform_ry	RElbowYaw_transform_tx	RElbowYaw_transform_ty	RElbowYaw_transform_tz	RElbowYaw_transform_rr	RElbowYaw_transform_rp	RElbowYaw_transform_ry	RShoulderPitch_transform_tx	RShoulderPitch_transform_ty	RShoulderPitch_transform_tz	RShoulderPitch_transform_rr	RShoulderPitch_transform_rp	RShoulderPitch_transform_ry	RShoulderRoll_transform_tx	RShoulderRoll_transform_ty	RShoulderRoll_transform_tz	RShoulderRoll_transform_rr	RShoulderRoll_transform_rp	RShoulderRoll_transform_ry	RWristYaw_transform_tx	RWristYaw_transform_ty	RWristYaw_transform_tz	RWristYaw_transform_rr	RWristYaw_transform_rp	RWristYaw_transform_ry	r_wrist_joint_transform_tx	r_wrist_joint_transform_ty	r_wrist_joint_transform_tz	r_wrist_joint_transform_rr	r_wrist_joint_transform_rp	r_wrist_joint_transform_ry	camera_fx	camera_fy	camera_cx	camera_cy	camera_D0	camera_D1	camera_D2	camera_D3	camera_D4	
0	0.0230449	0.0294606	-0.0013508	-0.00116347	0.000678263	0.00258603	0.05071	0	0.01774	-2.26369	1.66533e-16	-1.5708	545.901	551.038	324.928	201.58	0.0255298	2.61142	-0.0636736	-0.0350419	0.213964
1	-0.0145762	-0.0182606	0.00550963	0.014906	-0.0159151	-0.0352179	0.0209037	0.0286339	-0.000960696	-0.00112201	0.000653951	0.00276135	0.0540154	-0.00304266	0.0188215	-2.20511	0.0141696	-1.53639	0	0	0	0	-0	0	0	0	-0.1265	0	-0	0	0	0	0	0	-0	0	0.105	-0.015	0	0	-0	0	0	-0.098	0.1	0	-0	0	0	0	0	0	-0	0	0.05595	0	0	0	-0	0	0	0	0	0	-0	0	545.901	551.039	324.929	201.581	-0.0413853	2.58859	-0.0742197	-0.0659174	0.20865
2	-0.0127596	-0.0358218	-0.00180091	0.0173261	-0.0275481	-0.0331823	0.0209516	0.0288128	-0.00102424	-0.00112877	0.000659676	0.0027702	0.0533615	-0.00185662	0.0220886	-2.21283	0.0220406	-1.52674	0	0	0	0	-0	0	0	0	-0.1265	0	-0	0	0	0	0	0	-0	0	0.105	-0.015	0	0	-0	0	0	-0.098	0.1	0	-0	0	0	0	0	0	-0	0	0.05595	0	0	0	-0	0	0	0	0	0	-0	0	545.903	551.04	324.934	201.586	-0.230886	2.46303	-0.0179815	-0.0364861	0.164808
3	-0.0139643	-0.0288735	0.00141756	0.0173081	-0.0219853	-0.0361821	0.0210039	0.0288179	-0.00124302	-0.00115368	0.000678249	0.00276373	0.0549738	-0.00279578	0.0184383	-2.20712	0.0211886	-1.52941	0	0	0	0	-0	0	0	0	-0.1265	0	-0	0	0	0	0	0	-0	0	0.105	-0.015	0	0	-0	0	0	-0.098	0.1	0	-0	0	0	0	0	0	-0	0	0.05595	0	0	0	-0	0	0	0	0	0	-0	0	545.904	551.041	324.939	201.591	-0.468302	2.31228	-0.00802354	-0.0303904	0.114064
4	-0.0142426	-0.0253082	0.00357494	0.0144623	-0.018919	-0.0386134	0.0211169	0.0288177	-0.00128763	-0.00115993	0.000677752	0.00274677	0.0559849	-0.00337562	0.0160386	-2.2054	0.020941	-1.53292	0	0	0	0	-0	0	0	0	-0.1265	0	-0	0	0	0	0	0	-0	0	0.105	-0.015	0	0	-0	0	0	-0.098	0.1	0	-0	0	0	0	0	0	-0	0	0.05595	0	0	0	-0	0	0	0	0	0	-0	0	545.909	551.041	324.948	201.599	-0.693845	2.05674	0.02304	-0.00993351	0.0119845
5	-0.0144342	-0.023274	0.005644	0.012879	-0.0172833	-0.0399775	0.0211477	0.028786	-0.00128325	-0.0011547	0.00067135	0.00274075	0.0558724	-0.00373514	0.0154743	-2.20451	0.0204865	-1.53419	0	0	0	0	-0	0	0	0	-0.1265	0	-0	0	0	0	0	0	-0	0	0.105	-0.015	0	0	-0	0	0	-0.098	0.1	0	-0	0	0	0	0	0	-0	0	0.05595	0	0	0	-0	0	0	0	0	0	-0	0	545.92	551.04	324.961	201.609	-0.64809	1.69451	0.0266129	-0.00556956	-0.162614
6	-0.0145259	-0.022116	0.00765543	0.0118074	-0.0165806	-0.0406977	0.021134	0.0287304	-0.00120824	-0.00115743	0.000691596	0.00275177	0.0548126	-0.00392369	0.0163199	-2.20444	0.0196805	-1.53471	0	0	0	0	-0	0	0	0	-0.1265	0	-0	0	0	0	0	0	-0	0	0.105	-0.015	0	0	-0	0	0	-0.098	0.1	0	-0	0	0	0	0	0	-0	0	0.05595	0	0	0	-0	0	0	0	0	0	-0	0	545.937	551.036	324.978	201.62	-0.405414	1.15924	0.0141016	-0.00953851	-0.437996
7	-0.0145367	-0.0214495	0.009149	0.0108563	-0.0163161	-0.0411498	0.0211185	0.0286849	-0.00112329	-0.00115521	0.000691485	0.00274855	0.0537755	-0.00402539	0.0172956	-2.20467	0.0190151	-1.53509	0	0	0	0	-0	0	0	0	-0.1265	0	-0	0	0	0	0	0	-0	0	0.105	-0.015	0	0	-0	0	0	-0.098	0.1	0	-0	0	0	0	0	0	-0	0	0.05595	0	0	0	-0	0	0	0	0	0	-0	0	545.959	551.029	324.99	201.627	-0.161634	0.628363	0.00157498	-0.0137756	-0.71645
8	-0.0145377	-0.0213587	0.00973989	0.0103291	-0.0163782	-0.0412876	0.0211104	0.0286647	-0.00107303	-0.00130648	0.000809748	0.00255264	0.0532463	-0.00404523	0.0178526	-2.20502	0.0187543	-1.53522	0	0	0	0	-0	0	0	0	-0.1265	0	-0	0	0	0	0	0	-0	0	0.105	-0.015	0	0	-0	0	0	-0.098	0.1	0	-0	0	0	0	0	0	-0	0	0.05595	0	0	0	-0	0	0	0	0	0	-0	0	545.991	551.019	324.994	201.635	-0.0365289	0.344154	-0.00416626	-0.0156451	-0.879624
9	-0.0147695	-0.0213759	0.00985684	0.0101853	-0.0164197	-0.0412891	0.0211082	0.0286596	-0.00105956	-0.00114933	0.000892843	0.00230249	0.0531241	-0.00404374	0.0179828	-2.20542	0.0187085	-1.53525	0	0	0	0	-0	0	0	0	-0.1265	0	-0	0	0	0	0	0	-0	0	0.105	-0.015	0	0	-0	0	0	-0.098	0.1	0	-0	0	0	0	0	0	-0	0	0.05595	0	0	0	-0	0	0	0	0	0	-0	0	546.069	550.995	324.998	201.662	-0.0101282	0.292303	-0.00519848	-0.0160179	-0.955517
10	-0.0144239	-0.0213869	0.00986828	0.0101416	-0.0164254	-0.0412658	0.0211075	0.0286578	-0.00105739	-0.0011398	0.000182981	0.00156371	0.0531029	-0.0040407	0.0180173	-2.20524	0.0186962	-1.53528	0	0	0	0	-0	0	0	0	-0.1265	0	-0	0	0	0	0	0	-0	0	0.105	-0.015	0	0	-0	0	0	-0.098	0.1	0	-0	0	0	0	0	0	-0	0	0.05595	0	0	0	-0	0	0	0	0	0	-0	0	546.273	550.947	325	201.748	-0.0166298	0.33652	-0.00472143	-0.0160187	-1.05919
11	-0.0156422	-0.0214048	0.00987145	0.0100783	-0.0164285	-0.0412251	0.0211066	0.0286554	-0.00105535	-0.00182815	0.000307225	0.00362456	0.0531124	-0.00403517	0.0179642	-2.20694	0.0187779	-1.53533	0	0	0	0	-0	0	0	0	-0.1265	0	-0	0	0	0	0	0	-0	0	0.105	-0.015	0	0	-0	0	0	-0.098	0.1	0	-0	0	0	0	0	0	-0	0	0.05595	0	0	0	-0	0	0	0	0	0	-0	0	546.729	550.924	324.983	202.01	-0.0347585	0.438313	-0.00356768	-0.0159734	-1.264
12	-0.00521073	-0.0214246	0.00987431	0.00999538	-0.0164236	-0.0411725	0.0211062	0.0286521	-0.00105173	-0.00126191	-0.00808237	0.0062655	0.0528932	-0.00402721	0.0185528	-2.19804	0.0185862	-1.5351	0	0	0	0	-0	0	0	0	-0.1265	0	-0	0	0	0	0	0	-0	0	0.105	-0.015	0	0	-0	0	0	-0.098	0.1	0	-0	0	0	0	0	0	-0	0	0.05595	0	0	0	-0	0	0	0	0	0	-0	0	547.547	551.249	324.864	202.792	-0.0584011	0.577005	-0.00212614	-0.015997	-1.54869
13	-0.00473985	-0.0214382	0.00987122	0.00991612	-0.0163974	-0.0411216	0.021102	0.028662	-0.00105477	0.0313673	0.00601449	0.0206132	0.0528097	-0.00401788	0.0186601	-2.20183	0.0191333	-1.5348	0	0	0	0	-0	0	0	0	-0.1265	0	-0	0	0	0	0	0	-0	0	0.105	-0.015	0	0	-0	0	0	-0.098	0.1	0	-0	0	0	0	0	0	-0	0	0.05595	0	0	0	-0	0	0	0	0	0	-0	0	548.931	552.569	324.463	204.933	-0.0802831	0.727761	-0.000954234	-0.0162812	-1.88137
14	-0.0200141	-0.0214442	0.00986578	0.00987594	-0.0163806	-0.0410971	0.0211126	0.0286483	-0.00104626	0.0320929	0.0324738	0.0279924	0.0530688	-0.00401309	0.0178843	-2.2191	0.0199489	-1.53496	0	0	0	0	-0	0	0	0	-0.1265	0	-0	0	0	0	0	0	-0	0	0.105	-0.015	0	0	-0	0	0	-0.098	0.1	0	-0	0	0	0	0	0	-0	0	0.05595	0	0	0	-0	0	0	0	0	0	-0	0	549.5	553.218	324.274	205.949	-0.0898055	0.805122	-0.000623006	-0.0164011	-2.0658
15	-0.0263147	-0.0214574	0.00985374	0.00983908	-0.01636	-0.0410655	0.0211183	0.0286639	-0.00103753	0.046574	0.0172053	0.0581149	0.0531244	-0.00400726	0.0176132	-2.22936	0.0207289	-1.53479	0	0	0	0	-0	0	0	0	-0.1265	0	-0	0	0	0	0	0	-0	0	0.105	-0.015	0	0	-0	0	0	-0.098	0.1	0	-0	0	0	0	0	0	-0	0	0.05595	0	0	0	-0	0	0	0	0	0	-0	0	550.515	554.407	323.894	207.966	-0.101887	0.907727	-4.8259e-05	-0.0167171	-2.31457
16	-0.0474488	-0.0214756	0.00984035	0.0097781	-0.0163363	-0.0410251	0.0210954	0.0286579	-0.00104461	0.0011833	-0.0133769	0.0474747	0.0534415	-0.00400013	0.0165608	-2.2553	0.0221686	-1.53489	0	0	0	0	-0	0	0	0	-0.1265	0	-0	0	0	0	0	0	-0	0	0.105	-0.015	0	0	-0	0	0	-0.098	0.1	0	-0	0	0	0	0	0	-0	0	0.05595	0	0	0	-0	0	0	0	0	0	-0	0	551.64	555.731	323.435	210.444	-0.115297	1.02965	0.000662439	-0.0170957	-2.62345
17	-0.050137	-0.021496	0.00982906	0.00974413	-0.0163309	-0.0410002	0.0211087	0.0286491	-0.00102751	0.000229689	-0.00522689	0.0262698	0.0534578	-0.00399575	0.0164402	-2.26013	0.0225726	-1.53481	0	0	0	0	-0	0	0	0	-0.1265	0	-0	0	0	0	0	0	-0	0	0.105	-0.015	0	0	-0	0	0	-0.098	0.1	0	-0	0	0	0	0	0	-0	0	0.05595	0	0	0	-0	0	0	0	0	0	-0	0	552.123	556.31	323.24	211.559	-0.12349	1.10546	0.00099412	-0.0172349	-2.81977
18	-0.0510677	-0.02151	0.00981602	0.00971616	-0.0163196	-0.040976	0.0211041	0.028647	-0.00102689	0.0174509	-0.00975609	0.0261402	0.0534473	-0.00399176	0.0164261	-2.26382	0.0229956	-1.53465	0	0	0	0	-0	0	0	0	-0.1265	0	-0	0	0	0	0	0	-0	0	0.105	-0.015	0	0	-0	0	0	-0.098	0.1	0	-0	0	0	0	0	0	-0	0	0.05595	0	0	0	-0	0	0	0	0	0	-0	0	552.72	557.01	322.988	212.997	-0.131262	1.17993	0.00142867	-0.0174554	-3.0156
19	-0.0647929	-0.021519	0.00980923	0.00969844	-0.0163158	-0.0409631	0.0211048	0.0286427	-0.00102651	0.0196295	-0.00015065	0.0358374	0.0536651	-0.00398944	0.0157037	-2.27859	0.023634	-1.53491	0	0	0	0	-0	0	0	0	-0.1265	0	-0	0	0	0	0	0	-0	0	0.105	-0.015	0	0	-0	0	0	-0.098	0.1	0	-0	0	0	0	0	0	-0	0	0.05595	0	0	0	-0	0	0	0	0	0	-0	0	552.942	557.274	322.896	213.546	-0.135265	1.21789	0.00160424	-0.0175159	-3.1165
20	-0.0687605	-0.0215339	0.00980009	0.00968163	-0.016313	-0.0409472	0.0211016	0.0286431	-0.00101736	0.0503587	0.0339817	0.0280939	0.0537061	-0.0039871	0.0155135	-2.28445	0.0240424	-1.53488	0	0	0	0	-0	0	0	0	-0.1265	0	-0	0	0	0	0	0	-0	0	0.105	-0.015	0	0	-0	0	0	-0.098	0.1	0	-0	0	0	0	0	0	-0	0	0.05595	0	0	0	-0	0	0	0	0	0	-0	0	553.327	557.724	322.731	214.541	-0.139859	1.26457	0.00191301	-0.0176723	-3.24381
21	-0.0657925	-0.0215341	0.00979833	0.00967068	-0.0163097	-0.040942	0.0211032	0.0286408	-0.00102263	0.0531565	0.040612	0.0318409	0.0536584	-0.0039859	0.0156748	-2.28174	0.0239672	-1.53481	0	0	0	0	-0	0	0	0	-0.1265	0	-0	0	0	0	0	0	-0	0	0.105	-0.015	0	0	-0	0	0	-0.098	0.1	0	-0	0	0	0	0	0	-0	0	0.05595	0	0	0	-0	0	0	0	0	0	-0	0	553.377	557.785	322.709	214.672	-0.141034	1.27601	0.00195651	-0.0176713	-3.27549
22	-0.0788075	-0.0215438	0.0097929	0.0096634	-0.0163097	-0.0409339	0.0211037	0.0286421	-0.00102153	0.0598614	0.0368025	0.0394791	0.053855	-0.00398488	0.0149872	-2.29571	0.0245652	-1.53506	0	0	0	0	-0	0	0	0	-0.1265	0	-0	0	0	0	0	0	-0	0	0.105	-0.015	0	0	-0	0	0	-0.098	0.1	0	-0	0	0	0	0	0	-0	0	0.05595	0	0	0	-0	0	0	0	0	0	-0	0	553.568	558.006	322.63	215.179	-0.143728	1.30263	0.00212421	-0.0177508	-3.34729
23	-0.0691921	-0.0215471	0.00978996	0.00965745	-0.016308	-0.040929	0.021103	0.0286401	-0.00102056	0.0563187	0.0286517	0.0407789	0.0537033	-0.00398404	0.0155087	-2.28656	0.0242808	-1.53481	0	0	0	0	-0	0	0	0	-0.1265	0	-0	0	0	0	0	0	-0	0	0.105	-0.015	0	0	-0	0	0	-0.098	0.1	0	-0	0	0	0	0	0	-0	0	0.05595	0	0	0	-0	0	0	0	0	0	-0	0	553.657	558.113	322.594	215.421	-0.145088	1.31647	0.00220131	-0.0177787	-3.38566
24	-0.0725114	-0.0215486	0.0097887	0.00965456	-0.0163076	-0.0409269	0.0211027	0.0286403	-0.00102068	0.0530206	0.0259029	0.0378783	0.0537512	-0.00398366	0.0153313	-2.29004	0.0244212	-1.53488	0	0	0	0	-0	0	0	0	-0.1265	0	-0	0	0	0	0	0	-0	0	0.105	-0.015	0	0	-0	0	0	-0.098	0.1	0	-0	0	0	0	0	0	-0	0	0.05595	0	0	0	-0	0	0	0	0	0	-0	0	553.689	558.151	322.581	215.508	-0.145661	1.32206	0.00223108	-0.0177869	-3.40095
25	-0.0780735	-0.0215543	0.00978581	0.0096479	-0.0163073	-0.0409218	0.0211036	0.0286419	-0.0010192	0.0484656	0.0254338	0.0484498	0.0538312	-0.00398296	0.0150398	-2.29624	0.0247032	-1.53499	0	0	0	0	-0	0	0	0	-0.1265	0	-0	0	0	0	0	0	-0	0	0.105	-0.015	0	0	-0	0	0	-0.098	0.1	0	-0	0	0	0	0	0	-0	0	0.05595	0	0	0	-0	0	0	0	0	0	-0	0	553.811	558.295	322.531	215.844	-0.147117	1.33753	0.00233656	-0.0178385	-3.44421
26	-0.07761	-0.0215566	0.00978382	0.00964275	-0.0163061	-0.0409181	0.0211028	0.0286401	-0.00101844	0.0546809	0.0343286	0.0438513	0.053821	-0.00398234	0.0150682	-2.29612	0.0247293	-1.53496	0	0	0	0	-0	0	0	0	-0.1265	0	-0	0	0	0	0	0	-0	0	0.105	-0.015	0	0	-0	0	0	-0.098	0.1	0	-0	0	0	0	0	0	-0	0	0.05595	0	0	0	-0	0	0	0	0	0	-0	0	553.876	558.371	322.505	216.025	-0.14808	1.34739	0.0023975	-0.0178588	-3.47183
27	-0.0758545	-0.0215613	0.00978114	0.00963757	-0.016306	-0.0409138	0.0211033	0.0286411	-0.00101893	0.0605049	0.0311392	0.0509543	0.053791	-0.0039817	0.0151684	-2.29485	0.0247268	-1.5349	0	0	0	0	-0	0	0	0	-0.1265	0	-0	0	0	0	0	0	-0	0	0.105	-0.015	0	0	-0	0	0	-0.098	0.1	0	-0	0	0	0	0	0	-0	0	0.05595	0	0	0	-0	0	0	0	0	0	-0	0	553.969	558.48	322.47	216.283	-0.149267	1.36	0.00247868	-0.0178949	-3.50725
28	-0.0853492	-0.0215672	0.00977773	0.0096299	-0.0163055	-0.0409078	0.0211052	0.0286413	-0.0010182	0.0671606	0.0183429	0.0501586	0.0539297	-0.00398084	0.0146655	-2.30502	0.0251495	-1.5351	0	0	0	0	-0	0	0	0	-0.1265	0	-0	0	0	0	0	0	-0	0	0.105	-0.015	0	0	-0	0	0	-0.098	0.1	0	-0	0	0	0	0	0	-0	0	0.05595	0	0	0	-0	0	0	0	0	0	-0	0	554.095	558.626	322.421	216.641	-0.150742	1.3761	0.00259643	-0.0179447	-3.55342
29	-0.078716	-0.0215709	0.00977463	0.00962466	-0.0163046	-0.0409032	0.0211044	0.0286412	-0.00101934	0.0697381	0.0278259	0.0617508	0.0538268	-0.00398011	0.0150277	-2.29887	0.0249691	-1.53492	0	0	0	0	-0	0	0	0	-0.1265	0	-0	0	0	0	0	0	-0	0	0.105	-0.015	0	0	-0	0	0	-0.098	0.1	0	-0	0	0	0	0	0	-0	0	0.05595	0	0	0	-0	0	0	0	0	0	-0	0	554.181	558.728	322.388	216.893	-0.15188	1.38844	0.00267997	-0.0179754	-3.58892
30	-0.066054	-0.02158	0.00976986	0.00961491	-0.016305	-0.0408955	0.0211033	0.0286385	-0.00101629	0.0852333	0.0506333	0.0611652	0.0536284	-0.00397908	0.0157196	-2.28716	0.0246246	-1.53457	0	0	0	0	-0	0	0	0	-0.1265	0	-0	0	0	0	0	0	-0	0	0.105	-0.015	0	0	-0	0	0	-0.098	0.1	0	-0	0	0	0	0	0	-0	0	0.05595	0	0	0	-0	0	0	0	0	0	-0	0	554.346	558.923	322.324	217.395	-0.153568	1.40852	0.00283691	-0.0180468	-3.64841
31	-0.0718679	-0.0215842	0.00976646	0.00960935	-0.0163044	-0.0408906	0.0211022	0.0286397	-0.00101687	0.0927747	0.0569553	0.0669869	0.0537128	-0.00397825	0.0154106	-2.29341	0.0248818	-1.5347	0	0	0	0	-0	0	0	0	-0.1265	0	-0	0	0	0	0	0	-0	0	0.105	-0.015	0	0	-0	0	0	-0.098	0.1	0	-0	0	0	0	0	0	-0	0	0.05595	0	0	0	-0	0	0	0	0	0	-0	0	554.423	559.016	322.297	217.628	-0.154746	1.42124	0.0029134	-0.0180692	-3.68511
32	-0.0800246	-0.0215889	0.00976402	0.00960281	-0.0163045	-0.0408864	0.0211026	0.0286464	-0.00101178	0.07218	0.0535893	0.0793693	0.053835	-0.00397765	0.0149763	-2.30201	0.0252217	-1.5349	0	0	0	0	-0	0	0	0	-0.1265	0	-0	0	0	0	0	0	-0	0	0.105	-0.015	0	0	-0	0	0	-0.098	0.1	0	-0	0	0	0	0	0	-0	0	0.05595	0	0	0	-0	0	0	0	0	0	-0	0	554.499	559.106	322.272	217.862	-0.155878	1.43335	0.00299353	-0.0180956	-3.71978
33	-0.0886735	-0.0215904	0.00976295	0.00959642	-0.016303	-0.0408829	0.021105	0.0286406	-0.00101221	0.0752655	0.0667384	0.0672201	0.0539609	-0.00397711	0.014513	-2.31097	0.0255612	-1.53511	0	0	0	0	-0	0	0	0	-0.1265	0	-0	0	0	0	0	0	-0	0	0.105	-0.015	0	0	-0	0	0	-0.098	0.1	0	-0	0	0	0	0	0	-0	0	0.05595	0	0	0	-0	0	0	0	0	0	-0	0	554.554	559.17	322.255	218.029	-0.156724	1.44229	0.00305237	-0.0181111	-3.74548
34	-0.0944693	-0.0215932	0.00976033	0.00959624	-0.0163033	-0.0408807	0.0211019	0.0286392	-0.00101455	0.0693561	0.0658871	0.0679915	0.0540418	-0.00397678	0.014202	-2.31699	0.0257894	-1.53526	0	0	0	0	-0	0	0	0	-0.1265	0	-0	0	0	0	0	0	-0	0	0.105	-0.015	0	0	-0	0	0	-0.098	0.1	0	-0	0	0	0	0	0	-0	0	0.05595	0	0	0	-0	0	0	0	0	0	-0	0	554.592	559.216	322.244	218.148	-0.157286	1.44852	0.00309168	-0.0181242	-3.76354
35	-0.0901236	-0.0215952	0.00975968	0.00959432	-0.0163041	-0.0408797	0.021102	0.028639	-0.00101444	0.0732342	0.0648538	0.0673067	0.0539787	-0.00397661	0.0144375	-2.31274	0.0256437	-1.53514	0	0	0	0	-0	0	0	0	-0.1265	0	-0	0	0	0	0	0	-0	0	0.105	-0.015	0	0	-0	0	0	-0.098	0.1	0	-0	0	0	0	0	0	-0	0	0.05595	0	0	0	-0	0	0	0	0	0	-0	0	554.608	559.235	322.24	218.197	-0.157533	1.45117	0.00310835	-0.0181274	-3.77132
36	-0.0874	-0.0215959	0.00975918	0.00959352	-0.016304	-0.0408791	0.0211021	0.0286388	-0.0010144	0.0718452	0.0672046	0.0680417	0.0539385	-0.00397651	0.014585	-2.31008	0.0255525	-1.53507	0	0	0	0	-0	0	0	0	-0.1265	0	-0	0	0	0	0	0	-0	0	0.105	-0.015	0	0	-0	0	0	-0.098	0.1	0	-0	0	0	0	0	0	-0	0	0.05595	0	0	0	-0	0	0	0	0	0	-0	0	554.619	559.249	322.237	218.232	-0.157729	1.4532	0.00312067	-0.0181306	-3.77706
37	-0.0899433	-0.0215968	0.00975867	0.00959252	-0.0163041	-0.0408783	0.0211023	0.0286387	-0.00101427	0.0721183	0.0725034	0.0676159	0.0539749	-0.0039764	0.0144485	-2.31271	0.0256509	-1.53514	0	0	0	0	-0	0	0	0	-0.1265	0	-0	0	0	0	0	0	-0	0	0.105	-0.015	0	0	-0	0	0	-0.098	0.1	0	-0	0	0	0	0	0	-0	0	0.05595	0	0	0	-0	0	0	0	0	0	-0	0	554.634	559.266	322.233	218.276	-0.157939	1.45546	0.0031362	-0.0181355	-3.78357
38	-0.0945811	-0.021598	0.00975792	0.00959142	-0.0163041	-0.0408773	0.021102	0.0286387	-0.0010142	0.0713636	0.0715676	0.0662815	0.0540411	-0.00397626	0.0141993	-2.31746	0.0258262	-1.53526	0	0	0	0	-0	0	0	0	-0.1265	0	-0	0	0	0	0	0	-0	0	0.105	-0.015	0	0	-0	0	0	-0.098	0.1	0	-0	0	0	0	0	0	-0	0	0.05595	0	0	0	-0	0	0	0	0	0	-0	0	554.653	559.289	322.228	218.337	-0.158188	1.45835	0.0031551	-0.0181423	-3.79206
39	-0.0974428	-0.0215989	0.00975738	0.00959028	-0.0163042	-0.0408764	0.0211024	0.0286393	-0.00101462	0.0744838	0.0750234	0.0731063	0.0540806	-0.00397613	0.0140455	-2.32041	0.0259353	-1.53533	0	0	0	0	-0	0	0	0	-0.1265	0	-0	0	0	0	0	0	-0	0	0.105	-0.015	0	0	-0	0	0	-0.098	0.1	0	-0	0	0	0	0	0	-0	0	0.05595	0	0	0	-0	0	0	0	0	0	-0	0	554.668	559.307	322.224	218.383	-0.158389	1.4606	0.0031706	-0.0181467	-3.79872
40	-0.0940114	-0.0216008	0.00975634	0.00958827	-0.0163043	-0.0408749	0.0211022	0.0286386	-0.0010139	0.0747965	0.0700871	0.0727798	0.0540309	-0.00397592	0.014233	-2.31716	0.0258296	-1.53524	0	0	0	0	-0	0	0	0	-0.1265	0	-0	0	0	0	0	0	-0	0	0.105	-0.015	0	0	-0	0	0	-0.098	0.1	0	-0	0	0	0	0	0	-0	0	0.05595	0	0	0	-0	0	0	0	0	0	-0	0	554.7	559.346	322.216	218.483	-0.15876	1.46497	0.00320307	-0.0181583	-3.81177
41	-0.0903272	-0.0216021	0.00975543	0.00958666	-0.0163043	-0.0408736	0.0211023	0.028639	-0.00101392	0.0743608	0.0676213	0.0670066	0.0539773	-0.00397571	0.0144333	-2.31361	0.0257088	-1.53514	0	0	0	0	-0	0	0	0	-0.1265	0	-0	0	0	0	0	0	-0	0	0.105	-0.015	0	0	-0	0	0	-0.098	0.1	0	-0	0	0	0	0	0	-0	0	0.05595	0	0	0	-0	0	0	0	0	0	-0	0	554.722	559.373	322.211	218.55	-0.159058	1.46835	0.0032249	-0.0181643	-3.82173
42	-0.0961592	-0.021605	0.00975388	0.0095838	-0.0163046	-0.0408713	0.021103	0.0286381	-0.00101438	0.0833952	0.0838737	0.0701046	0.0540594	-0.00397541	0.0141212	-2.31971	0.025938	-1.53529	0	0	0	0	-0	0	0	0	-0.1265	0	-0	0	0	0	0	0	-0	0	0.105	-0.015	0	0	-0	0	0	-0.098	0.1	0	-0	0	0	0	0	0	-0	0	0.05595	0	0	0	-0	0	0	0	0	0	-0	0	554.767	559.426	322.2	218.694	-0.159589	1.47463	0.00327208	-0.0181804	-3.84055
43	-0.0950795	-0.021609	0.00975139	0.00958047	-0.0163051	-0.0408681	0.0211026	0.0286384	-0.00101243	0.0793529	0.0732879	0.0735075	0.054041	-0.003975	0.0141831	-2.319	0.0259281	-1.53527	0	0	0	0	-0	0	0	0	-0.1265	0	-0	0	0	0	0	0	-0	0	0.105	-0.015	0	0	-0	0	0	-0.098	0.1	0	-0	0	0	0	0	0	-0	0	0.05595	0	0	0	-0	0	0	0	0	0	-0	0	554.826	559.498	322.188	218.892	-0.160243	1.48281	0.00333563	-0.0182011	-3.86562
44	-0.0968444	-0.0216092	0.00975095	0.0095782	-0.0163046	-0.0408671	0.021102	0.0286387	-0.00101288	0.0817738	0.0710524	0.0706752	0.0540658	-0.00397475	0.0140881	-2.32082	0.0259936	-1.53532	0	0	0	0	-0	0	0	0	-0.1265	0	-0	0	0	0	0	0	-0	0	0.105	-0.015	0	0	-0	0	0	-0.098	0.1	0	-0	0	0	0	0	0	-0	0	0.05595	0	0	0	-0	0	0	0	0	0	-0	0	554.834	559.508	322.186	218.918	-0.160424	1.48458	0.00334781	-0.0181984	-3.8709
45	-0.0939232	-0.0216107	0.00975028	0.00957683	-0.016305	-0.040866	0.021102	0.0286384	-0.00101255	0.0789527	0.0654742	0.0723999	0.054024	-0.00397463	0.014247	-2.31801	0.0258979	-1.53524	0	0	0	0	-0	0	0	0	-0.1265	0	-0	0	0	0	0	0	-0	0	0.105	-0.015	0	0	-0	0	0	-0.098	0.1	0	-0	0	0	0	0	0	-0	0	0.05595	0	0	0	-0	0	0	0	0	0	-0	0	554.853	559.53	322.183	218.978	-0.160725	1.48786	0.00336876	-0.0182044	-3.88037
46	-0.0941391	-0.0216114	0.0097498	0.00957606	-0.0163049	-0.0408654	0.0211019	0.0286385	-0.00101286	0.0811422	0.0683319	0.0755952	0.0540266	-0.00397452	0.0142358	-2.31828	0.0259092	-1.53525	0	0	0	0	-0	0	0	0	-0.1265	0	-0	0	0	0	0	0	-0	0	0.105	-0.015	0	0	-0	0	0	-0.098	0.1	0	-0	0	0	0	0	0	-0	0	0.05595	0	0	0	-0	0	0	0	0	0	-0	0	554.862	559.541	322.181	219.008	-0.160902	1.48968	0.00338006	-0.018206	-3.88563
47	-0.0936991	-0.0216119	0.00974949	0.0095755	-0.016305	-0.0408649	0.021102	0.0286386	-0.0010125	0.0799061	0.0674329	0.0798189	0.0540201	-0.00397446	0.0142599	-2.31788	0.0258963	-1.53524	0	0	0	0	-0	0	0	0	-0.1265	0	-0	0	0	0	0	0	-0	0	0.105	-0.015	0	0	-0	0	0	-0.098	0.1	0	-0	0	0	0	0	0	-0	0	0.05595	0	0	0	-0	0	0	0	0	0	-0	0	554.869	559.55	322.18	219.03	-0.161017	1.49093	0.00338749	-0.0182076	-3.88926
48	-0.0902974	-0.021613	0.00974886	0.0095746	-0.0163051	-0.0408641	0.0211017	0.028639	-0.00101269	0.0727982	0.0668235	0.0777358	0.0539713	-0.00397436	0.0144443	-2.31457	0.025781	-1.53515	0	0	0	0	-0	0	0	0	-0.1265	0	-0	0	0	0	0	0	-0	0	0.105	-0.015	0	0	-0	0	0	-0.098	0.1	0	-0	0	0	0	0	0	-0	0	0.05595	0	0	0	-0	0	0	0	0	0	-0	0	554.883	559.567	322.178	219.079	-0.161266	1.49363	0.00340373	-0.0182121	-3.89698
49	-0.0886117	-0.0216135	0.00974862	0.00957378	-0.0163051	-0.0408636	0.0211018	0.0286387	-0.00101239	0.0680613	0.0672605	0.0786901	0.0539462	-0.00397428	0.0145357	-2.31293	0.0257235	-1.53511	0	0	0	0	-0	0	0	0	-0.1265	0	-0	0	0	0	0	0	-0	0	0.105	-0.015	0	0	-0	0	0	-0.098	0.1	0	-0	0	0	0	0	0	-0	0	0.05595	0	0	0	-0	0	0	0	0	0	-0	0	554.891	559.576	322.177	219.103	-0.161349	1.49466	0.00341208	-0.0182134	-3.90024
50	-0.0897106	-0.0216146	0.00974798	0.00957272	-0.0163053	-0.0408627	0.021102	0.0286391	-0.00101234	0.0744324	0.0644073	0.0783673	0.0539615	-0.00397416	0.0144774	-2.31413	0.0257685	-1.53514	0	0	0	0	-0	0	0	0	-0.1265	0	-0	0	0	0	0	0	-0	0	0.105	-0.015	0	0	-0	0	0	-0.098	0.1	0	-0	0	0	0	0	0	-0	0	0.05595	0	0	0	-0	0	0	0	0	0	-0	0	554.907	559.595	322.175	219.155	-0.161566	1.49715	0.0034304	-0.0182184	-3.90768
51	-0.0882694	-0.0216161	0.00974715	0.00957099	-0.0163054	-0.0408615	0.0211019	0.0286393	-0.00101269	0.0669688	0.0635866	0.0729283	0.0539397	-0.00397399	0.0145566	-2.31283	0.025725	-1.5351	0	0	0	0	-0	0	0	0	-0.1265	0	-0	0	0	0	0	0	-0	0	0.105	-0.015	0	0	-0	0	0	-0.098	0.1	0	-0	0	0	0	0	0	-0	0	0.05595	0	0	0	-0	0	0	0	0	0	-0	0	554.93	559.623	322.172	219.231	-0.16183	1.50039	0.00345535	-0.018225	-3.91762
52	-0.0890669	-0.0216169	0.00974661	0.00956995	-0.0163055	-0.0408607	0.0211019	0.0286386	-0.00101208	0.0708733	0.061415	0.0725664	0.0539509	-0.00397387	0.0145143	-2.3137	0.0257572	-1.53512	0	0	0	0	-0	0	0	0	-0.1265	0	-0	0	0	0	0	0	-0	0	0.105	-0.015	0	0	-0	0	0	-0.098	0.1	0	-0	0	0	0	0	0	-0	0	0.05595	0	0	0	-0	0	0	0	0	0	-0	0	554.941	559.636	322.171	219.268	-0.161982	1.50213	0.00346869	-0.0182266	-3.92294
53	-0.0869699	-0.0216178	0.00974604	0.00956933	-0.0163056	-0.0408601	0.0211023	0.0286383	-0.00101163	0.0725714	0.0684286	0.06913	0.0539201	-0.00397377	0.014628	-2.31167	0.0256858	-1.53507	0	0	0	0	-0	0	0	0	-0.1265	0	-0	0	0	0	0	0	-0	0	0.105	-0.015	0	0	-0	0	0	-0.098	0.1	0	-0	0	0	0	0	0	-0	0	0.05595	0	0	0	-0	0	0	0	0	0	-0	0	554.952	559.65	322.17	219.304	-0.162152	1.50406	0.00348023	-0.0182292	-3.92862
54	-0.0834712	-0.0216194	0.00974503	0.0095681	-0.0163058	-0.0408589	0.0211025	0.0286385	-0.00101135	0.0737016	0.0759096	0.0644259	0.053868	-0.00397362	0.014818	-2.30832	0.0255671	-1.53499	0	0	0	0	-0	0	0	0	-0.1265	0	-0	0	0	0	0	0	-0	0	0.105	-0.015	0	0	-0	0	0	-0.098	0.1	0	-0	0	0	0	0	0	-0	0	0.05595	0	0	0	-0	0	0	0	0	0	-0	0	554.975	559.681	322.168	219.382	-0.162451	1.50774	0.00350261	-0.0182359	-3.93968
55	-0.082192	-0.0216201	0.00974447	0.00956703	-0.0163058	-0.0408581	0.0211019	0.0286385	-0.00101177	0.0707628	0.0785334	0.0615084	0.0538482	-0.00397348	0.0148876	-2.30711	0.0255241	-1.53496	0	0	0	0	-0	0	0	0	-0.1265	0	-0	0	0	0	0	0	-0	0	0.105	-0.015	0	0	-0	0	0	-0.098	0.1	0	-0	0	0	0	0	0	-0	0	0.05595	0	0	0	-0	0	0	0	0	0	-0	0	554.987	559.695	322.168	219.42	-0.162606	1.50952	0.00351622	-0.0182372	-3.94516
56	-0.0831859	-0.0216208	0.00974415	0.00956616	-0.016306	-0.0408576	0.0211021	0.0286382	-0.00101182	0.070898	0.0847798	0.0628502	0.0538626	-0.0039734	0.0148347	-2.30816	0.0255618	-1.53498	0	0	0	0	-0	0	0	0	-0.1265	0	-0	0	0	0	0	0	-0	0	0.105	-0.015	0	0	-0	0	0	-0.098	0.1	0	-0	0	0	0	0	0	-0	0	0.05595	0	0	0	-0	0	0	0	0	0	-0	0	554.996	559.706	322.167	219.448	-0.162715	1.51081	0.00352531	-0.0182386	-3.9491
57	-0.0802526	-0.0216222	0.00974342	0.00956499	-0.0163062	-0.0408566	0.0211023	0.0286383	-0.00101185	0.0708627	0.0773309	0.0604408	0.0538183	-0.00397327	0.0149939	-2.30534	0.025461	-1.53491	0	0	0	0	-0	0	0	0	-0.1265	0	-0	0	0	0	0	0	-0	0	0.105	-0.015	0	0	-0	0	0	-0.098	0.1	0	-0	0	0	0	0	0	-0	0	0.05595	0	0	0	-0	0	0	0	0	0	-0	0	555.015	559.728	322.166	219.508	-0.162939	1.51353	0.00354577	-0.0182435	-3.95742
58	-0.0842795	-0.0216241	0.00974229	0.00956322	-0.0163065	-0.0408551	0.0211014	0.0286386	-0.00101068	0.060423	0.0679799	0.0630591	0.0538775	-0.00397307	0.0147785	-2.30953	0.0256109	-1.53502	0	0	0	0	-0	0	0	0	-0.1265	0	-0	0	0	0	0	0	-0	0	0.105	-0.015	0	0	-0	0	0	-0.098	0.1	0	-0	0	0	0	0	0	-0	0	0.05595	0	0	0	-0	0	0	0	0	0	-0	0	555.04	559.759	322.166	219.594	-0.163291	1.51762	0.00357579	-0.0182493	-3.96977
59	-0.0791508	-0.021625	0.00974184	0.00956144	-0.0163066	-0.0408541	0.0211017	0.0286382	-0.00101124	0.0622904	0.0668469	0.0626852	0.0538009	-0.0039729	0.0150555	-2.30448	0.0254291	-1.5349	0	0	0	0	-0	0	0	0	-0.1265	0	-0	0	0	0	0	0	-0	0	0.105	-0.015	0	0	-0	0	0	-0.098	0.1	0	-0	0	0	0	0	0	-0	0	0.05595	0	0	0	-0	0	0	0	0	0	-0	0	555.053	559.774	322.166	219.636	-0.163507	1.51997	0.00359138	-0.01825	-3.97677
60	-0.0785353	-0.0216259	0.00974124	0.00956108	-0.0163068	-0.0408535	0.0211025	0.0286381	-0.00101132	0.0618152	0.0580582	0.0620102	0.0537906	-0.00397283	0.0150889	-2.30392	0.0254086	-1.53488	0	0	0	0	-0	0	0	0	-0.1265	0	-0	0	0	0	0	0	-0	0	0.105	-0.015	0	0	-0	0	0	-0.098	0.1	0	-0	0	0	0	0	0	-0	0	0.05595	0	0	0	-0	0	0	0	0	0	-0	0	555.062	559.785	322.166	219.666	-0.163663	1.52166	0.00360252	-0.0182513	-3.98175
61	-0.0745009	-0.0216263	0.00974083	0.00956057	-0.0163067	-0.0408531	0.0211017	0.0286381	-0.00101116	0.0620071	0.0581356	0.0641526	0.0537296	-0.00397276	0.0153062	-2.29993	0.0252646	-1.53478	0	0	0	0	-0	0	0	0	-0.1265	0	-0	0	0	0	0	0	-0	0	0.105	-0.015	0	0	-0	0	0	-0.098	0.1	0	-0	0	0	0	0	0	-0	0	0.05595	0	0	0	-0	0	0	0	0	0	-0	0	555.068	559.793	322.167	219.689	-0.163793	1.52302	0.00361149	-0.0182521	-3.98569
62	-0.0784595	-0.0216276	0.00974029	0.00955954	-0.016307	-0.0408523	0.0211015	0.0286382	-0.00101107	0.0575651	0.0550942	0.0638852	0.0537892	-0.00397266	0.0150943	-2.30398	0.0254088	-1.53489	0	0	0	0	-0	0	0	0	-0.1265	0	-0	0	0	0	0	0	-0	0	0.105	-0.015	0	0	-0	0	0	-0.098	0.1	0	-0	0	0	0	0	0	-0	0	0.05595	0	0	0	-0	0	0	0	0	0	-0	0	555.082	559.811	322.167	219.738	-0.163942	1.525	0.00362615	-0.0182553	-3.99195
63	-0.0792362	-0.0216281	0.00973999	0.00955876	-0.0163071	-0.0408518	0.021102	0.0286382	-0.00101107	0.0559299	0.0599467	0.0653584	0.0538001	-0.00397258	0.0150529	-2.3048	0.0254373	-1.53491	0	0	0	0	-0	0	0	0	-0.1265	0	-0	0	0	0	0	0	-0	0	0.105	-0.015	0	0	-0	0	0	-0.098	0.1	0	-0	0	0	0	0	0	-0	0	0.05595	0	0	0	-0	0	0	0	0	0	-0	0	555.089	559.82	322.168	219.761	-0.164009	1.52595	0.00363406	-0.0182557	-3.9951
64	-0.0785023	-0.0216284	0.00973965	0.00955851	-0.0163071	-0.0408516	0.0211017	0.0286382	-0.00101093	0.0551351	0.0609136	0.0623755	0.053789	-0.00397254	0.0150926	-2.3041	0.0254114	-1.53489	0	0	0	0	-0	0	0	0	-0.1265	0	-0	0	0	0	0	0	-0	0	0.105	-0.015	0	0	-0	0	0	-0.098	0.1	0	-0	0	0	0	0	0	-0	0	0.05595	0	0	0	-0	0	0	0	0	0	-0	0	555.094	559.827	322.168	219.779	-0.16409	1.52691	0.00363851	-0.0182562	-3.99794
65	-0.0795866	-0.0216294	0.00973918	0.00955772	-0.0163073	-0.040851	0.0211016	0.0286382	-0.00101086	0.0514685	0.0608041	0.062413	0.053805	-0.00397247	0.0150349	-2.30526	0.0254511	-1.53492	0	0	0	0	-0	0	0	0	-0.1265	0	-0	0	0	0	0	0	-0	0	0.105	-0.015	0	0	-0	0	0	-0.098	0.1	0	-0	0	0	0	0	0	-0	0	0.05595	0	0	0	-0	0	0	0	0	0	-0	0	555.104	559.84	322.169	219.818	-0.164223	1.52864	0.00365028	-0.0182584	-4.00333
66	-0.0788887	-0.0216307	0.00973846	0.00955655	-0.0163076	-0.04085	0.0211016	0.028638	-0.00101061	0.0467239	0.054886	0.0633463	0.0537938	-0.00397234	0.0150734	-2.30467	0.0254263	-1.53491	0	0	0	0	-0	0	0	0	-0.1265	0	-0	0	0	0	0	0	-0	0	0.105	-0.015	0	0	-0	0	0	-0.098	0.1	0	-0	0	0	0	0	0	-0	0	0.05595	0	0	0	-0	0	0	0	0	0	-0	0	555.12	559.862	322.172	219.873	-0.164444	1.53132	0.00366734	-0.0182607	-4.0115
67	-0.0796838	-0.0216326	0.00973748	0.00955464	-0.016308	-0.0408486	0.0211017	0.028638	-0.00101073	0.0486428	0.0596264	0.0650377	0.0538048	-0.00397213	0.0150323	-2.30561	0.0254547	-1.53494	0	0	0	0	-0	0	0	0	-0.1265	0	-0	0	0	0	0	0	-0	0	0.105	-0.015	0	0	-0	0	0	-0.098	0.1	0	-0	0	0	0	0	0	-0	0	0.05595	0	0	0	-0	0	0	0	0	0	-0	0	555.145	559.891	322.175	219.95	-0.164773	1.53508	0.00369571	-0.0182637	-4.02292
68	-0.0764655	-0.0216335	0.00973684	0.00955355	-0.0163082	-0.0408478	0.0211016	0.0286379	-0.00101039	0.0542306	0.0669365	0.0645917	0.0537561	-0.00397201	0.0152059	-2.30246	0.0253389	-1.53487	0	0	0	0	-0	0	0	0	-0.1265	0	-0	0	0	0	0	0	-0	0	0.105	-0.015	0	0	-0	0	0	-0.098	0.1	0	-0	0	0	0	0	0	-0	0	0.05595	0	0	0	-0	0	0	0	0	0	-0	0	555.154	559.901	322.177	219.988	-0.164923	1.53684	0.00371107	-0.0182634	-4.02848
69	-0.0788309	-0.0216336	0.00973667	0.00955326	-0.0163081	-0.0408476	0.0211016	0.0286381	-0.00101043	0.0559351	0.0663378	0.0629417	0.0537917	-0.00397196	0.0150788	-2.30484	0.0254236	-1.53493	0	0	0	0	-0	0	0	0	-0.1265	0	-0	0	0	0	0	0	-0	0	0.105	-0.015	0	0	-0	0	0	-0.098	0.1	0	-0	0	0	0	0	0	-0	0	0.05595	0	0	0	-0	0	0	0	0	0	-0	0	555.156	559.904	322.177	219.995	-0.164965	1.53728	0.00371407	-0.0182627	-4.02982
70	-0.0816285	-0.0216341	0.00973646	0.00955294	-0.0163082	-0.0408473	0.0211015	0.0286382	-0.00101026	0.06043	0.0676336	0.0608083	0.0538337	-0.00397193	0.0149285	-2.30766	0.0255235	-1.535	0	0	0	0	-0	0	0	0	-0.1265	0	-0	0	0	0	0	0	-0	0	0.105	-0.015	0	0	-0	0	0	-0.098	0.1	0	-0	0	0	0	0	0	-0	0	0.05595	0	0	0	-0	0	0	0	0	0	-0	0	555.16	559.91	322.178	220.011	-0.165038	1.53816	0.00371831	-0.0182632	-4.03245
71	-0.0802335	-0.0216342	0.00973635	0.00955267	-0.0163082	-0.0408472	0.0211016	0.028638	-0.00101041	0.0605738	0.0665226	0.0593765	0.0538126	-0.00397191	0.0150036	-2.30628	0.0254733	-1.53497	0	0	0	0	-0	0	0	0	-0.1265	0	-0	0	0	0	0	0	-0	0	0.105	-0.015	0	0	-0	0	0	-0.098	0.1	0	-0	0	0	0	0	0	-0	0	0.05595	0	0	0	-0	0	0	0	0	0	-0	0	555.162	559.913	322.179	220.018	-0.16508	1.5386	0.00372107	-0.018263	-4.03376
72	-0.0825998	-0.0216347	0.00973612	0.0095523	-0.0163084	-0.0408469	0.0211016	0.028638	-0.00101036	0.0590591	0.0675857	0.0579443	0.0538478	-0.00397187	0.0148766	-2.30868	0.0255575	-1.53503	0	0	0	0	-0	0	0	0	-0.1265	0	-0	0	0	0	0	0	-0	0	0.105	-0.015	0	0	-0	0	0	-0.098	0.1	0	-0	0	0	0	0	0	-0	0	0.05595	0	0	0	-0	0	0	0	0	0	-0	0	555.168	559.92	322.18	220.035	-0.165159	1.53952	0.003727	-0.0182636	-4.03654
73	-0.0822032	-0.0216354	0.0097357	0.00955197	-0.0163085	-0.0408465	0.0211016	0.028638	-0.0010103	0.0578501	0.0681261	0.0595341	0.0538416	-0.00397182	0.0148983	-2.30833	0.0255423	-1.53503	0	0	0	0	-0	0	0	0	-0.1265	0	-0	0	0	0	0	0	-0	0	0.105	-0.015	0	0	-0	0	0	-0.098	0.1	0	-0	0	0	0	0	0	-0	0	0.05595	0	0	0	-0	0	0	0	0	0	-0	0	555.174	559.93	322.182	220.06	-0.165284	1.54095	0.00373338	-0.018264	-4.04074
74	-0.0797976	-0.0216357	0.00973553	0.00955152	-0.0163085	-0.0408462	0.0211016	0.0286379	-0.00101027	0.0582534	0.0704421	0.0594223	0.0538056	-0.00397177	0.0150281	-2.30595	0.0254555	-1.53497	0	0	0	0	-0	0	0	0	-0.1265	0	-0	0	0	0	0	0	-0	0	0.105	-0.015	0	0	-0	0	0	-0.098	0.1	0	-0	0	0	0	0	0	-0	0	0.05595	0	0	0	-0	0	0	0	0	0	-0	0	555.178	559.934	322.183	220.072	-0.165322	1.54144	0.00373823	-0.0182638	-4.04236
75	-0.0786353	-0.0216359	0.00973539	0.00955132	-0.0163086	-0.040846	0.0211016	0.0286381	-0.00101026	0.0560773	0.0721449	0.060841	0.0537879	-0.00397175	0.0150907	-2.30481	0.0254135	-1.53494	0	0	0	0	-0	0	0	0	-0.1265	0	-0	0	0	0	0	0	-0	0	0.105	-0.015	0	0	-0	0	0	-0.098	0.1	0	-0	0	0	0	0	0	-0	0	0.05595	0	0	0	-0	0	0	0	0	0	-0	0	555.18	559.937	322.184	220.081	-0.165354	1.54186	0.00374151	-0.0182639	-4.04372
76	-0.0769664	-0.0216363	0.00973513	0.00955096	-0.0163087	-0.0408458	0.0211015	0.0286379	-0.00101022	0.0564601	0.0715694	0.0613475	0.0537624	-0.00397171	0.0151808	-2.30317	0.0253525	-1.5349	0	0	0	0	-0	0	0	0	-0.1265	0	-0	0	0	0	0	0	-0	0	0.105	-0.015	0	0	-0	0	0	-0.098	0.1	0	-0	0	0	0	0	0	-0	0	0.05595	0	0	0	-0	0	0	0	0	0	-0	0	555.186	559.944	322.185	220.101	-0.165401	1.54258	0.00374671	-0.0182644	-4.04608
77	-0.0759203	-0.0216371	0.00973474	0.00955029	-0.0163089	-0.0408453	0.0211016	0.0286379	-0.00101037	0.0498318	0.0633792	0.0600594	0.0537461	-0.00397164	0.0152376	-2.30218	0.0253134	-1.53488	0	0	0	0	-0	0	0	0	-0.1265	0	-0	0	0	0	0	0	-0	0	0.105	-0.015	0	0	-0	0	0	-0.098	0.1	0	-0	0	0	0	0	0	-0	0	0.05595	0	0	0	-0	0	0	0	0	0	-0	0	555.194	559.955	322.188	220.13	-0.165504	1.54387	0.00375696	-0.0182648	-4.05018
78	-0.0747545	-0.0216375	0.00973451	0.00954987	-0.016309	-0.040845	0.0211016	0.0286381	-0.00101005	0.0519447	0.0634513	0.0575611	0.0537281	-0.00397159	0.0153006	-2.30105	0.0252705	-1.53485	0	0	0	0	-0	0	0	0	-0.1265	0	-0	0	0	0	0	0	-0	0	0.105	-0.015	0	0	-0	0	0	-0.098	0.1	0	-0	0	0	0	0	0	-0	0	0.05595	0	0	0	-0	0	0	0	0	0	-0	0	555.198	559.96	322.189	220.145	-0.165557	1.54452	0.0037619	-0.0182644	-4.05223
79	-0.0722978	-0.0216382	0.00973415	0.009549	-0.0163092	-0.0408444	0.0211015	0.0286384	-0.00100946	0.0582945	0.0679933	0.0534388	0.0536902	-0.00397151	0.0154331	-2.29865	0.0251802	-1.5348	0	0	0	0	-0	0	0	0	-0.1265	0	-0	0	0	0	0	0	-0	0	0.105	-0.015	0	0	-0	0	0	-0.098	0.1	0	-0	0	0	0	0	0	-0	0	0.05595	0	0	0	-0	0	0	0	0	0	-0	0	555.207	559.97	322.192	220.176	-0.165695	1.54609	0.00377407	-0.0182649	-4.05701
80	-0.071998	-0.0216385	0.00973394	0.00954845	-0.0163092	-0.040844	0.0211016	0.0286379	-0.00100992	0.0579625	0.0650819	0.0551659	0.0536853	-0.00397146	0.0154493	-2.29838	0.0251681	-1.53479	0	0	0	0	-0	0	0	0	-0.1265	0	-0	0	0	0	0	0	-0	0	0.105	-0.015	0	0	-0	0	0	-0.098	0.1	0	-0	0	0	0	0	0	-0	0	0.05595	0	0	0	-0	0	0	0	0	0	-0	0	555.211	559.976	322.194	220.191	-0.165768	1.54695	0.00377914	-0.0182643	-4.05964
81	-0.0728383	-0.021639	0.00973361	0.00954847	-0.0163093	-0.0408438	0.0211017	0.0286379	-0.00100986	0.0575077	0.060813	0.0573069	0.0536983	-0.00397144	0.0154042	-2.29924	0.0251976	-1.53482	0	0	0	0	-0	0	0	0	-0.1265	0	-0	0	0	0	0	0	-0	0	0.105	-0.015	0	0	-0	0	0	-0.098	0.1	0	-0	0	0	0	0	0	-0	0	0.05595	0	0	0	-0	0	0	0	0	0	-0	0	555.213	559.98	322.195	220.202	-0.165832	1.54766	0.00378272	-0.0182641	-4.06175
82	-0.071181	-0.0216392	0.00973348	0.00954823	-0.0163094	-0.0408437	0.0211015	0.0286379	-0.00100996	0.058005	0.060394	0.0574284	0.0536727	-0.00397141	0.0154933	-2.2976	0.0251373	-1.53478	0	0	0	0	-0	0	0	0	-0.1265	0	-0	0	0	0	0	0	-0	0	0.105	-0.015	0	0	-0	0	0	-0.098	0.1	0	-0	0	0	0	0	0	-0	0	0.05595	0	0	0	-0	0	0	0	0	0	-0	0	555.215	559.982	322.196	220.211	-0.165879	1.54818	0.00378621	-0.018264	-4.06332
83	-0.0707141	-0.0216397	0.00973327	0.00954772	-0.0163095	-0.0408433	0.0211015	0.028638	-0.00100983	0.059908	0.0615669	0.0550036	0.0536651	-0.00397137	0.0155187	-2.29716	0.0251189	-1.53477	0	0	0	0	-0	0	0	0	-0.1265	0	-0	0	0	0	0	0	-0	0	0.105	-0.015	0	0	-0	0	0	-0.098	0.1	0	-0	0	0	0	0	0	-0	0	0.05595	0	0	0	-0	0	0	0	0	0	-0	0	555.221	559.988	322.198	220.229	-0.165943	1.54893	0.00379379	-0.0182641	-4.06568
84	-0.0679202	-0.0216405	0.00973281	0.00954714	-0.0163097	-0.0408428	0.0211015	0.0286384	-0.00100975	0.0540969	0.0614418	0.0567133	0.0536217	-0.00397131	0.0156689	-2.29442	0.0250157	-1.5347	0	0	0	0	-0	0	0	0	-0.1265	0	-0	0	0	0	0	0	-0	0	0.105	-0.015	0	0	-0	0	0	-0.098	0.1	0	-0	0	0	0	0	0	-0	0	0.05595	0	0	0	-0	0	0	0	0	0	-0	0	555.227	559.997	322.201	220.256	-0.166108	1.5507	0.00380376	-0.0182638	-4.07085
85	-0.0669516	-0.0216405	0.00973278	0.00954682	-0.0163097	-0.0408426	0.0211015	0.0286379	-0.00100985	0.054972	0.0614782	0.0576313	0.0536062	-0.00397128	0.0157209	-2.29346	0.0249803	-1.53468	0	0	0	0	-0	0	0	0	-0.1265	0	-0	0	0	0	0	0	-0	0	0.105	-0.015	0	0	-0	0	0	-0.098	0.1	0	-0	0	0	0	0	0	-0	0	0.05595	0	0	0	-0	0	0	0	0	0	-0	0	555.229	559.998	322.201	220.259	-0.166119	1.55084	0.00380548	-0.018263	-4.07137
86	-0.0669634	-0.0216408	0.00973262	0.0095468	-0.0163098	-0.0408425	0.0211016	0.0286379	-0.00100985	0.0538079	0.0629089	0.0590053	0.0536063	-0.00397127	0.0157204	-2.29349	0.02498	-1.53468	0	0	0	0	-0	0	0	0	-0.1265	0	-0	0	0	0	0	0	-0	0	0.105	-0.015	0	0	-0	0	0	-0.098	0.1	0	-0	0	0	0	0	0	-0	0	0.05595	0	0	0	-0	0	0	0	0	0	-0	0	555.23	560.001	322.202	220.267	-0.166143	1.55117	0.00380768	-0.018263	-4.07243
87	-0.0652238	-0.0216411	0.00973244	0.00954661	-0.0163099	-0.0408424	0.0211017	0.0286381	-0.00100984	0.0563242	0.0596527	0.0578932	0.0535789	-0.00397125	0.0158138	-2.29177	0.0249159	-1.53464	0	0	0	0	-0	0	0	0	-0.1265	0	-0	0	0	0	0	0	-0	0	0.105	-0.015	0	0	-0	0	0	-0.098	0.1	0	-0	0	0	0	0	0	-0	0	0.05595	0	0	0	-0	0	0	0	0	0	-0	0	555.233	560.005	322.204	220.278	-0.16619	1.55177	0.00381039	-0.0182629	-4.07425
88	-0.0639773	-0.0216414	0.00973223	0.00954618	-0.0163099	-0.0408421	0.0211017	0.0286381	-0.00100988	0.055463	0.0586746	0.0534981	0.0535588	-0.0039712	0.0158809	-2.29055	0.0248689	-1.53461	0	0	0	0	-0	0	0	0	-0.1265	0	-0	0	0	0	0	0	-0	0	0.105	-0.015	0	0	-0	0	0	-0.098	0.1	0	-0	0	0	0	0	0	-0	0	0.05595	0	0	0	-0	0	0	0	0	0	-0	0	555.238	560.011	322.206	220.294	-0.166255	1.55252	0.00381638	-0.0182627	-4.07658
89	-0.064914	-0.0216421	0.00973194	0.00954561	-0.0163102	-0.0408417	0.0211018	0.0286383	-0.00100965	0.0570272	0.0584012	0.0480105	0.0535734	-0.00397115	0.0158311	-2.29153	0.0248999	-1.53464	0	0	0	0	-0	0	0	0	-0.1265	0	-0	0	0	0	0	0	-0	0	0.105	-0.015	0	0	-0	0	0	-0.098	0.1	0	-0	0	0	0	0	0	-0	0	0.05595	0	0	0	-0	0	0	0	0	0	-0	0	555.244	560.019	322.209	220.317	-0.166314	1.55344	0.00382397	-0.0182625	-4.07971
90	-0.0627201	-0.0216423	0.00973172	0.00954527	-0.0163101	-0.0408414	0.0211015	0.0286379	-0.00100971	0.0582528	0.058805	0.0491357	0.0535386	-0.00397111	0.0159488	-2.28936	0.024819	-1.53459	0	0	0	0	-0	0	0	0	-0.1265	0	-0	0	0	0	0	0	-0	0	0.105	-0.015	0	0	-0	0	0	-0.098	0.1	0	-0	0	0	0	0	0	-0	0	0.05595	0	0	0	-0	0	0	0	0	0	-0	0	555.247	560.023	322.211	220.329	-0.166372	1.55405	0.00382819	-0.0182616	-4.08154
91	-0.0604684	-0.0216427	0.00973155	0.00954517	-0.0163103	-0.0408413	0.0211015	0.0286379	-0.00100968	0.0573588	0.0599308	0.0506191	0.0535024	-0.00397109	0.0160695	-2.28713	0.0247363	-1.53454	0	0	0	0	-0	0	0	0	-0.1265	0	-0	0	0	0	0	0	-0	0	0.105	-0.015	0	0	-0	0	0	-0.098	0.1	0	-0	0	0	0	0	0	-0	0	0.05595	0	0	0	-0	0	0	0	0	0	-0	0	555.25	560.027	322.212	220.337	-0.166408	1.55453	0.00383004	-0.0182613	-4.08304
92	-0.0615145	-0.0216429	0.00973144	0.00954502	-0.0163103	-0.0408412	0.0211015	0.0286379	-0.00100966	0.0563762	0.0607049	0.0493188	0.053519	-0.00397107	0.0160136	-2.28818	0.0247733	-1.53457	0	0	0	0	-0	0	0	0	-0.1265	0	-0	0	0	0	0	0	-0	0	0.105	-0.015	0	0	-0	0	0	-0.098	0.1	0	-0	0	0	0	0	0	-0	0	0.05595	0	0	0	-0	0	0	0	0	0	-0	0	555.251	560.029	322.213	220.344	-0.166431	1.55483	0.00383216	-0.0182611	-4.084
93	-0.0591498	-0.0216432	0.00973128	0.0095446	-0.0163105	-0.0408409	0.0211015	0.0286378	-0.00100964	0.0562671	0.0632946	0.0496504	0.0534809	-0.00397103	0.0161405	-2.28585	0.0246856	-1.53451	0	0	0	0	-0	0	0	0	-0.1265	0	-0	0	0	0	0	0	-0	0	0.105	-0.015	0	0	-0	0	0	-0.098	0.1	0	-0	0	0	0	0	0	-0	0	0.05595	0	0	0	-0	0	0	0	0	0	-0	0	555.256	560.034	322.215	220.357	-0.166483	1.55543	0.00383768	-0.0182608	-4.08587
94	-0.0610757	-0.0216434	0.00973111	0.00954448	-0.0163105	-0.0408408	0.0211015	0.0286379	-0.00100961	0.0552686	0.0637627	0.0507111	0.0535118	-0.00397101	0.0160375	-2.28778	0.0247544	-1.53456	0	0	0	0	-0	0	0	0	-0.1265	0	-0	0	0	0	0	0	-0	0	0.105	-0.015	0	0	-0	0	0	-0.098	0.1	0	-0	0	0	0	0	0	-0	0	0.05595	0	0	0	-0	0	0	0	0	0	-0	0	555.257	560.037	322.216	220.364	-0.166526	1.55587	0.00384029	-0.0182603	-4.08717
95	-0.0624259	-0.0216439	0.00973089	0.00954422	-0.0163106	-0.0408406	0.0211015	0.0286379	-0.00100952	0.0569256	0.0660036	0.049554	0.0535333	-0.00397099	0.0159654	-2.28916	0.024801	-1.5346	0	0	0	0	-0	0	0	0	-0.1265	0	-0	0	0	0	0	0	-0	0	0.105	-0.015	0	0	-0	0	0	-0.098	0.1	0	-0	0	0	0	0	0	-0	0	0.05595	0	0	0	-0	0	0	0	0	0	-0	0	555.261	560.042	322.219	220.38	-0.166581	1.55667	0.00384391	-0.01826	-4.0897
96	-0.0614595	-0.0216439	0.00973084	0.00954406	-0.0163106	-0.0408405	0.0211015	0.0286378	-0.00100958	0.056311	0.0653723	0.0489398	0.0535178	-0.00397097	0.0160171	-2.2882	0.0247656	-1.53457	0	0	0	0	-0	0	0	0	-0.1265	0	-0	0	0	0	0	0	-0	0	0.105	-0.015	0	0	-0	0	0	-0.098	0.1	0	-0	0	0	0	0	0	-0	0	0.05595	0	0	0	-0	0	0	0	0	0	-0	0	555.261	560.043	322.219	220.382	-0.166591	1.55674	0.00384525	-0.0182594	-4.08994
97	-0.0614105	-0.0216441	0.00973077	0.00954393	-0.0163107	-0.0408404	0.0211015	0.0286378	-0.00100956	0.0560116	0.0656478	0.0492197	0.053517	-0.00397096	0.0160198	-2.28816	0.0247632	-1.53457	0	0	0	0	-0	0	0	0	-0.1265	0	-0	0	0	0	0	0	-0	0	0.105	-0.015	0	0	-0	0	0	-0.098	0.1	0	-0	0	0	0	0	0	-0	0	0.05595	0	0	0	-0	0	0	0	0	0	-0	0	555.263	560.044	322.22	220.386	-0.166619	1.55701	0.00384721	-0.0182592	-4.09074
98	-0.0605619	-0.0216442	0.00973069	0.0095437	-0.0163107	-0.0408402	0.0211015	0.0286378	-0.00100953	0.0551822	0.0648965	0.0500782	0.0535033	-0.00397093	0.0160654	-2.28732	0.0247314	-1.53456	0	0	0	0	-0	0	0	0	-0.1265	0	-0	0	0	0	0	0	-0	0	0.105	-0.015	0	0	-0	0	0	-0.098	0.1	0	-0	0	0	0	0	0	-0	0	0.05595	0	0	0	-0	0	0	0	0	0	-0	0	555.265	560.046	322.221	220.392	-0.166657	1.55738	0.00385073	-0.018259	-4.09184
99	-0.0620255	-0.0216445	0.00973056	0.00954349	-0.0163108	-0.0408401	0.0211015	0.0286379	-0.00100954	0.0557668	0.0635103	0.0487658	0.0535267	-0.00397091	0.0159872	-2.2888	0.0247829	-1.53459	0	0	0	0	-0	0	0	0	-0.1265	0	-0	0	0	0	0	0	-0	0	0.105	-0.015	0	0	-0	0	0	-0.098	0.1	0	-0	0	0	0	0	0	-0	0	0.05595	0	0	0	-0	0	0	0	0	0	-0	0	555.267	560.05	322.223	220.401	-0.166688	1.55781	0.00385341	-0.0182587	-4.09322
100	-0.0623088	-0.0216449	0.00973035	0.00954323	-0.0163109	-0.0408399	0.0211015	0.0286379	-0.00100953	0.0561858	0.0644564	0.0509405	0.0535309	-0.00397088	0.0159723	-2.28911	0.0247908	-1.53461	0	0	0	0	-0	0	0	0	-0.1265	0	-0	0	0	0	0	0	-0	0	0.105	-0.015	0	0	-0	0	0	-0.098	0.1	0	-0	0	0	0	0	0	-0	0	0.05595	0	0	0	-0	0	0	0	0	0	-0	0	555.271	560.055	322.225	220.415	-0.166732	1.55842	0.00385726	-0.0182582	-4.0952
