Stefan210/kinematic_calibration/src/kinematic_calibration/validation/experiments/experiments/impact_noise/bad_precision/larm_noise_4_pixel_rk_false/optimization_intermediate_results.csv
iteration	HeadPitch_offset	HeadYaw_offset	LElbowRoll_offset	LElbowYaw_offset	LShoulderPitch_offset	LShoulderRoll_offset	marker_transform_larm_tx	marker_transform_larm_ty	marker_transform_larm_tz	marker_transform_larm_rr	marker_transform_larm_rp	marker_transform_larm_ry	camera_transform_tx	camera_transform_ty	camera_transform_tz	camera_transform_rr	camera_transform_rp	camera_transform_ry	HeadPitch_transform_tx	HeadPitch_transform_ty	HeadPitch_transform_tz	HeadPitch_transform_rr	HeadPitch_transform_rp	HeadPitch_transform_ry	HeadYaw_transform_tx	HeadYaw_transform_ty	HeadYaw_transform_tz	HeadYaw_transform_rr	HeadYaw_transform_rp	HeadYaw_transform_ry	LElbowRoll_transform_tx	LElbowRoll_transform_ty	LElbowRoll_transform_tz	LElbowRoll_transform_rr	LElbowRoll_transform_rp	LElbowRoll_transform_ry	LElbowYaw_transform_tx	LElbowYaw_transform_ty	LElbowYaw_transform_tz	LElbowYaw_transform_rr	LElbowYaw_transform_rp	LElbowYaw_transform_ry	LShoulderPitch_transform_tx	LShoulderPitch_transform_ty	LShoulderPitch_transform_tz	LShoulderPitch_transform_rr	LShoulderPitch_transform_rp	LShoulderPitch_transform_ry	LShoulderRoll_transform_tx	LShoulderRoll_transform_ty	LShoulderRoll_transform_tz	LShoulderRoll_transform_rr	LShoulderRoll_transform_rp	LShoulderRoll_transform_ry	LWristYaw_transform_tx	LWristYaw_transform_ty	LWristYaw_transform_tz	LWristYaw_transform_rr	LWristYaw_transform_rp	LWristYaw_transform_ry	l_wrist_joint_transform_tx	l_wrist_joint_transform_ty	l_wrist_joint_transform_tz	l_wrist_joint_transform_rr	l_wrist_joint_transform_rp	l_wrist_joint_transform_ry	camera_fx	camera_fy	camera_cx	camera_cy	camera_D0	camera_D1	camera_D2	camera_D3	camera_D4	
0	0.0249164	-0.0307543	0.000853157	4.65819e-06	-0.000318322	-0.00310766	0.05071	0	0.01774	-2.26369	1.66533e-16	-1.5708	545.901	551.038	324.928	201.58	0.0255298	2.61142	-0.0636736	-0.0350419	0.213964
1	-0.0165407	0.000584552	0.0367458	0.0242646	0.0152805	0.0269675	0.0264058	-0.0305501	0.00174296	-0.000104605	-0.00040165	-0.00290524	0.0554365	-0.00216169	0.0138712	-2.19627	0.00621597	-1.53409	0	0	0	0	-0	0	0	0	-0.1265	0	-0	0	0	0	0	0	-0	0	0.105	0.015	0	0	-0	0	0	0.098	0.1	0	-0	0	0	0	0	0	-0	0	0.05595	0	0	0	-0	0	0	0	0	0	-0	0	545.901	551.039	324.928	201.581	-0.00190364	2.60261	-0.0871575	0.0231866	0.212173
2	-0.0165046	0.0145657	0.0389766	0.0218171	0.00864184	0.0306717	0.0266416	-0.0307915	0.00185581	-0.00011681	-0.000411055	-0.00290108	0.0537705	-0.00222595	0.0170517	-2.19735	0.00158461	-1.54888	0	0	0	0	-0	0	0	0	-0.1265	0	-0	0	0	0	0	0	-0	0	0.105	0.015	0	0	-0	0	0	0.098	0.1	0	-0	0	0	0	0	0	-0	0	0.05595	0	0	0	-0	0	0	0	0	0	-0	0	545.903	551.039	324.926	201.585	-0.123734	2.52494	-0.0589995	0.000949358	0.188497
3	-0.0166705	0.0136021	0.0368243	0.023247	0.00745639	0.0283563	0.0264599	-0.0307017	0.00187543	-0.000120275	-0.000412775	-0.00291565	0.0551322	-0.00209648	0.0151166	-2.19614	0.0028314	-1.54935	0	0	0	0	-0	0	0	0	-0.1265	0	-0	0	0	0	0	0	-0	0	0.105	0.015	0	0	-0	0	0	0.098	0.1	0	-0	0	0	0	0	0	-0	0	0.05595	0	0	0	-0	0	0	0	0	0	-0	0	545.908	551.04	324.923	201.593	-0.368901	2.36417	-0.0327731	-0.00467542	0.140641
4	-0.0163357	0.0160434	0.0336455	0.0247149	0.00346571	0.0248844	0.0261685	-0.0305351	0.00190187	-0.000118603	-0.000412886	-0.00293804	0.0564678	-0.00208645	0.0136765	-2.19708	0.00245585	-1.55221	0	0	0	0	-0	0	0	0	-0.1265	0	-0	0	0	0	0	0	-0	0	0.105	0.015	0	0	-0	0	0	0.098	0.1	0	-0	0	0	0	0	0	-0	0	0.05595	0	0	0	-0	0	0	0	0	0	-0	0	545.92	551.039	324.918	201.606	-0.644045	2.06404	0.0103005	-0.0162805	0.041058
5	-0.0159859	0.0178354	0.0307805	0.0254321	0.00115205	0.0233739	0.025924	-0.0304399	0.00189106	-0.000123298	-0.000403606	-0.00297651	0.0568028	-0.00209343	0.0134364	-2.19837	0.0027852	-1.55392	0	0	0	0	-0	0	0	0	-0.1265	0	-0	0	0	0	0	0	-0	0	0.105	0.015	0	0	-0	0	0	0.098	0.1	0	-0	0	0	0	0	0	-0	0	0.05595	0	0	0	-0	0	0	0	0	0	-0	0	545.945	551.036	324.913	201.623	-0.652632	1.58898	0.0248362	-0.0216343	-0.138184
6	-0.0156423	0.0177096	0.0288371	0.0255819	0.000928905	0.0236844	0.0257778	-0.030414	0.00186667	-0.000129531	-0.000409538	-0.00305666	0.0560973	-0.00208887	0.014336	-2.2001	0.00414558	-1.55333	0	0	0	0	-0	0	0	0	-0.1265	0	-0	0	0	0	0	0	-0	0	0.105	0.015	0	0	-0	0	0	0.098	0.1	0	-0	0	0	0	0	0	-0	0	0.05595	0	0	0	-0	0	0	0	0	0	-0	0	545.992	551.026	324.911	201.642	-0.411658	0.884983	0.0149413	-0.0215298	-0.412767
7	-0.0154191	0.0173753	0.0276151	0.0255763	0.00101909	0.0242812	0.0256929	-0.0304044	0.00185584	-0.000225201	-0.000485361	-0.00311127	0.0552634	-0.00209108	0.0153843	-2.20176	0.00518903	-1.55248	0	0	0	0	-0	0	0	0	-0.1265	0	-0	0	0	0	0	0	-0	0	0.105	0.015	0	0	-0	0	0	0.098	0.1	0	-0	0	0	0	0	0	-0	0	0.05595	0	0	0	-0	0	0	0	0	0	-0	0	546.07	551.003	324.922	201.655	-0.151938	0.176206	0.00285824	-0.0206768	-0.66381
8	-0.0153134	0.017405	0.0271098	0.0255657	0.000981828	0.0246261	0.0256594	-0.0304002	0.00185932	-3.44378e-05	-0.000459084	-0.00310586	0.0547779	-0.00210203	0.0160159	-2.20273	0.00550472	-1.55216	0	0	0	0	-0	0	0	0	-0.1265	0	-0	0	0	0	0	0	-0	0	0.105	0.015	0	0	-0	0	0	0.098	0.1	0	-0	0	0	0	0	0	-0	0	0.05595	0	0	0	-0	0	0	0	0	0	-0	0	546.241	550.944	324.944	201.671	-0.0128728	-0.24735	-0.00242432	-0.0204167	-0.722111
9	-0.0151065	0.0174911	0.0269932	0.02558	0.000924322	0.0247137	0.025651	-0.0303993	0.00186686	0.000451456	8.38321e-06	-0.00268909	0.0545629	-0.00211051	0.0163038	-2.20305	0.00549238	-1.55212	0	0	0	0	-0	0	0	0	-0.1265	0	-0	0	0	0	0	0	-0	0	0.105	0.015	0	0	-0	0	0	0.098	0.1	0	-0	0	0	0	0	0	-0	0	0.05595	0	0	0	-0	0	0	0	0	0	-0	0	546.704	550.777	324.97	201.722	0.0261317	-0.447619	-0.00217583	-0.0204647	-0.485449
10	-0.0139753	0.0176388	0.0269642	0.0255838	0.000837682	0.024694	0.0256461	-0.0304002	0.00187746	0.00304281	0.00137022	-0.000179713	0.0542751	-0.00212165	0.016704	-2.20268	0.00530376	-1.55221	0	0	0	0	-0	0	0	0	-0.1265	0	-0	0	0	0	0	0	-0	0	0.105	0.015	0	0	-0	0	0	0.098	0.1	0	-0	0	0	0	0	0	-0	0	0.05595	0	0	0	-0	0	0	0	0	0	-0	0	547.936	550.349	325.019	201.867	0.0411628	-0.712356	0.00182901	-0.020641	0.22144
11	-0.00670239	0.0179522	0.0269212	0.0255758	0.000665182	0.0246306	0.0256369	-0.0304019	0.00189804	-9.90346e-05	0.00972567	0.00283538	0.0535966	-0.00214291	0.0177923	-2.19709	0.00479048	-1.5524	0	0	0	0	-0	0	0	0	-0.1265	0	-0	0	0	0	0	0	-0	0	0.105	0.015	0	0	-0	0	0	0.098	0.1	0	-0	0	0	0	0	0	-0	0	0.05595	0	0	0	-0	0	0	0	0	0	-0	0	550.695	549.536	325.122	202.237	0.0604458	-1.2238	0.0108148	-0.0210364	1.68932
12	-0.0118715	0.0184033	0.0268369	0.0255804	0.000436393	0.0245561	0.0256649	-0.0304632	0.00191922	0.031385	0.027147	0.0514321	0.0528706	-0.00217074	0.0185044	-2.20528	0.00445522	-1.55265	0	0	0	0	-0	0	0	0	-0.1265	0	-0	0	0	0	0	0	-0	0	0.105	0.015	0	0	-0	0	0	0.098	0.1	0	-0	0	0	0	0	0	-0	0	0.05595	0	0	0	-0	0	0	0	0	0	-0	0	555.076	549.057	325.182	203.071	0.0739406	-1.87739	0.0235669	-0.0216876	3.70753
13	-0.00065078	0.0186613	0.0267484	0.0256209	0.000341072	0.0245324	0.0256205	-0.0304215	0.00194516	0.0433045	0.0378383	0.0752307	0.0521598	-0.00218435	0.0197166	-2.19664	0.00428189	-1.55244	0	0	0	0	-0	0	0	0	-0.1265	0	-0	0	0	0	0	0	-0	0	0.105	0.015	0	0	-0	0	0	0.098	0.1	0	-0	0	0	0	0	0	-0	0	0.05595	0	0	0	-0	0	0	0	0	0	-0	0	558.304	549.864	324.998	203.928	0.0713073	-2.22198	0.0305238	-0.0221311	4.9659
14	-0.00380998	0.0187014	0.0267229	0.0256462	0.000327468	0.0245228	0.0256086	-0.030412	0.00194486	0.0566782	0.0326737	0.0859965	0.052109	-0.00218673	0.0196634	-2.20031	0.00437454	-1.5524	0	0	0	0	-0	0	0	0	-0.1265	0	-0	0	0	0	0	0	-0	0	0.105	0.015	0	0	-0	0	0	0.098	0.1	0	-0	0	0	0	0	0	-0	0	0.05595	0	0	0	-0	0	0	0	0	0	-0	0	559.009	550.165	324.942	204.102	0.0689139	-2.27869	0.031715	-0.0222144	5.22297
15	-0.0253948	0.0187596	0.0266963	0.0256605	0.000310702	0.0245171	0.0256082	-0.0304125	0.00195288	0.0661755	0.031055	0.0723214	0.052428	-0.00218987	0.018662	-2.22256	0.00485126	-1.55241	0	0	0	0	-0	0	0	0	-0.1265	0	-0	0	0	0	0	0	-0	0	0.105	0.015	0	0	-0	0	0	0.098	0.1	0	-0	0	0	0	0	0	-0	0	0.05595	0	0	0	-0	0	0	0	0	0	-0	0	559.773	550.637	324.85	204.34	0.0673576	-2.33539	0.0327241	-0.022309	5.45674
16	-0.0448503	0.0188493	0.0266343	0.0257069	0.000304036	0.024518	0.0256135	-0.030405	0.00194905	0.081691	-0.0120885	0.0851021	0.0526285	-0.00219464	0.0178195	-2.24368	0.00556346	-1.55217	0	0	0	0	-0	0	0	0	-0.1265	0	-0	0	0	0	0	0	-0	0	0.105	0.015	0	0	-0	0	0	0.098	0.1	0	-0	0	0	0	0	0	-0	0	0.05595	0	0	0	-0	0	0	0	0	0	-0	0	561.193	551.988	324.537	205.033	0.0604068	-2.37656	0.0335501	-0.0224925	5.72044
17	-0.0419522	0.0188736	0.0266066	0.0257269	0.00031147	0.0245206	0.0256033	-0.0304108	0.00196797	0.0943151	-0.0340535	0.0698688	0.0525163	-0.00219609	0.0180343	-2.24156	0.00569754	-1.55199	0	0	0	0	-0	0	0	0	-0.1265	0	-0	0	0	0	0	0	-0	0	0.105	0.015	0	0	-0	0	0	0.098	0.1	0	-0	0	0	0	0	0	-0	0	0.05595	0	0	0	-0	0	0	0	0	0	-0	0	561.777	552.653	324.386	205.378	0.0569286	-2.37882	0.0335826	-0.022547	5.79591
18	-0.0287485	0.0188916	0.0265836	0.0257472	0.000317835	0.0245225	0.025602	-0.030411	0.00196085	0.0918595	-0.0416679	0.0845836	0.0522411	-0.00219729	0.0187691	-2.22903	0.00561002	-1.55177	0	0	0	0	-0	0	0	0	-0.1265	0	-0	0	0	0	0	0	-0	0	0.105	0.015	0	0	-0	0	0	0.098	0.1	0	-0	0	0	0	0	0	-0	0	0.05595	0	0	0	-0	0	0	0	0	0	-0	0	562.226	553.213	324.254	205.685	0.0533494	-2.37022	0.0335345	-0.0226	5.8235
19	-0.0334587	0.0189052	0.026568	0.0257602	0.000322731	0.024525	0.0256018	-0.0304164	0.00196055	0.0771543	-0.0417753	0.0664487	0.0523008	-0.00219802	0.0185465	-2.23424	0.00581491	-1.55169	0	0	0	0	-0	0	0	0	-0.1265	0	-0	0	0	0	0	0	-0	0	0.105	0.015	0	0	-0	0	0	0.098	0.1	0	-0	0	0	0	0	0	-0	0	0.05595	0	0	0	-0	0	0	0	0	0	-0	0	562.538	553.617	324.159	205.919	0.0505003	-2.36076	0.0334753	-0.022639	5.83388
20	-0.043585	0.0189134	0.026557	0.0257692	0.000327441	0.0245271	0.0255998	-0.030411	0.00196458	0.0881652	-0.0337745	0.0592582	0.0524723	-0.00219854	0.018034	-2.24474	0.00609464	-1.55167	0	0	0	0	-0	0	0	0	-0.1265	0	-0	0	0	0	0	0	-0	0	0.105	0.015	0	0	-0	0	0	0.098	0.1	0	-0	0	0	0	0	0	-0	0	0.05595	0	0	0	-0	0	0	0	0	0	-0	0	562.758	553.909	324.09	206.097	0.0484179	-2.35261	0.0334149	-0.0226654	5.83713
21	-0.0396214	0.0189228	0.0265439	0.0257809	0.000332726	0.0245291	0.025601	-0.0304091	0.00196695	0.0927256	-0.0173225	0.0655383	0.0523818	-0.00219915	0.018259	-2.24123	0.00612379	-1.55155	0	0	0	0	-0	0	0	0	-0.1265	0	-0	0	0	0	0	0	-0	0	0.105	0.015	0	0	-0	0	0	0.098	0.1	0	-0	0	0	0	0	0	-0	0	0.05595	0	0	0	-0	0	0	0	0	0	-0	0	563.012	554.258	324.006	206.317	0.0456444	-2.33984	0.0333306	-0.022701	5.8325
22	-0.0448321	0.0189418	0.0265179	0.0258048	0.000344877	0.0245346	0.0255999	-0.0304134	0.00196666	0.0927965	-0.015104	0.0455873	0.0524457	-0.00220037	0.0180182	-2.24746	0.00644849	-1.55137	0	0	0	0	-0	0	0	0	-0.1265	0	-0	0	0	0	0	0	-0	0	0.105	0.015	0	0	-0	0	0	0.098	0.1	0	-0	0	0	0	0	0	-0	0	0.05595	0	0	0	-0	0	0	0	0	0	-0	0	563.531	554.966	323.826	206.82	0.0391923	-2.30828	0.0331947	-0.0227856	5.80933
23	-0.0542296	0.0189469	0.0265058	0.0258154	0.000353252	0.0245382	0.0255948	-0.0304085	0.00196893	0.097914	-0.017691	0.0382777	0.0526013	-0.00220083	0.0175386	-2.25736	0.00673649	-1.55134	0	0	0	0	-0	0	0	0	-0.1265	0	-0	0	0	0	0	0	-0	0	0.105	0.015	0	0	-0	0	0	0.098	0.1	0	-0	0	0	0	0	0	-0	0	0.05595	0	0	0	-0	0	0	0	0	0	-0	0	563.77	555.308	323.744	207.072	0.0362185	-2.29057	0.0330755	-0.0228149	5.78872
24	-0.0540278	0.0189573	0.026489	0.0258324	0.000362547	0.024542	0.0255972	-0.0304114	0.0019697	0.110279	-0.00677901	0.0391341	0.0525793	-0.0022016	0.0175652	-2.25791	0.00687996	-1.5512	0	0	0	0	-0	0	0	0	-0.1265	0	-0	0	0	0	0	0	-0	0	0.105	0.015	0	0	-0	0	0	0.098	0.1	0	-0	0	0	0	0	0	-0	0	0.05595	0	0	0	-0	0	0	0	0	0	-0	0	564.106	555.784	323.628	207.452	0.0312994	-2.26278	0.0329681	-0.0228743	5.7543
25	-0.0478207	0.0189623	0.026477	0.0258435	0.000371754	0.024546	0.0255973	-0.0304119	0.00196738	0.11292	-0.0154726	0.0565303	0.0524589	-0.00220209	0.0179026	-2.25228	0.00686299	-1.55107	0	0	0	0	-0	0	0	0	-0.1265	0	-0	0	0	0	0	0	-0	0	0.105	0.015	0	0	-0	0	0	0.098	0.1	0	-0	0	0	0	0	0	-0	0	0.05595	0	0	0	-0	0	0	0	0	0	-0	0	564.348	556.136	323.546	207.747	0.0278126	-2.24127	0.0328567	-0.0229106	5.72469
26	-0.049914	0.0189664	0.0264685	0.0258518	0.000378032	0.0245489	0.0255943	-0.0304148	0.00197138	0.132882	-0.0119249	0.0556011	0.0524873	-0.00220244	0.0178001	-2.2548	0.00697638	-1.55101	0	0	0	0	-0	0	0	0	-0.1265	0	-0	0	0	0	0	0	-0	0	0.105	0.015	0	0	-0	0	0	0.098	0.1	0	-0	0	0	0	0	0	-0	0	0.05595	0	0	0	-0	0	0	0	0	0	-0	0	564.523	556.389	323.49	207.968	0.0252585	-2.22602	0.0327862	-0.0229385	5.70456
27	-0.040997	0.0189695	0.0264611	0.0258597	0.000383476	0.024551	0.0255947	-0.0304104	0.00197148	0.123662	-0.0191391	0.0625034	0.0523222	-0.00220277	0.018274	-2.24626	0.00686017	-1.5509	0	0	0	0	-0	0	0	0	-0.1265	0	-0	0	0	0	0	0	-0	0	0.105	0.015	0	0	-0	0	0	0.098	0.1	0	-0	0	0	0	0	0	-0	0	0.05595	0	0	0	-0	0	0	0	0	0	-0	0	564.671	556.605	323.442	208.163	0.0229432	-2.21173	0.032728	-0.0229636	5.68372
28	-0.043098	0.0189715	0.0264558	0.0258649	0.000387598	0.0245526	0.025593	-0.0304077	0.00197245	0.125283	-0.028569	0.059036	0.0523538	-0.002203	0.0181674	-2.24864	0.00694457	-1.55087	0	0	0	0	-0	0	0	0	-0.1265	0	-0	0	0	0	0	0	-0	0	0.105	0.015	0	0	-0	0	0	0.098	0.1	0	-0	0	0	0	0	0	-0	0	0.05595	0	0	0	-0	0	0	0	0	0	-0	0	564.779	556.763	323.409	208.309	0.021279	-2.20134	0.0326817	-0.0229811	5.66875
29	-0.0406258	0.0189755	0.0264483	0.0258728	0.000393049	0.0245547	0.0255966	-0.0304083	0.00197207	0.12829	-0.0103852	0.0567687	0.0523025	-0.00220338	0.0183025	-2.24659	0.00695581	-1.5508	0	0	0	0	-0	0	0	0	-0.1265	0	-0	0	0	0	0	0	-0	0	0.105	0.015	0	0	-0	0	0	0.098	0.1	0	-0	0	0	0	0	0	-0	0	0.05595	0	0	0	-0	0	0	0	0	0	-0	0	564.936	556.992	323.361	208.527	0.0186686	-2.18558	0.0326316	-0.0230111	5.64587
30	-0.0499109	0.0189769	0.026443	0.0258778	0.000398234	0.024557	0.0255925	-0.0304083	0.00197261	0.13181	-0.00423273	0.0540499	0.0524678	-0.00220359	0.0178207	-2.25618	0.0071841	-1.55082	0	0	0	0	-0	0	0	0	-0.1265	0	-0	0	0	0	0	0	-0	0	0.105	0.015	0	0	-0	0	0	0.098	0.1	0	-0	0	0	0	0	0	-0	0	0.05595	0	0	0	-0	0	0	0	0	0	-0	0	565.049	557.156	323.327	208.69	0.0168268	-2.17371	0.0325863	-0.0230289	5.62753
31	-0.0434251	0.0189885	0.026422	0.0259036	0.000414728	0.0245642	0.0255903	-0.030409	0.00197404	0.142106	-0.0113923	0.0566261	0.0523344	-0.00220474	0.0181739	-2.25105	0.00722409	-1.55061	0	0	0	0	-0	0	0	0	-0.1265	0	-0	0	0	0	0	0	-0	0	0.105	0.015	0	0	-0	0	0	0.098	0.1	0	-0	0	0	0	0	0	-0	0	0.05595	0	0	0	-0	0	0	0	0	0	-0	0	565.512	557.806	323.191	209.405	0.00816745	-2.12233	0.0325424	-0.0231359	5.54802
32	-0.0406873	0.0189855	0.0264217	0.0259022	0.000417668	0.0245654	0.0255908	-0.0304082	0.00197432	0.142807	-0.0135558	0.0585267	0.0522819	-0.00220468	0.0183181	-2.24837	0.00717602	-1.55059	0	0	0	0	-0	0	0	0	-0.1265	0	-0	0	0	0	0	0	-0	0	0.105	0.015	0	0	-0	0	0	0.098	0.1	0	-0	0	0	0	0	0	-0	0	0.05595	0	0	0	-0	0	0	0	0	0	-0	0	565.529	557.832	323.187	209.434	0.00823321	-2.12074	0.0325	-0.0231226	5.54404
33	-0.0479683	0.0189866	0.0264187	0.0259057	0.000420177	0.0245664	0.0255909	-0.0304085	0.00197462	0.145299	-0.0118811	0.0616919	0.0524133	-0.00220483	0.0179386	-2.25583	0.0073414	-1.55062	0	0	0	0	-0	0	0	0	-0.1265	0	-0	0	0	0	0	0	-0	0	0.105	0.015	0	0	-0	0	0	0.098	0.1	0	-0	0	0	0	0	0	-0	0	0.05595	0	0	0	-0	0	0	0	0	0	-0	0	565.588	557.924	323.173	209.534	0.00718529	-2.11404	0.0324756	-0.0231352	5.53342
34	-0.0470504	0.0189882	0.0264146	0.0259107	0.000424072	0.024568	0.0255919	-0.0304082	0.00197568	0.146576	-0.0231804	0.0586813	0.0523928	-0.00220504	0.0179881	-2.2552	0.00734907	-1.55059	0	0	0	0	-0	0	0	0	-0.1265	0	-0	0	0	0	0	0	-0	0	0.105	0.015	0	0	-0	0	0	0.098	0.1	0	-0	0	0	0	0	0	-0	0	0.05595	0	0	0	-0	0	0	0	0	0	-0	0	565.677	558.056	323.152	209.684	0.00550154	-2.10339	0.0324504	-0.0231533	5.51615
35	-0.0455546	0.0189905	0.0264085	0.0259178	0.000430013	0.0245703	0.0255913	-0.0304083	0.00197558	0.146452	-0.0320694	0.058114	0.0523617	-0.00220537	0.0180696	-2.25414	0.00735595	-1.55054	0	0	0	0	-0	0	0	0	-0.1265	0	-0	0	0	0	0	0	-0	0	0.105	0.015	0	0	-0	0	0	0.098	0.1	0	-0	0	0	0	0	0	-0	0	0.05595	0	0	0	-0	0	0	0	0	0	-0	0	565.812	558.255	323.123	209.916	0.00300914	-2.08779	0.0324178	-0.0231808	5.49131
36	-0.0498612	0.0189904	0.026407	0.0259191	0.000432038	0.0245711	0.0255907	-0.0304088	0.00197565	0.148653	-0.0287116	0.0623177	0.0524382	-0.00220543	0.0178451	-2.25856	0.0074526	-1.55057	0	0	0	0	-0	0	0	0	-0.1265	0	-0	0	0	0	0	0	-0	0	0.105	0.015	0	0	-0	0	0	0.098	0.1	0	-0	0	0	0	0	0	-0	0	0.05595	0	0	0	-0	0	0	0	0	0	-0	0	565.848	558.309	323.116	209.98	0.00242165	-2.08378	0.0324018	-0.0231839	5.48489
37	-0.05623	0.0189936	0.0264005	0.0259275	0.00043799	0.0245736	0.0255911	-0.0304079	0.00197645	0.141353	-0.0131791	0.0627372	0.0525474	-0.00220581	0.0175139	-2.26541	0.00761559	-1.55058	0	0	0	0	-0	0	0	0	-0.1265	0	-0	0	0	0	0	0	-0	0	0.105	0.015	0	0	-0	0	0	0.098	0.1	0	-0	0	0	0	0	0	-0	0	0.05595	0	0	0	-0	0	0	0	0	0	-0	0	565.993	558.519	323.088	210.238	-0.000563603	-2.06504	0.0323888	-0.0232177	5.45281
38	-0.0600347	0.0189933	0.026399	0.0259287	0.000440349	0.0245746	0.0255904	-0.0304089	0.00197629	0.141796	-0.0110494	0.0676128	0.0526119	-0.00220586	0.0173144	-2.26935	0.00770127	-1.5506	0	0	0	0	-0	0	0	0	-0.1265	0	-0	0	0	0	0	0	-0	0	0.105	0.015	0	0	-0	0	0	0.098	0.1	0	-0	0	0	0	0	0	-0	0	0.05595	0	0	0	-0	0	0	0	0	0	-0	0	566.03	558.575	323.082	210.308	-0.0012144	-2.06021	0.0323684	-0.0232205	5.44407
39	-0.0548277	0.0189942	0.0263969	0.0259316	0.000442665	0.0245755	0.0255899	-0.0304088	0.00197632	0.138037	-0.0108111	0.067	0.0525201	-0.002206	0.017589	-2.26432	0.00760635	-1.55055	0	0	0	0	-0	0	0	0	-0.1265	0	-0	0	0	0	0	0	-0	0	0.105	0.015	0	0	-0	0	0	0.098	0.1	0	-0	0	0	0	0	0	-0	0	0.05595	0	0	0	-0	0	0	0	0	0	-0	0	566.082	558.651	323.074	210.404	-0.00227392	-2.0536	0.0323629	-0.0232316	5.43304
40	-0.0553852	0.0189957	0.0263935	0.0259358	0.000446	0.0245769	0.0255908	-0.0304087	0.00197705	0.138035	-0.00222215	0.0697046	0.0525271	-0.00220619	0.0175609	-2.26514	0.0076314	-1.55054	0	0	0	0	-0	0	0	0	-0.1265	0	-0	0	0	0	0	0	-0	0	0.105	0.015	0	0	-0	0	0	0.098	0.1	0	-0	0	0	0	0	0	-0	0	0.05595	0	0	0	-0	0	0	0	0	0	-0	0	566.159	558.763	323.063	210.547	-0.0039256	-2.04294	0.0323564	-0.0232483	5.414
41	-0.0459273	0.0189974	0.0263888	0.0259417	0.000451239	0.024579	0.0255898	-0.0304089	0.00197705	0.135346	-0.00260147	0.0715732	0.0523581	-0.00220649	0.0180597	-2.25608	0.0074571	-1.55045	0	0	0	0	-0	0	0	0	-0.1265	0	-0	0	0	0	0	0	-0	0	0.105	0.015	0	0	-0	0	0	0.098	0.1	0	-0	0	0	0	0	0	-0	0	0.05595	0	0	0	-0	0	0	0	0	0	-0	0	566.27	558.926	323.049	210.759	-0.00614872	-2.02884	0.0323419	-0.0232714	5.39024
42	-0.0469767	0.0189988	0.0263853	0.0259462	0.000455234	0.0245808	0.0255898	-0.0304099	0.00197657	0.128167	0.000779225	0.0658259	0.0523725	-0.00220669	0.0180054	-2.25744	0.00748889	-1.55045	0	0	0	0	-0	0	0	0	-0.1265	0	-0	0	0	0	0	0	-0	0	0.105	0.015	0	0	-0	0	0	0.098	0.1	0	-0	0	0	0	0	0	-0	0	0.05595	0	0	0	-0	0	0	0	0	0	-0	0	566.357	559.049	323.041	210.927	-0.00802846	-2.01657	0.0323402	-0.0232886	5.36789
43	-0.0503662	0.018999	0.0263841	0.0259474	0.000457161	0.0245816	0.0255901	-0.0304099	0.00197742	0.135054	0.00401237	0.0660135	0.0524327	-0.00220675	0.0178282	-2.26095	0.00756135	-1.55047	0	0	0	0	-0	0	0	0	-0.1265	0	-0	0	0	0	0	0	-0	0	0.105	0.015	0	0	-0	0	0	0.098	0.1	0	-0	0	0	0	0	0	-0	0	0.05595	0	0	0	-0	0	0	0	0	0	-0	0	566.391	559.1	323.038	210.995	-0.00874928	-2.01163	0.0323314	-0.0232929	5.35891
44	-0.0451919	0.0190014	0.0263782	0.0259555	0.00046354	0.0245839	0.0255929	-0.030409	0.00198069	0.138987	-0.0146112	0.0590359	0.052337	-0.00220717	0.0181013	-2.25629	0.0074667	-1.55042	0	0	0	0	-0	0	0	0	-0.1265	0	-0	0	0	0	0	0	-0	0	0.105	0.015	0	0	-0	0	0	0.098	0.1	0	-0	0	0	0	0	0	-0	0	0.05595	0	0	0	-0	0	0	0	0	0	-0	0	566.526	559.304	323.03	211.273	-0.0115473	-1.99431	0.0323188	-0.0233239	5.33039
45	-0.0458499	0.0190012	0.0263755	0.0259584	0.000467652	0.0245856	0.0255902	-0.03041	0.00197786	0.138054	-0.0169155	0.0668407	0.0523464	-0.00220728	0.0180675	-2.25721	0.007483	-1.55043	0	0	0	0	-0	0	0	0	-0.1265	0	-0	0	0	0	0	0	-0	0	0.105	0.015	0	0	-0	0	0	0.098	0.1	0	-0	0	0	0	0	0	-0	0	0.05595	0	0	0	-0	0	0	0	0	0	-0	0	566.593	559.402	323.028	211.41	-0.0129448	-1.98442	0.0323027	-0.0233325	5.31187
46	-0.0510274	0.0190035	0.0263717	0.0259637	0.000471836	0.0245873	0.0255924	-0.0304111	0.00197831	0.130195	-0.0278851	0.0705931	0.0524382	-0.00220756	0.0177973	-2.26276	0.00758806	-1.55046	0	0	0	0	-0	0	0	0	-0.1265	0	-0	0	0	0	0	0	-0	0	0.105	0.015	0	0	-0	0	0	0.098	0.1	0	-0	0	0	0	0	0	-0	0	0.05595	0	0	0	-0	0	0	0	0	0	-0	0	566.69	559.544	323.028	211.614	-0.0152462	-1.96962	0.0323094	-0.0233548	5.28441
47	-0.0509132	0.0190042	0.0263691	0.0259669	0.000475744	0.0245892	0.0255915	-0.0304117	0.00198097	0.1346	-0.0359725	0.0578222	0.0524338	-0.00220772	0.0178039	-2.26292	0.00758281	-1.55046	0	0	0	0	-0	0	0	0	-0.1265	0	-0	0	0	0	0	0	-0	0	0.105	0.015	0	0	-0	0	0	0.098	0.1	0	-0	0	0	0	0	0	-0	0	0.05595	0	0	0	-0	0	0	0	0	0	-0	0	566.761	559.647	323.03	211.766	-0.0169001	-1.9583	0.03231	-0.023367	5.26248
48	-0.0440296	0.0190046	0.0263671	0.0259695	0.000478471	0.0245902	0.0255889	-0.0304103	0.00197872	0.125863	-0.0333541	0.05734	0.0523105	-0.00220784	0.018165	-2.25625	0.00743881	-1.55042	0	0	0	0	-0	0	0	0	-0.1265	0	-0	0	0	0	0	0	-0	0	0.105	0.015	0	0	-0	0	0	0.098	0.1	0	-0	0	0	0	0	0	-0	0	0.05595	0	0	0	-0	0	0	0	0	0	-0	0	566.813	559.722	323.033	211.879	-0.018198	-1.94927	0.0323099	-0.0233764	5.24439
49	-0.0346454	0.0190065	0.0263642	0.0259737	0.000481684	0.0245915	0.0255901	-0.0304102	0.00197887	0.129701	-0.0275306	0.0527346	0.0521376	-0.00220807	0.0186558	-2.24717	0.00723844	-1.55035	0	0	0	0	-0	0	0	0	-0.1265	0	-0	0	0	0	0	0	-0	0	0.105	0.015	0	0	-0	0	0	0.098	0.1	0	-0	0	0	0	0	0	-0	0	0.05595	0	0	0	-0	0	0	0	0	0	-0	0	566.889	559.833	323.04	212.047	-0.0201382	-1.93656	0.0323217	-0.023394	5.21969
50	-0.0389791	0.0190087	0.0263584	0.0259824	0.000489906	0.0245947	0.0255922	-0.0304094	0.00198284	0.122415	-0.00728704	0.0597781	0.0522136	-0.00220855	0.0184296	-2.25218	0.00729991	-1.55041	0	0	0	0	-0	0	0	0	-0.1265	0	-0	0	0	0	0	0	-0	0	0.105	0.015	0	0	-0	0	0	0.098	0.1	0	-0	0	0	0	0	0	-0	0	0.05595	0	0	0	-0	0	0	0	0	0	-0	0	567.047	560.062	323.061	212.414	-0.0240601	-1.9108	0.0323454	-0.0234294	5.17033
51	-0.0362293	0.0190079	0.0263579	0.025982	0.000491807	0.0245955	0.0255895	-0.0304102	0.00197982	0.122194	-0.0108411	0.0542078	0.052162	-0.00220851	0.0185731	-2.24952	0.00723903	-1.55039	0	0	0	0	-0	0	0	0	-0.1265	0	-0	0	0	0	0	0	-0	0	0.105	0.015	0	0	-0	0	0	0.098	0.1	0	-0	0	0	0	0	0	-0	0	0.05595	0	0	0	-0	0	0	0	0	0	-0	0	567.067	560.094	323.065	212.464	-0.0245331	-1.90671	0.0323327	-0.023425	5.16193
52	-0.0356665	0.0190102	0.0263548	0.025987	0.000495605	0.024597	0.0255898	-0.0304097	0.00198017	0.123236	-0.0201203	0.0526697	0.0521505	-0.0022088	0.0186022	-2.24933	0.00720324	-1.55041	0	0	0	0	-0	0	0	0	-0.1265	0	-0	0	0	0	0	0	-0	0	0.105	0.015	0	0	-0	0	0	0.098	0.1	0	-0	0	0	0	0	0	-0	0	0.05595	0	0	0	-0	0	0	0	0	0	-0	0	567.153	560.22	323.084	212.668	-0.0268945	-1.89103	0.0323539	-0.0234461	5.13023
53	-0.0394948	0.0190104	0.0263543	0.025987	0.000496631	0.0245976	0.0255895	-0.0304103	0.00198011	0.121769	-0.0248672	0.0480144	0.0522214	-0.0022088	0.0184025	-2.25323	0.00727514	-1.55044	0	0	0	0	-0	0	0	0	-0.1265	0	-0	0	0	0	0	0	-0	0	0.105	0.015	0	0	-0	0	0	0.098	0.1	0	-0	0	0	0	0	0	-0	0	0.05595	0	0	0	-0	0	0	0	0	0	-0	0	567.172	560.247	323.089	212.711	-0.0274157	-1.88702	0.0323537	-0.0234461	5.12145
54	-0.0370953	0.0190107	0.0263539	0.0259878	0.000497316	0.0245979	0.0255894	-0.0304102	0.00198004	0.123575	-0.0203926	0.0509944	0.0521768	-0.00220883	0.0185277	-2.2509	0.00722145	-1.55043	0	0	0	0	-0	0	0	0	-0.1265	0	-0	0	0	0	0	0	-0	0	0.105	0.015	0	0	-0	0	0	0.098	0.1	0	-0	0	0	0	0	0	-0	0	0.05595	0	0	0	-0	0	0	0	0	0	-0	0	567.185	560.266	323.093	212.744	-0.0278046	-1.88435	0.0323573	-0.0234485	5.1159
55	-0.0339939	0.0190115	0.0263526	0.0259896	0.000499031	0.0245985	0.0255894	-0.0304099	0.0019804	0.126102	-0.0287215	0.048808	0.0521187	-0.00220894	0.0186894	-2.24795	0.00714543	-1.55042	0	0	0	0	-0	0	0	0	-0.1265	0	-0	0	0	0	0	0	-0	0	0.105	0.015	0	0	-0	0	0	0.098	0.1	0	-0	0	0	0	0	0	-0	0	0.05595	0	0	0	-0	0	0	0	0	0	-0	0	567.221	560.319	323.103	212.829	-0.0288252	-1.87733	0.0323658	-0.0234562	5.10124
56	-0.0371358	0.0190119	0.0263519	0.0259904	0.000500124	0.024599	0.0255889	-0.0304103	0.00197972	0.121992	-0.0254598	0.0456452	0.0521769	-0.00220899	0.0185256	-2.25118	0.00720111	-1.55045	0	0	0	0	-0	0	0	0	-0.1265	0	-0	0	0	0	0	0	-0	0	0.105	0.015	0	0	-0	0	0	0.098	0.1	0	-0	0	0	0	0	0	-0	0	0.05595	0	0	0	-0	0	0	0	0	0	-0	0	567.243	560.35	323.109	212.88	-0.0294254	-1.87308	0.0323696	-0.0234593	5.0923
57	-0.0357945	0.0190137	0.0263485	0.0259956	0.000504756	0.0246008	0.0255911	-0.0304121	0.00197884	0.123484	-0.0325109	0.0576624	0.0521508	-0.00220931	0.0185952	-2.25026	0.00713448	-1.55048	0	0	0	0	-0	0	0	0	-0.1265	0	-0	0	0	0	0	0	-0	0	0.105	0.015	0	0	-0	0	0	0.098	0.1	0	-0	0	0	0	0	0	-0	0	0.05595	0	0	0	-0	0	0	0	0	0	-0	0	567.334	560.487	323.14	213.107	-0.0319203	-1.856	0.0323847	-0.0234792	5.05716
58	-0.0430347	0.0190146	0.0263473	0.0259969	0.000507305	0.0246021	0.0255923	-0.0304125	0.00198078	0.131989	-0.0206094	0.0592551	0.0522847	-0.00220938	0.0182176	-2.2577	0.00725866	-1.55055	0	0	0	0	-0	0	0	0	-0.1265	0	-0	0	0	0	0	0	-0	0	0.105	0.015	0	0	-0	0	0	0.098	0.1	0	-0	0	0	0	0	0	-0	0	0.05595	0	0	0	-0	0	0	0	0	0	-0	0	567.38	560.553	323.158	213.22	-0.0332309	-1.84677	0.0323963	-0.0234843	5.03782
59	-0.041906	0.0190149	0.0263461	0.0259985	0.000509342	0.0246029	0.0255891	-0.0304124	0.00198176	0.14251	-0.0235449	0.0523184	0.0522626	-0.00220945	0.0182758	-2.25672	0.00721778	-1.55056	0	0	0	0	-0	0	0	0	-0.1265	0	-0	0	0	0	0	0	-0	0	0.105	0.015	0	0	-0	0	0	0.098	0.1	0	-0	0	0	0	0	0	-0	0	0.05595	0	0	0	-0	0	0	0	0	0	-0	0	567.412	560.604	323.172	213.304	-0.0341998	-1.83959	0.0323968	-0.0234885	5.02224
60	-0.0499221	0.0190159	0.0263449	0.0260005	0.000510991	0.0246035	0.0255891	-0.0304109	0.0019806	0.137852	-0.0262229	0.0497943	0.0524089	-0.00220958	0.0178565	-2.26492	0.0073568	-1.55064	0	0	0	0	-0	0	0	0	-0.1265	0	-0	0	0	0	0	0	-0	0	0.105	0.015	0	0	-0	0	0	0.098	0.1	0	-0	0	0	0	0	0	-0	0	0.05595	0	0	0	-0	0	0	0	0	0	-0	0	567.451	560.66	323.19	213.404	-0.0354554	-1.8308	0.0324138	-0.0234965	5.00297
61	-0.0546123	0.0190169	0.0263441	0.0260017	0.00051227	0.0246041	0.025589	-0.0304109	0.00198207	0.146115	-0.0363485	0.0448414	0.0524907	-0.00220966	0.01761	-2.26974	0.00743263	-1.55069	0	0	0	0	-0	0	0	0	-0.1265	0	-0	0	0	0	0	0	-0	0	0.105	0.015	0	0	-0	0	0	0.098	0.1	0	-0	0	0	0	0	0	-0	0	0.05595	0	0	0	-0	0	0	0	0	0	-0	0	567.482	560.703	323.204	213.478	-0.0364187	-1.82409	0.0324279	-0.0235015	4.98846
62	-0.0601956	0.0190176	0.0263426	0.0260037	0.000514545	0.0246049	0.0255896	-0.0304107	0.00198007	0.144055	-0.0280206	0.0398787	0.0525881	-0.00220979	0.0173165	-2.27553	0.00751621	-1.55076	0	0	0	0	-0	0	0	0	-0.1265	0	-0	0	0	0	0	0	-0	0	0.105	0.015	0	0	-0	0	0	0.098	0.1	0	-0	0	0	0	0	0	-0	0	0.05595	0	0	0	-0	0	0	0	0	0	-0	0	567.524	560.766	323.226	213.589	-0.0377324	-1.81456	0.0324391	-0.0235088	4.96733
63	-0.0613497	0.0190186	0.0263418	0.0260047	0.000516048	0.0246056	0.0255888	-0.0304128	0.00198087	0.132015	-0.0280939	0.0393833	0.0526072	-0.00220986	0.0172551	-2.27683	0.00751622	-1.55079	0	0	0	0	-0	0	0	0	-0.1265	0	-0	0	0	0	0	0	-0	0	0.105	0.015	0	0	-0	0	0	0.098	0.1	0	-0	0	0	0	0	0	-0	0	0.05595	0	0	0	-0	0	0	0	0	0	-0	0	567.555	560.812	323.244	213.671	-0.0387445	-1.80729	0.0324485	-0.0235134	4.95132
64	-0.0664685	0.0190199	0.0263403	0.0260069	0.000518318	0.0246066	0.0255895	-0.0304116	0.00198262	0.125884	-0.0202659	0.0473962	0.0526948	-0.00221002	0.016986	-2.28217	0.00758264	-1.55086	0	0	0	0	-0	0	0	0	-0.1265	0	-0	0	0	0	0	0	-0	0	0.105	0.015	0	0	-0	0	0	0.098	0.1	0	-0	0	0	0	0	0	-0	0	0.05595	0	0	0	-0	0	0	0	0	0	-0	0	567.604	560.88	323.271	213.794	-0.0402286	-1.79705	0.0324736	-0.0235218	4.9291
65	-0.0594062	0.0190206	0.026339	0.0260088	0.00052078	0.0246075	0.0255884	-0.0304117	0.00198176	0.135427	-0.0255288	0.0442783	0.0525739	-0.00221014	0.0173575	-2.27533	0.00740475	-1.55084	0	0	0	0	-0	0	0	0	-0.1265	0	-0	0	0	0	0	0	-0	0	0.105	0.015	0	0	-0	0	0	0.098	0.1	0	-0	0	0	0	0	0	-0	0	0.05595	0	0	0	-0	0	0	0	0	0	-0	0	567.648	560.945	323.299	213.913	-0.0416798	-1.78648	0.0324885	-0.023528	4.90561
66	-0.0616374	0.0190224	0.0263371	0.0260118	0.000523854	0.0246088	0.0255895	-0.030411	0.00198117	0.134169	-0.0329037	0.0456303	0.0526112	-0.00221035	0.0172389	-2.27788	0.00739085	-1.5509	0	0	0	0	-0	0	0	0	-0.1265	0	-0	0	0	0	0	0	-0	0	0.105	0.015	0	0	-0	0	0	0.098	0.1	0	-0	0	0	0	0	0	-0	0	0.05595	0	0	0	-0	0	0	0	0	0	-0	0	567.712	561.041	323.344	214.089	-0.0437966	-1.77132	0.0325137	-0.0235389	4.87165
67	-0.0639785	0.0190234	0.0263366	0.026012	0.000525154	0.0246094	0.0255892	-0.0304116	0.00198141	0.135414	-0.0336686	0.0389221	0.0526515	-0.00221039	0.0171151	-2.28035	0.00741141	-1.55095	0	0	0	0	-0	0	0	0	-0.1265	0	-0	0	0	0	0	0	-0	0	0.105	0.015	0	0	-0	0	0	0.098	0.1	0	-0	0	0	0	0	0	-0	0	0.05595	0	0	0	-0	0	0	0	0	0	-0	0	567.738	561.081	323.364	214.16	-0.0447447	-1.76414	0.0325205	-0.02354	4.85523
68	-0.0652778	0.0190238	0.0263364	0.0260122	0.000525498	0.0246096	0.0255885	-0.0304113	0.00198152	0.141253	-0.0370543	0.0368107	0.0526736	-0.0022104	0.0170465	-2.28169	0.00742797	-1.55096	0	0	0	0	-0	0	0	0	-0.1265	0	-0	0	0	0	0	0	-0	0	0.105	0.015	0	0	-0	0	0	0.098	0.1	0	-0	0	0	0	0	0	-0	0	0.05595	0	0	0	-0	0	0	0	0	0	-0	0	567.747	561.094	323.371	214.185	-0.0450964	-1.76165	0.0325265	-0.0235405	4.84973
69	-0.0642458	0.0190246	0.0263358	0.0260131	0.00052625	0.0246099	0.0255886	-0.0304112	0.00198131	0.137051	-0.0355627	0.0369013	0.0526556	-0.00221047	0.0171011	-2.28075	0.00738864	-1.55097	0	0	0	0	-0	0	0	0	-0.1265	0	-0	0	0	0	0	0	-0	0	0.105	0.015	0	0	-0	0	0	0.098	0.1	0	-0	0	0	0	0	0	-0	0	0.05595	0	0	0	-0	0	0	0	0	0	-0	0	567.767	561.121	323.385	214.235	-0.0457327	-1.75713	0.032539	-0.0235438	4.83942
70	-0.0604101	0.0190254	0.026335	0.0260142	0.000527644	0.0246105	0.0255885	-0.0304112	0.00198126	0.131365	-0.0304043	0.0361028	0.0525898	-0.00221056	0.0173028	-2.27706	0.00728167	-1.55097	0	0	0	0	-0	0	0	0	-0.1265	0	-0	0	0	0	0	0	-0	0	0.105	0.015	0	0	-0	0	0	0.098	0.1	0	-0	0	0	0	0	0	-0	0	0.05595	0	0	0	-0	0	0	0	0	0	-0	0	567.797	561.162	323.409	214.314	-0.0468285	-1.74916	0.0325599	-0.0235487	4.82082
71	-0.0592942	0.0190261	0.0263347	0.0260146	0.000528281	0.0246109	0.0255891	-0.0304112	0.00198152	0.131787	-0.0246241	0.03752	0.0525701	-0.0022106	0.0173613	-2.27602	0.00724208	-1.55098	0	0	0	0	-0	0	0	0	-0.1265	0	-0	0	0	0	0	0	-0	0	0.105	0.015	0	0	-0	0	0	0.098	0.1	0	-0	0	0	0	0	0	-0	0	0.05595	0	0	0	-0	0	0	0	0	0	-0	0	567.813	561.185	323.422	214.358	-0.0474247	-1.74484	0.032571	-0.0235503	4.81092
72	-0.0558157	0.0190274	0.0263331	0.0260169	0.000531052	0.0246119	0.0255891	-0.0304112	0.00198161	0.13204	-0.0186089	0.0383998	0.0525094	-0.00221078	0.0175436	-2.2728	0.00711439	-1.55101	0	0	0	0	-0	0	0	0	-0.1265	0	-0	0	0	0	0	0	-0	0	0.105	0.015	0	0	-0	0	0	0.098	0.1	0	-0	0	0	0	0	0	-0	0	0.05595	0	0	0	-0	0	0	0	0	0	-0	0	567.864	561.262	323.468	214.501	-0.0491654	-1.73201	0.0325905	-0.0235577	4.78143
73	-0.0463141	0.0190311	0.0263291	0.0260231	0.000538354	0.0246147	0.0255856	-0.0304188	0.00198616	0.10434	-0.00281502	0.0440194	0.0523419	-0.00221131	0.0180407	-2.26404	0.00674534	-1.5511	0	0	0	0	-0	0	0	0	-0.1265	0	-0	0	0	0	0	0	-0	0	0.105	0.015	0	0	-0	0	0	0.098	0.1	0	-0	0	0	0	0	0	-0	0	0.05595	0	0	0	-0	0	0	0	0	0	-0	0	568.004	561.472	323.609	214.909	-0.0540854	-1.69591	0.0326601	-0.0235776	4.69764
74	-0.0552334	0.0190348	0.0263276	0.0260255	0.000540923	0.0246163	0.0255928	-0.0304154	0.00198509	0.102237	0.00783685	0.059913	0.0525007	-0.00221144	0.0175719	-2.27332	0.00681758	-1.55126	0	0	0	0	-0	0	0	0	-0.1265	0	-0	0	0	0	0	0	-0	0	0.105	0.015	0	0	-0	0	0	0.098	0.1	0	-0	0	0	0	0	0	-0	0	0.05595	0	0	0	-0	0	0	0	0	0	-0	0	568.073	561.573	323.688	215.111	-0.0569636	-1.67443	0.0327136	-0.0235812	4.64627
75	-0.0494842	0.019039	0.0263239	0.0260298	0.000548928	0.0246193	0.0255943	-0.0304159	0.00197968	0.105234	0.0209156	0.0447076	0.0523976	-0.00221195	0.0178704	-2.26835	0.00645855	-1.55145	0	0	0	0	-0	0	0	0	-0.1265	0	-0	0	0	0	0	0	-0	0	0.105	0.015	0	0	-0	0	0	0.098	0.1	0	-0	0	0	0	0	0	-0	0	0.05595	0	0	0	-0	0	0	0	0	0	-0	0	568.214	561.794	323.88	215.546	-0.0624432	-1.6321	0.0327755	-0.0235907	4.54407
76	-0.0506719	0.019043	0.0263247	0.0260278	0.000548276	0.0246199	0.0255898	-0.0304142	0.00198167	0.112008	0.0232391	0.0530458	0.0524187	-0.00221186	0.0178069	-2.26965	0.00644162	-1.5515	0	0	0	0	-0	0	0	0	-0.1265	0	-0	0	0	0	0	0	-0	0	0.105	0.015	0	0	-0	0	0	0.098	0.1	0	-0	0	0	0	0	0	-0	0	0.05595	0	0	0	-0	0	0	0	0	0	-0	0	568.235	561.824	323.91	215.605	-0.0636414	-1.62375	0.032805	-0.0235863	4.52546
77	-0.0521966	0.0190448	0.0263241	0.0260289	0.000548866	0.0246198	0.0255891	-0.0304124	0.00198186	0.113188	0.0281907	0.0500898	0.0524459	-0.00221199	0.0177266	-2.27132	0.006417	-1.55156	0	0	0	0	-0	0	0	0	-0.1265	0	-0	0	0	0	0	0	-0	0	0.105	0.015	0	0	-0	0	0	0.098	0.1	0	-0	0	0	0	0	0	-0	0	0.05595	0	0	0	-0	0	0	0	0	0	-0	0	568.265	561.864	323.951	215.687	-0.0649995	-1.61353	0.032836	-0.0235894	4.50006
78	-0.0499118	0.0190471	0.0263232	0.0260299	0.000550394	0.0246205	0.0255896	-0.0304128	0.00198176	0.111195	0.0215323	0.054111	0.0524054	-0.00221213	0.0178458	-2.26925	0.00629038	-1.55162	0	0	0	0	-0	0	0	0	-0.1265	0	-0	0	0	0	0	0	-0	0	0.105	0.015	0	0	-0	0	0	0.098	0.1	0	-0	0	0	0	0	0	-0	0	0.05595	0	0	0	-0	0	0	0	0	0	-0	0	568.307	561.925	324.015	215.808	-0.0669113	-1.5984	0.0328676	-0.0235915	4.46172
79	-0.0486996	0.0190486	0.0263231	0.0260298	0.000550742	0.0246208	0.0255887	-0.0304126	0.00198234	0.107782	0.0252982	0.056922	0.0523839	-0.00221215	0.0179088	-2.26813	0.00623165	-1.55164	0	0	0	0	-0	0	0	0	-0.1265	0	-0	0	0	0	0	0	-0	0	0.105	0.015	0	0	-0	0	0	0.098	0.1	0	-0	0	0	0	0	0	-0	0	0.05595	0	0	0	-0	0	0	0	0	0	-0	0	568.324	561.951	324.042	215.858	-0.0677819	-1.5917	0.0328839	-0.0235907	4.44521
80	-0.0491593	0.0190517	0.0263215	0.0260317	0.000553599	0.024622	0.0255884	-0.0304168	0.00198373	0.0909766	0.0291324	0.0613782	0.0523918	-0.00221242	0.0178843	-2.26895	0.00609506	-1.55178	0	0	0	0	-0	0	0	0	-0.1265	0	-0	0	0	0	0	0	-0	0	0.105	0.015	0	0	-0	0	0	0.098	0.1	0	-0	0	0	0	0	0	-0	0	0.05595	0	0	0	-0	0	0	0	0	0	-0	0	568.393	562.047	324.155	216.058	-0.0707943	-1.56808	0.0329429	-0.0235941	4.38515
81	-0.0488036	0.0190547	0.0263212	0.0260318	0.000554274	0.0246228	0.0255902	-0.0304142	0.00198261	0.0887084	0.0240072	0.0524816	0.0523857	-0.00221248	0.0179022	-2.26878	0.00601022	-1.55185	0	0	0	0	-0	0	0	0	-0.1265	0	-0	0	0	0	0	0	-0	0	0.105	0.015	0	0	-0	0	0	0.098	0.1	0	-0	0	0	0	0	0	-0	0	0.05595	0	0	0	-0	0	0	0	0	0	-0	0	568.426	562.095	324.215	216.157	-0.0725013	-1.5549	0.0329803	-0.0235927	4.35202
82	-0.0523866	0.0190566	0.026321	0.0260316	0.000555059	0.0246232	0.0255897	-0.0304133	0.00198131	0.0892208	0.0165223	0.058725	0.0524502	-0.00221253	0.0177138	-2.27249	0.006018	-1.55193	0	0	0	0	-0	0	0	0	-0.1265	0	-0	0	0	0	0	0	-0	0	0.105	0.015	0	0	-0	0	0	0.098	0.1	0	-0	0	0	0	0	0	-0	0	0.05595	0	0	0	-0	0	0	0	0	0	-0	0	568.451	562.131	324.261	216.232	-0.0738265	-1.54434	0.0330047	-0.0235917	4.32514
83	-0.0526341	0.0190578	0.0263212	0.0260313	0.00055469	0.0246232	0.0255888	-0.0304131	0.00198203	0.0918254	0.0183489	0.0569634	0.0524545	-0.00221252	0.0177005	-2.27277	0.00600938	-1.55194	0	0	0	0	-0	0	0	0	-0.1265	0	-0	0	0	0	0	0	-0	0	0.105	0.015	0	0	-0	0	0	0.098	0.1	0	-0	0	0	0	0	0	-0	0	0.05595	0	0	0	-0	0	0	0	0	0	-0	0	568.457	562.138	324.271	216.247	-0.0741611	-1.54199	0.0330134	-0.0235913	4.31961
84	-0.0529315	0.0190585	0.026321	0.0260315	0.000555152	0.0246233	0.0255887	-0.030413	0.00198201	0.0914811	0.0185056	0.0541623	0.0524597	-0.00221258	0.0176848	-2.27313	0.00598365	-1.55197	0	0	0	0	-0	0	0	0	-0.1265	0	-0	0	0	0	0	0	-0	0	0.105	0.015	0	0	-0	0	0	0.098	0.1	0	-0	0	0	0	0	0	-0	0	0.05595	0	0	0	-0	0	0	0	0	0	-0	0	568.47	562.156	324.295	216.285	-0.0748368	-1.53665	0.0330292	-0.0235917	4.30581
85	-0.055489	0.0190597	0.0263206	0.0260318	0.000555769	0.0246236	0.0255887	-0.030413	0.00198201	0.0919499	0.016313	0.0545036	0.052505	-0.00221264	0.0175502	-2.27579	0.00598413	-1.55203	0	0	0	0	-0	0	0	0	-0.1265	0	-0	0	0	0	0	0	-0	0	0.105	0.015	0	0	-0	0	0	0.098	0.1	0	-0	0	0	0	0	0	-0	0	0.05595	0	0	0	-0	0	0	0	0	0	-0	0	568.49	562.184	324.332	216.342	-0.0758344	-1.52858	0.033048	-0.0235916	4.2847
86	-0.0520267	0.0190608	0.0263206	0.0260317	0.000555916	0.0246238	0.0255886	-0.0304133	0.00198183	0.0963987	0.0139507	0.0567755	0.0524442	-0.00221267	0.0177318	-2.27239	0.00589099	-1.55204	0	0	0	0	-0	0	0	0	-0.1265	0	-0	0	0	0	0	0	-0	0	0.105	0.015	0	0	-0	0	0	0.098	0.1	0	-0	0	0	0	0	0	-0	0	0.05595	0	0	0	-0	0	0	0	0	0	-0	0	568.5	562.198	324.353	216.374	-0.0764162	-1.52408	0.033062	-0.0235912	4.27331
87	-0.0531266	0.0190622	0.0263202	0.0260321	0.000556795	0.0246243	0.0255889	-0.0304133	0.00198203	0.0938793	0.0110494	0.0561773	0.0524636	-0.00221275	0.0176735	-2.27362	0.00584889	-1.5521	0	0	0	0	-0	0	0	0	-0.1265	0	-0	0	0	0	0	0	-0	0	0.105	0.015	0	0	-0	0	0	0.098	0.1	0	-0	0	0	0	0	0	-0	0	0.05595	0	0	0	-0	0	0	0	0	0	-0	0	568.524	562.232	324.402	216.446	-0.0776399	-1.51405	0.0330849	-0.0235909	4.24677
88	-0.0576548	0.0190637	0.02632	0.0260321	0.000557154	0.0246246	0.0255887	-0.0304136	0.00198192	0.0889704	0.0114535	0.0546611	0.0525437	-0.00221279	0.0174356	-2.27824	0.0058874	-1.55217	0	0	0	0	-0	0	0	0	-0.1265	0	-0	0	0	0	0	0	-0	0	0.105	0.015	0	0	-0	0	0	0.098	0.1	0	-0	0	0	0	0	0	-0	0	0.05595	0	0	0	-0	0	0	0	0	0	-0	0	568.541	562.257	324.437	216.498	-0.0785447	-1.50696	0.0331041	-0.0235897	4.22874
89	-0.0635163	0.0190652	0.0263198	0.0260322	0.000557594	0.0246249	0.0255885	-0.0304144	0.00198213	0.0799712	0.013095	0.0549424	0.0526455	-0.00221284	0.0171271	-2.28419	0.0059475	-1.55225	0	0	0	0	-0	0	0	0	-0.1265	0	-0	0	0	0	0	0	-0	0	0.105	0.015	0	0	-0	0	0	0.098	0.1	0	-0	0	0	0	0	0	-0	0	0.05595	0	0	0	-0	0	0	0	0	0	-0	0	568.559	562.283	324.474	216.551	-0.0795026	-1.49926	0.0331235	-0.023589	4.20865
90	-0.0678003	0.0190664	0.0263197	0.0260323	0.000557837	0.0246251	0.0255887	-0.0304134	0.00198208	0.082117	0.0116424	0.0532307	0.052718	-0.00221288	0.0169011	-2.28855	0.00598928	-1.55231	0	0	0	0	-0	0	0	0	-0.1265	0	-0	0	0	0	0	0	-0	0	0.105	0.015	0	0	-0	0	0	0.098	0.1	0	-0	0	0	0	0	0	-0	0	0.05595	0	0	0	-0	0	0	0	0	0	-0	0	568.572	562.301	324.503	216.592	-0.0801997	-1.49389	0.03314	-0.0235882	4.19502
91	-0.0637614	0.0190677	0.0263195	0.0260323	0.000558478	0.0246254	0.0255892	-0.0304149	0.00198208	0.0730995	0.00911575	0.0534603	0.0526495	-0.00221295	0.0171133	-2.28462	0.00585817	-1.55233	0	0	0	0	-0	0	0	0	-0.1265	0	-0	0	0	0	0	0	-0	0	0.105	0.015	0	0	-0	0	0	0.098	0.1	0	-0	0	0	0	0	0	-0	0	0.05595	0	0	0	-0	0	0	0	0	0	-0	0	568.591	562.329	324.545	216.651	-0.0812411	-1.48539	0.0331582	-0.023587	4.17281
92	-0.064355	0.0190691	0.0263193	0.0260323	0.000558812	0.0246258	0.0255895	-0.0304139	0.00198192	0.0768672	0.0152277	0.0519083	0.0526593	-0.00221298	0.0170817	-2.28529	0.00582612	-1.55237	0	0	0	0	-0	0	0	0	-0.1265	0	-0	0	0	0	0	0	-0	0	0.105	0.015	0	0	-0	0	0	0.098	0.1	0	-0	0	0	0	0	0	-0	0	0.05595	0	0	0	-0	0	0	0	0	0	-0	0	568.606	562.351	324.578	216.696	-0.0820246	-1.47902	0.0331731	-0.0235856	4.15607
93	-0.0661555	0.0190713	0.0263186	0.0260325	0.000559965	0.0246263	0.0255887	-0.0304135	0.00198216	0.0693595	0.025351	0.0520446	0.0526901	-0.00221311	0.0169864	-2.28727	0.00576215	-1.55247	0	0	0	0	-0	0	0	0	-0.1265	0	-0	0	0	0	0	0	-0	0	0.105	0.015	0	0	-0	0	0	0.098	0.1	0	-0	0	0	0	0	0	-0	0	0.05595	0	0	0	-0	0	0	0	0	0	-0	0	568.639	562.401	324.653	216.796	-0.0837231	-1.46492	0.0332	-0.0235832	4.11875
94	-0.0709563	0.0190743	0.0263181	0.0260327	0.000560581	0.0246267	0.0255902	-0.0304126	0.00198297	0.054825	0.0497938	0.0520513	0.0527722	-0.00221321	0.0167323	-2.29225	0.00574968	-1.55259	0	0	0	0	-0	0	0	0	-0.1265	0	-0	0	0	0	0	0	-0	0	0.105	0.015	0	0	-0	0	0	0.098	0.1	0	-0	0	0	0	0	0	-0	0	0.05595	0	0	0	-0	0	0	0	0	0	-0	0	568.669	562.451	324.729	216.895	-0.085464	-1.45061	0.0332245	-0.0235799	4.08122
95	-0.0808054	0.0190764	0.0263181	0.0260324	0.000561179	0.0246271	0.0255889	-0.0304141	0.00198189	0.0588454	0.0514584	0.0506011	0.0529366	-0.00221326	0.0162118	-2.30223	0.00585078	-1.55272	0	0	0	0	-0	0	0	0	-0.1265	0	-0	0	0	0	0	0	-0	0	0.105	0.015	0	0	-0	0	0	0.098	0.1	0	-0	0	0	0	0	0	-0	0	0.05595	0	0	0	-0	0	0	0	0	0	-0	0	568.693	562.485	324.787	216.969	-0.0868479	-1.43948	0.0332537	-0.0235766	4.05241
96	-0.0769211	0.0190809	0.026317	0.0260333	0.000562536	0.024628	0.0255879	-0.030417	0.00198103	0.0747477	0.0452867	0.0550813	0.0528713	-0.00221347	0.0164157	-2.29864	0.00560327	-1.55285	0	0	0	0	-0	0	0	0	-0.1265	0	-0	0	0	0	0	0	-0	0	0.105	0.015	0	0	-0	0	0	0.098	0.1	0	-0	0	0	0	0	0	-0	0	0.05595	0	0	0	-0	0	0	0	0	0	-0	0	568.745	562.566	324.921	217.134	-0.0896358	-1.41639	0.0332999	-0.0235716	3.99077
97	-0.0723775	0.0190848	0.0263173	0.0260326	0.000562285	0.0246283	0.0255892	-0.0304142	0.00198139	0.0760524	0.0394832	0.0592249	0.0527968	-0.00221353	0.0166551	-2.29425	0.00542885	-1.5529	0	0	0	0	-0	0	0	0	-0.1265	0	-0	0	0	0	0	0	-0	0	0.105	0.015	0	0	-0	0	0	0.098	0.1	0	-0	0	0	0	0	0	-0	0	0.05595	0	0	0	-0	0	0	0	0	0	-0	0	568.772	562.605	324.99	217.217	-0.0913321	-1.40333	0.033342	-0.0235678	3.95743
98	-0.070741	0.0190864	0.0263175	0.0260319	0.000562198	0.0246283	0.0255889	-0.0304143	0.00198151	0.0778664	0.0375102	0.0632984	0.0527691	-0.00221354	0.016741	-2.29267	0.00536079	-1.55293	0	0	0	0	-0	0	0	0	-0.1265	0	-0	0	0	0	0	0	-0	0	0.105	0.015	0	0	-0	0	0	0.098	0.1	0	-0	0	0	0	0	0	-0	0	0.05595	0	0	0	-0	0	0	0	0	0	-0	0	568.783	562.62	325.019	217.25	-0.0920503	-1.39768	0.0333588	-0.0235654	3.94317
99	-0.0621334	0.0190892	0.0263167	0.0260322	0.000563307	0.0246289	0.0255899	-0.0304157	0.00198183	0.0843303	0.0414603	0.0574704	0.052625	-0.0022137	0.0171947	-2.28427	0.00507541	-1.553	0	0	0	0	-0	0	0	0	-0.1265	0	-0	0	0	0	0	0	-0	0	0.105	0.015	0	0	-0	0	0	0.098	0.1	0	-0	0	0	0	0	0	-0	0	0.05595	0	0	0	-0	0	0	0	0	0	-0	0	568.819	562.676	325.12	217.365	-0.0940187	-1.38099	0.0333905	-0.0235601	3.89792
100	-0.0536472	0.0190942	0.0263157	0.0260323	0.000564703	0.02463	0.0255917	-0.0304151	0.00198183	0.0882543	0.0548372	0.0578333	0.0524779	-0.00221388	0.0176391	-2.27609	0.00472433	-1.55314	0	0	0	0	-0	0	0	0	-0.1265	0	-0	0	0	0	0	0	-0	0	0.105	0.015	0	0	-0	0	0	0.098	0.1	0	-0	0	0	0	0	0	-0	0	0.05595	0	0	0	-0	0	0	0	0	0	-0	0	568.871	562.762	325.274	217.535	-0.0971856	-1.35368	0.033431	-0.02355	3.82363
