Stefan210/kinematic_calibration/src/kinematic_calibration/validation/experiments/experiments/single_point_vs_pose/marker_pose/rarm_20/optimization_intermediate_results.csv
iteration	HeadPitch_offset	HeadYaw_offset	RElbowRoll_offset	RElbowYaw_offset	RShoulderPitch_offset	RShoulderRoll_offset	marker_transform_rarm_tx	marker_transform_rarm_ty	marker_transform_rarm_tz	marker_transform_rarm_rr	marker_transform_rarm_rp	marker_transform_rarm_ry	camera_transform_tx	camera_transform_ty	camera_transform_tz	camera_transform_rr	camera_transform_rp	camera_transform_ry	HeadPitch_transform_tx	HeadPitch_transform_ty	HeadPitch_transform_tz	HeadPitch_transform_rr	HeadPitch_transform_rp	HeadPitch_transform_ry	HeadYaw_transform_tx	HeadYaw_transform_ty	HeadYaw_transform_tz	HeadYaw_transform_rr	HeadYaw_transform_rp	HeadYaw_transform_ry	RElbowRoll_transform_tx	RElbowRoll_transform_ty	RElbowRoll_transform_tz	RElbowRoll_transform_rr	RElbowRoll_transform_rp	RElbowRoll_transform_ry	RElbowYaw_transform_tx	RElbowYaw_transform_ty	RElbowYaw_transform_tz	RElbowYaw_transform_rr	RElbowYaw_transform_rp	RElbowYaw_transform_ry	RShoulderPitch_transform_tx	RShoulderPitch_transform_ty	RShoulderPitch_transform_tz	RShoulderPitch_transform_rr	RShoulderPitch_transform_rp	RShoulderPitch_transform_ry	RShoulderRoll_transform_tx	RShoulderRoll_transform_ty	RShoulderRoll_transform_tz	RShoulderRoll_transform_rr	RShoulderRoll_transform_rp	RShoulderRoll_transform_ry	RWristYaw_transform_tx	RWristYaw_transform_ty	RWristYaw_transform_tz	RWristYaw_transform_rr	RWristYaw_transform_rp	RWristYaw_transform_ry	r_wrist_joint_transform_tx	r_wrist_joint_transform_ty	r_wrist_joint_transform_tz	r_wrist_joint_transform_rr	r_wrist_joint_transform_rp	r_wrist_joint_transform_ry	camera_fx	camera_fy	camera_cx	camera_cy	camera_D0	camera_D1	camera_D2	camera_D3	camera_D4	
0	0.0230449	0.0294606	-0.0013508	-0.00116347	0.000678263	0.00258603	0.05071	0	0.01774	-2.26369	1.66533e-16	-1.5708	545.901	551.038	324.928	201.58	0.0255298	2.61142	-0.0636736	-0.0350419	0.213964
1	-0.00891935	-0.0318273	-0.0413139	-0.015911	0.00432283	-0.0454589	0.0272911	0.0376314	-0.0032161	-0.665437	0.27506	0.112352	0.052733	0.00504625	0.0254743	-2.22945	-0.00169833	-1.55814	0	0	0	0	-0	0	0	0	-0.1265	0	-0	0	0	0	0	0	-0	0	0.105	-0.015	0	0	-0	0	0	-0.098	0.1	0	-0	0	0	0	0	0	-0	0	0.05595	0	0	0	-0	0	0	0	0	0	-0	0	545.902	551.039	324.93	201.581	-0.0161068	2.57819	-0.0774771	-0.0525614	0.202939
2	-0.00453645	-0.0370763	-0.0722116	0.0255882	-0.00884914	-0.0382137	0.0249209	0.0302045	-0.000560237	-0.954365	0.288468	-0.0209022	0.0504126	0.00662482	0.0311842	-2.24833	0.00673744	-1.56141	0	0	0	0	-0	0	0	0	-0.1265	0	-0	0	0	0	0	0	-0	0	0.105	-0.015	0	0	-0	0	0	-0.098	0.1	0	-0	0	0	0	0	0	-0	0	0.05595	0	0	0	-0	0	0	0	0	0	-0	0	545.904	551.039	324.934	201.586	-0.0706269	2.47665	0.0453325	-0.0329358	0.157096
3	-0.00932101	-0.0125749	-0.060034	0.0208281	0.025711	-0.0501941	0.0253622	0.0279418	-0.00106321	-1.17606	0.238194	-0.100088	0.0521359	0.00561156	0.0238447	-2.22742	-0.00793309	-1.59118	0	0	0	0	-0	0	0	0	-0.1265	0	-0	0	0	0	0	0	-0	0	0.105	-0.015	0	0	-0	0	0	-0.098	0.1	0	-0	0	0	0	0	0	-0	0	0.05595	0	0	0	-0	0	0	0	0	0	-0	0	545.909	551.04	324.943	201.592	-0.292801	2.26318	-0.061817	0.0027397	0.0778137
4	-0.0108926	-0.0342928	-0.0508677	0.0086235	-0.00285722	-0.0504246	0.0249861	0.0276655	-0.000725909	-1.26866	0.179521	-0.0340269	0.0530679	0.00351797	0.0229556	-2.22092	0.00700392	-1.55887	0	0	0	0	-0	0	0	0	-0.1265	0	-0	0	0	0	0	0	-0	0	0.105	-0.015	0	0	-0	0	0	-0.098	0.1	0	-0	0	0	0	0	0	-0	0	0.05595	0	0	0	-0	0	0	0	0	0	-0	0	545.917	551.042	324.953	201.605	-0.575345	1.8876	0.0169825	0.0238909	-0.0862244
5	-0.0140255	-0.0181855	-0.0240875	0.0002658	-0.000779822	-0.0589742	0.0237012	0.0287339	-0.000412566	-1.41252	0.131321	0.102991	0.0560346	-0.00237498	0.0156357	-2.20641	0.0134538	-1.55198	0	0	0	0	-0	0	0	0	-0.1265	0	-0	0	0	0	0	0	-0	0	0.105	-0.015	0	0	-0	0	0	-0.098	0.1	0	-0	0	0	0	0	0	-0	0	0.05595	0	0	0	-0	0	0	0	0	0	-0	0	545.931	551.043	324.966	201.619	-0.788472	1.26353	0.0221371	0.0303035	-0.393929
6	-0.0149376	-0.0172684	-0.00492288	0.00535933	-0.00842848	-0.0557694	0.0226001	0.0299844	-0.000733355	-1.58514	0.133855	0.280115	0.0548367	-0.00427617	0.0161331	-2.20288	0.0164321	-1.54069	0	0	0	0	-0	0	0	0	-0.1265	0	-0	0	0	0	0	0	-0	0	0.105	-0.015	0	0	-0	0	0	-0.098	0.1	0	-0	0	0	0	0	0	-0	0	0.05595	0	0	0	-0	0	0	0	0	0	-0	0	545.942	551.039	324.968	201.622	-0.5421	0.959506	0.0154451	0.0210675	-0.609494
7	-0.0143043	-0.0177154	-0.00342	0.0174841	-0.00832359	-0.0432823	0.0220232	0.0292544	-0.00170289	-1.68048	0.163921	0.285587	0.0529883	-0.00322474	0.0178175	-2.20597	0.0145996	-1.54017	0	0	0	0	-0	0	0	0	-0.1265	0	-0	0	0	0	0	0	-0	0	0.105	-0.015	0	0	-0	0	0	-0.098	0.1	0	-0	0	0	0	0	0	-0	0	0.05595	0	0	0	-0	0	0	0	0	0	-0	0	545.96	551.031	324.969	201.622	-0.275031	0.713844	0.00703153	0.00564139	-0.776922
8	-0.0140819	-0.0165797	-0.00371154	0.023547	-0.00704429	-0.0403826	0.0219849	0.0290724	-0.00208878	-1.70286	0.173591	0.258275	0.0519502	-0.00294651	0.018883	-2.20715	0.0133988	-1.54089	0	0	0	0	-0	0	0	0	-0.1265	0	-0	0	0	0	0	0	-0	0	0.105	-0.015	0	0	-0	0	0	-0.098	0.1	0	-0	0	0	0	0	0	-0	0	0.05595	0	0	0	-0	0	0	0	0	0	-0	0	546.002	551.01	324.971	201.618	-0.0680353	0.45519	-0.00353667	-0.00519605	-0.888014
9	-0.013847	-0.0160659	-0.00393259	0.0248766	-0.00642687	-0.0395749	0.0219938	0.0290096	-0.00211349	-1.70941	0.175661	0.247545	0.0514292	-0.0027774	0.0195017	-2.20779	0.0124596	-1.54164	0	0	0	0	-0	0	0	0	-0.1265	0	-0	0	0	0	0	0	-0	0	0.105	-0.015	0	0	-0	0	0	-0.098	0.1	0	-0	0	0	0	0	0	-0	0	0.05595	0	0	0	-0	0	0	0	0	0	-0	0	546.116	550.953	324.983	201.605	0.0480183	0.235018	-0.00946782	-0.00962753	-0.811218
10	-0.0135181	-0.0161918	-0.00432194	0.0252197	-0.00669726	-0.0391832	0.0219959	0.029003	-0.00212405	-1.71189	0.176307	0.243913	0.0511108	-0.00267992	0.0199004	-2.20783	0.0120261	-1.54167	0	0	0	0	-0	0	0	0	-0.1265	0	-0	0	0	0	0	0	-0	0	0.105	-0.015	0	0	-0	0	0	-0.098	0.1	0	-0	0	0	0	0	0	-0	0	0.05595	0	0	0	-0	0	0	0	0	0	-0	0	546.428	550.8	325.021	201.566	0.120094	-0.062143	-0.0108099	-0.0106829	-0.414096
11	-0.01347	-0.0166765	-0.00513166	0.0255196	-0.00763552	-0.0387343	0.0219905	0.0290294	-0.00215087	-1.71352	0.176967	0.242178	0.0506648	-0.00255484	0.0204506	-2.20801	0.0115354	-1.54139	0	0	0	0	-0	0	0	0	-0.1265	0	-0	0	0	0	0	0	-0	0	0.105	-0.015	0	0	-0	0	0	-0.098	0.1	0	-0	0	0	0	0	0	-0	0	0.05595	0	0	0	-0	0	0	0	0	0	-0	0	547.205	550.431	325.097	201.449	0.22085	-0.617101	-0.0106124	-0.010942	0.456201
12	-0.011627	-0.0175198	-0.00652669	0.0262143	-0.00920474	-0.0380701	0.0219734	0.029086	-0.00221682	-1.71464	0.178123	0.241196	0.050022	-0.00237862	0.0213067	-2.20603	0.0109397	-1.54076	0	0	0	0	-0	0	0	0	-0.1265	0	-0	0	0	0	0	0	-0	0	0.105	-0.015	0	0	-0	0	0	-0.098	0.1	0	-0	0	0	0	0	0	-0	0	0.05595	0	0	0	-0	0	0	0	0	0	-0	0	548.763	549.817	325.184	201.13	0.344941	-1.35409	-0.00933916	-0.0111961	1.66513
13	-0.0167485	-0.0184141	-0.00806862	0.0273052	-0.0108447	-0.0374323	0.0219461	0.0291525	-0.0023167	-1.71441	0.179597	0.241405	0.0496174	-0.00221736	0.0217252	-2.21001	0.010752	-1.54006	0	0	0	0	-0	0	0	0	-0.1265	0	-0	0	0	0	0	0	-0	0	0.105	-0.015	0	0	-0	0	0	-0.098	0.1	0	-0	0	0	0	0	0	-0	0	0.05595	0	0	0	-0	0	0	0	0	0	-0	0	551.043	549.621	325.208	200.34	0.417582	-1.84511	-0.00732189	-0.011463	2.52812
14	-0.00784349	-0.0188859	-0.00909373	0.0284149	-0.0118425	-0.0371346	0.0219247	0.0291918	-0.00240856	-1.71305	0.181014	0.242158	0.0490803	-0.00209283	0.0226649	-2.19809	0.00996524	-1.5396	0	0	0	0	-0	0	0	0	-0.1265	0	-0	0	0	0	0	0	-0	0	0.105	-0.015	0	0	-0	0	0	-0.098	0.1	0	-0	0	0	0	0	0	-0	0	0.05595	0	0	0	-0	0	0	0	0	0	-0	0	553.983	551.541	325.18	198.313	0.408482	-1.85363	-0.00680125	-0.0114417	2.59572
15	0.00582822	-0.0189771	-0.00949886	0.0290811	-0.0121764	-0.0370899	0.0219169	0.0292015	-0.00245784	-1.71208	0.181893	0.242589	0.0485765	-0.00202127	0.0236055	-2.18171	0.0090322	-1.53946	0	0	0	0	-0	0	0	0	-0.1265	0	-0	0	0	0	0	0	-0	0	0.105	-0.015	0	0	-0	0	0	-0.098	0.1	0	-0	0	0	0	0	0	-0	0	0.05595	0	0	0	-0	0	0	0	0	0	-0	0	556.036	553.751	325.159	196.422	0.382051	-1.72519	-0.00748426	-0.0113423	2.40902
16	-0.0168243	-0.019187	-0.0102041	0.0306725	-0.0128721	-0.0370942	0.0218997	0.0292057	-0.0025676	-1.70958	0.184112	0.243055	0.048555	-0.00181427	0.0232782	-2.19544	0.00795282	-1.53994	0	0	0	0	-0	0	0	0	-0.1265	0	-0	0	0	0	0	0	-0	0	0.105	-0.015	0	0	-0	0	0	-0.098	0.1	0	-0	0	0	0	0	0	-0	0	0.05595	0	0	0	-0	0	0	0	0	0	-0	0	561.853	561.137	325.21	190.149	0.30092	-1.30183	-0.0109925	-0.0106287	1.76693
17	-0.0581027	-0.019254	-0.0106077	0.0317538	-0.0132524	-0.0372234	0.0218902	0.0292061	-0.00264077	-1.70792	0.185686	0.243509	0.049167	-0.0016839	0.0218127	-2.22978	0.00863599	-1.53967	0	0	0	0	-0	0	0	0	-0.1265	0	-0	0	0	0	0	0	-0	0	0.105	-0.015	0	0	-0	0	0	-0.098	0.1	0	-0	0	0	0	0	0	-0	0	0.05595	0	0	0	-0	0	0	0	0	0	-0	0	565.899	566.427	324.679	185.291	0.248648	-1.02766	-0.0138108	-0.0108224	1.36023
18	-0.0337055	-0.0193554	-0.0109136	0.0327352	-0.0135876	-0.0374005	0.0218815	0.0292038	-0.00270572	-1.70637	0.18716	0.243708	0.0482878	-0.0015557	0.0235455	-2.19768	0.00779294	-1.53825	0	0	0	0	-0	0	0	0	-0.1265	0	-0	0	0	0	0	0	-0	0	0.105	-0.015	0	0	-0	0	0	-0.098	0.1	0	-0	0	0	0	0	0	-0	0	0.05595	0	0	0	-0	0	0	0	0	0	-0	0	569.676	571.476	323.716	179.992	0.201489	-0.775429	-0.0168877	-0.0111678	0.982496
19	-0.00171693	-0.0193843	-0.0110453	0.0332753	-0.0137091	-0.0375639	0.021878	0.0292008	-0.0027402	-1.7055	0.188017	0.243719	0.047327	-0.00149	0.025358	-2.16097	0.00721196	-1.53668	0	0	0	0	-0	0	0	0	-0.1265	0	-0	0	0	0	0	0	-0	0	0.105	-0.015	0	0	-0	0	0	-0.098	0.1	0	-0	0	0	0	0	0	-0	0	0.05595	0	0	0	-0	0	0	0	0	0	-0	0	571.7	574.211	322.679	176.78	0.177137	-0.645336	-0.0187401	-0.011741	0.793581
20	0.0100796	-0.0193544	-0.0110719	0.0334129	-0.0136883	-0.0376214	0.0218779	0.0291999	-0.00274802	-1.70528	0.188245	0.243677	0.0469658	-0.00148147	0.025942	-2.14819	0.00695026	-1.53622	0	0	0	0	-0	0	0	0	-0.1265	0	-0	0	0	0	0	0	-0	0	0.105	-0.015	0	0	-0	0	0	-0.098	0.1	0	-0	0	0	0	0	0	-0	0	0.05595	0	0	0	-0	0	0	0	0	0	-0	0	572.092	574.742	322.404	176.127	0.171728	-0.613309	-0.0192246	-0.0120179	0.747468
21	0.018733	-0.0193739	-0.0110973	0.033529	-0.0137192	-0.0376668	0.0218772	0.0291994	-0.00275544	-1.70499	0.188437	0.243707	0.0466868	-0.00146326	0.0264178	-2.13828	0.00686813	-1.53568	0	0	0	0	-0	0	0	0	-0.1265	0	-0	0	0	0	0	0	-0	0	0.105	-0.015	0	0	-0	0	0	-0.098	0.1	0	-0	0	0	0	0	0	-0	0	0.05595	0	0	0	-0	0	0	0	0	0	-0	0	572.584	575.394	322.036	175.282	0.165979	-0.582743	-0.0196764	-0.0121663	0.702321
22	0.030791	-0.0193716	-0.0111069	0.0335839	-0.0137201	-0.0376914	0.021877	0.029199	-0.00275872	-1.70487	0.188528	0.243706	0.0463482	-0.00145749	0.0270046	-2.12571	0.00653648	-1.53539	0	0	0	0	-0	0	0	0	-0.1265	0	-0	0	0	0	0	0	-0	0	0.105	-0.015	0	0	-0	0	0	-0.098	0.1	0	-0	0	0	0	0	0	-0	0	0.05595	0	0	0	-0	0	0	0	0	0	-0	0	572.777	575.651	321.882	174.943	0.163415	-0.568052	-0.0198906	-0.0122682	0.680606
23	0.0388591	-0.0193761	-0.0111147	0.0336262	-0.0137275	-0.0377077	0.0218767	0.0291987	-0.00276134	-1.70479	0.188598	0.243701	0.0461092	-0.00145147	0.0274	-2.11721	0.00633083	-1.53516	0	0	0	0	-0	0	0	0	-0.1265	0	-0	0	0	0	0	0	-0	0	0.105	-0.015	0	0	-0	0	0	-0.098	0.1	0	-0	0	0	0	0	0	-0	0	0.05595	0	0	0	-0	0	0	0	0	0	-0	0	572.942	575.872	321.746	174.65	0.161505	-0.557633	-0.0200543	-0.0123328	0.665273
24	0.0470221	-0.0194172	-0.0111427	0.0337724	-0.0137825	-0.0377622	0.0218756	0.0291975	-0.00277098	-1.70451	0.188838	0.243685	0.0458112	-0.00142609	0.0278715	-2.10731	0.00635395	-1.53439	0	0	0	0	-0	0	0	0	-0.1265	0	-0	0	0	0	0	0	-0	0	0.105	-0.015	0	0	-0	0	0	-0.098	0.1	0	-0	0	0	0	0	0	-0	0	0.05595	0	0	0	-0	0	0	0	0	0	-0	0	573.573	576.712	321.215	173.487	0.15466	-0.522861	-0.0206128	-0.0125105	0.614654
25	0.025264	-0.0194413	-0.0111651	0.0339089	-0.0138142	-0.0378217	0.0218748	0.0291961	-0.00277958	-1.70426	0.189068	0.243645	0.0463553	-0.00140596	0.0269523	-2.12748	0.00744997	-1.53387	0	0	0	0	-0	0	0	0	-0.1265	0	-0	0	0	0	0	0	-0	0	0.105	-0.015	0	0	-0	0	0	-0.098	0.1	0	-0	0	0	0	0	0	-0	0	0.05595	0	0	0	-0	0	0	0	0	0	-0	0	574.109	577.433	320.721	172.445	0.14853	-0.490213	-0.0211572	-0.0127333	0.567261
26	0.0373143	-0.019512	-0.0112007	0.0341231	-0.013894	-0.0379168	0.0218733	0.029194	-0.00279361	-1.70386	0.189434	0.243583	0.0459211	-0.00137044	0.0276447	-2.11264	0.00758686	-1.53257	0	0	0	0	-0	0	0	0	-0.1265	0	-0	0	0	0	0	0	-0	0	0.105	-0.015	0	0	-0	0	0	-0.098	0.1	0	-0	0	0	0	0	0	-0	0	0.05595	0	0	0	-0	0	0	0	0	0	-0	0	574.977	578.596	319.84	170.615	0.13902	-0.441794	-0.0220169	-0.0130666	0.49762
27	0.0331532	-0.0194855	-0.0112023	0.0341501	-0.0138632	-0.0379389	0.0218738	0.0291936	-0.00279454	-1.70381	0.189486	0.243539	0.0460337	-0.00137264	0.0274483	-2.11669	0.00775905	-1.53254	0	0	0	0	-0	0	0	0	-0.1265	0	-0	0	0	0	0	0	-0	0	0.105	-0.015	0	0	-0	0	0	-0.098	0.1	0	-0	0	0	0	0	0	-0	0	0.05595	0	0	0	-0	0	0	0	0	0	-0	0	575.005	578.638	319.806	170.553	0.138288	-0.434721	-0.0221615	-0.0131892	0.487335
28	0.0384689	-0.0194866	-0.0112022	0.0341576	-0.0138627	-0.0379451	0.0218737	0.0291936	-0.00279497	-1.70377	0.189501	0.243548	0.0458848	-0.00137169	0.0276967	-2.11126	0.00758482	-1.53245	0	0	0	0	-0	0	0	0	-0.1265	0	-0	0	0	0	0	0	-0	0	0.105	-0.015	0	0	-0	0	0	-0.098	0.1	0	-0	0	0	0	0	0	-0	0	0.05595	0	0	0	-0	0	0	0	0	0	-0	0	575.038	578.685	319.766	170.479	0.137646	-0.431321	-0.0222009	-0.0132072	0.482373
29	0.0233463	-0.0194999	-0.0112059	0.0341906	-0.0138756	-0.0379621	0.0218735	0.0291932	-0.00279715	-1.7037	0.189558	0.243543	0.0462857	-0.00136556	0.0270255	-2.12589	0.00828363	-1.53233	0	0	0	0	-0	0	0	0	-0.1265	0	-0	0	0	0	0	0	-0	0	0.105	-0.015	0	0	-0	0	0	-0.098	0.1	0	-0	0	0	0	0	0	-0	0	0.05595	0	0	0	-0	0	0	0	0	0	-0	0	575.18	578.875	319.595	170.165	0.136088	-0.423774	-0.022336	-0.0132639	0.471694
30	0.0152663	-0.0195021	-0.0112082	0.034211	-0.0138771	-0.0379726	0.0218735	0.0291929	-0.00279837	-1.70367	0.189593	0.243526	0.0464917	-0.00136303	0.0266593	-2.13373	0.00865646	-1.53228	0	0	0	0	-0	0	0	0	-0.1265	0	-0	0	0	0	0	0	-0	0	0.105	-0.015	0	0	-0	0	0	-0.098	0.1	0	-0	0	0	0	0	0	-0	0	0.05595	0	0	0	-0	0	0	0	0	0	-0	0	575.25	578.968	319.51	170.011	0.135287	-0.419253	-0.0224214	-0.013311	0.46518
31	0.00543429	-0.0195102	-0.0112112	0.0342351	-0.0138847	-0.0379858	0.0218733	0.0291926	-0.00279993	-1.70361	0.189636	0.24352	0.0467407	-0.00135883	0.0262178	-2.14321	0.00912538	-1.5322	0	0	0	0	-0	0	0	0	-0.1265	0	-0	0	0	0	0	0	-0	0	0.105	-0.015	0	0	-0	0	0	-0.098	0.1	0	-0	0	0	0	0	0	-0	0	0.05595	0	0	0	-0	0	0	0	0	0	-0	0	575.35	579.102	319.387	169.788	0.134169	-0.413661	-0.0225228	-0.013358	0.457258
32	0.0166279	-0.0195401	-0.0112201	0.0343021	-0.0139135	-0.03802	0.0218729	0.0291918	-0.00280438	-1.70348	0.189754	0.243496	0.0464117	-0.00134635	0.0267882	-2.13103	0.00895374	-1.53162	0	0	0	0	-0	0	0	0	-0.1265	0	-0	0	0	0	0	0	-0	0	0.105	-0.015	0	0	-0	0	0	-0.098	0.1	0	-0	0	0	0	0	0	-0	0	0.05595	0	0	0	-0	0	0	0	0	0	-0	0	575.629	579.474	319.033	169.141	0.131308	-0.399868	-0.0227967	-0.0134791	0.437894
33	0.00291965	-0.0195453	-0.0112237	0.0343403	-0.0139166	-0.0380425	0.0218728	0.0291913	-0.00280668	-1.70341	0.189822	0.243469	0.0467615	-0.0013416	0.0261702	-2.14425	0.00961579	-1.5315	0	0	0	0	-0	0	0	0	-0.1265	0	-0	0	0	0	0	0	-0	0	0.105	-0.015	0	0	-0	0	0	-0.098	0.1	0	-0	0	0	0	0	0	-0	0	0.05595	0	0	0	-0	0	0	0	0	0	-0	0	575.762	579.651	318.86	168.833	0.129669	-0.390854	-0.0229605	-0.0135726	0.425047
34	-0.00149427	-0.0195433	-0.0112245	0.03435	-0.0139131	-0.038049	0.0218728	0.0291912	-0.00280716	-1.70339	0.189841	0.24346	0.0468706	-0.00134094	0.025965	-2.14856	0.00981767	-1.5315	0	0	0	0	-0	0	0	0	-0.1265	0	-0	0	0	0	0	0	-0	0	0.105	-0.015	0	0	-0	0	0	-0.098	0.1	0	-0	0	0	0	0	0	-0	0	0.05595	0	0	0	-0	0	0	0	0	0	-0	0	575.789	579.688	318.824	168.77	0.1293	-0.388386	-0.0230092	-0.013604	0.421441
35	0.00179241	-0.0195436	-0.0112249	0.0343524	-0.0139131	-0.0380512	0.0218728	0.0291912	-0.0028073	-1.70338	0.189846	0.243463	0.0467839	-0.00134061	0.0261203	-2.14523	0.00969897	-1.53145	0	0	0	0	-0	0	0	0	-0.1265	0	-0	0	0	0	0	0	-0	0	0.105	-0.015	0	0	-0	0	0	-0.098	0.1	0	-0	0	0	0	0	0	-0	0	0.05595	0	0	0	-0	0	0	0	0	0	-0	0	575.799	579.701	318.811	168.746	0.129167	-0.38763	-0.0230229	-0.0136118	0.420353
36	-0.00310128	-0.0195458	-0.0112255	0.0343575	-0.013915	-0.0380542	0.0218728	0.0291912	-0.00280764	-1.70336	0.189855	0.243464	0.0469093	-0.00133979	0.0258945	-2.15005	0.00991315	-1.53146	0	0	0	0	-0	0	0	0	-0.1265	0	-0	0	0	0	0	0	-0	0	0.105	-0.015	0	0	-0	0	0	-0.098	0.1	0	-0	0	0	0	0	0	-0	0	0.05595	0	0	0	-0	0	0	0	0	0	-0	0	575.82	579.728	318.783	168.698	0.12889	-0.386313	-0.0230417	-0.0136217	0.41851
37	-0.00470229	-0.0195486	-0.0112261	0.0343648	-0.0139174	-0.0380584	0.0218727	0.0291911	-0.00280812	-1.70335	0.189868	0.243461	0.0469468	-0.00133851	0.0258241	-2.15154	0.010008	-1.53142	0	0	0	0	-0	0	0	0	-0.1265	0	-0	0	0	0	0	0	-0	0	0.105	-0.015	0	0	-0	0	0	-0.098	0.1	0	-0	0	0	0	0	0	-0	0	0.05595	0	0	0	-0	0	0	0	0	0	-0	0	575.849	579.767	318.742	168.627	0.128573	-0.384743	-0.023073	-0.0136373	0.416306
38	-0.0140062	-0.0195554	-0.0112283	0.0343803	-0.0139237	-0.0380665	0.0218726	0.0291909	-0.00280915	-1.70332	0.189896	0.243455	0.0471794	-0.00133563	0.0253985	-2.16061	0.0104404	-1.53139	0	0	0	0	-0	0	0	0	-0.1265	0	-0	0	0	0	0	0	-0	0	0.105	-0.015	0	0	-0	0	0	-0.098	0.1	0	-0	0	0	0	0	0	-0	0	0.05595	0	0	0	-0	0	0	0	0	0	-0	0	575.912	579.85	318.656	168.478	0.12794	-0.381733	-0.0231343	-0.0136674	0.412136
39	-0.0231475	-0.0195641	-0.0112304	0.0344023	-0.013931	-0.0380789	0.0218725	0.0291905	-0.00281056	-1.70327	0.189935	0.243442	0.0473995	-0.00133177	0.0249815	-2.16941	0.0108978	-1.53133	0	0	0	0	-0	0	0	0	-0.1265	0	-0	0	0	0	0	0	-0	0	0.105	-0.015	0	0	-0	0	0	-0.098	0.1	0	-0	0	0	0	0	0	-0	0	0.05595	0	0	0	-0	0	0	0	0	0	-0	0	575.999	579.967	318.534	168.265	0.127019	-0.377182	-0.0232275	-0.013714	0.405766
40	-0.02951	-0.0195666	-0.0112318	0.0344149	-0.0139327	-0.0380865	0.0218725	0.0291904	-0.00281134	-1.70325	0.189958	0.243434	0.0475523	-0.0013302	0.0246859	-2.17561	0.0111989	-1.53131	0	0	0	0	-0	0	0	0	-0.1265	0	-0	0	0	0	0	0	-0	0	0.105	-0.015	0	0	-0	0	0	-0.098	0.1	0	-0	0	0	0	0	0	-0	0	0.05595	0	0	0	-0	0	0	0	0	0	-0	0	576.043	580.023	318.473	168.16	0.126476	-0.374243	-0.0232801	-0.0137462	0.401598
41	-0.0219599	-0.0195726	-0.011233	0.03443	-0.0139374	-0.0380957	0.0218724	0.0291902	-0.0028123	-1.70322	0.189985	0.243427	0.047358	-0.00132746	0.0250554	-2.16783	0.0109718	-1.53111	0	0	0	0	-0	0	0	0	-0.1265	0	-0	0	0	0	0	0	-0	0	0.105	-0.015	0	0	-0	0	0	-0.098	0.1	0	-0	0	0	0	0	0	-0	0	0.05595	0	0	0	-0	0	0	0	0	0	-0	0	576.105	580.107	318.385	168.008	0.125815	-0.370984	-0.0233471	-0.0137792	0.397046
42	-0.0169634	-0.0195914	-0.0112379	0.0344668	-0.0139544	-0.0381159	0.0218722	0.0291897	-0.00281479	-1.70314	0.190051	0.243411	0.0472138	-0.00132059	0.0253184	-2.16226	0.0109465	-1.53076	0	0	0	0	-0	0	0	0	-0.1265	0	-0	0	0	0	0	0	-0	0	0.105	-0.015	0	0	-0	0	0	-0.098	0.1	0	-0	0	0	0	0	0	-0	0	0.05595	0	0	0	-0	0	0	0	0	0	-0	0	576.252	580.3	318.17	167.638	0.124327	-0.364017	-0.0234933	-0.0138537	0.38743
43	-0.00440523	-0.0196062	-0.0112419	0.0345017	-0.0139664	-0.0381376	0.021872	0.0291893	-0.00281708	-1.70307	0.190115	0.243393	0.0468805	-0.00131506	0.0259337	-2.14918	0.010605	-1.53035	0	0	0	0	-0	0	0	0	-0.1265	0	-0	0	0	0	0	0	-0	0	0.105	-0.015	0	0	-0	0	0	-0.098	0.1	0	-0	0	0	0	0	0	-0	0	0.05595	0	0	0	-0	0	0	0	0	0	-0	0	576.381	580.467	317.969	167.299	0.122844	-0.35664	-0.0236366	-0.0139379	0.377138
44	0.00127065	-0.0196042	-0.0112417	0.0345115	-0.0139626	-0.0381448	0.021872	0.0291891	-0.00281757	-1.70305	0.190134	0.24338	0.0467274	-0.00131453	0.0262008	-2.14339	0.0104064	-1.53023	0	0	0	0	-0	0	0	0	-0.1265	0	-0	0	0	0	0	0	-0	0	0.105	-0.015	0	0	-0	0	0	-0.098	0.1	0	-0	0	0	0	0	0	-0	0	0.05595	0	0	0	-0	0	0	0	0	0	-0	0	576.406	580.502	317.927	167.23	0.122433	-0.353961	-0.0236868	-0.0139729	0.373257
45	0.00829023	-0.0196082	-0.0112421	0.0345196	-0.0139651	-0.0381509	0.021872	0.029189	-0.00281807	-1.70303	0.19015	0.243377	0.0465385	-0.0013129	0.0265347	-2.13623	0.0101648	-1.53008	0	0	0	0	-0	0	0	0	-0.1265	0	-0	0	0	0	0	0	-0	0	0.105	-0.015	0	0	-0	0	0	-0.098	0.1	0	-0	0	0	0	0	0	-0	0	0.05595	0	0	0	-0	0	0	0	0	0	-0	0	576.44	580.549	317.871	167.137	0.122086	-0.352223	-0.0237286	-0.0139938	0.370829
46	0.0163194	-0.0196187	-0.0112441	0.0345381	-0.013974	-0.0381623	0.0218719	0.0291887	-0.00281934	-1.70299	0.190184	0.243369	0.0463151	-0.00130949	0.026921	-2.1279	0.00993049	-1.52983	0	0	0	0	-0	0	0	0	-0.1265	0	-0	0	0	0	0	0	-0	0	0.105	-0.015	0	0	-0	0	0	-0.098	0.1	0	-0	0	0	0	0	0	-0	0	0.05595	0	0	0	-0	0	0	0	0	0	-0	0	576.513	580.644	317.752	166.94	0.121291	-0.348542	-0.023803	-0.0140355	0.365772
47	0.0259377	-0.0196326	-0.0112466	0.0345636	-0.0139849	-0.0381785	0.0218717	0.0291884	-0.00282104	-1.70294	0.190232	0.243353	0.0460421	-0.00130489	0.0273836	-2.11786	0.00966242	-1.52951	0	0	0	0	-0	0	0	0	-0.1265	0	-0	0	0	0	0	0	-0	0	0.105	-0.015	0	0	-0	0	0	-0.098	0.1	0	-0	0	0	0	0	0	-0	0	0.05595	0	0	0	-0	0	0	0	0	0	-0	0	576.61	580.771	317.588	166.668	0.120287	-0.343709	-0.023912	-0.0140978	0.359087
48	0.0295318	-0.0196302	-0.0112464	0.0345695	-0.0139813	-0.0381834	0.0218718	0.0291883	-0.0028213	-1.70293	0.190243	0.243344	0.0459406	-0.00130476	0.027549	-2.11421	0.00952989	-1.52944	0	0	0	0	-0	0	0	0	-0.1265	0	-0	0	0	0	0	0	-0	0	0.105	-0.015	0	0	-0	0	0	-0.098	0.1	0	-0	0	0	0	0	0	-0	0	0.05595	0	0	0	-0	0	0	0	0	0	-0	0	576.623	580.789	317.565	166.632	0.120043	-0.341994	-0.0239444	-0.0141218	0.356594
49	0.0360701	-0.0196379	-0.0112476	0.0345823	-0.0139875	-0.0381917	0.0218717	0.0291881	-0.00282216	-1.7029	0.190267	0.24334	0.0457529	-0.00130207	0.0278593	-2.10745	0.009326	-1.52925	0	0	0	0	-0	0	0	0	-0.1265	0	-0	0	0	0	0	0	-0	0	0.105	-0.015	0	0	-0	0	0	-0.098	0.1	0	-0	0	0	0	0	0	-0	0	0.05595	0	0	0	-0	0	0	0	0	0	-0	0	576.677	580.862	317.476	166.486	0.11951	-0.339584	-0.0239999	-0.0141504	0.353318
50	0.0313621	-0.0196398	-0.011248	0.0345901	-0.0139883	-0.038197	0.0218717	0.029188	-0.00282264	-1.70288	0.190282	0.243333	0.04588	-0.00130105	0.0276475	-2.11204	0.00955408	-1.52923	0	0	0	0	-0	0	0	0	-0.1265	0	-0	0	0	0	0	0	-0	0	0.105	-0.015	0	0	-0	0	0	-0.098	0.1	0	-0	0	0	0	0	0	-0	0	0.05595	0	0	0	-0	0	0	0	0	0	-0	0	576.704	580.897	317.432	166.415	0.119181	-0.337817	-0.0240346	-0.0141728	0.35084
51	0.0254072	-0.0196431	-0.0112486	0.0345976	-0.0139906	-0.038202	0.0218717	0.0291879	-0.00282312	-1.70286	0.190295	0.24333	0.0460406	-0.00129979	0.0273789	-2.11788	0.00983721	-1.52923	0	0	0	0	-0	0	0	0	-0.1265	0	-0	0	0	0	0	0	-0	0	0.105	-0.015	0	0	-0	0	0	-0.098	0.1	0	-0	0	0	0	0	0	-0	0	0.05595	0	0	0	-0	0	0	0	0	0	-0	0	576.733	580.934	317.385	166.339	0.118848	-0.336193	-0.024066	-0.0141914	0.348596
52	0.0305207	-0.0196518	-0.0112501	0.0346125	-0.0139978	-0.0382114	0.0218716	0.0291877	-0.00282414	-1.70283	0.190323	0.243323	0.0458923	-0.00129704	0.0276245	-2.11251	0.00970146	-1.52903	0	0	0	0	-0	0	0	0	-0.1265	0	-0	0	0	0	0	0	-0	0	0.105	-0.015	0	0	-0	0	0	-0.098	0.1	0	-0	0	0	0	0	0	-0	0	0.05595	0	0	0	-0	0	0	0	0	0	-0	0	576.791	581.009	317.286	166.178	0.118208	-0.333275	-0.0241247	-0.0142261	0.344619
53	0.038192	-0.0196544	-0.0112507	0.0346209	-0.013999	-0.0382174	0.0218716	0.0291875	-0.00282465	-1.70281	0.190339	0.243316	0.0456762	-0.00129581	0.0279812	-2.10472	0.00941924	-1.52889	0	0	0	0	-0	0	0	0	-0.1265	0	-0	0	0	0	0	0	-0	0	0.105	-0.015	0	0	-0	0	0	-0.098	0.1	0	-0	0	0	0	0	0	-0	0	0.05595	0	0	0	-0	0	0	0	0	0	-0	0	576.819	581.046	317.235	166.096	0.117907	-0.331624	-0.0241645	-0.0142515	0.342305
54	0.0314084	-0.0196563	-0.0112507	0.0346268	-0.0139998	-0.0382216	0.0218716	0.0291874	-0.00282501	-1.7028	0.19035	0.24331	0.045862	-0.00129489	0.0276741	-2.1114	0.00973126	-1.5289	0	0	0	0	-0	0	0	0	-0.1265	0	-0	0	0	0	0	0	-0	0	0.105	-0.015	0	0	-0	0	0	-0.098	0.1	0	-0	0	0	0	0	0	-0	0	0.05595	0	0	0	-0	0	0	0	0	0	-0	0	576.841	581.076	317.197	166.036	0.117648	-0.330271	-0.0241927	-0.0142681	0.340417
55	0.0282099	-0.0196633	-0.0112522	0.0346388	-0.0140056	-0.0382289	0.0218715	0.0291873	-0.00282582	-1.70278	0.190373	0.243304	0.0459431	-0.00129254	0.0275357	-2.1144	0.0099267	-1.52882	0	0	0	0	-0	0	0	0	-0.1265	0	-0	0	0	0	0	0	-0	0	0.105	-0.015	0	0	-0	0	0	-0.098	0.1	0	-0	0	0	0	0	0	-0	0	0.05595	0	0	0	-0	0	0	0	0	0	-0	0	576.888	581.137	317.117	165.908	0.117198	-0.328236	-0.0242406	-0.0142959	0.337667
56	0.0332647	-0.0196663	-0.0112521	0.0346461	-0.014007	-0.0382349	0.0218715	0.0291871	-0.00282627	-1.70276	0.190387	0.243298	0.0458006	-0.00129146	0.0277723	-2.10922	0.00975368	-1.5287	0	0	0	0	-0	0	0	0	-0.1265	0	-0	0	0	0	0	0	-0	0	0.105	-0.015	0	0	-0	0	0	-0.098	0.1	0	-0	0	0	0	0	0	-0	0	0.05595	0	0	0	-0	0	0	0	0	0	-0	0	576.913	581.171	317.066	165.828	0.116866	-0.326508	-0.0242763	-0.0143189	0.335249
57	0.0265391	-0.0196762	-0.0112537	0.0346609	-0.014015	-0.0382447	0.0218714	0.0291869	-0.0028273	-1.70273	0.190415	0.243291	0.0459792	-0.00128869	0.0274745	-2.11568	0.0101187	-1.52861	0	0	0	0	-0	0	0	0	-0.1265	0	-0	0	0	0	0	0	-0	0	0.105	-0.015	0	0	-0	0	0	-0.098	0.1	0	-0	0	0	0	0	0	-0	0	0.05595	0	0	0	-0	0	0	0	0	0	-0	0	576.969	581.242	316.961	165.661	0.116259	-0.323771	-0.0243348	-0.0143559	0.331533
58	0.0301771	-0.0196749	-0.0112538	0.0346645	-0.0140129	-0.0382476	0.0218714	0.0291869	-0.00282747	-1.70272	0.190422	0.243286	0.0458777	-0.00128855	0.0276422	-2.112	0.00997653	-1.52855	0	0	0	0	-0	0	0	0	-0.1265	0	-0	0	0	0	0	0	-0	0	0.105	-0.015	0	0	-0	0	0	-0.098	0.1	0	-0	0	0	0	0	0	-0	0	0.05595	0	0	0	-0	0	0	0	0	0	-0	0	576.977	581.253	316.947	165.639	0.116144	-0.322899	-0.0243543	-0.0143707	0.330264
59	0.0284652	-0.0196775	-0.0112543	0.0346687	-0.014015	-0.0382504	0.0218714	0.0291868	-0.00282777	-1.70271	0.19043	0.243285	0.0459227	-0.00128781	0.0275663	-2.11364	0.0100719	-1.52853	0	0	0	0	-0	0	0	0	-0.1265	0	-0	0	0	0	0	0	-0	0	0.105	-0.015	0	0	-0	0	0	-0.098	0.1	0	-0	0	0	0	0	0	-0	0	0.05595	0	0	0	-0	0	0	0	0	0	-0	0	576.993	581.273	316.917	165.593	0.115941	-0.321984	-0.0243699	-0.0143811	0.329022
60	0.0321098	-0.0196782	-0.0112543	0.0346709	-0.0140152	-0.0382522	0.0218714	0.0291868	-0.00282789	-1.70271	0.190434	0.243284	0.0458212	-0.00128751	0.027735	-2.10996	0.00992923	-1.52847	0	0	0	0	-0	0	0	0	-0.1265	0	-0	0	0	0	0	0	-0	0	0.105	-0.015	0	0	-0	0	0	-0.098	0.1	0	-0	0	0	0	0	0	-0	0	0.05595	0	0	0	-0	0	0	0	0	0	-0	0	577.001	581.283	316.903	165.571	0.115847	-0.321479	-0.0243807	-0.0143882	0.328316
61	0.0345177	-0.019679	-0.0112544	0.0346725	-0.0140157	-0.0382534	0.0218714	0.0291868	-0.002828	-1.7027	0.190437	0.243283	0.0457535	-0.00128727	0.0278461	-2.10753	0.00983586	-1.52843	0	0	0	0	-0	0	0	0	-0.1265	0	-0	0	0	0	0	0	-0	0	0.105	-0.015	0	0	-0	0	0	-0.098	0.1	0	-0	0	0	0	0	0	-0	0	0.05595	0	0	0	-0	0	0	0	0	0	-0	0	577.006	581.29	316.892	165.554	0.115776	-0.321125	-0.0243875	-0.014393	0.327824
62	0.0381169	-0.0196806	-0.0112543	0.0346755	-0.0140167	-0.0382557	0.0218713	0.0291867	-0.00282819	-1.70269	0.190443	0.243281	0.0456513	-0.0012866	0.0280131	-2.10388	0.00970135	-1.52836	0	0	0	0	-0	0	0	0	-0.1265	0	-0	0	0	0	0	0	-0	0	0.105	-0.015	0	0	-0	0	0	-0.098	0.1	0	-0	0	0	0	0	0	-0	0	0.05595	0	0	0	-0	0	0	0	0	0	-0	0	577.02	581.308	316.868	165.516	0.115643	-0.320497	-0.0244029	-0.0144011	0.326968
63	0.0359092	-0.019684	-0.0112548	0.0346804	-0.0140192	-0.038259	0.0218713	0.0291866	-0.00282853	-1.70268	0.190452	0.243278	0.0457105	-0.00128575	0.0279155	-2.106	0.00982243	-1.52833	0	0	0	0	-0	0	0	0	-0.1265	0	-0	0	0	0	0	0	-0	0	0.105	-0.015	0	0	-0	0	0	-0.098	0.1	0	-0	0	0	0	0	0	-0	0	0.05595	0	0	0	-0	0	0	0	0	0	-0	0	577.037	581.329	316.833	165.462	0.115456	-0.319637	-0.024422	-0.0144143	0.325793
64	0.0370054	-0.0196883	-0.0112556	0.0346876	-0.0140227	-0.0382638	0.0218713	0.0291866	-0.00282903	-1.70267	0.190466	0.243274	0.0456763	-0.00128446	0.0279705	-2.10478	0.00981538	-1.52825	0	0	0	0	-0	0	0	0	-0.1265	0	-0	0	0	0	0	0	-0	0	0.105	-0.015	0	0	-0	0	0	-0.098	0.1	0	-0	0	0	0	0	0	-0	0	0.05595	0	0	0	-0	0	0	0	0	0	-0	0	577.063	581.363	316.782	165.384	0.11516	-0.318293	-0.0244495	-0.014433	0.323973
65	0.040014	-0.0196937	-0.0112556	0.0346966	-0.0140259	-0.0382707	0.0218713	0.0291864	-0.00282959	-1.70265	0.190484	0.243266	0.0455868	-0.00128257	0.028115	-2.1016	0.00974114	-1.52812	0	0	0	0	-0	0	0	0	-0.1265	0	-0	0	0	0	0	0	-0	0	0.105	-0.015	0	0	-0	0	0	-0.098	0.1	0	-0	0	0	0	0	0	-0	0	0.05595	0	0	0	-0	0	0	0	0	0	-0	0	577.099	581.412	316.711	165.273	0.114839	-0.316742	-0.0244954	-0.0144588	0.321852
66	0.0331855	-0.0196956	-0.0112562	0.0347026	-0.0140272	-0.0382748	0.0218712	0.0291863	-0.00282999	-1.70264	0.190495	0.243262	0.0457765	-0.00128185	0.0278066	-2.10833	0.0100595	-1.52814	0	0	0	0	-0	0	0	0	-0.1265	0	-0	0	0	0	0	0	-0	0	0.105	-0.015	0	0	-0	0	0	-0.098	0.1	0	-0	0	0	0	0	0	-0	0	0.05595	0	0	0	-0	0	0	0	0	0	-0	0	577.119	581.436	316.676	165.22	0.11456	-0.315325	-0.024518	-0.0144764	0.319895
67	0.0297011	-0.0196973	-0.0112567	0.0347068	-0.0140283	-0.0382775	0.0218712	0.0291862	-0.00283026	-1.70263	0.190503	0.243259	0.0458706	-0.00128125	0.0276489	-2.11175	0.0102286	-1.52814	0	0	0	0	-0	0	0	0	-0.1265	0	-0	0	0	0	0	0	-0	0	0.105	-0.015	0	0	-0	0	0	-0.098	0.1	0	-0	0	0	0	0	0	-0	0	0.05595	0	0	0	-0	0	0	0	0	0	-0	0	577.132	581.453	316.65	165.18	0.114403	-0.314544	-0.0245337	-0.014488	0.318821
68	0.0257352	-0.0197023	-0.0112572	0.0347138	-0.014032	-0.0382826	0.0218712	0.0291861	-0.00283074	-1.70261	0.190516	0.243255	0.0459762	-0.00127983	0.0274722	-2.11558	0.0104416	-1.5281	0	0	0	0	-0	0	0	0	-0.1265	0	-0	0	0	0	0	0	-0	0	0.105	-0.015	0	0	-0	0	0	-0.098	0.1	0	-0	0	0	0	0	0	-0	0	0.05595	0	0	0	-0	0	0	0	0	0	-0	0	577.159	581.488	316.594	165.096	0.11413	-0.313319	-0.0245638	-0.0145072	0.317164
69	0.0281162	-0.0197017	-0.0112572	0.0347155	-0.014031	-0.0382841	0.0218712	0.0291861	-0.00283082	-1.70261	0.19052	0.243252	0.0459102	-0.00127978	0.0275819	-2.11318	0.010346	-1.52806	0	0	0	0	-0	0	0	0	-0.1265	0	-0	0	0	0	0	0	-0	0	0.105	-0.015	0	0	-0	0	0	-0.098	0.1	0	-0	0	0	0	0	0	-0	0	0.05595	0	0	0	-0	0	0	0	0	0	-0	0	577.163	581.493	316.586	165.084	0.114064	-0.312852	-0.0245733	-0.0145146	0.316493
70	0.030024	-0.0197019	-0.0112571	0.0347162	-0.0140309	-0.0382848	0.0218712	0.0291861	-0.00283086	-1.70261	0.190521	0.243252	0.0458572	-0.00127969	0.0276698	-2.11126	0.0102687	-1.52803	0	0	0	0	-0	0	0	0	-0.1265	0	-0	0	0	0	0	0	-0	0	0.105	-0.015	0	0	-0	0	0	-0.098	0.1	0	-0	0	0	0	0	0	-0	0	0.05595	0	0	0	-0	0	0	0	0	0	-0	0	577.165	581.496	316.581	165.076	0.114018	-0.312613	-0.0245769	-0.0145171	0.316155
71	0.0261198	-0.0197028	-0.0112567	0.0347173	-0.0140313	-0.038286	0.0218712	0.0291861	-0.00283093	-1.7026	0.190523	0.243251	0.0459645	-0.00127946	0.0274916	-2.11514	0.0104448	-1.52806	0	0	0	0	-0	0	0	0	-0.1265	0	-0	0	0	0	0	0	-0	0	0.105	-0.015	0	0	-0	0	0	-0.098	0.1	0	-0	0	0	0	0	0	-0	0	0.05595	0	0	0	-0	0	0	0	0	0	-0	0	577.17	581.503	316.57	165.059	0.113943	-0.312257	-0.0245838	-0.014521	0.315662
72	0.0248799	-0.0197044	-0.011257	0.0347196	-0.0140325	-0.0382876	0.0218712	0.029186	-0.00283109	-1.7026	0.190528	0.24325	0.0459971	-0.00127902	0.0274361	-2.11633	0.0105115	-1.52805	0	0	0	0	-0	0	0	0	-0.1265	0	-0	0	0	0	0	0	-0	0	0.105	-0.015	0	0	-0	0	0	-0.098	0.1	0	-0	0	0	0	0	0	-0	0	0.05595	0	0	0	-0	0	0	0	0	0	-0	0	577.179	581.513	316.553	165.033	0.113866	-0.31191	-0.0245928	-0.0145274	0.315195
73	0.0275027	-0.0197049	-0.0112571	0.0347209	-0.0140328	-0.0382886	0.0218712	0.029186	-0.00283117	-1.7026	0.19053	0.243249	0.0459246	-0.00127886	0.0275574	-2.11369	0.0104062	-1.52801	0	0	0	0	-0	0	0	0	-0.1265	0	-0	0	0	0	0	0	-0	0	0.105	-0.015	0	0	-0	0	0	-0.098	0.1	0	-0	0	0	0	0	0	-0	0	0.05595	0	0	0	-0	0	0	0	0	0	-0	0	577.183	581.519	316.544	165.02	0.113802	-0.311586	-0.0245982	-0.0145314	0.314748
74	0.0280905	-0.0197066	-0.0112574	0.0347234	-0.0140341	-0.0382903	0.0218712	0.029186	-0.00283135	-1.70259	0.190535	0.243248	0.045907	-0.00127838	0.0275861	-2.11306	0.010396	-1.52797	0	0	0	0	-0	0	0	0	-0.1265	0	-0	0	0	0	0	0	-0	0	0.105	-0.015	0	0	-0	0	0	-0.098	0.1	0	-0	0	0	0	0	0	-0	0	0.05595	0	0	0	-0	0	0	0	0	0	-0	0	577.192	581.53	316.525	164.992	0.113714	-0.311196	-0.0246079	-0.014538	0.314224
75	0.0275412	-0.0197088	-0.0112576	0.0347269	-0.0140356	-0.0382928	0.0218711	0.0291859	-0.00283158	-1.70258	0.190542	0.243245	0.0459202	-0.00127766	0.0275636	-2.11354	0.010441	-1.52794	0	0	0	0	-0	0	0	0	-0.1265	0	-0	0	0	0	0	0	-0	0	0.105	-0.015	0	0	-0	0	0	-0.098	0.1	0	-0	0	0	0	0	0	-0	0	0.05595	0	0	0	-0	0	0	0	0	0	-0	0	577.206	581.548	316.498	164.95	0.113583	-0.310596	-0.0246235	-0.0145479	0.313413
76	0.0252328	-0.0197086	-0.0112578	0.0347279	-0.0140353	-0.0382934	0.0218711	0.0291859	-0.00283163	-1.70258	0.190544	0.243244	0.0459836	-0.00127761	0.0274579	-2.11584	0.0105428	-1.52796	0	0	0	0	-0	0	0	0	-0.1265	0	-0	0	0	0	0	0	-0	0	0.105	-0.015	0	0	-0	0	0	-0.098	0.1	0	-0	0	0	0	0	0	-0	0	0.05595	0	0	0	-0	0	0	0	0	0	-0	0	577.208	581.55	316.494	164.945	0.113562	-0.310427	-0.0246278	-0.0145516	0.313172
77	0.029411	-0.0197091	-0.0112577	0.034729	-0.0140355	-0.0382943	0.0218711	0.0291859	-0.0028317	-1.70258	0.190546	0.243243	0.0458684	-0.00127747	0.0276506	-2.11165	0.01037	-1.5279	0	0	0	0	-0	0	0	0	-0.1265	0	-0	0	0	0	0	0	-0	0	0.105	-0.015	0	0	-0	0	0	-0.098	0.1	0	-0	0	0	0	0	0	-0	0	0.05595	0	0	0	-0	0	0	0	0	0	-0	0	577.212	581.555	316.486	164.933	0.113494	-0.310099	-0.0246321	-0.0145546	0.312715
78	0.030216	-0.0197101	-0.0112578	0.0347303	-0.0140362	-0.0382952	0.0218711	0.0291859	-0.00283178	-1.70258	0.190548	0.243241	0.0458448	-0.00127713	0.0276885	-2.11082	0.0103443	-1.52788	0	0	0	0	-0	0	0	0	-0.1265	0	-0	0	0	0	0	0	-0	0	0.105	-0.015	0	0	-0	0	0	-0.098	0.1	0	-0	0	0	0	0	0	-0	0	0.05595	0	0	0	-0	0	0	0	0	0	-0	0	577.217	581.562	316.475	164.916	0.113472	-0.30999	-0.0246392	-0.0145588	0.312569
79	0.0352793	-0.0197116	-0.0112578	0.0347323	-0.0140372	-0.0382969	0.0218711	0.0291858	-0.00283192	-1.70257	0.190552	0.243241	0.0457037	-0.00127678	0.027922	-2.10572	0.0101405	-1.5278	0	0	0	0	-0	0	0	0	-0.1265	0	-0	0	0	0	0	0	-0	0	0.105	-0.015	0	0	-0	0	0	-0.098	0.1	0	-0	0	0	0	0	0	-0	0	0.05595	0	0	0	-0	0	0	0	0	0	-0	0	577.224	581.572	316.458	164.891	0.113367	-0.309516	-0.0246475	-0.0145648	0.311923
80	0.0394881	-0.0197121	-0.0112579	0.0347337	-0.0140375	-0.0382979	0.0218711	0.0291858	-0.00283202	-1.70257	0.190555	0.243239	0.0455851	-0.00127664	0.0281146	-2.10149	0.00996619	-1.52775	0	0	0	0	-0	0	0	0	-0.1265	0	-0	0	0	0	0	0	-0	0	0.105	-0.015	0	0	-0	0	0	-0.098	0.1	0	-0	0	0	0	0	0	-0	0	0.05595	0	0	0	-0	0	0	0	0	0	-0	0	577.228	581.576	316.45	164.879	0.113306	-0.309209	-0.0246525	-0.014569	0.3115
81	0.0424501	-0.0197136	-0.0112579	0.0347359	-0.0140386	-0.0382996	0.0218711	0.0291858	-0.00283217	-1.70256	0.190559	0.243238	0.0455002	-0.00127617	0.0282511	-2.09849	0.00985285	-1.52769	0	0	0	0	-0	0	0	0	-0.1265	0	-0	0	0	0	0	0	-0	0	0.105	-0.015	0	0	-0	0	0	-0.098	0.1	0	-0	0	0	0	0	0	-0	0	0.05595	0	0	0	-0	0	0	0	0	0	-0	0	577.237	581.589	316.431	164.851	0.113209	-0.308774	-0.0246624	-0.0145753	0.310914
82	0.0407544	-0.0197134	-0.011258	0.0347365	-0.0140383	-0.0383	0.0218711	0.0291858	-0.00283219	-1.70256	0.19056	0.243237	0.0455477	-0.00127614	0.028174	-2.10018	0.00992774	-1.52771	0	0	0	0	-0	0	0	0	-0.1265	0	-0	0	0	0	0	0	-0	0	0.105	-0.015	0	0	-0	0	0	-0.098	0.1	0	-0	0	0	0	0	0	-0	0	0.05595	0	0	0	-0	0	0	0	0	0	-0	0	577.238	581.59	316.429	164.847	0.113198	-0.308671	-0.0246656	-0.0145777	0.310761
83	0.0400072	-0.0197138	-0.0112579	0.034737	-0.0140384	-0.0383006	0.0218711	0.0291857	-0.00283222	-1.70256	0.190562	0.243237	0.0455684	-0.00127603	0.0281404	-2.10091	0.00996395	-1.52771	0	0	0	0	-0	0	0	0	-0.1265	0	-0	0	0	0	0	0	-0	0	0.105	-0.015	0	0	-0	0	0	-0.098	0.1	0	-0	0	0	0	0	0	-0	0	0.05595	0	0	0	-0	0	0	0	0	0	-0	0	577.241	581.593	316.424	164.84	0.113165	-0.308511	-0.0246686	-0.0145796	0.310538
84	0.0382661	-0.0197139	-0.0112581	0.0347375	-0.0140386	-0.0383008	0.0218711	0.0291857	-0.00283226	-1.70256	0.190563	0.243237	0.0456172	-0.00127595	0.0280613	-2.10265	0.0100409	-1.52772	0	0	0	0	-0	0	0	0	-0.1265	0	-0	0	0	0	0	0	-0	0	0.105	-0.015	0	0	-0	0	0	-0.098	0.1	0	-0	0	0	0	0	0	-0	0	0.05595	0	0	0	-0	0	0	0	0	0	-0	0	577.242	581.595	316.421	164.836	0.113162	-0.308488	-0.0246703	-0.0145809	0.310507
85	0.0382091	-0.0197144	-0.0112581	0.0347381	-0.0140389	-0.0383013	0.0218711	0.0291857	-0.00283229	-1.70256	0.190564	0.243236	0.0456183	-0.00127579	0.0280593	-2.10269	0.0100478	-1.52771	0	0	0	0	-0	0	0	0	-0.1265	0	-0	0	0	0	0	0	-0	0	0.105	-0.015	0	0	-0	0	0	-0.098	0.1	0	-0	0	0	0	0	0	-0	0	0.05595	0	0	0	-0	0	0	0	0	0	-0	0	577.245	581.598	316.415	164.827	0.113145	-0.308406	-0.0246737	-0.0145828	0.310397
86	0.0398961	-0.0197152	-0.0112581	0.0347391	-0.0140394	-0.0383021	0.0218711	0.0291857	-0.00283236	-1.70256	0.190566	0.243235	0.0455704	-0.00127559	0.028137	-2.10098	0.0099818	-1.52768	0	0	0	0	-0	0	0	0	-0.1265	0	-0	0	0	0	0	0	-0	0	0.105	-0.015	0	0	-0	0	0	-0.098	0.1	0	-0	0	0	0	0	0	-0	0	0.05595	0	0	0	-0	0	0	0	0	0	-0	0	577.248	581.603	316.407	164.814	0.113113	-0.308257	-0.0246786	-0.014586	0.310192
87	0.0427162	-0.0197166	-0.0112586	0.034741	-0.0140407	-0.0383032	0.0218711	0.0291857	-0.00283251	-1.70255	0.190569	0.243235	0.0454902	-0.0012753	0.0282666	-2.09814	0.0098705	-1.52764	0	0	0	0	-0	0	0	0	-0.1265	0	-0	0	0	0	0	0	-0	0	0.105	-0.015	0	0	-0	0	0	-0.098	0.1	0	-0	0	0	0	0	0	-0	0	0.05595	0	0	0	-0	0	0	0	0	0	-0	0	577.254	581.609	316.394	164.796	0.113037	-0.307946	-0.0246832	-0.0145907	0.309783
88	0.0456799	-0.0197179	-0.0112586	0.0347433	-0.0140415	-0.038305	0.0218711	0.0291857	-0.00283266	-1.70255	0.190574	0.243233	0.0454049	-0.00127483	0.028403	-2.09513	0.00975679	-1.52758	0	0	0	0	-0	0	0	0	-0.1265	0	-0	0	0	0	0	0	-0	0	0.105	-0.015	0	0	-0	0	0	-0.098	0.1	0	-0	0	0	0	0	0	-0	0	0.05595	0	0	0	-0	0	0	0	0	0	-0	0	577.263	581.622	316.375	164.768	0.112944	-0.307505	-0.0246941	-0.0145975	0.309183
89	0.0495486	-0.0197201	-0.0112588	0.0347469	-0.014043	-0.0383075	0.0218711	0.0291856	-0.0028329	-1.70254	0.190581	0.24323	0.045293	-0.00127417	0.0285811	-2.0912	0.00961047	-1.52751	0	0	0	0	-0	0	0	0	-0.1265	0	-0	0	0	0	0	0	-0	0	0.105	-0.015	0	0	-0	0	0	-0.098	0.1	0	-0	0	0	0	0	0	-0	0	0.05595	0	0	0	-0	0	0	0	0	0	-0	0	577.277	581.639	316.348	164.728	0.112794	-0.306818	-0.0247083	-0.0146076	0.308251
90	0.0520659	-0.0197207	-0.0112588	0.0347488	-0.0140431	-0.038309	0.0218711	0.0291856	-0.00283301	-1.70254	0.190584	0.243228	0.0452199	-0.00127388	0.028696	-2.08866	0.00951151	-1.52746	0	0	0	0	-0	0	0	0	-0.1265	0	-0	0	0	0	0	0	-0	0	0.105	-0.015	0	0	-0	0	0	-0.098	0.1	0	-0	0	0	0	0	0	-0	0	0.05595	0	0	0	-0	0	0	0	0	0	-0	0	577.283	581.647	316.335	164.708	0.112732	-0.306469	-0.024718	-0.0146141	0.307764
91	0.0502371	-0.0197206	-0.0112587	0.0347492	-0.0140428	-0.0383095	0.0218711	0.0291855	-0.00283303	-1.70253	0.190585	0.243227	0.0452721	-0.00127385	0.0286134	-2.09048	0.00959282	-1.52748	0	0	0	0	-0	0	0	0	-0.1265	0	-0	0	0	0	0	0	-0	0	0.105	-0.015	0	0	-0	0	0	-0.098	0.1	0	-0	0	0	0	0	0	-0	0	0.05595	0	0	0	-0	0	0	0	0	0	-0	0	577.284	581.649	316.332	164.704	0.112714	-0.30634	-0.0247209	-0.0146161	0.307578
92	0.048608	-0.0197212	-0.0112588	0.0347499	-0.0140432	-0.03831	0.0218711	0.0291855	-0.00283307	-1.70253	0.190587	0.243227	0.0453183	-0.00127371	0.0285401	-2.09209	0.0096677	-1.52748	0	0	0	0	-0	0	0	0	-0.1265	0	-0	0	0	0	0	0	-0	0	0.105	-0.015	0	0	-0	0	0	-0.098	0.1	0	-0	0	0	0	0	0	-0	0	0.05595	0	0	0	-0	0	0	0	0	0	-0	0	577.287	581.652	316.326	164.696	0.112688	-0.306224	-0.0247239	-0.0146181	0.307422
93	0.0474623	-0.0197217	-0.0112587	0.0347508	-0.0140435	-0.0383108	0.0218711	0.0291855	-0.00283313	-1.70253	0.190588	0.243226	0.0453503	-0.00127349	0.0284889	-2.09322	0.00972356	-1.52748	0	0	0	0	-0	0	0	0	-0.1265	0	-0	0	0	0	0	0	-0	0	0.105	-0.015	0	0	-0	0	0	-0.098	0.1	0	-0	0	0	0	0	0	-0	0	0.05595	0	0	0	-0	0	0	0	0	0	-0	0	577.291	581.657	316.318	164.683	0.112658	-0.30608	-0.0247291	-0.014621	0.307227
94	0.0443233	-0.0197219	-0.0112586	0.0347513	-0.0140435	-0.0383114	0.0218711	0.0291855	-0.00283316	-1.70253	0.190589	0.243225	0.0454396	-0.00127346	0.0283468	-2.09634	0.00986288	-1.52751	0	0	0	0	-0	0	0	0	-0.1265	0	-0	0	0	0	0	0	-0	0	0.105	-0.015	0	0	-0	0	0	-0.098	0.1	0	-0	0	0	0	0	0	-0	0	0.05595	0	0	0	-0	0	0	0	0	0	-0	0	577.292	581.66	316.314	164.677	0.112607	-0.305831	-0.0247314	-0.0146231	0.306879
95	0.0405675	-0.0197227	-0.0112587	0.0347525	-0.0140441	-0.0383121	0.0218711	0.0291855	-0.00283324	-1.70253	0.190592	0.243224	0.0455451	-0.0012732	0.0281769	-2.10007	0.0100324	-1.52753	0	0	0	0	-0	0	0	0	-0.1265	0	-0	0	0	0	0	0	-0	0	0.105	-0.015	0	0	-0	0	0	-0.098	0.1	0	-0	0	0	0	0	0	-0	0	0.05595	0	0	0	-0	0	0	0	0	0	-0	0	577.297	581.665	316.305	164.664	0.112586	-0.305736	-0.0247366	-0.0146263	0.306754
96	0.0423446	-0.019723	-0.0112589	0.0347532	-0.0140444	-0.0383126	0.0218711	0.0291855	-0.00283329	-1.70253	0.190593	0.243224	0.0454944	-0.0012731	0.0282581	-2.09829	0.00995916	-1.52751	0	0	0	0	-0	0	0	0	-0.1265	0	-0	0	0	0	0	0	-0	0	0.105	-0.015	0	0	-0	0	0	-0.098	0.1	0	-0	0	0	0	0	0	-0	0	0.05595	0	0	0	-0	0	0	0	0	0	-0	0	577.299	581.668	316.3	164.657	0.11256	-0.305608	-0.024739	-0.0146286	0.306582
97	0.0468293	-0.0197241	-0.011259	0.0347544	-0.0140452	-0.0383135	0.0218711	0.0291855	-0.00283338	-1.70252	0.190596	0.243223	0.045367	-0.00127286	0.028463	-2.09378	0.00977311	-1.52745	0	0	0	0	-0	0	0	0	-0.1265	0	-0	0	0	0	0	0	-0	0	0.105	-0.015	0	0	-0	0	0	-0.098	0.1	0	-0	0	0	0	0	0	-0	0	0.05595	0	0	0	-0	0	0	0	0	0	-0	0	577.303	581.673	316.29	164.642	0.112509	-0.305382	-0.0247439	-0.0146323	0.306272
98	0.0463591	-0.0197253	-0.011259	0.0347563	-0.014046	-0.0383149	0.021871	0.0291854	-0.00283351	-1.70252	0.190599	0.243222	0.045379	-0.00127254	0.0284426	-2.09422	0.00980531	-1.52743	0	0	0	0	-0	0	0	0	-0.1265	0	-0	0	0	0	0	0	-0	0	0.105	-0.015	0	0	-0	0	0	-0.098	0.1	0	-0	0	0	0	0	0	-0	0	0.05595	0	0	0	-0	0	0	0	0	0	-0	0	577.31	581.681	316.275	164.619	0.112429	-0.305021	-0.0247514	-0.0146378	0.305785
99	0.0487837	-0.0197257	-0.0112592	0.0347574	-0.0140462	-0.0383158	0.021871	0.0291854	-0.00283357	-1.70252	0.190601	0.243221	0.0453095	-0.00127234	0.0285534	-2.09178	0.00970576	-1.5274	0	0	0	0	-0	0	0	0	-0.1265	0	-0	0	0	0	0	0	-0	0	0.105	-0.015	0	0	-0	0	0	-0.098	0.1	0	-0	0	0	0	0	0	-0	0	0.05595	0	0	0	-0	0	0	0	0	0	-0	0	577.313	581.686	316.267	164.608	0.112405	-0.304877	-0.0247568	-0.0146414	0.305583
100	0.0464717	-0.0197275	-0.0112594	0.0347594	-0.0140475	-0.0383173	0.021871	0.0291854	-0.00283373	-1.70251	0.190605	0.24322	0.0453745	-0.00127203	0.0284498	-2.09405	0.00981953	-1.52739	0	0	0	0	-0	0	0	0	-0.1265	0	-0	0	0	0	0	0	-0	0	0.105	-0.015	0	0	-0	0	0	-0.098	0.1	0	-0	0	0	0	0	0	-0	0	0.05595	0	0	0	-0	0	0	0	0	0	-0	0	577.32	581.693	316.25	164.584	0.112301	-0.304426	-0.0247632	-0.0146474	0.304973
