Stefan210/kinematic_calibration/src/kinematic_calibration/validation/experiments/experiments/anzahl_messungen/AB_C/larm_73/optimization_intermediate_results.csv
iteration	HeadPitch_offset	HeadYaw_offset	LElbowRoll_offset	LElbowYaw_offset	LShoulderPitch_offset	LShoulderRoll_offset	marker_transform_larm_tx	marker_transform_larm_ty	marker_transform_larm_tz	marker_transform_larm_rr	marker_transform_larm_rp	marker_transform_larm_ry	camera_transform_tx	camera_transform_ty	camera_transform_tz	camera_transform_rr	camera_transform_rp	camera_transform_ry	HeadPitch_transform_tx	HeadPitch_transform_ty	HeadPitch_transform_tz	HeadPitch_transform_rr	HeadPitch_transform_rp	HeadPitch_transform_ry	HeadYaw_transform_tx	HeadYaw_transform_ty	HeadYaw_transform_tz	HeadYaw_transform_rr	HeadYaw_transform_rp	HeadYaw_transform_ry	LElbowRoll_transform_tx	LElbowRoll_transform_ty	LElbowRoll_transform_tz	LElbowRoll_transform_rr	LElbowRoll_transform_rp	LElbowRoll_transform_ry	LElbowYaw_transform_tx	LElbowYaw_transform_ty	LElbowYaw_transform_tz	LElbowYaw_transform_rr	LElbowYaw_transform_rp	LElbowYaw_transform_ry	LShoulderPitch_transform_tx	LShoulderPitch_transform_ty	LShoulderPitch_transform_tz	LShoulderPitch_transform_rr	LShoulderPitch_transform_rp	LShoulderPitch_transform_ry	LShoulderRoll_transform_tx	LShoulderRoll_transform_ty	LShoulderRoll_transform_tz	LShoulderRoll_transform_rr	LShoulderRoll_transform_rp	LShoulderRoll_transform_ry	LWristYaw_transform_tx	LWristYaw_transform_ty	LWristYaw_transform_tz	LWristYaw_transform_rr	LWristYaw_transform_rp	LWristYaw_transform_ry	l_wrist_joint_transform_tx	l_wrist_joint_transform_ty	l_wrist_joint_transform_tz	l_wrist_joint_transform_rr	l_wrist_joint_transform_rp	l_wrist_joint_transform_ry	camera_fx	camera_fy	camera_cx	camera_cy	camera_D0	camera_D1	camera_D2	camera_D3	camera_D4	
0	0.0249164	-0.0307543	0.000853157	4.65819e-06	-0.000318322	-0.00310766	0.05071	0	0.01774	-2.26369	1.66533e-16	-1.5708	545.901	551.038	324.928	201.58	0.0255298	2.61142	-0.0636736	-0.0350419	0.213964
1	-0.0157036	0.00608117	0.028896	0.0267269	0.00230636	0.031639	0.0252066	-0.0300529	0.00238877	-0.000185353	-0.000469924	-0.00300253	0.0565883	-0.000546761	0.015908	-2.20003	0.00232206	-1.53951	0	0	0	0	-0	0	0	0	-0.1265	0	-0	0	0	0	0	0	-0	0	0.105	0.015	0	0	-0	0	0	0.098	0.1	0	-0	0	0	0	0	0	-0	0	0.05595	0	0	0	-0	0	0	0	0	0	-0	0	545.901	551.039	324.928	201.581	-0.0164085	2.59926	-0.0985896	0.0322901	0.211576
2	-0.0156026	0.0181764	0.0291933	0.0344623	-0.00407362	0.0343322	0.0254149	-0.0301486	0.00306479	-0.000266065	-0.000535778	-0.00298818	0.0545728	-0.00087328	0.0190278	-2.20132	0.000359636	-1.55293	0	0	0	0	-0	0	0	0	-0.1265	0	-0	0	0	0	0	0	-0	0	0.105	0.015	0	0	-0	0	0	0.098	0.1	0	-0	0	0	0	0	0	-0	0	0.05595	0	0	0	-0	0	0	0	0	0	-0	0	545.903	551.039	324.926	201.585	-0.168991	2.5064	-0.0583058	0.00401822	0.183076
3	-0.0161906	0.0209099	0.0269507	0.0316677	-0.00424371	0.0340286	0.02529	-0.0300784	0.00269202	-0.000224739	-0.00049683	-0.00299537	0.056154	-0.000565064	0.0163491	-2.19828	-0.000752686	-1.55677	0	0	0	0	-0	0	0	0	-0.1265	0	-0	0	0	0	0	0	-0	0	0.105	0.015	0	0	-0	0	0	0.098	0.1	0	-0	0	0	0	0	0	-0	0	0.05595	0	0	0	-0	0	0	0	0	0	-0	0	545.908	551.04	324.923	201.594	-0.454327	2.32608	-0.0274046	-0.00357458	0.128581
4	-0.0162493	0.0288854	0.0244803	0.0286768	-0.00735919	0.0328046	0.0251579	-0.0299222	0.00226174	-0.000172096	-0.000462429	-0.00300091	0.0575496	-0.00053346	0.014489	-2.19757	-0.00367787	-1.56569	0	0	0	0	-0	0	0	0	-0.1265	0	-0	0	0	0	0	0	-0	0	0.105	0.015	0	0	-0	0	0	0.098	0.1	0	-0	0	0	0	0	0	-0	0	0.05595	0	0	0	-0	0	0	0	0	0	-0	0	545.918	551.039	324.918	201.606	-0.699621	2.02112	0.0118048	-0.0144933	0.0220028
5	-0.015962	0.0326734	0.021683	0.0284693	-0.0088318	0.0318436	0.0250037	-0.0298169	0.00217519	-0.000162066	-0.000448486	-0.00301304	0.0575998	-0.000551065	0.0145136	-2.1988	-0.00458717	-1.57003	0	0	0	0	-0	0	0	0	-0.1265	0	-0	0	0	0	0	0	-0	0	0.105	0.015	0	0	-0	0	0	0.098	0.1	0	-0	0	0	0	0	0	-0	0	0.05595	0	0	0	-0	0	0	0	0	0	-0	0	545.941	551.034	324.915	201.623	-0.635221	1.54677	0.0185811	-0.017093	-0.169186
6	-0.0154303	0.033128	0.0196981	0.028945	-0.00907629	0.0310217	0.0248851	-0.0297583	0.00222084	-0.000130414	-0.000476269	-0.00305048	0.0568022	-0.000598587	0.0156526	-2.20123	-0.00379363	-1.57044	0	0	0	0	-0	0	0	0	-0.1265	0	-0	0	0	0	0	0	-0	0	0.105	0.015	0	0	-0	0	0	0.098	0.1	0	-0	0	0	0	0	0	-0	0	0.05595	0	0	0	-0	0	0	0	0	0	-0	0	545.982	551.016	324.92	201.642	-0.392855	0.876318	0.00945025	-0.016154	-0.441264
7	-0.0151445	0.033233	0.0185702	0.0293578	-0.00924987	0.0304789	0.0248189	-0.0297213	0.00226913	-0.000133535	-0.000535783	-0.00290579	0.0560256	-0.00066033	0.0167426	-2.20337	-0.00316292	-1.57032	0	0	0	0	-0	0	0	0	-0.1265	0	-0	0	0	0	0	0	-0	0	0.105	0.015	0	0	-0	0	0	0.098	0.1	0	-0	0	0	0	0	0	-0	0	0.05595	0	0	0	-0	0	0	0	0	0	-0	0	546.061	550.96	324.938	201.649	-0.171981	0.256614	0.00114658	-0.0152814	-0.656362
8	-0.01489	0.0333283	0.0181367	0.0296948	-0.00937077	0.030251	0.0247984	-0.0297062	0.00230295	-0.000205544	-0.000674113	-0.00252084	0.0555932	-0.000699873	0.0173395	-2.20426	-0.00297529	-1.5702	0	0	0	0	-0	0	0	0	-0.1265	0	-0	0	0	0	0	0	-0	0	0.105	0.015	0	0	-0	0	0	0.098	0.1	0	-0	0	0	0	0	0	-0	0	0.05595	0	0	0	-0	0	0	0	0	0	-0	0	546.257	550.789	324.952	201.631	-0.0625976	-0.0967523	-0.00187802	-0.0150231	-0.659544
9	-0.0168955	0.0333657	0.0179761	0.0299424	-0.00941724	0.0300609	0.0247898	-0.0296991	0.00232063	0.0010985	-0.00172571	-0.00377488	0.0554042	-0.000714845	0.0175098	-2.20663	-0.00297756	-1.57008	0	0	0	0	-0	0	0	0	-0.1265	0	-0	0	0	0	0	0	-0	0	0.105	0.015	0	0	-0	0	0	0.098	0.1	0	-0	0	0	0	0	0	-0	0	0.05595	0	0	0	-0	0	0	0	0	0	-0	0	546.789	550.302	324.93	201.549	-0.0281013	-0.305612	-0.000737559	-0.0150397	-0.342888
10	-0.0159734	0.0334723	0.0177776	0.030265	-0.00951318	0.0296192	0.0247703	-0.0296837	0.00233656	-0.000287424	-0.00418172	-0.0024167	0.0550479	-0.000727008	0.0179813	-2.20602	-0.00306954	-1.56999	0	0	0	0	-0	0	0	0	-0.1265	0	-0	0	0	0	0	0	-0	0	0.105	0.015	0	0	-0	0	0	0.098	0.1	0	-0	0	0	0	0	0	-0	0	0.05595	0	0	0	-0	0	0	0	0	0	-0	0	548.084	549.045	324.85	201.307	0.00063286	-0.658738	0.00409993	-0.0151542	0.516419
11	-0.0331584	0.0336745	0.0174438	0.0308018	-0.0096991	0.0287823	0.0247331	-0.0296552	0.00236118	-0.00743695	-0.00377251	-0.00335371	0.0547426	-0.000747622	0.0177959	-2.22346	-0.00330326	-1.56988	0	0	0	0	-0	0	0	0	-0.1265	0	-0	0	0	0	0	0	-0	0	0.105	0.015	0	0	-0	0	0	0.098	0.1	0	-0	0	0	0	0	0	-0	0	0.05595	0	0	0	-0	0	0	0	0	0	-0	0	550.318	546.442	324.763	200.702	0.053035	-1.33484	0.0134687	-0.0153532	2.20816
12	-0.0084079	0.0338407	0.0171518	0.0312819	-0.00988961	0.0278496	0.0247191	-0.0296627	0.00238574	0.0324074	0.019921	-0.0169163	0.0536763	-0.000770295	0.0199797	-2.19766	-0.00406688	-1.57041	0	0	0	0	-0	0	0	0	-0.1265	0	-0	0	0	0	0	0	-0	0	0.105	0.015	0	0	-0	0	0	0.098	0.1	0	-0	0	0	0	0	0	-0	0	0.05595	0	0	0	-0	0	0	0	0	0	-0	0	551.868	542.531	325.072	199.398	0.131614	-2.23822	0.0239476	-0.0154491	4.45714
13	-0.00532612	0.0339254	0.0171137	0.0313446	-0.00996587	0.027584	0.0246852	-0.0296232	0.00237503	0.00729495	0.0302074	-0.0309498	0.0533923	-0.000780558	0.0203646	-2.19399	-0.00460391	-1.57096	0	0	0	0	-0	0	0	0	-0.1265	0	-0	0	0	0	0	0	-0	0	0.105	0.015	0	0	-0	0	0	0.098	0.1	0	-0	0	0	0	0	0	-0	0	0.05595	0	0	0	-0	0	0	0	0	0	-0	0	551.968	541.091	325.445	198.874	0.162934	-2.54154	0.0269564	-0.0154407	5.16405
14	-0.00747288	0.0338519	0.0171729	0.0312516	-0.00999538	0.02725	0.0246977	-0.0296428	0.00236714	0.044937	0.0515753	-0.0151099	0.0533477	-0.000785971	0.0203703	-2.19249	-0.00643223	-1.57278	0	0	0	0	-0	0	0	0	-0.1265	0	-0	0	0	0	0	0	-0	0	0.105	0.015	0	0	-0	0	0	0.098	0.1	0	-0	0	0	0	0	0	-0	0	0.05595	0	0	0	-0	0	0	0	0	0	-0	0	550.237	537.477	326.894	196.914	0.225995	-3.02117	0.0296448	-0.0150637	6.18084
15	-0.0175328	0.0339001	0.0171986	0.0312414	-0.0100319	0.0272039	0.0246838	-0.0296152	0.00236452	0.0267013	0.0437592	-0.0266243	0.0535392	-0.000790326	0.0198578	-2.20209	-0.00668247	-1.57296	0	0	0	0	-0	0	0	0	-0.1265	0	-0	0	0	0	0	0	-0	0	0.105	0.015	0	0	-0	0	0	0.098	0.1	0	-0	0	0	0	0	0	-0	0	0.05595	0	0	0	-0	0	0	0	0	0	-0	0	550.002	537.003	327.06	196.662	0.232497	-3.06234	0.0301694	-0.0151104	6.23383
16	-0.0232042	0.0338729	0.0172199	0.0312188	-0.0100285	0.027162	0.0246853	-0.0296141	0.00236384	0.0199623	0.0388502	-0.00676496	0.0536554	-0.000790954	0.0195473	-2.20705	-0.00694802	-1.57317	0	0	0	0	-0	0	0	0	-0.1265	0	-0	0	0	0	0	0	-0	0	0.105	0.015	0	0	-0	0	0	0.098	0.1	0	-0	0	0	0	0	0	-0	0	0.05595	0	0	0	-0	0	0	0	0	0	-0	0	549.658	536.415	327.263	196.31	0.238428	-3.09636	0.0304486	-0.0150529	6.28629
17	-0.00602199	0.0338581	0.0172395	0.031195	-0.0100295	0.0271314	0.0246876	-0.0296182	0.00236331	0.00543716	0.0324481	0.0146255	0.053327	-0.000791658	0.020461	-2.18926	-0.00711147	-1.57349	0	0	0	0	-0	0	0	0	-0.1265	0	-0	0	0	0	0	0	-0	0	0.105	0.015	0	0	-0	0	0	0.098	0.1	0	-0	0	0	0	0	0	-0	0	0.05595	0	0	0	-0	0	0	0	0	0	-0	0	549.349	535.942	327.43	196.008	0.243503	-3.12155	0.0306143	-0.0150176	6.31519
18	-0.0288502	0.0338154	0.0172814	0.0311362	-0.0100238	0.0270849	0.0246911	-0.029618	0.00236137	0.00751292	0.0474612	0.0404242	0.0538138	-0.00079225	0.0192121	-2.21072	-0.00757385	-1.57375	0	0	0	0	-0	0	0	0	-0.1265	0	-0	0	0	0	0	0	-0	0	0.105	0.015	0	0	-0	0	0	0.098	0.1	0	-0	0	0	0	0	0	-0	0	0.05595	0	0	0	-0	0	0	0	0	0	-0	0	548.665	535.013	327.768	195.34	0.253597	-3.16182	0.0307092	-0.0149227	6.3424
19	-0.0420561	0.0338001	0.0173043	0.0311115	-0.0100247	0.0270642	0.0246842	-0.0296116	0.00235459	0.00801479	0.0440545	0.0239951	0.0540676	-0.000793168	0.0184802	-2.22324	-0.00778911	-1.57382	0	0	0	0	-0	0	0	0	-0.1265	0	-0	0	0	0	0	0	-0	0	0.105	0.015	0	0	-0	0	0	0.098	0.1	0	-0	0	0	0	0	0	-0	0	0.05595	0	0	0	-0	0	0	0	0	0	-0	0	548.335	534.577	327.91	195.005	0.257582	-3.17379	0.0307544	-0.0148979	6.33727
20	-0.0405115	0.0337912	0.0173147	0.0311034	-0.010024	0.0270562	0.0246821	-0.0296082	0.00235283	0.004947	0.0361717	0.0254534	0.0540399	-0.000793602	0.0185554	-2.22141	-0.00784821	-1.57389	0	0	0	0	-0	0	0	0	-0.1265	0	-0	0	0	0	0	0	-0	0	0.105	0.015	0	0	-0	0	0	0.098	0.1	0	-0	0	0	0	0	0	-0	0	0.05595	0	0	0	-0	0	0	0	0	0	-0	0	548.205	534.403	327.962	194.867	0.259043	-3.1779	0.0307684	-0.0148857	6.33523
21	-0.0231846	0.0337528	0.0173475	0.0310594	-0.0100176	0.0270283	0.0246867	-0.0296188	0.00234836	0.0263123	0.0451115	0.0361317	0.0537412	-0.000793757	0.0194652	-2.20293	-0.00802687	-1.57426	0	0	0	0	-0	0	0	0	-0.1265	0	-0	0	0	0	0	0	-0	0	0.105	0.015	0	0	-0	0	0	0.098	0.1	0	-0	0	0	0	0	0	-0	0	0.05595	0	0	0	-0	0	0	0	0	0	-0	0	547.695	533.745	328.162	194.304	0.265268	-3.19432	0.030736	-0.014813	6.32426
22	-0.0280946	0.0337422	0.0173636	0.0310416	-0.0100191	0.0270144	0.0246865	-0.0296135	0.00234763	0.0173115	0.038365	0.050599	0.0538397	-0.000794606	0.0191886	-2.20728	-0.00814029	-1.57433	0	0	0	0	-0	0	0	0	-0.1265	0	-0	0	0	0	0	0	-0	0	0.105	0.015	0	0	-0	0	0	0.098	0.1	0	-0	0	0	0	0	0	-0	0	0.05595	0	0	0	-0	0	0	0	0	0	-0	0	547.446	533.43	328.247	194.024	0.268404	-3.20108	0.030721	-0.014799	6.31125
23	-0.0198412	0.0337206	0.017382	0.0310196	-0.0100164	0.0269999	0.0246845	-0.0296102	0.00234552	0.0234004	0.0454888	0.044756	0.0536936	-0.000794896	0.0196181	-2.19834	-0.00820962	-1.57451	0	0	0	0	-0	0	0	0	-0.1265	0	-0	0	0	0	0	0	-0	0	0.105	0.015	0	0	-0	0	0	0.098	0.1	0	-0	0	0	0	0	0	-0	0	0.05595	0	0	0	-0	0	0	0	0	0	-0	0	547.161	533.07	328.335	193.686	0.27168	-3.20768	0.0306817	-0.0147653	6.29889
24	-0.0258885	0.033714	0.01739	0.0310118	-0.0100169	0.0269935	0.0246839	-0.0296099	0.00234521	0.0249265	0.0446602	0.0361652	0.0538152	-0.000795311	0.0192883	-2.20411	-0.00826601	-1.57449	0	0	0	0	-0	0	0	0	-0.1265	0	-0	0	0	0	0	0	-0	0	0.105	0.015	0	0	-0	0	0	0.098	0.1	0	-0	0	0	0	0	0	-0	0	0.05595	0	0	0	-0	0	0	0	0	0	-0	0	547.046	532.926	328.367	193.548	0.273119	-3.21063	0.0306655	-0.0147573	6.29348
25	-0.0372216	0.0336797	0.0174178	0.0309756	-0.0100125	0.0269735	0.0246851	-0.0296093	0.00234073	0.0296163	0.0326696	0.041918	0.0540525	-0.000795446	0.0186563	-2.21432	-0.00843377	-1.57454	0	0	0	0	-0	0	0	0	-0.1265	0	-0	0	0	0	0	0	-0	0	0.105	0.015	0	0	-0	0	0	0.098	0.1	0	-0	0	0	0	0	0	-0	0	0.05595	0	0	0	-0	0	0	0	0	0	-0	0	546.605	532.38	328.483	192.987	0.278183	-3.21916	0.0305648	-0.0147004	6.26956
26	-0.0383605	0.0336666	0.0174318	0.0309601	-0.0100136	0.0269611	0.0246868	-0.0296124	0.00234066	0.0231792	0.0275321	0.0300814	0.0540778	-0.000796167	0.0185859	-2.21488	-0.00848633	-1.57458	0	0	0	0	-0	0	0	0	-0.1265	0	-0	0	0	0	0	0	-0	0	0.105	0.015	0	0	-0	0	0	0.098	0.1	0	-0	0	0	0	0	0	-0	0	0.05595	0	0	0	-0	0	0	0	0	0	-0	0	546.383	532.1	328.528	192.695	0.281104	-3.22458	0.0305198	-0.0146852	6.25691
27	-0.038762	0.0336621	0.0174366	0.0309556	-0.0100146	0.0269563	0.0246856	-0.0296106	0.00234086	0.0196952	0.0298854	0.0390789	0.0540882	-0.00079656	0.0185615	-2.21505	-0.00850254	-1.5746	0	0	0	0	-0	0	0	0	-0.1265	0	-0	0	0	0	0	0	-0	0	0.105	0.015	0	0	-0	0	0	0.098	0.1	0	-0	0	0	0	0	0	-0	0	0.05595	0	0	0	-0	0	0	0	0	0	-0	0	546.291	531.99	328.544	192.574	0.282392	-3.22685	0.0304918	-0.0146819	6.25082
28	-0.0320747	0.0336522	0.0174441	0.0309468	-0.0100137	0.0269507	0.0246884	-0.0296127	0.00234018	0.0115966	0.0195842	0.0296885	0.053969	-0.000796671	0.0189177	-2.20803	-0.00849361	-1.57467	0	0	0	0	-0	0	0	0	-0.1265	0	-0	0	0	0	0	0	-0	0	0.105	0.015	0	0	-0	0	0	0.098	0.1	0	-0	0	0	0	0	0	-0	0	0.05595	0	0	0	-0	0	0	0	0	0	-0	0	546.169	531.838	328.562	192.409	0.283836	-3.22909	0.0304589	-0.0146694	6.24377
29	-0.0450711	0.0336328	0.0174598	0.0309258	-0.0100125	0.0269392	0.0246863	-0.0296101	0.00233657	0.00806276	0.0271877	0.0224214	0.0542237	-0.000796852	0.0182054	-2.2203	-0.00857356	-1.5746	0	0	0	0	-0	0	0	0	-0.1265	0	-0	0	0	0	0	0	-0	0	0.105	0.015	0	0	-0	0	0	0.098	0.1	0	-0	0	0	0	0	0	-0	0	0.05595	0	0	0	-0	0	0	0	0	0	-0	0	545.907	531.518	328.596	192.043	0.287174	-3.2351	0.0303764	-0.0146419	6.23037
30	-0.0334815	0.0336039	0.0174822	0.0308983	-0.0100111	0.0269228	0.0246809	-0.0296237	0.00233646	0.0449328	0.0120996	0.0235333	0.0540212	-0.000797235	0.0188184	-2.20765	-0.00854804	-1.57474	0	0	0	0	-0	0	0	0	-0.1265	0	-0	0	0	0	0	0	-0	0	0.105	0.015	0	0	-0	0	0	0.098	0.1	0	-0	0	0	0	0	0	-0	0	0.05595	0	0	0	-0	0	0	0	0	0	-0	0	545.54	531.069	328.626	191.504	0.291702	-3.24159	0.0302518	-0.0146054	6.20716
31	-0.0384161	0.033596	0.0174904	0.0308923	-0.0100147	0.0269136	0.0246885	-0.02961	0.00233663	0.0410085	0.024835	0.0309887	0.0541152	-0.000798009	0.0185476	-2.21207	-0.00856274	-1.5747	0	0	0	0	-0	0	0	0	-0.1265	0	-0	0	0	0	0	0	-0	0	0.105	0.015	0	0	-0	0	0	0.098	0.1	0	-0	0	0	0	0	0	-0	0	0.05595	0	0	0	-0	0	0	0	0	0	-0	0	545.358	530.849	328.63	191.236	0.294451	-3.2464	0.0301859	-0.0146022	6.19486
32	-0.0263344	0.0335718	0.0175063	0.0308701	-0.0100123	0.0269019	0.0246907	-0.0296115	0.00232834	0.032479	0.0427207	0.0172135	0.0538995	-0.000798105	0.0191915	-2.1992	-0.00848794	-1.57479	0	0	0	0	-0	0	0	0	-0.1265	0	-0	0	0	0	0	0	-0	0	0.105	0.015	0	0	-0	0	0	0.098	0.1	0	-0	0	0	0	0	0	-0	0	0.05595	0	0	0	-0	0	0	0	0	0	-0	0	545.1	530.533	328.621	190.836	0.297741	-3.25127	0.0300771	-0.0145765	6.18022
33	-0.0189823	0.0335576	0.0175175	0.0308545	-0.0100126	0.0268932	0.0246902	-0.0296175	0.00232671	0.0499471	0.0365873	0.0355306	0.0537598	-0.000798577	0.0195824	-2.19128	-0.00842684	-1.57483	0	0	0	0	-0	0	0	0	-0.1265	0	-0	0	0	0	0	0	-0	0	0.105	0.015	0	0	-0	0	0	0.098	0.1	0	-0	0	0	0	0	0	-0	0	0.05595	0	0	0	-0	0	0	0	0	0	-0	0	544.908	530.305	328.605	190.54	0.300648	-3.25619	0.0299791	-0.0145653	6.16861
34	-0.0293037	0.0335481	0.0175243	0.0308468	-0.0100136	0.0268874	0.0246955	-0.0296185	0.00233173	0.0690035	0.0514196	0.0396929	0.0539641	-0.000798935	0.0190243	-2.20117	-0.00843668	-1.57471	0	0	0	0	-0	0	0	0	-0.1265	0	-0	0	0	0	0	0	-0	0	0.105	0.015	0	0	-0	0	0	0.098	0.1	0	-0	0	0	0	0	0	-0	0	0.05595	0	0	0	-0	0	0	0	0	0	-0	0	544.767	530.139	328.587	190.318	0.302883	-3.26042	0.0299049	-0.0145601	6.16121
35	-0.0461921	0.0335238	0.01754	0.030826	-0.0100134	0.026876	0.0246888	-0.0296099	0.00232918	0.0649513	0.0526634	0.0373595	0.0542924	-0.000798977	0.0181021	-2.21711	-0.00841787	-1.5745	0	0	0	0	-0	0	0	0	-0.1265	0	-0	0	0	0	0	0	-0	0	0.105	0.015	0	0	-0	0	0	0.098	0.1	0	-0	0	0	0	0	0	-0	0	0.05595	0	0	0	-0	0	0	0	0	0	-0	0	544.471	529.788	328.534	189.83	0.306668	-3.26512	0.0297621	-0.0145418	6.14117
36	-0.0518319	0.0335115	0.0175478	0.0308165	-0.0100144	0.0268694	0.024691	-0.0296116	0.00232852	0.0666342	0.0546578	0.0258586	0.0543894	-0.000799442	0.0177917	-2.22229	-0.00838052	-1.57441	0	0	0	0	-0	0	0	0	-0.1265	0	-0	0	0	0	0	0	-0	0	0.105	0.015	0	0	-0	0	0	0.098	0.1	0	-0	0	0	0	0	0	-0	0	0.05595	0	0	0	-0	0	0	0	0	0	-0	0	544.325	529.619	328.498	189.586	0.309172	-3.26985	0.0296607	-0.0145346	6.13465
37	-0.0494772	0.0335073	0.0175498	0.030814	-0.0100154	0.0268659	0.0246899	-0.02961	0.00232828	0.0668898	0.0566085	0.0193248	0.0543471	-0.000799721	0.0179198	-2.21974	-0.00834497	-1.57441	0	0	0	0	-0	0	0	0	-0.1265	0	-0	0	0	0	0	0	-0	0	0.105	0.015	0	0	-0	0	0	0.098	0.1	0	-0	0	0	0	0	0	-0	0	0.05595	0	0	0	-0	0	0	0	0	0	-0	0	544.265	529.549	328.48	189.486	0.310356	-3.27224	0.0296173	-0.0145348	6.13146
38	-0.0555928	0.0334998	0.017554	0.0308088	-0.0100152	0.026863	0.0246901	-0.0296098	0.00232769	0.0670904	0.0526391	0.0249568	0.0544587	-0.000799757	0.0175853	-2.22559	-0.00832842	-1.57432	0	0	0	0	-0	0	0	0	-0.1265	0	-0	0	0	0	0	0	-0	0	0.105	0.015	0	0	-0	0	0	0.098	0.1	0	-0	0	0	0	0	0	-0	0	0.05595	0	0	0	-0	0	0	0	0	0	-0	0	544.184	529.454	328.454	189.349	0.311584	-3.27466	0.0295698	-0.0145308	6.12863
39	-0.068149	0.0334898	0.0175602	0.0308002	-0.0100153	0.0268584	0.0246937	-0.0296089	0.00232731	0.0685368	0.0338792	0.0266513	0.0546814	-0.000799814	0.0168987	-2.23776	-0.00831148	-1.57417	0	0	0	0	-0	0	0	0	-0.1265	0	-0	0	0	0	0	0	-0	0	0.105	0.015	0	0	-0	0	0	0.098	0.1	0	-0	0	0	0	0	0	-0	0	0.05595	0	0	0	-0	0	0	0	0	0	-0	0	544.066	529.314	328.413	189.146	0.313418	-3.27833	0.0295026	-0.0145261	6.12427
40	-0.0591386	0.0334827	0.0175643	0.0307928	-0.0100159	0.0268544	0.0246928	-0.0296107	0.00232617	0.0640243	0.023456	0.0336544	0.0545264	-0.000799974	0.0173893	-2.22846	-0.00823125	-1.5742	0	0	0	0	-0	0	0	0	-0.1265	0	-0	0	0	0	0	0	-0	0	0.105	0.015	0	0	-0	0	0	0.098	0.1	0	-0	0	0	0	0	0	-0	0	0.05595	0	0	0	-0	0	0	0	0	0	-0	0	543.977	529.212	328.38	188.994	0.315035	-3.28182	0.0294401	-0.0145239	6.12124
41	-0.0601338	0.0334657	0.0175743	0.0307802	-0.0100157	0.0268484	0.0246881	-0.0296162	0.00232841	0.037981	0.0351722	0.0361161	0.0545469	-0.000799951	0.0173291	-2.22881	-0.0081206	-1.57409	0	0	0	0	-0	0	0	0	-0.1265	0	-0	0	0	0	0	0	-0	0	0.105	0.015	0	0	-0	0	0	0.098	0.1	0	-0	0	0	0	0	0	-0	0	0.05595	0	0	0	-0	0	0	0	0	0	-0	0	543.788	528.993	328.3	188.658	0.317723	-3.28609	0.0293253	-0.0145183	6.11153
42	-0.0618032	0.0334591	0.0175773	0.0307775	-0.0100182	0.026843	0.024692	-0.0296096	0.00232554	0.0335475	0.0280737	0.0374993	0.0545767	-0.000800301	0.0172387	-2.23012	-0.00805544	-1.57402	0	0	0	0	-0	0	0	0	-0.1265	0	-0	0	0	0	0	0	-0	0	0.105	0.015	0	0	-0	0	0	0.098	0.1	0	-0	0	0	0	0	0	-0	0	0.05595	0	0	0	-0	0	0	0	0	0	-0	0	543.682	528.869	328.251	188.471	0.319802	-3.29069	0.0292521	-0.0145205	6.10775
43	-0.0629052	0.0334534	0.0175796	0.0307722	-0.0100175	0.0268407	0.0246916	-0.0296097	0.00232524	0.0279981	0.0237023	0.0359498	0.0545959	-0.000800437	0.0171787	-2.23108	-0.008026	-1.57398	0	0	0	0	-0	0	0	0	-0.1265	0	-0	0	0	0	0	0	-0	0	0.105	0.015	0	0	-0	0	0	0.098	0.1	0	-0	0	0	0	0	0	-0	0	0.05595	0	0	0	-0	0	0	0	0	0	-0	0	543.638	528.819	328.229	188.394	0.320787	-3.29283	0.0292041	-0.0145182	6.10655
44	-0.061605	0.033448	0.0175826	0.030768	-0.0100175	0.0268391	0.0246919	-0.0296097	0.00232479	0.0252678	0.0207035	0.0426796	0.0545751	-0.000800445	0.0172484	-2.22958	-0.00797746	-1.57395	0	0	0	0	-0	0	0	0	-0.1265	0	-0	0	0	0	0	0	-0	0	0.105	0.015	0	0	-0	0	0	0.098	0.1	0	-0	0	0	0	0	0	-0	0	0.05595	0	0	0	-0	0	0	0	0	0	-0	0	543.578	528.752	328.198	188.288	0.321798	-3.295	0.0291587	-0.0145174	6.10507
45	-0.0653245	0.0334399	0.017587	0.0307615	-0.0100175	0.0268364	0.0246927	-0.0296094	0.00232524	0.0253421	0.012418	0.0364779	0.0546415	-0.000800438	0.0170434	-2.233	-0.00792121	-1.57386	0	0	0	0	-0	0	0	0	-0.1265	0	-0	0	0	0	0	0	-0	0	0.105	0.015	0	0	-0	0	0	0.098	0.1	0	-0	0	0	0	0	0	-0	0	0.05595	0	0	0	-0	0	0	0	0	0	-0	0	543.489	528.653	328.15	188.131	0.323203	-3.29767	0.0290946	-0.0145166	6.10172
46	-0.0648418	0.033437	0.017588	0.0307595	-0.0100181	0.0268344	0.0246917	-0.0296096	0.0023245	0.0318209	0.0132099	0.0331573	0.0546329	-0.000800581	0.0170703	-2.23239	-0.00788992	-1.57384	0	0	0	0	-0	0	0	0	-0.1265	0	-0	0	0	0	0	0	-0	0	0.105	0.015	0	0	-0	0	0	0.098	0.1	0	-0	0	0	0	0	0	-0	0	0.05595	0	0	0	-0	0	0	0	0	0	-0	0	543.454	528.613	328.129	188.067	0.324022	-3.29945	0.0290594	-0.0145173	6.10038
47	-0.0646738	0.0334231	0.0175956	0.0307497	-0.0100176	0.0268301	0.0246923	-0.0296091	0.00232326	0.0324175	0.0161563	0.0283118	0.0546343	-0.00080042	0.0170752	-2.23172	-0.00776954	-1.57374	0	0	0	0	-0	0	0	0	-0.1265	0	-0	0	0	0	0	0	-0	0	0.105	0.015	0	0	-0	0	0	0.098	0.1	0	-0	0	0	0	0	0	-0	0	0.05595	0	0	0	-0	0	0	0	0	0	-0	0	543.312	528.448	328.043	187.806	0.325982	-3.30263	0.0289743	-0.0145169	6.09399
48	-0.0670304	0.0334202	0.0175963	0.030747	-0.0100186	0.0268272	0.0246929	-0.0296097	0.00232318	0.0322544	0.0168652	0.0192455	0.0546738	-0.000800703	0.0169485	-2.23395	-0.00774032	-1.57369	0	0	0	0	-0	0	0	0	-0.1265	0	-0	0	0	0	0	0	-0	0	0.105	0.015	0	0	-0	0	0	0.098	0.1	0	-0	0	0	0	0	0	-0	0	0.05595	0	0	0	-0	0	0	0	0	0	-0	0	543.272	528.403	328.018	187.735	0.327154	-3.30552	0.0289252	-0.0145181	6.09322
49	-0.0673249	0.0334087	0.0176022	0.030739	-0.0100183	0.0268238	0.0246935	-0.0296099	0.00232268	0.0375107	0.0213323	0.0121899	0.0546819	-0.000800571	0.0169292	-2.23383	-0.00763249	-1.57359	0	0	0	0	-0	0	0	0	-0.1265	0	-0	0	0	0	0	0	-0	0	0.105	0.015	0	0	-0	0	0	0.098	0.1	0	-0	0	0	0	0	0	-0	0	0.05595	0	0	0	-0	0	0	0	0	0	-0	0	543.154	528.268	327.94	187.518	0.328919	-3.30882	0.0288473	-0.0145193	6.08898
50	-0.0714638	0.0334007	0.0176058	0.0307326	-0.0100188	0.0268205	0.0246938	-0.02961	0.00232227	0.0434565	0.026231	0.0195865	0.0547535	-0.000800673	0.0167022	-2.23766	-0.0075582	-1.57348	0	0	0	0	-0	0	0	0	-0.1265	0	-0	0	0	0	0	0	-0	0	0.105	0.015	0	0	-0	0	0	0.098	0.1	0	-0	0	0	0	0	0	-0	0	0.05595	0	0	0	-0	0	0	0	0	0	-0	0	543.065	528.17	327.879	187.357	0.330611	-3.31219	0.0287667	-0.0145213	6.08558
