Stefan210/kinematic_calibration/src/kinematic_calibration/validation/experiments/experiments/impact_noise/outlier/larm_randomize_5_measurements_rk_true/optimization_intermediate_results.csv
iteration	HeadPitch_offset	HeadYaw_offset	LElbowRoll_offset	LElbowYaw_offset	LShoulderPitch_offset	LShoulderRoll_offset	marker_transform_larm_tx	marker_transform_larm_ty	marker_transform_larm_tz	marker_transform_larm_rr	marker_transform_larm_rp	marker_transform_larm_ry	camera_transform_tx	camera_transform_ty	camera_transform_tz	camera_transform_rr	camera_transform_rp	camera_transform_ry	HeadPitch_transform_tx	HeadPitch_transform_ty	HeadPitch_transform_tz	HeadPitch_transform_rr	HeadPitch_transform_rp	HeadPitch_transform_ry	HeadYaw_transform_tx	HeadYaw_transform_ty	HeadYaw_transform_tz	HeadYaw_transform_rr	HeadYaw_transform_rp	HeadYaw_transform_ry	LElbowRoll_transform_tx	LElbowRoll_transform_ty	LElbowRoll_transform_tz	LElbowRoll_transform_rr	LElbowRoll_transform_rp	LElbowRoll_transform_ry	LElbowYaw_transform_tx	LElbowYaw_transform_ty	LElbowYaw_transform_tz	LElbowYaw_transform_rr	LElbowYaw_transform_rp	LElbowYaw_transform_ry	LShoulderPitch_transform_tx	LShoulderPitch_transform_ty	LShoulderPitch_transform_tz	LShoulderPitch_transform_rr	LShoulderPitch_transform_rp	LShoulderPitch_transform_ry	LShoulderRoll_transform_tx	LShoulderRoll_transform_ty	LShoulderRoll_transform_tz	LShoulderRoll_transform_rr	LShoulderRoll_transform_rp	LShoulderRoll_transform_ry	LWristYaw_transform_tx	LWristYaw_transform_ty	LWristYaw_transform_tz	LWristYaw_transform_rr	LWristYaw_transform_rp	LWristYaw_transform_ry	l_wrist_joint_transform_tx	l_wrist_joint_transform_ty	l_wrist_joint_transform_tz	l_wrist_joint_transform_rr	l_wrist_joint_transform_rp	l_wrist_joint_transform_ry	camera_fx	camera_fy	camera_cx	camera_cy	camera_D0	camera_D1	camera_D2	camera_D3	camera_D4	
0	0.0249164	-0.0307543	0.000853157	4.65819e-06	-0.000318322	-0.00310766	0.05071	0	0.01774	-2.26369	1.66533e-16	-1.5708	545.901	551.038	324.928	201.58	0.0255298	2.61142	-0.0636736	-0.0350419	0.213964
1	-0.0137125	0.0193583	0.0257343	0.0570363	0.0224967	0.0111671	0.0255375	-0.0300197	0.00502813	-0.00050629	-0.000731074	-0.00295921	0.0548179	-0.00158006	0.0152191	-2.20802	-0.00345422	-1.5775	0	0	0	0	-0	0	0	0	-0.1265	0	-0	0	0	0	0	0	-0	0	0.105	0.015	0	0	-0	0	0	0.098	0.1	0	-0	0	0	0	0	0	-0	0	0.05595	0	0	0	-0	0	0	0	0	0	-0	0	545.901	551.039	324.928	201.581	0.0110632	2.60553	-0.0793137	0.0770713	0.212699
2	-0.0165858	0.0243233	0.021786	0.0465001	0.0028592	0.0313779	0.0256298	-0.0302707	0.00378112	-0.000348173	-0.000606187	-0.00296656	0.0544495	-0.00115029	0.015629	-2.19666	-0.00275615	-1.56008	0	0	0	0	-0	0	0	0	-0.1265	0	-0	0	0	0	0	0	-0	0	0.105	0.015	0	0	-0	0	0	0.098	0.1	0	-0	0	0	0	0	0	-0	0	0.05595	0	0	0	-0	0	0	0	0	0	-0	0	545.912	551.04	324.918	201.597	-0.376997	2.30162	-0.0135285	0.00145435	0.119088
3	-0.0169702	0.0203871	0.021212	0.0481198	0.00243094	0.0334102	0.0255362	-0.0302885	0.00377821	-0.000335906	-0.000607977	-0.00297894	0.0553802	-0.00124163	0.0141719	-2.19474	0.00118019	-1.55257	0	0	0	0	-0	0	0	0	-0.1265	0	-0	0	0	0	0	0	-0	0	0.105	0.015	0	0	-0	0	0	0.098	0.1	0	-0	0	0	0	0	0	-0	0	0.05595	0	0	0	-0	0	0	0	0	0	-0	0	545.95	551.035	324.911	201.625	-0.413734	1.73806	-0.00505321	-0.00646958	-0.0729768
4	-0.0166085	0.0179568	0.0189108	0.0486621	0.00280181	0.0339369	0.0253631	-0.03017	0.00380754	-0.000337387	-0.000604369	-0.00301775	0.0549918	-0.00105398	0.0146187	-2.19626	0.0032079	-1.54925	0	0	0	0	-0	0	0	0	-0.1265	0	-0	0	0	0	0	0	-0	0	0.105	0.015	0	0	-0	0	0	0.098	0.1	0	-0	0	0	0	0	0	-0	0	0.05595	0	0	0	-0	0	0	0	0	0	-0	0	546.033	551.019	324.913	201.657	-0.207202	0.832397	-0.00936835	-0.00869619	-0.392909
5	-0.016247	0.0174994	0.0174497	0.0482827	0.00269155	0.0343509	0.0252452	-0.0300817	0.00379324	-0.000505284	-0.000620728	-0.00299738	0.0543758	-0.000888102	0.0154525	-2.19776	0.00378433	-1.54898	0	0	0	0	-0	0	0	0	-0.1265	0	-0	0	0	0	0	0	-0	0	0.105	0.015	0	0	-0	0	0	0.098	0.1	0	-0	0	0	0	0	0	-0	0	0.05595	0	0	0	-0	0	0	0	0	0	-0	0	546.219	550.97	324.936	201.67	-0.00892691	0.114813	-0.0144656	-0.00936075	-0.577841
6	-0.0159156	0.0172157	0.0168884	0.047738	0.00276168	0.0343194	0.0252005	-0.0300421	0.00376499	-2.63365e-05	-0.000436015	-0.00221378	0.054007	-0.00082036	0.016033	-2.19894	0.00399306	-1.54894	0	0	0	0	-0	0	0	0	-0.1265	0	-0	0	0	0	0	0	-0	0	0.105	0.015	0	0	-0	0	0	0.098	0.1	0	-0	0	0	0	0	0	-0	0	0.05595	0	0	0	-0	0	0	0	0	0	-0	0	546.717	550.837	324.943	201.686	0.106018	-0.362887	-0.017062	-0.00958551	-0.389158
7	-0.0164322	0.0176111	0.0166327	0.0473594	0.00253129	0.0341487	0.0251782	-0.0300199	0.00374771	-0.000732751	-0.00690116	-0.000952191	0.053615	-0.000816896	0.0165889	-2.20072	0.00397596	-1.54939	0	0	0	0	-0	0	0	0	-0.1265	0	-0	0	0	0	0	0	-0	0	0.105	0.015	0	0	-0	0	0	0.098	0.1	0	-0	0	0	0	0	0	-0	0	0.05595	0	0	0	-0	0	0	0	0	0	-0	0	548.027	550.537	324.859	201.729	0.177047	-0.863992	-0.0152749	-0.00978334	0.513311
8	-0.0165316	0.018102	0.0165255	0.0472785	0.00227344	0.0340129	0.0251656	-0.0300072	0.00376346	0.00235431	-0.00491774	-0.00160927	0.0529197	-0.000862566	0.0174934	-2.20251	0.00420231	-1.54935	0	0	0	0	-0	0	0	0	-0.1265	0	-0	0	0	0	0	0	-0	0	0.105	0.015	0	0	-0	0	0	0.098	0.1	0	-0	0	0	0	0	0	-0	0	0.05595	0	0	0	-0	0	0	0	0	0	-0	0	550.93	550.168	324.567	201.794	0.24909	-1.68645	-0.00830022	-0.0101882	2.62131
9	-0.0198905	0.0186308	0.0164655	0.047413	0.00202975	0.0339104	0.0251569	-0.0299991	0.00380554	-0.00605641	0.00395559	0.00148661	0.0519896	-0.000945511	0.0185495	-2.20802	0.00510093	-1.54858	0	0	0	0	-0	0	0	0	-0.1265	0	-0	0	0	0	0	0	-0	0	0.105	0.015	0	0	-0	0	0	0.098	0.1	0	-0	0	0	0	0	0	-0	0	0.05595	0	0	0	-0	0	0	0	0	0	-0	0	555.635	550.836	323.843	201.811	0.327199	-2.80478	0.00137153	-0.0108226	5.89877
10	-0.0260217	0.0190837	0.0164402	0.0478633	0.00187388	0.0338058	0.0251567	-0.0300301	0.00386477	0.0358213	0.0101396	0.000329811	0.0512063	-0.00104922	0.0193127	-2.21675	0.00756514	-1.54634	0	0	0	0	-0	0	0	0	-0.1265	0	-0	0	0	0	0	0	-0	0	0.105	0.015	0	0	-0	0	0	0.098	0.1	0	-0	0	0	0	0	0	-0	0	0.05595	0	0	0	-0	0	0	0	0	0	-0	0	561.107	554.679	322.006	202.098	0.381549	-3.68277	0.00543262	-0.0116856	8.90635
11	-0.0290921	0.0189519	0.0165717	0.0479337	0.00193271	0.0338384	0.0251642	-0.0300134	0.00387278	0.0347119	0.0253614	0.00191882	0.05117	-0.00107628	0.0192704	-2.21995	0.00801005	-1.54588	0	0	0	0	-0	0	0	0	-0.1265	0	-0	0	0	0	0	0	-0	0	0.105	0.015	0	0	-0	0	0	0.098	0.1	0	-0	0	0	0	0	0	-0	0	0.05595	0	0	0	-0	0	0	0	0	0	-0	0	561.9	555.298	321.797	202.103	0.387008	-3.79898	0.00521217	-0.0116993	9.45593
12	-0.0423222	0.0191376	0.0164984	0.0480537	0.00185853	0.0338242	0.0251666	-0.0300136	0.00388542	0.0186576	0.00183793	0.000709399	0.0511385	-0.00110378	0.018928	-2.23468	0.0094626	-1.54494	0	0	0	0	-0	0	0	0	-0.1265	0	-0	0	0	0	0	0	-0	0	0.105	0.015	0	0	-0	0	0	0.098	0.1	0	-0	0	0	0	0	0	-0	0	0.05595	0	0	0	-0	0	0	0	0	0	-0	0	563.989	557.622	320.888	202.54	0.402136	-4.05307	0.00504917	-0.0120791	10.455
13	-0.0422211	0.0191302	0.0165234	0.0480801	0.0018753	0.0338604	0.0251649	-0.0300245	0.0038894	-0.0100024	-0.00958499	0.000512113	0.0510351	-0.00111885	0.019047	-2.23527	0.0100861	-1.54431	0	0	0	0	-0	0	0	0	-0.1265	0	-0	0	0	0	0	0	-0	0	0.105	0.015	0	0	-0	0	0	0.098	0.1	0	-0	0	0	0	0	0	-0	0	0.05595	0	0	0	-0	0	0	0	0	0	-0	0	564.875	558.74	320.426	202.804	0.406741	-4.13456	0.00443106	-0.0122129	10.845
14	-0.0183156	0.0192286	0.0164518	0.0481621	0.00184701	0.0338628	0.0251601	-0.0300148	0.00390448	-0.0227317	0.0114506	0.0205155	0.0504329	-0.00113245	0.0204328	-2.21317	0.0107222	-1.54281	0	0	0	0	-0	0	0	0	-0.1265	0	-0	0	0	0	0	0	-0	0	0.105	0.015	0	0	-0	0	0	0.098	0.1	0	-0	0	0	0	0	0	-0	0	0.05595	0	0	0	-0	0	0	0	0	0	-0	0	566.406	560.81	319.379	203.573	0.405989	-4.20308	0.00358738	-0.0126503	11.302
15	-0.0156285	0.0193112	0.016383	0.048096	0.00181167	0.0338568	0.0251467	-0.0300154	0.00388225	-0.0472464	0.0213499	0.00380995	0.0503046	-0.0011341	0.0206215	-2.21138	0.0112485	-1.54217	0	0	0	0	-0	0	0	0	-0.1265	0	-0	0	0	0	0	0	-0	0	0.105	0.015	0	0	-0	0	0	0.098	0.1	0	-0	0	0	0	0	0	-0	0	0.05595	0	0	0	-0	0	0	0	0	0	-0	0	567.046	561.796	318.849	203.987	0.406605	-4.23141	0.00297406	-0.0128406	11.4976
16	-0.00939272	0.0194144	0.016349	0.0480623	0.00177649	0.0338221	0.0251513	-0.030013	0.00388246	-0.030466	0.042225	-0.000402569	0.0501281	-0.00113605	0.0209815	-2.20597	0.011585	-1.54162	0	0	0	0	-0	0	0	0	-0.1265	0	-0	0	0	0	0	0	-0	0	0.105	0.015	0	0	-0	0	0	0.098	0.1	0	-0	0	0	0	0	0	-0	0	0.05595	0	0	0	-0	0	0	0	0	0	-0	0	567.574	562.61	318.38	204.366	0.405885	-4.24936	0.00252466	-0.0130495	11.6521
17	-0.00352438	0.0193648	0.0163854	0.0481381	0.00181581	0.0338522	0.0251561	-0.0300167	0.00389138	-0.0254208	0.0536713	0.0239333	0.0499745	-0.00114497	0.0212958	-2.20065	0.0118785	-1.54102	0	0	0	0	-0	0	0	0	-0.1265	0	-0	0	0	0	0	0	-0	0	0.105	0.015	0	0	-0	0	0	0.098	0.1	0	-0	0	0	0	0	0	-0	0	0.05595	0	0	0	-0	0	0	0	0	0	-0	0	567.94	563.186	318.025	204.653	0.406197	-4.25796	0.0019257	-0.0131647	11.7622
18	-0.00233099	0.0193689	0.0163679	0.0482747	0.00183109	0.033874	0.0251536	-0.0300105	0.00389209	-0.0150071	0.032784	0.0424209	0.0498915	-0.00115478	0.0214043	-2.20076	0.0127788	-1.54	0	0	0	0	-0	0	0	0	-0.1265	0	-0	0	0	0	0	0	-0	0	0.105	0.015	0	0	-0	0	0	0.098	0.1	0	-0	0	0	0	0	0	-0	0	0.05595	0	0	0	-0	0	0	0	0	0	-0	0	568.677	564.277	317.252	205.308	0.404448	-4.27266	0.00121106	-0.0134898	11.9736
19	0.00285336	0.0194454	0.0163415	0.0482274	0.00180171	0.0338456	0.0251445	-0.0300103	0.00389378	-0.0339445	0.0313655	0.04664	0.0497559	-0.00115598	0.0216868	-2.19623	0.0130485	-1.53953	0	0	0	0	-0	0	0	0	-0.1265	0	-0	0	0	0	0	0	-0	0	0.105	0.015	0	0	-0	0	0	0.098	0.1	0	-0	0	0	0	0	0	-0	0	0.05595	0	0	0	-0	0	0	0	0	0	-0	0	568.995	564.816	316.868	205.638	0.404907	-4.28537	0.000800547	-0.0136262	12.0797
20	0.0197198	0.0195303	0.0163092	0.0483321	0.00176692	0.0338341	0.0251457	-0.030013	0.00389986	-0.0531828	0.0219012	0.0355629	0.0493532	-0.001161	0.0225596	-2.18032	0.0131399	-1.53869	0	0	0	0	-0	0	0	0	-0.1265	0	-0	0	0	0	0	0	-0	0	0.105	0.015	0	0	-0	0	0	0.098	0.1	0	-0	0	0	0	0	0	-0	0	0.05595	0	0	0	-0	0	0	0	0	0	-0	0	569.459	565.53	316.312	206.121	0.404215	-4.30385	0.000401996	-0.0138985	12.246
21	0.0181093	0.019538	0.0163082	0.048244	0.00175698	0.033819	0.0251398	-0.0300043	0.00389168	-0.050199	0.0170429	0.0427945	0.0493784	-0.00116081	0.0224845	-2.18213	0.0133266	-1.53857	0	0	0	0	-0	0	0	0	-0.1265	0	-0	0	0	0	0	0	-0	0	0.105	0.015	0	0	-0	0	0	0.098	0.1	0	-0	0	0	0	0	0	-0	0	0.05595	0	0	0	-0	0	0	0	0	0	-0	0	569.538	565.682	316.193	206.22	0.405334	-4.30977	0.000212488	-0.0139061	12.2756
22	0.0156659	0.0195945	0.0163009	0.0483167	0.00173418	0.0338145	0.025139	-0.0300027	0.00389693	-0.0494807	0.0179784	0.051295	0.0494218	-0.00116301	0.022371	-2.18482	0.0135699	-1.53846	0	0	0	0	-0	0	0	0	-0.1265	0	-0	0	0	0	0	0	-0	0	0.105	0.015	0	0	-0	0	0	0.098	0.1	0	-0	0	0	0	0	0	-0	0	0.05595	0	0	0	-0	0	0	0	0	0	-0	0	569.655	565.885	316.035	206.354	0.405179	-4.31584	7.68409e-05	-0.0139975	12.326
23	0.0242086	0.0196275	0.0162957	0.0483772	0.00172535	0.0338135	0.0251372	-0.0300047	0.00390192	-0.0326081	0.0130606	0.0508197	0.0492171	-0.0011661	0.0228035	-2.17666	0.0135584	-1.53808	0	0	0	0	-0	0	0	0	-0.1265	0	-0	0	0	0	0	0	-0	0	0.105	0.015	0	0	-0	0	0	0.098	0.1	0	-0	0	0	0	0	0	-0	0	0.05595	0	0	0	-0	0	0	0	0	0	-0	0	569.829	566.172	315.802	206.553	0.405343	-4.32574	-0.000145701	-0.0141132	12.4026
24	0.0174002	0.0196696	0.0162752	0.048402	0.00170742	0.0338093	0.0251362	-0.030001	0.00390206	-0.02527	0.00464401	0.0544979	0.0493524	-0.00116802	0.0224854	-2.18404	0.0141635	-1.53777	0	0	0	0	-0	0	0	0	-0.1265	0	-0	0	0	0	0	0	-0	0	0.105	0.015	0	0	-0	0	0	0.098	0.1	0	-0	0	0	0	0	0	-0	0	0.05595	0	0	0	-0	0	0	0	0	0	-0	0	570.08	566.568	315.46	206.846	0.405536	-4.34113	-0.000381843	-0.0142672	12.5137
25	0.0326499	0.0197512	0.0162239	0.0484954	0.00168205	0.0337955	0.0251387	-0.0300039	0.00391226	-0.0287843	0.016357	0.0723335	0.0489537	-0.00117498	0.0232874	-2.17114	0.0151497	-1.53592	0	0	0	0	-0	0	0	0	-0.1265	0	-0	0	0	0	0	0	-0	0	0.105	0.015	0	0	-0	0	0	0.098	0.1	0	-0	0	0	0	0	0	-0	0	0.05595	0	0	0	-0	0	0	0	0	0	-0	0	570.974	567.86	314.136	208.091	0.40446	-4.3935	-0.000963515	-0.0148574	12.9374
26	0.0306112	0.0197055	0.0162395	0.0484738	0.00170966	0.0338129	0.0251363	-0.0300035	0.00390841	-0.0153289	0.0118059	0.0675782	0.0489904	-0.00117731	0.0231844	-2.17346	0.0154604	-1.53565	0	0	0	0	-0	0	0	0	-0.1265	0	-0	0	0	0	0	0	-0	0	0.105	0.015	0	0	-0	0	0	0.098	0.1	0	-0	0	0	0	0	0	-0	0	0.05595	0	0	0	-0	0	0	0	0	0	-0	0	571.052	568.064	313.944	208.254	0.407765	-4.40544	-0.00150687	-0.0148733	12.9988
27	0.0383921	0.0197291	0.0162214	0.0485439	0.00170197	0.03382	0.0251399	-0.0300044	0.00391396	-0.0157913	0.0209758	0.0839368	0.0487987	-0.00117858	0.02357	-2.16607	0.015479	-1.53521	0	0	0	0	-0	0	0	0	-0.1265	0	-0	0	0	0	0	0	-0	0	0.105	0.015	0	0	-0	0	0	0.098	0.1	0	-0	0	0	0	0	0	-0	0	0.05595	0	0	0	-0	0	0	0	0	0	-0	0	571.183	568.316	313.68	208.473	0.409088	-4.4207	-0.00180331	-0.0149891	13.0917
28	0.0302648	0.0197021	0.0162252	0.0485727	0.00172338	0.0338363	0.0251381	-0.0300011	0.00391428	-0.0122706	0.015979	0.0814285	0.0489839	-0.00118066	0.0231723	-2.17447	0.0160118	-1.53504	0	0	0	0	-0	0	0	0	-0.1265	0	-0	0	0	0	0	0	-0	0	0.105	0.015	0	0	-0	0	0	0.098	0.1	0	-0	0	0	0	0	0	-0	0	0.05595	0	0	0	-0	0	0	0	0	0	-0	0	571.273	568.497	313.48	208.635	0.410568	-4.43172	-0.00210924	-0.0150576	13.16
29	0.0216165	0.0197452	0.0162045	0.0485833	0.00169546	0.0338242	0.0251356	-0.0299991	0.00391261	-0.0206376	0.0289052	0.0772237	0.0491735	-0.00118114	0.0227567	-2.18355	0.0166422	-1.53485	0	0	0	0	-0	0	0	0	-0.1265	0	-0	0	0	0	0	0	-0	0	0.105	0.015	0	0	-0	0	0	0.098	0.1	0	-0	0	0	0	0	0	-0	0	0.05595	0	0	0	-0	0	0	0	0	0	-0	0	571.413	568.747	313.187	208.874	0.41163	-4.44961	-0.00229198	-0.01518	13.2617
30	0.0256575	0.0197835	0.0161874	0.0485829	0.00167278	0.0338083	0.0251349	-0.0300023	0.00391311	-0.0355597	0.0257447	0.0815056	0.0490686	-0.00118207	0.0229657	-2.18016	0.0169697	-1.53429	0	0	0	0	-0	0	0	0	-0.1265	0	-0	0	0	0	0	0	-0	0	0.105	0.015	0	0	-0	0	0	0.098	0.1	0	-0	0	0	0	0	0	-0	0	0.05595	0	0	0	-0	0	0	0	0	0	-0	0	571.613	569.083	312.763	209.221	0.413145	-4.47585	-0.0025404	-0.0153568	13.4126
31	0.0313825	0.019788	0.0161742	0.0486347	0.00167742	0.0338126	0.0251361	-0.0300016	0.00391543	-0.0351425	0.0238412	0.0950297	0.0489226	-0.00118469	0.0232553	-2.17532	0.0174455	-1.53341	0	0	0	0	-0	0	0	0	-0.1265	0	-0	0	0	0	0	0	-0	0	0.105	0.015	0	0	-0	0	0	0.098	0.1	0	-0	0	0	0	0	0	-0	0	0.05595	0	0	0	-0	0	0	0	0	0	-0	0	571.877	569.509	312.162	209.713	0.415417	-4.51141	-0.00293444	-0.0156204	13.6257
32	0.0338385	0.0197872	0.0161718	0.0486349	0.00167924	0.0338136	0.0251373	-0.0300001	0.00391757	-0.0359221	0.0104029	0.0858038	0.0488597	-0.00118592	0.0233772	-2.17321	0.0176413	-1.53304	0	0	0	0	-0	0	0	0	-0.1265	0	-0	0	0	0	0	0	-0	0	0.105	0.015	0	0	-0	0	0	0.098	0.1	0	-0	0	0	0	0	0	-0	0	0.05595	0	0	0	-0	0	0	0	0	0	-0	0	571.96	569.69	311.913	209.907	0.41788	-4.53001	-0.00325152	-0.0157039	13.7159
33	0.0400407	0.0197684	0.0161725	0.048695	0.00169202	0.0338286	0.0251395	-0.030002	0.00392151	-0.0297714	0.0202429	0.0968652	0.0487103	-0.00118795	0.0236787	-2.16722	0.0176147	-1.53268	0	0	0	0	-0	0	0	0	-0.1265	0	-0	0	0	0	0	0	-0	0	0.105	0.015	0	0	-0	0	0	0.098	0.1	0	-0	0	0	0	0	0	-0	0	0.05595	0	0	0	-0	0	0	0	0	0	-0	0	572.016	569.808	311.74	210.037	0.419471	-4.54183	-0.00349627	-0.0157729	13.7798
34	0.03569	0.0197597	0.01617	0.0486977	0.00169938	0.0338339	0.0251372	-0.0299997	0.00392001	-0.0302731	0.0162202	0.10342	0.0488103	-0.00118874	0.0234665	-2.17174	0.0179351	-1.53258	0	0	0	0	-0	0	0	0	-0.1265	0	-0	0	0	0	0	0	-0	0	0.105	0.015	0	0	-0	0	0	0.098	0.1	0	-0	0	0	0	0	0	-0	0	0.05595	0	0	0	-0	0	0	0	0	0	-0	0	572.055	569.895	311.609	210.134	0.420886	-4.55189	-0.00367138	-0.015815	13.8273
35	0.0430991	0.0198061	0.0161448	0.0487191	0.00166926	0.033819	0.0251348	-0.0299982	0.00392069	-0.0348375	0.011207	0.106734	0.0486263	-0.00118949	0.0238371	-2.16509	0.0182412	-1.53179	0	0	0	0	-0	0	0	0	-0.1265	0	-0	0	0	0	0	0	-0	0	0.105	0.015	0	0	-0	0	0	0.098	0.1	0	-0	0	0	0	0	0	-0	0	0.05595	0	0	0	-0	0	0	0	0	0	-0	0	572.252	570.208	311.067	210.549	0.422828	-4.58954	-0.00384702	-0.0160647	14.032
36	0.0453314	0.0198223	0.0161398	0.048708	0.0016554	0.0338092	0.0251353	-0.0299989	0.00391965	-0.026381	0.0209904	0.108583	0.0485686	-0.00118964	0.0239483	-2.16304	0.0183075	-1.53159	0	0	0	0	-0	0	0	0	-0.1265	0	-0	0	0	0	0	0	-0	0	0.105	0.015	0	0	-0	0	0	0.098	0.1	0	-0	0	0	0	0	0	-0	0	0.05595	0	0	0	-0	0	0	0	0	0	-0	0	572.289	570.3	310.926	210.653	0.424666	-4.60278	-0.00401466	-0.0161112	14.0847
37	0.0428112	0.0198152	0.016136	0.0487358	0.00166382	0.0338124	0.025133	-0.029999	0.00392069	-0.0384887	0.0285898	0.104753	0.0486262	-0.00119085	0.0238246	-2.16592	0.01873	-1.53125	0	0	0	0	-0	0	0	0	-0.1265	0	-0	0	0	0	0	0	-0	0	0.105	0.015	0	0	-0	0	0	0.098	0.1	0	-0	0	0	0	0	0	-0	0	0.05595	0	0	0	-0	0	0	0	0	0	-0	0	572.367	570.463	310.64	210.86	0.426933	-4.62476	-0.00428822	-0.0162283	14.1946
38	0.0564614	0.0198622	0.0161052	0.0487753	0.00163383	0.0337985	0.0251318	-0.0299994	0.00392456	-0.0256809	0.0266566	0.0979666	0.0482886	-0.00119214	0.0244989	-2.1533	0.0190112	-1.53006	0	0	0	0	-0	0	0	0	-0.1265	0	-0	0	0	0	0	0	-0	0	0.105	0.015	0	0	-0	0	0	0.098	0.1	0	-0	0	0	0	0	0	-0	0	0.05595	0	0	0	-0	0	0	0	0	0	-0	0	572.611	570.838	309.882	211.434	0.430785	-4.68739	-0.00452493	-0.0165834	14.5125
39	0.0613692	0.0198704	0.0161009	0.0487339	0.00162534	0.033788	0.0251308	-0.0299969	0.00391945	-0.0255433	0.0276382	0.0906552	0.0481627	-0.00119223	0.0247368	-2.14854	0.018928	-1.52983	0	0	0	0	-0	0	0	0	-0.1265	0	-0	0	0	0	0	0	-0	0	0.105	0.015	0	0	-0	0	0	0.098	0.1	0	-0	0	0	0	0	0	-0	0	0.05595	0	0	0	-0	0	0	0	0	0	-0	0	572.62	570.903	309.772	211.51	0.433566	-4.70124	-0.00475567	-0.0165996	14.5514
40	0.0636465	0.01987	0.016098	0.0487589	0.00162632	0.0337872	0.025131	-0.0299968	0.00392084	-0.0313616	0.0245387	0.0862825	0.0481051	-0.00119281	0.0248431	-2.14643	0.0189995	-1.52959	0	0	0	0	-0	0	0	0	-0.1265	0	-0	0	0	0	0	0	-0	0	0.105	0.015	0	0	-0	0	0	0.098	0.1	0	-0	0	0	0	0	0	-0	0	0.05595	0	0	0	-0	0	0	0	0	0	-0	0	572.642	570.982	309.622	211.611	0.435319	-4.71428	-0.0049606	-0.0166566	14.6095
41	0.0691482	0.0198704	0.0160923	0.0487912	0.00162702	0.0337896	0.025134	-0.0299972	0.00392373	-0.0247695	0.037256	0.089267	0.0479674	-0.00119353	0.0251054	-2.14118	0.0190137	-1.52919	0	0	0	0	-0	0	0	0	-0.1265	0	-0	0	0	0	0	0	-0	0	0.105	0.015	0	0	-0	0	0	0.098	0.1	0	-0	0	0	0	0	0	-0	0	0.05595	0	0	0	-0	0	0	0	0	0	-0	0	572.684	571.087	309.402	211.757	0.437237	-4.73233	-0.00516568	-0.0167523	14.6952
42	0.0784643	0.0198599	0.0160864	0.0488226	0.0016389	0.0337958	0.0251361	-0.0300007	0.00392548	-0.0231791	0.0379262	0.0714544	0.047731	-0.00119505	0.0255493	-2.1324	0.0191312	-1.52838	0	0	0	0	-0	0	0	0	-0.1265	0	-0	0	0	0	0	0	-0	0	0.105	0.015	0	0	-0	0	0	0.098	0.1	0	-0	0	0	0	0	0	-0	0	0.05595	0	0	0	-0	0	0	0	0	0	-0	0	572.776	571.274	308.938	212.068	0.441263	-4.77458	-0.00549811	-0.0169527	14.8928
43	0.0918274	0.0198622	0.0160708	0.0488233	0.00164343	0.0337903	0.0251314	-0.0299981	0.00392148	-0.00485355	0.017477	0.0808761	0.0473884	-0.00119537	0.0261824	-2.11978	0.0192415	-1.52726	0	0	0	0	-0	0	0	0	-0.1265	0	-0	0	0	0	0	0	-0	0	0.105	0.015	0	0	-0	0	0	0.098	0.1	0	-0	0	0	0	0	0	-0	0	0.05595	0	0	0	-0	0	0	0	0	0	-0	0	572.871	571.492	308.294	212.497	0.447325	-4.83642	-0.00591175	-0.0172299	15.1665
44	0.0944522	0.0199054	0.0160527	0.0487497	0.00160722	0.0337615	0.025129	-0.029995	0.00391777	-0.00803498	0.00787166	0.0785856	0.0473149	-0.00119307	0.0263112	-2.11729	0.0192004	-1.52714	0	0	0	0	-0	0	0	0	-0.1265	0	-0	0	0	0	0	0	-0	0	0.105	0.015	0	0	-0	0	0	0.098	0.1	0	-0	0	0	0	0	0	-0	0	0.05595	0	0	0	-0	0	0	0	0	0	-0	0	572.871	571.536	308.201	212.554	0.449527	-4.85008	-0.00600256	-0.0172412	15.1973
45	0.0884922	0.0198982	0.0160525	0.0488139	0.00161137	0.0337693	0.0251291	-0.0299946	0.00392248	-0.0072801	0.0104639	0.0766975	0.047471	-0.00119444	0.0260243	-2.12335	0.0195982	-1.52708	0	0	0	0	-0	0	0	0	-0.1265	0	-0	0	0	0	0	0	-0	0	0.105	0.015	0	0	-0	0	0	0.098	0.1	0	-0	0	0	0	0	0	-0	0	0.05595	0	0	0	-0	0	0	0	0	0	-0	0	572.88	571.587	308.075	212.628	0.451084	-4.86094	-0.00619633	-0.0173015	15.2466
46	0.0832691	0.0199081	0.0160446	0.0488498	0.00160169	0.0337712	0.0251307	-0.0299979	0.00392524	0.00631724	0.0163701	0.079423	0.0476046	-0.00119531	0.0257757	-2.12874	0.0200224	-1.52694	0	0	0	0	-0	0	0	0	-0.1265	0	-0	0	0	0	0	0	-0	0	0.105	0.015	0	0	-0	0	0	0.098	0.1	0	-0	0	0	0	0	0	-0	0	0.05595	0	0	0	-0	0	0	0	0	0	-0	0	572.908	571.657	307.891	212.735	0.452826	-4.87883	-0.00632581	-0.0173901	15.3252
47	0.0902637	0.0199008	0.016039	0.0488727	0.00160965	0.0337751	0.0251324	-0.0299986	0.00392662	-0.00045408	0.0128138	0.0656676	0.0474235	-0.00119613	0.0261057	-2.12214	0.0201286	-1.52627	0	0	0	0	-0	0	0	0	-0.1265	0	-0	0	0	0	0	0	-0	0	0.105	0.015	0	0	-0	0	0	0.098	0.1	0	-0	0	0	0	0	0	-0	0	0.05595	0	0	0	-0	0	0	0	0	0	-0	0	572.961	571.776	307.504	212.962	0.45645	-4.91557	-0.00658361	-0.0175694	15.4891
48	0.0881915	0.0198896	0.0160364	0.048874	0.00161885	0.0337769	0.0251313	-0.0299998	0.00392717	0.0160536	0.0157563	0.0666259	0.0474773	-0.00119636	0.0260041	-2.12439	0.0204306	-1.52603	0	0	0	0	-0	0	0	0	-0.1265	0	-0	0	0	0	0	0	-0	0	0.105	0.015	0	0	-0	0	0	0.098	0.1	0	-0	0	0	0	0	0	-0	0	0.05595	0	0	0	-0	0	0	0	0	0	-0	0	572.969	571.839	307.309	213.071	0.459447	-4.93646	-0.00683427	-0.017645	15.5688
49	0.0867489	0.0198907	0.0160287	0.048899	0.00161689	0.0337796	0.0251309	-0.0299965	0.00392901	0.0105935	0.0151926	0.0743944	0.0475136	-0.00119674	0.0259347	-2.12596	0.0206524	-1.52586	0	0	0	0	-0	0	0	0	-0.1265	0	-0	0	0	0	0	0	-0	0	0.105	0.015	0	0	-0	0	0	0.098	0.1	0	-0	0	0	0	0	0	-0	0	0.05595	0	0	0	-0	0	0	0	0	0	-0	0	572.98	571.884	307.161	213.149	0.461433	-4.95215	-0.006982	-0.0177127	15.6297
50	0.0931775	0.0199026	0.0160219	0.0489257	0.00160512	0.0337802	0.0251298	-0.0299972	0.00392944	0.0241492	0.0123928	0.080568	0.0473455	-0.00119751	0.0262402	-2.11971	0.020577	-1.52546	0	0	0	0	-0	0	0	0	-0.1265	0	-0	0	0	0	0	0	-0	0	0.105	0.015	0	0	-0	0	0	0.098	0.1	0	-0	0	0	0	0	0	-0	0	0.05595	0	0	0	-0	0	0	0	0	0	-0	0	573.005	571.943	306.958	213.257	0.463411	-4.9728	-0.00709802	-0.017809	15.7179
51	0.0923989	0.0199173	0.0160145	0.0489115	0.00159241	0.0337717	0.0251291	-0.0299949	0.00392866	0.0309818	0.0154195	0.0830203	0.0473651	-0.00119701	0.0262046	-2.12063	0.020763	-1.52529	0	0	0	0	-0	0	0	0	-0.1265	0	-0	0	0	0	0	0	-0	0	0.105	0.015	0	0	-0	0	0	0.098	0.1	0	-0	0	0	0	0	0	-0	0	0.05595	0	0	0	-0	0	0	0	0	0	-0	0	573.017	571.987	306.807	213.335	0.465191	-4.98935	-0.00718561	-0.0178737	15.7807
52	0.0942964	0.0199179	0.0160142	0.0489274	0.00158991	0.0337732	0.0251293	-0.0299939	0.00392971	0.0336084	0.0182978	0.0791147	0.0473145	-0.0011975	0.0262941	-2.11878	0.0207427	-1.52517	0	0	0	0	-0	0	0	0	-0.1265	0	-0	0	0	0	0	0	-0	0	0.105	0.015	0	0	-0	0	0	0.098	0.1	0	-0	0	0	0	0	0	-0	0	0.05595	0	0	0	-0	0	0	0	0	0	-0	0	573.021	572.006	306.746	213.366	0.466137	-4.99618	-0.00726098	-0.0179004	15.8066
53	0.087153	0.0199223	0.0160117	0.0489426	0.00158575	0.0337735	0.0251296	-0.0299936	0.00392977	0.0376229	0.00983549	0.0855553	0.047502	-0.00119794	0.0259555	-2.12602	0.0211975	-1.52516	0	0	0	0	-0	0	0	0	-0.1265	0	-0	0	0	0	0	0	-0	0	0.105	0.015	0	0	-0	0	0	0.098	0.1	0	-0	0	0	0	0	0	-0	0	0.05595	0	0	0	-0	0	0	0	0	0	-0	0	573.034	572.039	306.623	213.429	0.467363	-5.00869	-0.00733857	-0.0179587	15.8603
54	0.0791594	0.0199326	0.0160067	0.048926	0.00157791	0.0337664	0.0251289	-0.029994	0.00392906	0.0436799	0.0130254	0.0900079	0.0477089	-0.00119759	0.0255758	-2.13417	0.0217446	-1.5251	0	0	0	0	-0	0	0	0	-0.1265	0	-0	0	0	0	0	0	-0	0	0.105	0.015	0	0	-0	0	0	0.098	0.1	0	-0	0	0	0	0	0	-0	0	0.05595	0	0	0	-0	0	0	0	0	0	-0	0	573.051	572.083	306.445	213.522	0.469227	-5.02796	-0.00742365	-0.0180352	15.9386
55	0.078057	0.0199413	0.0159992	0.0489305	0.00157133	0.0337623	0.0251266	-0.0299938	0.0039303	0.0209717	0.0416667	0.0871612	0.0477357	-0.00119757	0.0255224	-2.1355	0.0220584	-1.5248	0	0	0	0	-0	0	0	0	-0.1265	0	-0	0	0	0	0	0	-0	0	0.105	0.015	0	0	-0	0	0	0.098	0.1	0	-0	0	0	0	0	0	-0	0	0.05595	0	0	0	-0	0	0	0	0	0	-0	0	573.076	572.145	306.194	213.654	0.471807	-5.05434	-0.00755771	-0.0181519	16.0482
56	0.0777883	0.0199427	0.0159958	0.0489676	0.00156666	0.033767	0.0251277	-0.0299929	0.00393215	0.0204595	0.0411425	0.0854648	0.0477398	-0.00119826	0.0255105	-2.13577	0.0220857	-1.52479	0	0	0	0	-0	0	0	0	-0.1265	0	-0	0	0	0	0	0	-0	0	0.105	0.015	0	0	-0	0	0	0.098	0.1	0	-0	0	0	0	0	0	-0	0	0.05595	0	0	0	-0	0	0	0	0	0	-0	0	573.076	572.148	306.184	213.659	0.472382	-5.05665	-0.00760127	-0.0181631	16.0523
57	0.0780984	0.0199382	0.0159979	0.0489742	0.00156928	0.0337693	0.0251282	-0.0299927	0.00393256	0.0202393	0.0404579	0.0858125	0.0477316	-0.00119875	0.0255248	-2.13547	0.022095	-1.52476	0	0	0	0	-0	0	0	0	-0.1265	0	-0	0	0	0	0	0	-0	0	0.105	0.015	0	0	-0	0	0	0.098	0.1	0	-0	0	0	0	0	0	-0	0	0.05595	0	0	0	-0	0	0	0	0	0	-0	0	573.077	572.153	306.166	213.668	0.472785	-5.05881	-0.00764212	-0.0181704	16.0604
58	0.080555	0.0199372	0.0159981	0.0489775	0.00157002	0.0337703	0.0251285	-0.0299928	0.00393282	0.0215435	0.0427743	0.0871685	0.0476689	-0.00119895	0.0256416	-2.13304	0.0220124	-1.52466	0	0	0	0	-0	0	0	0	-0.1265	0	-0	0	0	0	0	0	-0	0	0.105	0.015	0	0	-0	0	0	0.098	0.1	0	-0	0	0	0	0	0	-0	0	0.05595	0	0	0	-0	0	0	0	0	0	-0	0	573.078	572.162	306.138	213.681	0.47316	-5.0617	-0.00767505	-0.018182	16.0724
59	0.0818273	0.0199372	0.0159974	0.0489785	0.00157024	0.0337707	0.0251284	-0.0299929	0.00393295	0.0258044	0.0415628	0.0861827	0.0476363	-0.00119899	0.0257018	-2.1318	0.0219972	-1.52458	0	0	0	0	-0	0	0	0	-0.1265	0	-0	0	0	0	0	0	-0	0	0.105	0.015	0	0	-0	0	0	0.098	0.1	0	-0	0	0	0	0	0	-0	0	0.05595	0	0	0	-0	0	0	0	0	0	-0	0	573.08	572.173	306.098	213.701	0.473676	-5.06624	-0.00771127	-0.0181998	16.0908
60	0.0835898	0.0199388	0.0159955	0.048983	0.00156903	0.0337708	0.0251289	-0.0299932	0.00393338	0.026192	0.0393148	0.080365	0.047591	-0.00119905	0.0257853	-2.13009	0.0219793	-1.52446	0	0	0	0	-0	0	0	0	-0.1265	0	-0	0	0	0	0	0	-0	0	0.105	0.015	0	0	-0	0	0	0.098	0.1	0	-0	0	0	0	0	0	-0	0	0.05595	0	0	0	-0	0	0	0	0	0	-0	0	573.084	572.19	306.037	213.73	0.474408	-5.07308	-0.00775849	-0.018228	16.1184
61	0.0848877	0.0199375	0.0159943	0.0489876	0.00157041	0.0337715	0.0251287	-0.0299927	0.00393343	0.0259889	0.0417874	0.0786338	0.0475576	-0.00119921	0.0258463	-2.12886	0.0220138	-1.52431	0	0	0	0	-0	0	0	0	-0.1265	0	-0	0	0	0	0	0	-0	0	0.105	0.015	0	0	-0	0	0	0.098	0.1	0	-0	0	0	0	0	0	-0	0	0.05595	0	0	0	-0	0	0	0	0	0	-0	0	573.09	572.213	305.949	213.772	0.475465	-5.08258	-0.00783218	-0.0182686	16.1575
62	0.0877831	0.01994	0.0159924	0.0489886	0.00156795	0.0337708	0.0251288	-0.029993	0.00393338	0.0286155	0.0429682	0.0834227	0.0474825	-0.00119922	0.0259842	-2.126	0.0219254	-1.52419	0	0	0	0	-0	0	0	0	-0.1265	0	-0	0	0	0	0	0	-0	0	0.105	0.015	0	0	-0	0	0	0.098	0.1	0	-0	0	0	0	0	0	-0	0	0.05595	0	0	0	-0	0	0	0	0	0	-0	0	573.093	572.226	305.905	213.793	0.476121	-5.08785	-0.00787233	-0.0182873	16.1769
63	0.0894543	0.0199428	0.0159899	0.0489882	0.0015661	0.0337692	0.0251287	-0.0299928	0.00393331	0.0254917	0.0405613	0.0857674	0.0474389	-0.00119923	0.0260634	-2.12441	0.0219483	-1.52403	0	0	0	0	-0	0	0	0	-0.1265	0	-0	0	0	0	0	0	-0	0	0.105	0.015	0	0	-0	0	0	0.098	0.1	0	-0	0	0	0	0	0	-0	0	0.05595	0	0	0	-0	0	0	0	0	0	-0	0	573.102	572.249	305.807	213.84	0.477192	-5.09859	-0.00793	-0.018332	16.2209
64	0.0897562	0.0199415	0.0159896	0.04899	0.00156658	0.0337695	0.0251285	-0.0299926	0.00393343	0.0265676	0.0424977	0.0866855	0.0474304	-0.00119931	0.0260779	-2.12412	0.021949	-1.524	0	0	0	0	-0	0	0	0	-0.1265	0	-0	0	0	0	0	0	-0	0	0.105	0.015	0	0	-0	0	0	0.098	0.1	0	-0	0	0	0	0	0	-0	0	0.05595	0	0	0	-0	0	0	0	0	0	-0	0	573.102	572.253	305.794	213.847	0.477573	-5.10057	-0.00795872	-0.0183363	16.2266
65	0.0894354	0.0199434	0.0159883	0.0489944	0.00156483	0.0337693	0.0251283	-0.0299925	0.00393371	0.0251242	0.0434559	0.0873521	0.0474388	-0.00119939	0.0260625	-2.12446	0.0219928	-1.52397	0	0	0	0	-0	0	0	0	-0.1265	0	-0	0	0	0	0	0	-0	0	0.105	0.015	0	0	-0	0	0	0.098	0.1	0	-0	0	0	0	0	0	-0	0	0.05595	0	0	0	-0	0	0	0	0	0	-0	0	573.103	572.26	305.766	213.859	0.477919	-5.10366	-0.00798069	-0.0183495	16.2386
66	0.0905398	0.0199457	0.015987	0.0489979	0.00156259	0.0337686	0.0251281	-0.0299926	0.00393388	0.0302305	0.0402805	0.0882344	0.04741	-0.00119946	0.0261149	-2.12339	0.0219836	-1.5239	0	0	0	0	-0	0	0	0	-0.1265	0	-0	0	0	0	0	0	-0	0	0.105	0.015	0	0	-0	0	0	0.098	0.1	0	-0	0	0	0	0	0	-0	0	0.05595	0	0	0	-0	0	0	0	0	0	-0	0	573.105	572.27	305.725	213.879	0.478424	-5.10847	-0.00800798	-0.0183692	16.2574
67	0.0878226	0.0199488	0.015985	0.0489998	0.00155996	0.0337677	0.0251286	-0.029993	0.00393414	0.0346472	0.0415182	0.0835387	0.0474811	-0.00119945	0.025986	-2.12615	0.0221732	-1.52388	0	0	0	0	-0	0	0	0	-0.1265	0	-0	0	0	0	0	0	-0	0	0.105	0.015	0	0	-0	0	0	0.098	0.1	0	-0	0	0	0	0	0	-0	0	0.05595	0	0	0	-0	0	0	0	0	0	-0	0	573.109	572.284	305.665	213.907	0.479097	-5.11512	-0.00804344	-0.0183979	16.284
68	0.0872662	0.019945	0.0159854	0.0489988	0.00156306	0.0337686	0.0251287	-0.0299926	0.00393374	0.0343893	0.0452756	0.0799905	0.0474955	-0.00119952	0.025959	-2.12673	0.0222326	-1.52384	0	0	0	0	-0	0	0	0	-0.1265	0	-0	0	0	0	0	0	-0	0	0.105	0.015	0	0	-0	0	0	0.098	0.1	0	-0	0	0	0	0	0	-0	0	0.05595	0	0	0	-0	0	0	0	0	0	-0	0	573.109	572.291	305.635	213.921	0.479616	-5.11856	-0.00808596	-0.0184099	16.2968
69	0.0885107	0.0199458	0.0159846	0.0489979	0.00156251	0.033768	0.0251286	-0.0299926	0.00393375	0.0327336	0.0437968	0.0837671	0.0474632	-0.0011995	0.026018	-2.1255	0.0221979	-1.52379	0	0	0	0	-0	0	0	0	-0.1265	0	-0	0	0	0	0	0	-0	0	0.105	0.015	0	0	-0	0	0	0.098	0.1	0	-0	0	0	0	0	0	-0	0	0.05595	0	0	0	-0	0	0	0	0	0	-0	0	573.11	572.297	305.612	213.931	0.479944	-5.12118	-0.00810729	-0.0184188	16.3066
70	0.0856024	0.0199475	0.0159831	0.0490011	0.00156124	0.0337676	0.0251282	-0.0299927	0.0039341	0.0381109	0.0417954	0.0832217	0.047539	-0.00119953	0.0258796	-2.12845	0.0223869	-1.52379	0	0	0	0	-0	0	0	0	-0.1265	0	-0	0	0	0	0	0	-0	0	0.105	0.015	0	0	-0	0	0	0.098	0.1	0	-0	0	0	0	0	0	-0	0	0.05595	0	0	0	-0	0	0	0	0	0	-0	0	573.112	572.308	305.562	213.955	0.480529	-5.12684	-0.00814014	-0.0184426	16.3293
71	0.0868997	0.0199503	0.0159813	0.0490029	0.00155849	0.033767	0.0251282	-0.0299925	0.00393409	0.0399004	0.0428311	0.080045	0.047505	-0.00119952	0.0259415	-2.12717	0.0223517	-1.52373	0	0	0	0	-0	0	0	0	-0.1265	0	-0	0	0	0	0	0	-0	0	0.105	0.015	0	0	-0	0	0	0.098	0.1	0	-0	0	0	0	0	0	-0	0	0.05595	0	0	0	-0	0	0	0	0	0	-0	0	573.113	572.313	305.537	213.966	0.480871	-5.12994	-0.00815498	-0.0184547	16.3405
72	0.0822045	0.0199512	0.0159805	0.049006	0.00155775	0.0337667	0.0251282	-0.0299927	0.00393434	0.0454461	0.0430332	0.0796326	0.0476269	-0.00119961	0.0257182	-2.13191	0.0226309	-1.52376	0	0	0	0	-0	0	0	0	-0.1265	0	-0	0	0	0	0	0	-0	0	0.105	0.015	0	0	-0	0	0	0.098	0.1	0	-0	0	0	0	0	0	-0	0	0.05595	0	0	0	-0	0	0	0	0	0	-0	0	573.117	572.325	305.481	213.992	0.481502	-5.13615	-0.00819068	-0.0184811	16.366
73	0.0792324	0.0199532	0.015979	0.0490011	0.00155583	0.0337653	0.0251279	-0.0299923	0.00393382	0.0419352	0.0441682	0.0789204	0.0477029	-0.0011995	0.0255767	-2.1349	0.0227991	-1.52379	0	0	0	0	-0	0	0	0	-0.1265	0	-0	0	0	0	0	0	-0	0	0.105	0.015	0	0	-0	0	0	0.098	0.1	0	-0	0	0	0	0	0	-0	0	0.05595	0	0	0	-0	0	0	0	0	0	-0	0	573.118	572.331	305.453	214.005	0.481898	-5.13937	-0.00820991	-0.0184923	16.3772
74	0.0777353	0.0199565	0.0159772	0.0490045	0.00155318	0.0337641	0.0251281	-0.0299926	0.00393406	0.0365984	0.0421268	0.0797096	0.0477411	-0.00119951	0.0255049	-2.13644	0.0229334	-1.52375	0	0	0	0	-0	0	0	0	-0.1265	0	-0	0	0	0	0	0	-0	0	0.105	0.015	0	0	-0	0	0	0.098	0.1	0	-0	0	0	0	0	0	-0	0	0.05595	0	0	0	-0	0	0	0	0	0	-0	0	573.122	572.344	305.392	214.033	0.482552	-5.14603	-0.00824349	-0.0185217	16.4042
75	0.0871933	0.0199562	0.0159759	0.0490106	0.00155364	0.0337646	0.0251283	-0.0299938	0.00393604	0.0458226	0.0365979	0.0728052	0.0474998	-0.00119966	0.0259559	-2.12706	0.0225827	-1.52341	0	0	0	0	-0	0	0	0	-0.1265	0	-0	0	0	0	0	0	-0	0	0.105	0.015	0	0	-0	0	0	0.098	0.1	0	-0	0	0	0	0	0	-0	0	0.05595	0	0	0	-0	0	0	0	0	0	-0	0	573.128	572.362	305.303	214.075	0.483574	-5.1558	-0.0083014	-0.0185649	16.4442
76	0.08772	0.0199594	0.0159714	0.0490086	0.00155064	0.0337628	0.025129	-0.0299945	0.00393512	0.0362967	0.0342416	0.0792505	0.0474848	-0.00119965	0.02598	-2.12664	0.0226923	-1.52322	0	0	0	0	-0	0	0	0	-0.1265	0	-0	0	0	0	0	0	-0	0	0.105	0.015	0	0	-0	0	0	0.098	0.1	0	-0	0	0	0	0	0	-0	0	0.05595	0	0	0	-0	0	0	0	0	0	-0	0	573.135	572.385	305.173	214.137	0.485072	-5.17043	-0.00836879	-0.0186265	16.5018
77	0.0903014	0.0199476	0.015973	0.0490193	0.0015605	0.0337667	0.0251296	-0.0299938	0.00393515	0.0348365	0.0323725	0.0877122	0.0474175	-0.00119997	0.0261006	-2.12411	0.0226429	-1.52306	0	0	0	0	-0	0	0	0	-0.1265	0	-0	0	0	0	0	0	-0	0	0.105	0.015	0	0	-0	0	0	0.098	0.1	0	-0	0	0	0	0	0	-0	0	0.05595	0	0	0	-0	0	0	0	0	0	-0	0	573.134	572.397	305.107	214.167	0.486254	-5.17775	-0.00847417	-0.0186561	16.5292
78	0.0920002	0.0199515	0.0159697	0.0490216	0.00155778	0.0337651	0.0251285	-0.0299939	0.00393381	0.0443837	0.0258866	0.0954572	0.0473739	-0.00119997	0.0261797	-2.12251	0.0227072	-1.52284	0	0	0	0	-0	0	0	0	-0.1265	0	-0	0	0	0	0	0	-0	0	0.105	0.015	0	0	-0	0	0	0.098	0.1	0	-0	0	0	0	0	0	-0	0	0.05595	0	0	0	-0	0	0	0	0	0	-0	0	573.138	572.417	304.967	214.232	0.487821	-5.19324	-0.00855021	-0.0187209	16.5918
79	0.0965631	0.0199609	0.0159651	0.0490084	0.0015502	0.0337587	0.0251285	-0.0299936	0.00393387	0.0525254	0.0302299	0.092718	0.0472547	-0.00119937	0.0263966	-2.11801	0.0225558	-1.52265	0	0	0	0	-0	0	0	0	-0.1265	0	-0	0	0	0	0	0	-0	0	0.105	0.015	0	0	-0	0	0	0.098	0.1	0	-0	0	0	0	0	0	-0	0	0.05595	0	0	0	-0	0	0	0	0	0	-0	0	573.137	572.43	304.898	214.264	0.488855	-5.20216	-0.00859151	-0.0187492	16.6221
80	0.0949998	0.019958	0.015965	0.0490146	0.00155209	0.0337597	0.0251283	-0.0299927	0.00393443	0.0543051	0.0329178	0.0975049	0.0472959	-0.00119959	0.0263216	-2.11961	0.0226864	-1.52261	0	0	0	0	-0	0	0	0	-0.1265	0	-0	0	0	0	0	0	-0	0	0.105	0.015	0	0	-0	0	0	0.098	0.1	0	-0	0	0	0	0	0	-0	0	0.05595	0	0	0	-0	0	0	0	0	0	-0	0	573.135	572.439	304.846	214.288	0.489713	-5.20845	-0.00865296	-0.0187727	16.6452
81	0.0895279	0.0199644	0.0159614	0.0490293	0.00154633	0.0337602	0.0251281	-0.0299921	0.00393531	0.0512813	0.0290417	0.0979391	0.0474398	-0.00119988	0.0260622	-2.12516	0.0230657	-1.52259	0	0	0	0	-0	0	0	0	-0.1265	0	-0	0	0	0	0	0	-0	0	0.105	0.015	0	0	-0	0	0	0.098	0.1	0	-0	0	0	0	0	0	-0	0	0.05595	0	0	0	-0	0	0	0	0	0	-0	0	573.141	572.459	304.734	214.339	0.490937	-5.22139	-0.00870882	-0.0188285	16.698
82	0.0897512	0.0199691	0.0159592	0.0490278	0.00154131	0.0337584	0.0251277	-0.0299923	0.00393525	0.0569337	0.0292534	0.0954154	0.0474332	-0.00119987	0.0260731	-2.12498	0.0231122	-1.52252	0	0	0	0	-0	0	0	0	-0.1265	0	-0	0	0	0	0	0	-0	0	0.105	0.015	0	0	-0	0	0	0.098	0.1	0	-0	0	0	0	0	0	-0	0	0.05595	0	0	0	-0	0	0	0	0	0	-0	0	573.142	572.468	304.678	214.364	0.491744	-5.22837	-0.00874325	-0.0188532	16.7229
83	0.0863618	0.0199727	0.0159565	0.0490405	0.00153815	0.0337589	0.0251279	-0.0299919	0.0039361	0.0586657	0.0333408	0.0980426	0.0475213	-0.0012001	0.0259119	-2.12846	0.0233999	-1.52244	0	0	0	0	-0	0	0	0	-0.1265	0	-0	0	0	0	0	0	-0	0	0.105	0.015	0	0	-0	0	0	0.098	0.1	0	-0	0	0	0	0	0	-0	0	0.05595	0	0	0	-0	0	0	0	0	0	-0	0	573.149	572.486	304.56	214.419	0.49304	-5.24196	-0.00879847	-0.0189138	16.7784
84	0.0897901	0.0199732	0.0159555	0.0490443	0.0015368	0.033759	0.0251285	-0.0299921	0.00393682	0.0581323	0.0269662	0.0921092	0.0474321	-0.00120026	0.0260745	-2.12507	0.0232969	-1.52228	0	0	0	0	-0	0	0	0	-0.1265	0	-0	0	0	0	0	0	-0	0	0.105	0.015	0	0	-0	0	0	0.098	0.1	0	-0	0	0	0	0	0	-0	0	0.05595	0	0	0	-0	0	0	0	0	0	-0	0	573.149	572.496	304.501	214.445	0.493964	-5.24934	-0.00885189	-0.0189407	16.8054
85	0.092477	0.0199692	0.0159561	0.0490514	0.00154072	0.0337615	0.0251282	-0.0299922	0.0039366	0.0618055	0.0261048	0.0968881	0.0473619	-0.00120055	0.0262009	-2.12242	0.0232151	-1.52215	0	0	0	0	-0	0	0	0	-0.1265	0	-0	0	0	0	0	0	-0	0	0.105	0.015	0	0	-0	0	0	0.098	0.1	0	-0	0	0	0	0	0	-0	0	0.05595	0	0	0	-0	0	0	0	0	0	-0	0	573.149	572.504	304.457	214.465	0.494704	-5.25454	-0.00891108	-0.018961	16.8252
86	0.090344	0.0199726	0.0159537	0.0490475	0.00153718	0.0337592	0.025128	-0.0299929	0.00393612	0.0691905	0.0271573	0.10174	0.0474177	-0.00120038	0.0261001	-2.12458	0.0233519	-1.52216	0	0	0	0	-0	0	0	0	-0.1265	0	-0	0	0	0	0	0	-0	0	0.105	0.015	0	0	-0	0	0	0.098	0.1	0	-0	0	0	0	0	0	-0	0	0.05595	0	0	0	-0	0	0	0	0	0	-0	0	573.149	572.511	304.424	214.48	0.49518	-5.25872	-0.00893081	-0.0189754	16.8398
87	0.0929304	0.0199735	0.015953	0.0490442	0.00153792	0.033758	0.0251278	-0.0299917	0.00393604	0.0691678	0.032369	0.101431	0.0473502	-0.00120022	0.0262226	-2.12201	0.023251	-1.52207	0	0	0	0	-0	0	0	0	-0.1265	0	-0	0	0	0	0	0	-0	0	0.105	0.015	0	0	-0	0	0	0.098	0.1	0	-0	0	0	0	0	0	-0	0	0.05595	0	0	0	-0	0	0	0	0	0	-0	0	573.149	572.515	304.399	214.49	0.49559	-5.26189	-0.00895476	-0.018986	16.8508
88	0.092673	0.0199768	0.0159513	0.0490493	0.00153373	0.0337572	0.0251284	-0.0299914	0.00393628	0.0702486	0.0406917	0.100069	0.0473571	-0.00120034	0.02621	-2.12231	0.0233195	-1.52201	0	0	0	0	-0	0	0	0	-0.1265	0	-0	0	0	0	0	0	-0	0	0.105	0.015	0	0	-0	0	0	0.098	0.1	0	-0	0	0	0	0	0	-0	0	0.05595	0	0	0	-0	0	0	0	0	0	-0	0	573.15	572.522	304.345	214.514	0.496197	-5.26841	-0.00897807	-0.0190126	16.8769
89	0.0857661	0.0199773	0.0159514	0.0490537	0.00153506	0.0337582	0.0251286	-0.0299926	0.0039373	0.0737672	0.0382623	0.0917928	0.0475388	-0.00120045	0.0258817	-2.12926	0.023738	-1.52206	0	0	0	0	-0	0	0	0	-0.1265	0	-0	0	0	0	0	0	-0	0	0.105	0.015	0	0	-0	0	0	0.098	0.1	0	-0	0	0	0	0	0	-0	0	0.05595	0	0	0	-0	0	0	0	0	0	-0	0	573.15	572.533	304.267	214.55	0.497159	-5.27718	-0.00903453	-0.0190493	16.9121
90	0.0825065	0.0199794	0.0159497	0.0490489	0.0015357	0.0337573	0.0251274	-0.0299927	0.00393652	0.0648461	0.041068	0.0914081	0.0476224	-0.0012003	0.0257263	-2.13255	0.0239373	-1.52209	0	0	0	0	-0	0	0	0	-0.1265	0	-0	0	0	0	0	0	-0	0	0.105	0.015	0	0	-0	0	0	0.098	0.1	0	-0	0	0	0	0	0	-0	0	0.05595	0	0	0	-0	0	0	0	0	0	-0	0	573.149	572.539	304.227	214.567	0.497848	-5.28256	-0.0090698	-0.0190655	16.9305
91	0.0830241	0.0199834	0.0159461	0.0490533	0.00153011	0.0337557	0.0251271	-0.0299918	0.00393646	0.0608218	0.0411594	0.0894891	0.0476084	-0.00120022	0.0257513	-2.13206	0.0239421	-1.52204	0	0	0	0	-0	0	0	0	-0.1265	0	-0	0	0	0	0	0	-0	0	0.105	0.015	0	0	-0	0	0	0.098	0.1	0	-0	0	0	0	0	0	-0	0	0.05595	0	0	0	-0	0	0	0	0	0	-0	0	573.149	572.543	304.198	214.58	0.498235	-5.28629	-0.00907918	-0.0190817	16.9431
92	0.0841124	0.0199846	0.0159463	0.049057	0.00152755	0.0337548	0.0251272	-0.0299914	0.00393664	0.0598655	0.0391464	0.0912982	0.0475803	-0.00120039	0.0258031	-2.13098	0.0239124	-1.52199	0	0	0	0	-0	0	0	0	-0.1265	0	-0	0	0	0	0	0	-0	0	0.105	0.015	0	0	-0	0	0	0.098	0.1	0	-0	0	0	0	0	0	-0	0	0.05595	0	0	0	-0	0	0	0	0	0	-0	0	573.149	572.546	304.176	214.59	0.498526	-5.28903	-0.00909251	-0.0190928	16.9536
93	0.0862494	0.0199867	0.0159461	0.0490607	0.00152525	0.033754	0.0251271	-0.0299912	0.00393688	0.059954	0.0396675	0.0907371	0.0475255	-0.00120056	0.0259043	-2.12888	0.0238583	-1.52188	0	0	0	0	-0	0	0	0	-0.1265	0	-0	0	0	0	0	0	-0	0	0.105	0.015	0	0	-0	0	0	0.098	0.1	0	-0	0	0	0	0	0	-0	0	0.05595	0	0	0	-0	0	0	0	0	0	-0	0	573.149	572.553	304.128	214.611	0.499111	-5.29467	-0.00912202	-0.0191162	16.9757
94	0.0851797	0.0199884	0.0159458	0.0490623	0.00152324	0.0337534	0.0251272	-0.0299913	0.00393698	0.0569872	0.0377968	0.0912538	0.0475529	-0.00120065	0.0258537	-2.12997	0.0239356	-1.52187	0	0	0	0	-0	0	0	0	-0.1265	0	-0	0	0	0	0	0	-0	0	0.105	0.015	0	0	-0	0	0	0.098	0.1	0	-0	0	0	0	0	0	-0	0	0.05595	0	0	0	-0	0	0	0	0	0	-0	0	573.15	572.556	304.104	214.621	0.499474	-5.29786	-0.00913688	-0.0191275	16.9872
95	0.0847004	0.0199898	0.0159452	0.0490651	0.00152271	0.0337532	0.0251271	-0.0299911	0.00393713	0.0558118	0.0395974	0.0908133	0.0475656	-0.00120071	0.0258305	-2.13048	0.0240136	-1.52182	0	0	0	0	-0	0	0	0	-0.1265	0	-0	0	0	0	0	0	-0	0	0.105	0.015	0	0	-0	0	0	0.098	0.1	0	-0	0	0	0	0	0	-0	0	0.05595	0	0	0	-0	0	0	0	0	0	-0	0	573.151	572.563	304.052	214.644	0.500053	-5.30366	-0.00916444	-0.0191531	17.0108
96	0.0836414	0.0199912	0.0159445	0.0490674	0.00152124	0.0337528	0.0251272	-0.0299913	0.00393723	0.0539431	0.0390085	0.0872651	0.0475927	-0.00120079	0.0257803	-2.13156	0.0240929	-1.52181	0	0	0	0	-0	0	0	0	-0.1265	0	-0	0	0	0	0	0	-0	0	0.105	0.015	0	0	-0	0	0	0.098	0.1	0	-0	0	0	0	0	0	-0	0	0.05595	0	0	0	-0	0	0	0	0	0	-0	0	573.152	572.567	304.026	214.655	0.500451	-5.30694	-0.00918422	-0.0191654	17.0226
97	0.0832237	0.0199931	0.0159434	0.0490685	0.00152082	0.0337526	0.0251266	-0.0299922	0.00393783	0.0643043	0.033565	0.0863791	0.0476036	-0.00120078	0.0257602	-2.13202	0.0241726	-1.52174	0	0	0	0	-0	0	0	0	-0.1265	0	-0	0	0	0	0	0	-0	0	0.105	0.015	0	0	-0	0	0	0.098	0.1	0	-0	0	0	0	0	0	-0	0	0.05595	0	0	0	-0	0	0	0	0	0	-0	0	573.154	572.575	303.969	214.681	0.501141	-5.31403	-0.0092134	-0.0191928	17.051
98	0.0890133	0.0199963	0.0159403	0.0490775	0.00151788	0.0337526	0.0251283	-0.0299911	0.00393882	0.0654997	0.0216197	0.0841236	0.0474542	-0.00120088	0.0260359	-2.1263	0.0239739	-1.5215	0	0	0	0	-0	0	0	0	-0.1265	0	-0	0	0	0	0	0	-0	0	0.105	0.015	0	0	-0	0	0	0.098	0.1	0	-0	0	0	0	0	0	-0	0	0.05595	0	0	0	-0	0	0	0	0	0	-0	0	573.158	572.581	303.887	214.717	0.502092	-5.3242	-0.00924048	-0.0192365	17.091
99	0.0953321	0.0199936	0.0159425	0.0490742	0.00152484	0.0337557	0.0251288	-0.0299922	0.00393896	0.0671345	0.0153624	0.0759766	0.0472897	-0.00120092	0.026334	-2.12001	0.0237053	-1.52129	0	0	0	0	-0	0	0	0	-0.1265	0	-0	0	0	0	0	0	-0	0	0.105	0.015	0	0	-0	0	0	0.098	0.1	0	-0	0	0	0	0	0	-0	0	0.05595	0	0	0	-0	0	0	0	0	0	-0	0	573.156	572.587	303.847	214.736	0.502808	-5.32906	-0.00929798	-0.0192502	17.1096
100	0.100022	0.0199954	0.0159401	0.0490753	0.00152688	0.0337561	0.0251278	-0.0299915	0.00393804	0.0682978	0.0160413	0.0778734	0.0471659	-0.00120082	0.0265543	-2.11539	0.0235628	-1.52106	0	0	0	0	-0	0	0	0	-0.1265	0	-0	0	0	0	0	0	-0	0	0.105	0.015	0	0	-0	0	0	0.098	0.1	0	-0	0	0	0	0	0	-0	0	0.05595	0	0	0	-0	0	0	0	0	0	-0	0	573.157	572.598	303.759	214.777	0.503979	-5.34026	-0.00935583	-0.0192912	17.1538
