Stefan210/kinematic_calibration/src/kinematic_calibration/validation/experiments/experiments/anzahl_messungen/BC_A/larm_25/optimization_intermediate_results.csv
iteration	HeadPitch_offset	HeadYaw_offset	LElbowRoll_offset	LElbowYaw_offset	LShoulderPitch_offset	LShoulderRoll_offset	marker_transform_larm_tx	marker_transform_larm_ty	marker_transform_larm_tz	marker_transform_larm_rr	marker_transform_larm_rp	marker_transform_larm_ry	camera_transform_tx	camera_transform_ty	camera_transform_tz	camera_transform_rr	camera_transform_rp	camera_transform_ry	HeadPitch_transform_tx	HeadPitch_transform_ty	HeadPitch_transform_tz	HeadPitch_transform_rr	HeadPitch_transform_rp	HeadPitch_transform_ry	HeadYaw_transform_tx	HeadYaw_transform_ty	HeadYaw_transform_tz	HeadYaw_transform_rr	HeadYaw_transform_rp	HeadYaw_transform_ry	LElbowRoll_transform_tx	LElbowRoll_transform_ty	LElbowRoll_transform_tz	LElbowRoll_transform_rr	LElbowRoll_transform_rp	LElbowRoll_transform_ry	LElbowYaw_transform_tx	LElbowYaw_transform_ty	LElbowYaw_transform_tz	LElbowYaw_transform_rr	LElbowYaw_transform_rp	LElbowYaw_transform_ry	LShoulderPitch_transform_tx	LShoulderPitch_transform_ty	LShoulderPitch_transform_tz	LShoulderPitch_transform_rr	LShoulderPitch_transform_rp	LShoulderPitch_transform_ry	LShoulderRoll_transform_tx	LShoulderRoll_transform_ty	LShoulderRoll_transform_tz	LShoulderRoll_transform_rr	LShoulderRoll_transform_rp	LShoulderRoll_transform_ry	LWristYaw_transform_tx	LWristYaw_transform_ty	LWristYaw_transform_tz	LWristYaw_transform_rr	LWristYaw_transform_rp	LWristYaw_transform_ry	l_wrist_joint_transform_tx	l_wrist_joint_transform_ty	l_wrist_joint_transform_tz	l_wrist_joint_transform_rr	l_wrist_joint_transform_rp	l_wrist_joint_transform_ry	camera_fx	camera_fy	camera_cx	camera_cy	camera_D0	camera_D1	camera_D2	camera_D3	camera_D4	
0	0.0249164	-0.0307543	0.000853157	4.65819e-06	-0.000318322	-0.00310766	0.05071	0	0.01774	-2.26369	1.66533e-16	-1.5708	545.901	551.038	324.928	201.58	0.0255298	2.61142	-0.0636736	-0.0350419	0.213964
1	-0.0112639	0.0575746	0.0762209	0.0108343	-0.0151676	-0.0120669	0.0267724	-0.030591	0.00190325	-0.000122965	-0.000416301	-0.00286437	0.0545362	-0.0101394	0.0265307	-2.2201	-0.00471996	-1.58685	0	0	0	0	-0	0	0	0	-0.1265	0	-0	0	0	0	0	0	-0	0	0.105	0.015	0	0	-0	0	0	0.098	0.1	0	-0	0	0	0	0	0	-0	0	0.05595	0	0	0	-0	0	0	0	0	0	-0	0	545.902	551.039	324.926	201.582	-0.0510188	2.56633	-0.0873182	0.0101825	0.199575
2	-0.00699576	0.0811641	0.0530958	0.0390513	-0.0548544	0.0181528	0.0258292	-0.0301258	0.00364691	-0.0003391	-0.000609566	-0.00293081	0.0503101	-0.00710189	0.0382706	-2.23989	-0.0208173	-1.59267	0	0	0	0	-0	0	0	0	-0.1265	0	-0	0	0	0	0	0	-0	0	0.105	0.015	0	0	-0	0	0	0.098	0.1	0	-0	0	0	0	0	0	-0	0	0.05595	0	0	0	-0	0	0	0	0	0	-0	0	545.904	551.039	324.922	201.587	-0.182307	2.44207	0.0420576	-0.0547011	0.14963
3	-0.0101538	0.0698991	0.0569322	0.0293747	-0.0359465	0.0142943	0.0263615	-0.0301789	0.00287452	-0.000245121	-0.000522169	-0.00287183	0.0540656	-0.00681258	0.030476	-2.22515	-0.0189413	-1.59828	0	0	0	0	-0	0	0	0	-0.1265	0	-0	0	0	0	0	0	-0	0	0.105	0.015	0	0	-0	0	0	0.098	0.1	0	-0	0	0	0	0	0	-0	0	0.05595	0	0	0	-0	0	0	0	0	0	-0	0	545.905	551.039	324.921	201.588	-0.260386	2.39485	-0.018333	0.00487442	0.134251
4	-0.00933052	0.0709803	0.0522109	0.0324844	-0.0411294	0.0164499	0.0260769	-0.0300779	0.00315187	-0.000278531	-0.00055762	-0.00289537	0.0531398	-0.0065809	0.0318678	-2.22889	-0.0174541	-1.58976	0	0	0	0	-0	0	0	0	-0.1265	0	-0	0	0	0	0	0	-0	0	0.105	0.015	0	0	-0	0	0	0.098	0.1	0	-0	0	0	0	0	0	-0	0	0.05595	0	0	0	-0	0	0	0	0	0	-0	0	545.907	551.039	324.917	201.592	-0.41538	2.26504	0.033086	-0.0411597	0.0836354
5	-0.0126402	0.0519014	0.0487278	0.0177011	-0.0225465	0.0156497	0.0261061	-0.0301527	0.00195025	-0.000134811	-0.00043414	-0.00290192	0.0564345	-0.00514604	0.0227951	-2.21337	-0.0126532	-1.58207	0	0	0	0	-0	0	0	0	-0.1265	0	-0	0	0	0	0	0	-0	0	0.105	0.015	0	0	-0	0	0	0.098	0.1	0	-0	0	0	0	0	0	-0	0	0.05595	0	0	0	-0	0	0	0	0	0	-0	0	545.91	551.039	324.912	201.597	-0.639027	2.09406	0.0114585	-0.0193945	0.0195015
6	-0.0130092	0.046916	0.0343836	0.0208231	-0.0265094	0.0219715	0.0254041	-0.0299411	0.00216912	-0.000158598	-0.000458627	-0.00296253	0.0558959	-0.00327476	0.0219956	-2.21176	-0.0109715	-1.56964	0	0	0	0	-0	0	0	0	-0.1265	0	-0	0	0	0	0	0	-0	0	0.105	0.015	0	0	-0	0	0	0.098	0.1	0	-0	0	0	0	0	0	-0	0	0.05595	0	0	0	-0	0	0	0	0	0	-0	0	545.913	551.039	324.907	201.602	-0.851523	1.88046	0.0658247	-0.0622277	-0.0751992
7	-0.0145017	0.0353922	0.022411	0.0186093	-0.0210436	0.0272833	0.0249533	-0.0298777	0.00193228	-0.000135782	-0.000436025	-0.00300793	0.0568174	-0.00126342	0.0181276	-2.20485	-0.00872596	-1.55981	0	0	0	0	-0	0	0	0	-0.1265	0	-0	0	0	0	0	0	-0	0	0.105	0.015	0	0	-0	0	0	0.098	0.1	0	-0	0	0	0	0	0	-0	0	0.05595	0	0	0	-0	0	0	0	0	0	-0	0	545.919	551.038	324.904	201.607	-1.01122	1.63409	0.0839619	-0.0716882	-0.193713
8	-0.0143835	0.0334727	0.0133178	0.0245866	-0.0228318	0.032434	0.0245756	-0.0298236	0.00233157	-0.000174304	-0.000484992	-0.00304046	0.0559385	-0.000131472	0.018882	-2.20553	-0.00962327	-1.55733	0	0	0	0	-0	0	0	0	-0.1265	0	-0	0	0	0	0	0	-0	0	0.105	0.015	0	0	-0	0	0	0.098	0.1	0	-0	0	0	0	0	0	-0	0	0.05595	0	0	0	-0	0	0	0	0	0	-0	0	545.933	551.033	324.902	201.611	-0.894929	1.36558	0.0864301	-0.0729506	-0.3615
9	-0.0145451	0.0309496	0.00923987	0.0263456	-0.0192076	0.0343005	0.0244597	-0.0298519	0.00241045	-0.000175765	-0.000500189	-0.0030716	0.0549395	0.000444413	0.0193409	-2.20517	-0.0101039	-1.55919	0	0	0	0	-0	0	0	0	-0.1265	0	-0	0	0	0	0	0	-0	0	0.105	0.015	0	0	-0	0	0	0.098	0.1	0	-0	0	0	0	0	0	-0	0	0.05595	0	0	0	-0	0	0	0	0	0	-0	0	545.962	551.021	324.904	201.616	-0.545766	0.972601	0.0539254	-0.049657	-0.625455
10	-0.0146291	0.0290449	0.0059015	0.028172	-0.0153879	0.0358798	0.0243749	-0.0298876	0.00249439	-0.000284725	-0.00050212	-0.0031349	0.0537865	0.000912627	0.0200722	-2.20476	-0.0108414	-1.56223	0	0	0	0	-0	0	0	0	-0.1265	0	-0	0	0	0	0	0	-0	0	0.105	0.015	0	0	-0	0	0	0.098	0.1	0	-0	0	0	0	0	0	-0	0	0.05595	0	0	0	-0	0	0	0	0	0	-0	0	546.023	550.99	324.913	201.616	-0.126766	0.548525	0.0130275	-0.0209575	-0.918556
11	-0.0145271	0.0286197	0.00427135	0.0294204	-0.0140651	0.0368172	0.0243296	-0.0299025	0.00256651	-0.00013224	-0.000392135	-0.00342533	0.0531418	0.00112273	0.0206553	-2.20459	-0.0114306	-1.56412	0	0	0	0	-0	0	0	0	-0.1265	0	-0	0	0	0	0	0	-0	0	0.105	0.015	0	0	-0	0	0	0.098	0.1	0	-0	0	0	0	0	0	-0	0	0.05595	0	0	0	-0	0	0	0	0	0	-0	0	546.168	550.908	324.935	201.611	0.101504	0.311301	-0.00835949	-0.0057798	-1.06301
12	-0.0137729	0.0286582	0.0039965	0.0296895	-0.0139665	0.0370101	0.0243242	-0.0299032	0.0025884	-0.000950629	-0.000273236	-0.003117	0.0529459	0.00113283	0.020906	-2.20388	-0.0114984	-1.56446	0	0	0	0	-0	0	0	0	-0.1265	0	-0	0	0	0	0	0	-0	0	0.105	0.015	0	0	-0	0	0	0.098	0.1	0	-0	0	0	0	0	0	-0	0	0.05595	0	0	0	-0	0	0	0	0	0	-0	0	546.571	550.679	324.986	201.608	0.15096	0.235673	-0.0117824	-0.00268328	-1.04832
13	-0.0154283	0.0287419	0.00423501	0.0296	-0.0140304	0.0369641	0.0243446	-0.0299011	0.0025951	-0.00168914	-0.00154305	-0.00296699	0.0529052	0.00104245	0.0209454	-2.20559	-0.011232	-1.56425	0	0	0	0	-0	0	0	0	-0.1265	0	-0	0	0	0	0	0	-0	0	0.105	0.015	0	0	-0	0	0	0.098	0.1	0	-0	0	0	0	0	0	-0	0	0.05595	0	0	0	-0	0	0	0	0	0	-0	0	547.68	550.057	325.14	201.619	0.144832	0.220382	-0.0092201	-0.00238998	-0.999351
14	-0.0139869	0.0287513	0.00495924	0.0294112	-0.0140017	0.036838	0.0244015	-0.0299023	0.00261468	0.00449692	0.00294685	-0.00324706	0.0528587	0.000829898	0.0211398	-2.20428	-0.0106944	-1.56377	0	0	0	0	-0	0	0	0	-0.1265	0	-0	0	0	0	0	0	-0	0	0.105	0.015	0	0	-0	0	0	0.098	0.1	0	-0	0	0	0	0	0	-0	0	0.05595	0	0	0	-0	0	0	0	0	0	-0	0	550.397	548.599	325.619	201.719	0.0817408	0.383324	-0.00147621	-0.00244251	-1.17259
15	-0.0214944	0.0285094	0.00633581	0.0291851	-0.0136959	0.0366487	0.024518	-0.0299109	0.00265945	0.0116957	0.0286301	-0.00141396	0.0531478	0.000465171	0.0207642	-2.21251	-0.0102703	-1.56323	0	0	0	0	-0	0	0	0	-0.1265	0	-0	0	0	0	0	0	-0	0	0.105	0.015	0	0	-0	0	0	0.098	0.1	0	-0	0	0	0	0	0	-0	0	0.05595	0	0	0	-0	0	0	0	0	0	-0	0	555.547	546.285	327.005	202.252	-0.0830945	0.920538	0.0135808	-0.0027666	-1.86718
16	0.00308411	0.0282804	0.00712379	0.029035	-0.0133995	0.0365175	0.0245743	-0.0299184	0.00269019	0.00893856	0.0324168	0.0210056	0.0527291	0.000252521	0.0220414	-2.1886	-0.010574	-1.5635	0	0	0	0	-0	0	0	0	-0.1265	0	-0	0	0	0	0	0	-0	0	0.105	0.015	0	0	-0	0	0	0.098	0.1	0	-0	0	0	0	0	0	-0	0	0.05595	0	0	0	-0	0	0	0	0	0	-0	0	558.873	545.235	328.142	202.718	-0.185447	1.27103	0.0220318	-0.00281197	-2.33285
17	0.0146578	0.0281144	0.00768775	0.0289661	-0.0131842	0.0364503	0.0246278	-0.0299514	0.00270278	-0.0256206	0.027265	-0.0117744	0.0524855	8.84092e-05	0.0226752	-2.17814	-0.01145	-1.56427	0	0	0	0	-0	0	0	0	-0.1265	0	-0	0	0	0	0	0	-0	0	0.105	0.015	0	0	-0	0	0	0.098	0.1	0	-0	0	0	0	0	0	-0	0	0.05595	0	0	0	-0	0	0	0	0	0	-0	0	561.806	545.038	329.573	203.331	-0.262331	1.5343	0.0282128	-0.00262502	-2.68036
18	0.0149448	0.0280365	0.00786524	0.0289558	-0.0130766	0.0364431	0.0246367	-0.029933	0.00270083	-0.0593033	0.0502245	-0.0409412	0.0524429	2.06261e-05	0.0227385	-2.1786	-0.0121428	-1.56489	0	0	0	0	-0	0	0	0	-0.1265	0	-0	0	0	0	0	0	-0	0	0.105	0.015	0	0	-0	0	0	0.098	0.1	0	-0	0	0	0	0	0	-0	0	0.05595	0	0	0	-0	0	0	0	0	0	-0	0	563.295	545.334	330.48	203.693	-0.289226	1.62827	0.0303268	-0.00230976	-2.80565
19	0.0103552	0.0280069	0.00797468	0.0289902	-0.0130529	0.036497	0.024654	-0.0299556	0.00273121	-0.108612	0.0401626	-0.0491353	0.0524405	-4.54666e-05	0.0226272	-2.18501	-0.0140265	-1.56655	0	0	0	0	-0	0	0	0	-0.1265	0	-0	0	0	0	0	0	-0	0	0.105	0.015	0	0	-0	0	0	0.098	0.1	0	-0	0	0	0	0	0	-0	0	0.05595	0	0	0	-0	0	0	0	0	0	-0	0	565.304	546.641	332.332	204.514	-0.314258	1.70441	0.0322802	-0.00187451	-2.89673
20	-0.0124931	0.0280089	0.00790315	0.0290586	-0.0130482	0.0365544	0.0246542	-0.0299183	0.00275503	-0.0779153	0.00357126	-0.0663178	0.0528651	-5.67239e-05	0.0215266	-2.20872	-0.0149131	-1.56712	0	0	0	0	-0	0	0	0	-0.1265	0	-0	0	0	0	0	0	-0	0	0.105	0.015	0	0	-0	0	0	0.098	0.1	0	-0	0	0	0	0	0	-0	0	0.05595	0	0	0	-0	0	0	0	0	0	-0	0	566.043	547.364	333.18	204.883	-0.309608	1.69321	0.0320273	-0.00126748	-2.88653
21	-0.0166164	0.0280255	0.0078519	0.0290976	-0.0130694	0.0365986	0.0246534	-0.0299211	0.00273112	-0.0880547	0.00912609	-0.0898217	0.0528724	-6.34286e-05	0.0213828	-2.21363	-0.0158306	-1.56786	0	0	0	0	-0	0	0	0	-0.1265	0	-0	0	0	0	0	0	-0	0	0.105	0.015	0	0	-0	0	0	0.098	0.1	0	-0	0	0	0	0	0	-0	0	0.05595	0	0	0	-0	0	0	0	0	0	-0	0	566.597	548.008	333.935	205.232	-0.306085	1.68034	0.0318608	-0.00083929	-2.86841
22	0.000251038	0.0280373	0.0078052	0.0291308	-0.0130915	0.0366361	0.0246565	-0.0299183	0.0027384	-0.0760101	0.0309245	-0.0858765	0.0524602	-6.58601e-05	0.0223317	-2.19737	-0.0165824	-1.56873	0	0	0	0	-0	0	0	0	-0.1265	0	-0	0	0	0	0	0	-0	0	0.105	0.015	0	0	-0	0	0	0.098	0.1	0	-0	0	0	0	0	0	-0	0	0.05595	0	0	0	-0	0	0	0	0	0	-0	0	566.965	548.485	334.501	205.504	-0.302662	1.66617	0.0317246	-0.000550756	-2.84785
23	0.0106803	0.0280481	0.00776451	0.0291581	-0.0131093	0.0366625	0.0246457	-0.0299111	0.00273836	-0.0827949	0.0359015	-0.0831725	0.0521783	-6.67567e-05	0.022918	-2.18741	-0.0171265	-1.56939	0	0	0	0	-0	0	0	0	-0.1265	0	-0	0	0	0	0	0	-0	0	0.105	0.015	0	0	-0	0	0	0.098	0.1	0	-0	0	0	0	0	0	-0	0	0.05595	0	0	0	-0	0	0	0	0	0	-0	0	567.221	548.832	334.925	205.714	-0.299119	1.65318	0.0315604	-0.000292598	-2.83001
24	0.00585792	0.0280626	0.00771931	0.0291915	-0.0131371	0.036694	0.0246477	-0.0299148	0.00273708	-0.0909071	0.0350876	-0.0998819	0.052235	-6.86241e-05	0.0227172	-2.19293	-0.0179078	-1.57002	0	0	0	0	-0	0	0	0	-0.1265	0	-0	0	0	0	0	0	-0	0	0.105	0.015	0	0	-0	0	0	0.098	0.1	0	-0	0	0	0	0	0	-0	0	0.05595	0	0	0	-0	0	0	0	0	0	-0	0	567.578	549.328	335.56	206.039	-0.296003	1.63929	0.0314445	-1.29987e-07	-2.80865
25	-0.00375378	0.0280696	0.00768102	0.0292193	-0.0131473	0.036717	0.0246443	-0.0299103	0.00274014	-0.0926998	0.0385347	-0.0917821	0.0524228	-6.71316e-05	0.0222468	-2.20284	-0.018237	-1.57015	0	0	0	0	-0	0	0	0	-0.1265	0	-0	0	0	0	0	0	-0	0	0.105	0.015	0	0	-0	0	0	0.098	0.1	0	-0	0	0	0	0	0	-0	0	0.05595	0	0	0	-0	0	0	0	0	0	-0	0	567.715	549.528	335.82	206.174	-0.291734	1.6263	0.0312228	0.000250365	-2.79323
26	-0.00595898	0.0280795	0.00765178	0.0292378	-0.0131658	0.0367343	0.0246486	-0.0299159	0.00274033	-0.0782772	0.0523738	-0.100753	0.0524407	-6.73605e-05	0.0221614	-2.20544	-0.0186968	-1.57051	0	0	0	0	-0	0	0	0	-0.1265	0	-0	0	0	0	0	0	-0	0	0.105	0.015	0	0	-0	0	0	0.098	0.1	0	-0	0	0	0	0	0	-0	0	0.05595	0	0	0	-0	0	0	0	0	0	-0	0	567.896	549.796	336.179	206.364	-0.289081	1.61512	0.0311253	0.000438047	-2.77651
27	-0.0220411	0.0280918	0.00760412	0.0292705	-0.0132001	0.0367641	0.024642	-0.0299075	0.00273897	-0.087362	0.0631294	-0.106659	0.052744	-6.92492e-05	0.0213736	-2.22243	-0.0197179	-1.57108	0	0	0	0	-0	0	0	0	-0.1265	0	-0	0	0	0	0	0	-0	0	0.105	0.015	0	0	-0	0	0	0.098	0.1	0	-0	0	0	0	0	0	-0	0	0.05595	0	0	0	-0	0	0	0	0	0	-0	0	568.294	550.36	336.982	206.803	-0.285981	1.59859	0.0310765	0.000766054	-2.74912
28	-0.0301927	0.0281131	0.00752682	0.0293206	-0.0132493	0.0368067	0.0246538	-0.029908	0.00274606	-0.0859421	0.0307902	-0.114855	0.0528321	-7.05253e-05	0.0210282	-2.23195	-0.0212826	-1.5722	0	0	0	0	-0	0	0	0	-0.1265	0	-0	0	0	0	0	0	-0	0	0.105	0.015	0	0	-0	0	0	0.098	0.1	0	-0	0	0	0	0	0	-0	0	0.05595	0	0	0	-0	0	0	0	0	0	-0	0	568.837	551.121	338.173	207.477	-0.278487	1.56694	0.0308678	0.00141012	-2.70131
29	-0.0334469	0.0281304	0.00744441	0.0293755	-0.0132767	0.0368476	0.0246375	-0.029913	0.00274225	-0.0638321	0.0367332	-0.112599	0.0528384	-6.6006e-05	0.0209245	-2.23591	-0.0221063	-1.57281	0	0	0	0	-0	0	0	0	-0.1265	0	-0	0	0	0	0	0	-0	0	0.105	0.015	0	0	-0	0	0	0.098	0.1	0	-0	0	0	0	0	0	-0	0	0.05595	0	0	0	-0	0	0	0	0	0	-0	0	569.072	551.485	338.772	207.823	-0.267336	1.53099	0.030369	0.00204195	-2.65594
30	-0.0082265	0.0281534	0.00735036	0.0294414	-0.013374	0.0368865	0.024644	-0.029905	0.00276824	-0.0240573	-0.00819921	-0.131027	0.0521891	-7.15021e-05	0.0223853	-2.21373	-0.0255506	-1.57626	0	0	0	0	-0	0	0	0	-0.1265	0	-0	0	0	0	0	0	-0	0	0.105	0.015	0	0	-0	0	0	0.098	0.1	0	-0	0	0	0	0	0	-0	0	0.05595	0	0	0	-0	0	0	0	0	0	-0	0	570.064	552.78	341.449	209.434	-0.25693	1.47565	0.030491	0.00337285	-2.56133
31	-0.00971782	0.0281821	0.00719482	0.0295511	-0.0134007	0.0369553	0.0246371	-0.0299027	0.00274668	-0.0286046	-0.0313995	-0.13609	0.0521129	-5.71796e-05	0.0223976	-2.21572	-0.0260731	-1.57679	0	0	0	0	-0	0	0	0	-0.1265	0	-0	0	0	0	0	0	-0	0	0.105	0.015	0	0	-0	0	0	0.098	0.1	0	-0	0	0	0	0	0	-0	0	0.05595	0	0	0	-0	0	0	0	0	0	-0	0	570.149	552.952	341.818	209.661	-0.232651	1.40891	0.0292486	0.00457618	-2.48857
32	-0.00558664	0.0282022	0.00714087	0.0295803	-0.0134504	0.0369741	0.024628	-0.029901	0.0027479	-0.0185039	-0.0388816	-0.151189	0.0519722	-5.36434e-05	0.0226632	-2.21253	-0.0271343	-1.57782	0	0	0	0	-0	0	0	0	-0.1265	0	-0	0	0	0	0	0	-0	0	0.105	0.015	0	0	-0	0	0	0.098	0.1	0	-0	0	0	0	0	0	-0	0	0.05595	0	0	0	-0	0	0	0	0	0	-0	0	570.334	553.265	342.629	210.164	-0.222793	1.36709	0.029046	0.00517241	-2.42486
33	0.00586844	0.0282184	0.00707242	0.0296275	-0.0134874	0.0369971	0.0246284	-0.0299008	0.00274451	-0.0272901	-0.0550176	-0.142271	0.0516618	-4.82321e-05	0.0233108	-2.2019	-0.0280095	-1.57898	0	0	0	0	-0	0	0	0	-0.1265	0	-0	0	0	0	0	0	-0	0	0.105	0.015	0	0	-0	0	0	0.098	0.1	0	-0	0	0	0	0	0	-0	0	0.05595	0	0	0	-0	0	0	0	0	0	-0	0	570.489	553.514	343.34	210.609	-0.211215	1.32677	0.0286611	0.00590414	-2.36986
34	0.011698	0.0282299	0.00700172	0.029673	-0.0135474	0.0370068	0.0246348	-0.0298898	0.0027508	-0.00784846	-0.0965496	-0.148669	0.0514523	-4.43268e-05	0.0236763	-2.19787	-0.0300785	-1.58102	0	0	0	0	-0	0	0	0	-0.1265	0	-0	0	0	0	0	0	-0	0	0.105	0.015	0	0	-0	0	0	0.098	0.1	0	-0	0	0	0	0	0	-0	0	0.05595	0	0	0	-0	0	0	0	0	0	-0	0	570.848	553.968	344.959	211.618	-0.196527	1.26752	0.0284374	0.00716643	-2.27922
35	0.0395958	0.028249	0.00687023	0.0297667	-0.0136336	0.0370269	0.0246245	-0.0298827	0.00274009	-0.0646639	-0.0347484	-0.153195	0.0506732	-3.49865e-05	0.0252248	-2.17263	-0.0329636	-1.58479	0	0	0	0	-0	0	0	0	-0.1265	0	-0	0	0	0	0	0	-0	0	0.105	0.015	0	0	-0	0	0	0.098	0.1	0	-0	0	0	0	0	0	-0	0	0.05595	0	0	0	-0	0	0	0	0	0	-0	0	571.336	554.509	347.411	213.127	-0.166914	1.15884	0.0277502	0.00953124	-2.12107
36	0.0372623	0.0282732	0.00673072	0.0298747	-0.0136747	0.0370911	0.024609	-0.0298883	0.0027461	-0.06887	-0.0251379	-0.162674	0.0506299	-2.05185e-05	0.0251782	-2.17543	-0.0334689	-1.58526	0	0	0	0	-0	0	0	0	-0.1265	0	-0	0	0	0	0	0	-0	0	0.105	0.015	0	0	-0	0	0	0.098	0.1	0	-0	0	0	0	0	0	-0	0	0.05595	0	0	0	-0	0	0	0	0	0	-0	0	571.375	554.569	347.766	213.354	-0.143502	1.09225	0.0267214	0.010794	-2.04537
37	0.032098	0.0282892	0.00668064	0.0299179	-0.0137122	0.0371046	0.0246067	-0.0298884	0.00274943	-0.0654768	-0.0267263	-0.175935	0.0507227	-1.59965e-05	0.0249549	-2.1812	-0.0342266	-1.58573	0	0	0	0	-0	0	0	0	-0.1265	0	-0	0	0	0	0	0	-0	0	0.105	0.015	0	0	-0	0	0	0.098	0.1	0	-0	0	0	0	0	0	-0	0	0.05595	0	0	0	-0	0	0	0	0	0	-0	0	571.429	554.642	348.279	213.685	-0.132113	1.05093	0.0264231	0.011475	-1.98718
38	0.0405098	0.0282857	0.00662291	0.0299688	-0.0137824	0.0370769	0.0246028	-0.0298835	0.00274668	-0.0607855	-0.0185114	-0.174086	0.0504488	-1.00215e-05	0.0254358	-2.17521	-0.0370929	-1.58878	0	0	0	0	-0	0	0	0	-0.1265	0	-0	0	0	0	0	0	-0	0	0.105	0.015	0	0	-0	0	0	0.098	0.1	0	-0	0	0	0	0	0	-0	0	0.05595	0	0	0	-0	0	0	0	0	0	-0	0	571.753	554.87	350.596	215.132	-0.109633	0.962967	0.0261916	0.013652	-1.85084
39	0.0402053	0.0283102	0.0064753	0.0300906	-0.0138354	0.0371335	0.0245951	-0.0298816	0.00275133	-0.0696444	-0.024114	-0.168545	0.0503654	5.28948e-06	0.0255132	-2.1763	-0.0379977	-1.58966	0	0	0	0	-0	0	0	0	-0.1265	0	-0	0	0	0	0	0	-0	0	0.105	0.015	0	0	-0	0	0	0.098	0.1	0	-0	0	0	0	0	0	-0	0	0.05595	0	0	0	-0	0	0	0	0	0	-0	0	571.809	554.902	351.254	215.551	-0.080891	0.876673	0.0250832	0.0153454	-1.74578
40	0.0434365	0.0283198	0.00642684	0.0301327	-0.0138609	0.0371537	0.0245923	-0.0298801	0.00275166	-0.0624991	-0.0237355	-0.159543	0.0502541	1.04495e-05	0.0257071	-2.17338	-0.0382923	-1.59013	0	0	0	0	-0	0	0	0	-0.1265	0	-0	0	0	0	0	0	-0	0	0.105	0.015	0	0	-0	0	0	0.098	0.1	0	-0	0	0	0	0	0	-0	0	0.05595	0	0	0	-0	0	0	0	0	0	-0	0	571.827	554.912	351.514	215.721	-0.0712083	0.845652	0.0247675	0.0159218	-1.70597
41	0.0459234	0.0283256	0.00640082	0.0301534	-0.0138822	0.0371554	0.0245921	-0.0298799	0.00275293	-0.0712484	-0.0325578	-0.153737	0.0501699	1.31861e-05	0.0258517	-2.1713	-0.038723	-1.59067	0	0	0	0	-0	0	0	0	-0.1265	0	-0	0	0	0	0	0	-0	0	0.105	0.015	0	0	-0	0	0	0.098	0.1	0	-0	0	0	0	0	0	-0	0	0.05595	0	0	0	-0	0	0	0	0	0	-0	0	571.854	554.92	351.878	215.958	-0.0636757	0.818755	0.0245911	0.0164352	-1.6679
42	0.0405741	0.028328	0.00636955	0.0301818	-0.0139065	0.0371543	0.0245939	-0.029878	0.00275206	-0.0740067	-0.0507626	-0.14712	0.0502847	1.70141e-05	0.0256056	-2.17725	-0.0395527	-1.59114	0	0	0	0	-0	0	0	0	-0.1265	0	-0	0	0	0	0	0	-0	0	0.105	0.015	0	0	-0	0	0	0.098	0.1	0	-0	0	0	0	0	0	-0	0	0.05595	0	0	0	-0	0	0	0	0	0	-0	0	571.898	554.924	352.428	216.315	-0.0540069	0.785049	0.0243758	0.0171768	-1.62027
43	0.0479898	0.028331	0.0063319	0.0302149	-0.0139273	0.0371614	0.024587	-0.0298763	0.00275358	-0.0695	-0.0468646	-0.139547	0.0500697	2.15007e-05	0.0260031	-2.1703	-0.0399593	-1.59196	0	0	0	0	-0	0	0	0	-0.1265	0	-0	0	0	0	0	0	-0	0	0.105	0.015	0	0	-0	0	0	0.098	0.1	0	-0	0	0	0	0	0	-0	0	0.05595	0	0	0	-0	0	0	0	0	0	-0	0	571.93	554.922	352.847	216.588	-0.0444231	0.753805	0.0241062	0.0178639	-1.57855
44	0.067461	0.0283172	0.00629578	0.0302655	-0.01398	0.0371245	0.0245846	-0.0298801	0.00275328	-0.0913965	-0.0532663	-0.139379	0.0495219	2.71811e-05	0.0270111	-2.15276	-0.0419489	-1.59505	0	0	0	0	-0	0	0	0	-0.1265	0	-0	0	0	0	0	0	-0	0	0.105	0.015	0	0	-0	0	0	0.098	0.1	0	-0	0	0	0	0	0	-0	0	0.05595	0	0	0	-0	0	0	0	0	0	-0	0	572.135	554.887	354.735	217.782	-0.0223792	0.674122	0.0238466	0.0200626	-1.45913
45	0.071767	0.0283285	0.00617606	0.0303794	-0.0140381	0.0371554	0.0245827	-0.0298738	0.002756	-0.0860774	-0.0432139	-0.157052	0.0493189	4.0153e-05	0.0272964	-2.14953	-0.0430994	-1.59651	0	0	0	0	-0	0	0	0	-0.1265	0	-0	0	0	0	0	0	-0	0	0.105	0.015	0	0	-0	0	0	0.098	0.1	0	-0	0	0	0	0	0	-0	0	0.05595	0	0	0	-0	0	0	0	0	0	-0	0	572.22	554.83	355.71	218.406	0.00677249	0.583469	0.0229452	0.0220914	-1.34282
46	0.0725381	0.0283351	0.00611128	0.0304427	-0.0140693	0.0371794	0.0245747	-0.0298682	0.00275917	-0.0929119	-0.0511186	-0.161374	0.0492572	4.74308e-05	0.0273751	-2.14924	-0.0436282	-1.5971	0	0	0	0	-0	0	0	0	-0.1265	0	-0	0	0	0	0	0	-0	0	0.105	0.015	0	0	-0	0	0	0.098	0.1	0	-0	0	0	0	0	0	-0	0	0.05595	0	0	0	-0	0	0	0	0	0	-0	0	572.252	554.798	356.126	218.679	0.021689	0.537579	0.0224758	0.0230936	-1.28485
47	0.0756034	0.0283381	0.00607576	0.0304819	-0.0140992	0.0371785	0.0245712	-0.0298691	0.00275847	-0.0769407	-0.0504504	-0.153674	0.0491459	5.153e-05	0.0275532	-2.14681	-0.044299	-1.59797	0	0	0	0	-0	0	0	0	-0.1265	0	-0	0	0	0	0	0	-0	0	0.105	0.015	0	0	-0	0	0	0.098	0.1	0	-0	0	0	0	0	0	-0	0	0.05595	0	0	0	-0	0	0	0	0	0	-0	0	572.299	554.748	356.711	219.062	0.0343868	0.495098	0.0221905	0.0240765	-1.22633
48	0.0600783	0.0283334	0.00603555	0.0305326	-0.014134	0.0371703	0.0245677	-0.0298655	0.00276025	-0.0616221	-0.0516474	-0.149443	0.0495428	5.69551e-05	0.0268194	-2.16329	-0.0458588	-1.59839	0	0	0	0	-0	0	0	0	-0.1265	0	-0	0	0	0	0	0	-0	0	0.105	0.015	0	0	-0	0	0	0.098	0.1	0	-0	0	0	0	0	0	-0	0	0.05595	0	0	0	-0	0	0	0	0	0	-0	0	572.374	554.659	357.6	219.641	0.0509274	0.440475	0.0218551	0.0254915	-1.15076
49	0.0656693	0.0283039	0.00598598	0.0306235	-0.0141951	0.0371248	0.0245679	-0.0298615	0.00276179	-0.0574443	-0.0439518	-0.163946	0.0493404	6.52676e-05	0.0271384	-2.15998	-0.0485975	-1.6014	0	0	0	0	-0	0	0	0	-0.1265	0	-0	0	0	0	0	0	-0	0	0.105	0.015	0	0	-0	0	0	0.098	0.1	0	-0	0	0	0	0	0	-0	0	0.05595	0	0	0	-0	0	0	0	0	0	-0	0	572.622	554.414	359.851	221.072	0.0845903	0.329548	0.0213196	0.0288307	-0.993548
50	0.0496154	0.0282852	0.00585435	0.0308029	-0.0142884	0.0371192	0.0245725	-0.029872	0.00277016	-0.0769724	-0.0626936	-0.136707	0.0496819	8.17185e-05	0.0264442	-2.17845	-0.0521038	-1.60348	0	0	0	0	-0	0	0	0	-0.1265	0	-0	0	0	0	0	0	-0	0	0.105	0.015	0	0	-0	0	0	0.098	0.1	0	-0	0	0	0	0	0	-0	0	0.05595	0	0	0	-0	0	0	0	0	0	-0	0	572.879	554.071	362.17	222.545	0.136371	0.168531	0.0201002	0.0332765	-0.77999
