Stefan210/kinematic_calibration/src/kinematic_calibration/validation/experiments/experiments/impact_noise/outlier/larm_randomize_1_measurements_rk_true/optimization_intermediate_results.csv
iteration	HeadPitch_offset	HeadYaw_offset	LElbowRoll_offset	LElbowYaw_offset	LShoulderPitch_offset	LShoulderRoll_offset	marker_transform_larm_tx	marker_transform_larm_ty	marker_transform_larm_tz	marker_transform_larm_rr	marker_transform_larm_rp	marker_transform_larm_ry	camera_transform_tx	camera_transform_ty	camera_transform_tz	camera_transform_rr	camera_transform_rp	camera_transform_ry	HeadPitch_transform_tx	HeadPitch_transform_ty	HeadPitch_transform_tz	HeadPitch_transform_rr	HeadPitch_transform_rp	HeadPitch_transform_ry	HeadYaw_transform_tx	HeadYaw_transform_ty	HeadYaw_transform_tz	HeadYaw_transform_rr	HeadYaw_transform_rp	HeadYaw_transform_ry	LElbowRoll_transform_tx	LElbowRoll_transform_ty	LElbowRoll_transform_tz	LElbowRoll_transform_rr	LElbowRoll_transform_rp	LElbowRoll_transform_ry	LElbowYaw_transform_tx	LElbowYaw_transform_ty	LElbowYaw_transform_tz	LElbowYaw_transform_rr	LElbowYaw_transform_rp	LElbowYaw_transform_ry	LShoulderPitch_transform_tx	LShoulderPitch_transform_ty	LShoulderPitch_transform_tz	LShoulderPitch_transform_rr	LShoulderPitch_transform_rp	LShoulderPitch_transform_ry	LShoulderRoll_transform_tx	LShoulderRoll_transform_ty	LShoulderRoll_transform_tz	LShoulderRoll_transform_rr	LShoulderRoll_transform_rp	LShoulderRoll_transform_ry	LWristYaw_transform_tx	LWristYaw_transform_ty	LWristYaw_transform_tz	LWristYaw_transform_rr	LWristYaw_transform_rp	LWristYaw_transform_ry	l_wrist_joint_transform_tx	l_wrist_joint_transform_ty	l_wrist_joint_transform_tz	l_wrist_joint_transform_rr	l_wrist_joint_transform_rp	l_wrist_joint_transform_ry	camera_fx	camera_fy	camera_cx	camera_cy	camera_D0	camera_D1	camera_D2	camera_D3	camera_D4	
0	0.0249164	-0.0307543	0.000853157	4.65819e-06	-0.000318322	-0.00310766	0.05071	0	0.01774	-2.26369	1.66533e-16	-1.5708	545.901	551.038	324.928	201.58	0.0255298	2.61142	-0.0636736	-0.0350419	0.213964
1	-0.0166945	-0.00681335	0.0155356	0.0611582	0.0201866	0.0252386	0.0258424	-0.0297596	0.00547765	-0.000562393	-0.000774527	-0.00289584	0.0542066	-0.001825	0.0143384	-2.19571	0.00871099	-1.51818	0	0	0	0	-0	0	0	0	-0.1265	0	-0	0	0	0	0	0	-0	0	0.105	0.015	0	0	-0	0	0	0.098	0.1	0	-0	0	0	0	0	0	-0	0	0.05595	0	0	0	-0	0	0	0	0	0	-0	0	545.901	551.039	324.928	201.581	0.00372227	2.6033	-0.0834807	0.0195353	0.212255
2	-0.0170413	0.0167455	0.02043	0.0461731	0.00368258	0.0342345	0.0257622	-0.0302127	0.00375846	-0.000346413	-0.000602602	-0.00294423	0.0552254	-0.00148824	0.0145795	-2.19453	0.00288044	-1.54492	0	0	0	0	-0	0	0	0	-0.1265	0	-0	0	0	0	0	0	-0	0	0.105	0.015	0	0	-0	0	0	0.098	0.1	0	-0	0	0	0	0	0	-0	0	0.05595	0	0	0	-0	0	0	0	0	0	-0	0	545.914	551.039	324.922	201.598	-0.375668	2.29998	-0.0205854	-0.00771032	0.121764
3	-0.0170556	0.017028	0.020855	0.0465869	0.00265447	0.0344306	0.0255736	-0.0302422	0.00372011	-0.000332848	-0.000594349	-0.00298676	0.0556953	-0.00140508	0.0139517	-2.19429	0.00383764	-1.54519	0	0	0	0	-0	0	0	0	-0.1265	0	-0	0	0	0	0	0	-0	0	0.105	0.015	0	0	-0	0	0	0.098	0.1	0	-0	0	0	0	0	0	-0	0	0.05595	0	0	0	-0	0	0	0	0	0	-0	0	545.953	551.034	324.918	201.627	-0.393954	1.72429	-0.00924585	-0.0114098	-0.0747938
4	-0.0167293	0.016468	0.0193861	0.0476151	0.00218514	0.0341597	0.0254116	-0.0301505	0.00376322	-0.000331593	-0.000614754	-0.00302383	0.0551561	-0.0012647	0.0145756	-2.1957	0.00454984	-1.54505	0	0	0	0	-0	0	0	0	-0.1265	0	-0	0	0	0	0	0	-0	0	0.105	0.015	0	0	-0	0	0	0.098	0.1	0	-0	0	0	0	0	0	-0	0	0.05595	0	0	0	-0	0	0	0	0	0	-0	0	546.036	551.018	324.92	201.659	-0.19238	0.813995	-0.0121325	-0.0120659	-0.396609
5	-0.0164492	0.016317	0.0182117	0.047715	0.00185688	0.0342382	0.0253127	-0.0300701	0.00376375	-0.000478146	-0.000534537	-0.00290857	0.0544945	-0.00113281	0.0154125	-2.19704	0.0048474	-1.54551	0	0	0	0	-0	0	0	0	-0.1265	0	-0	0	0	0	0	0	-0	0	0.105	0.015	0	0	-0	0	0	0.098	0.1	0	-0	0	0	0	0	0	-0	0	0.05595	0	0	0	-0	0	0	0	0	0	-0	0	546.215	550.975	324.94	201.668	0.00433552	0.0910433	-0.0171826	-0.0119693	-0.599222
6	-0.0166875	0.0161712	0.0176562	0.047535	0.00181344	0.0341977	0.025271	-0.0300309	0.00375366	-0.000481231	-0.000546042	-0.00292182	0.0541293	-0.00105377	0.0159183	-2.19847	0.00494106	-1.54587	0	0	0	0	-0	0	0	0	-0.1265	0	-0	0	0	0	0	0	-0	0	0.105	0.015	0	0	-0	0	0	0.098	0.1	0	-0	0	0	0	0	0	-0	0	0.05595	0	0	0	-0	0	0	0	0	0	-0	0	546.704	550.851	324.954	201.677	0.108151	-0.341302	-0.0193823	-0.0119241	-0.457772
7	-0.0176922	0.0165083	0.0174508	0.0473261	0.00158299	0.0339874	0.0252506	-0.030012	0.00374499	-0.00023925	-0.00308412	-0.00453169	0.0537726	-0.00104455	0.0163898	-2.20055	0.00482706	-1.5464	0	0	0	0	-0	0	0	0	-0.1265	0	-0	0	0	0	0	0	-0	0	0.105	0.015	0	0	-0	0	0	0.098	0.1	0	-0	0	0	0	0	0	-0	0	0.05595	0	0	0	-0	0	0	0	0	0	-0	0	548.015	550.56	324.921	201.707	0.164127	-0.759821	-0.0172084	-0.0120682	0.300891
8	-0.0155078	0.0169515	0.0173454	0.0472845	0.00132364	0.0337819	0.0252367	-0.030002	0.00375862	-0.00267224	-0.00350226	-0.00385301	0.0530791	-0.00107743	0.0173546	-2.1999	0.00470898	-1.54662	0	0	0	0	-0	0	0	0	-0.1265	0	-0	0	0	0	0	0	-0	0	0.105	0.015	0	0	-0	0	0	0.098	0.1	0	-0	0	0	0	0	0	-0	0	0.05595	0	0	0	-0	0	0	0	0	0	-0	0	550.996	550.148	324.791	201.763	0.210629	-1.4231	-0.00941824	-0.0124151	2.07029
9	-0.015741	0.0173726	0.0172696	0.0473699	0.00105814	0.0336065	0.0252234	-0.0299993	0.00378808	0.00318999	-0.0054065	0.00774433	0.0520868	-0.0011319	0.0185711	-2.20233	0.00480559	-1.54651	0	0	0	0	-0	0	0	0	-0.1265	0	-0	0	0	0	0	0	-0	0	0.105	0.015	0	0	-0	0	0	0.098	0.1	0	-0	0	0	0	0	0	-0	0	0.05595	0	0	0	-0	0	0	0	0	0	-0	0	556.026	550.713	324.554	201.812	0.25818	-2.31997	0.00162806	-0.012887	4.78207
10	-0.0114636	0.0175282	0.0173118	0.0473544	0.000910953	0.0334597	0.0252175	-0.0300072	0.0038087	-0.0189212	0.00601265	0.0245088	0.0514182	-0.001179	0.0195162	-2.19926	0.00474243	-1.54643	0	0	0	0	-0	0	0	0	-0.1265	0	-0	0	0	0	0	0	-0	0	0.105	0.015	0	0	-0	0	0	0.098	0.1	0	-0	0	0	0	0	0	-0	0	0.05595	0	0	0	-0	0	0	0	0	0	-0	0	559.355	551.928	324.514	201.758	0.277744	-2.81884	0.00714462	-0.0131559	6.50409
11	-0.0218582	0.0176907	0.0173545	0.0474035	0.000782728	0.0333748	0.0252211	-0.0300143	0.00380254	-0.0045979	-0.0120128	0.0526267	0.0511502	-0.00123079	0.0195342	-2.21086	0.00502551	-1.54643	0	0	0	0	-0	0	0	0	-0.1265	0	-0	0	0	0	0	0	-0	0	0.105	0.015	0	0	-0	0	0	0.098	0.1	0	-0	0	0	0	0	0	-0	0	0.05595	0	0	0	-0	0	0	0	0	0	-0	0	562.397	554.147	324.52	201.821	0.286399	-3.12416	0.00962489	-0.0133998	7.69305
12	-0.0273436	0.0178297	0.0173424	0.047335	0.000706916	0.033312	0.025207	-0.0300123	0.00381418	-0.0150841	-0.00794954	0.0672403	0.0509174	-0.00126267	0.0196609	-2.21806	0.00520249	-1.54644	0	0	0	0	-0	0	0	0	-0.1265	0	-0	0	0	0	0	0	-0	0	0.105	0.015	0	0	-0	0	0	0.098	0.1	0	-0	0	0	0	0	0	-0	0	0.05595	0	0	0	-0	0	0	0	0	0	-0	0	565.286	557.185	324.509	202.245	0.275426	-3.18625	0.010034	-0.0135043	8.21239
13	-0.0152013	0.0178942	0.017396	0.047405	0.000658336	0.0333141	0.0252091	-0.0300084	0.00382196	-0.0100495	-0.0255177	0.0605365	0.0505519	-0.00128649	0.0204266	-2.20658	0.00490062	-1.54636	0	0	0	0	-0	0	0	0	-0.1265	0	-0	0	0	0	0	0	-0	0	0.105	0.015	0	0	-0	0	0	0.098	0.1	0	-0	0	0	0	0	0	-0	0	0.05595	0	0	0	-0	0	0	0	0	0	-0	0	566.378	558.362	324.536	202.459	0.268896	-3.19239	0.010174	-0.0136594	8.37952
14	-0.0151019	0.0180076	0.0173874	0.0473834	0.000605069	0.0332995	0.0252098	-0.0300082	0.0038142	-0.0125124	-0.002924	0.0483905	0.050416	-0.00130222	0.0205765	-2.2075	0.00487232	-1.54642	0	0	0	0	-0	0	0	0	-0.1265	0	-0	0	0	0	0	0	-0	0	0.105	0.015	0	0	-0	0	0	0.098	0.1	0	-0	0	0	0	0	0	-0	0	0.05595	0	0	0	-0	0	0	0	0	0	-0	0	567.614	559.84	324.557	202.829	0.258001	-3.15276	0.0101375	-0.0137715	8.41732
15	-0.00740422	0.0180182	0.0174002	0.0473584	0.000598175	0.0332924	0.0252029	-0.0300093	0.00381572	-0.00405405	-0.00587077	0.0469538	0.0502106	-0.00130801	0.0210129	-2.2002	0.00468598	-1.54639	0	0	0	0	-0	0	0	0	-0.1265	0	-0	0	0	0	0	0	-0	0	0.105	0.015	0	0	-0	0	0	0.098	0.1	0	-0	0	0	0	0	0	-0	0	0.05595	0	0	0	-0	0	0	0	0	0	-0	0	568.09	560.429	324.571	202.99	0.252817	-3.12778	0.0100341	-0.0137762	8.41646
16	0.00327292	0.0180906	0.0173936	0.0473899	0.000563054	0.0332884	0.0252016	-0.0300129	0.00381975	-0.0201386	-0.00527669	0.0544057	0.0499223	-0.00131656	0.021617	-2.19012	0.00439682	-1.54639	0	0	0	0	-0	0	0	0	-0.1265	0	-0	0	0	0	0	0	-0	0	0.105	0.015	0	0	-0	0	0	0.098	0.1	0	-0	0	0	0	0	0	-0	0	0.05595	0	0	0	-0	0	0	0	0	0	-0	0	568.702	561.182	324.587	203.228	0.245857	-3.09276	0.0100313	-0.0138593	8.391
17	0.0140149	0.0181423	0.0173779	0.0474231	0.000543764	0.0332782	0.025204	-0.030014	0.00381556	-0.0143783	-0.0194073	0.0733221	0.0496144	-0.00132451	0.0222277	-2.18027	0.00410809	-1.54639	0	0	0	0	-0	0	0	0	-0.1265	0	-0	0	0	0	0	0	-0	0	0.105	0.015	0	0	-0	0	0	0.098	0.1	0	-0	0	0	0	0	0	-0	0	0.05595	0	0	0	-0	0	0	0	0	0	-0	0	569.504	562.208	324.61	203.609	0.235502	-3.03342	0.00991933	-0.0139193	8.32625
18	0.0119204	0.0181361	0.0173839	0.0473589	0.000540335	0.0332407	0.0251983	-0.0300111	0.00381401	-0.0172603	-0.0253541	0.0787567	0.049646	-0.00132486	0.022134	-2.18255	0.00416006	-1.54642	0	0	0	0	-0	0	0	0	-0.1265	0	-0	0	0	0	0	0	-0	0	0.105	0.015	0	0	-0	0	0	0.098	0.1	0	-0	0	0	0	0	0	-0	0	0.05595	0	0	0	-0	0	0	0	0	0	-0	0	569.661	562.417	324.615	203.689	0.232998	-3.01592	0.00985532	-0.0138793	8.30234
19	-0.00281065	0.0181732	0.0173715	0.0474378	0.000531326	0.0332612	0.0252001	-0.0300166	0.00382182	0.000826846	-0.0185655	0.0741854	0.0499176	-0.00133139	0.0214543	-2.19802	0.004492	-1.54651	0	0	0	0	-0	0	0	0	-0.1265	0	-0	0	0	0	0	0	-0	0	0.105	0.015	0	0	-0	0	0	0.098	0.1	0	-0	0	0	0	0	0	-0	0	0.05595	0	0	0	-0	0	0	0	0	0	-0	0	570.27	563.198	324.639	204.031	0.224264	-2.96267	0.00977434	-0.0139408	8.23272
20	-0.0128361	0.0181719	0.0173712	0.0474523	0.000532593	0.0332574	0.0251993	-0.0300146	0.00382287	0.00330772	-0.0193143	0.0601116	0.0501051	-0.00133422	0.0209753	-2.20842	0.00472712	-1.54656	0	0	0	0	-0	0	0	0	-0.1265	0	-0	0	0	0	0	0	-0	0	0.105	0.015	0	0	-0	0	0	0.098	0.1	0	-0	0	0	0	0	0	-0	0	0.05595	0	0	0	-0	0	0	0	0	0	-0	0	570.56	563.575	324.653	204.204	0.219742	-2.93288	0.00971139	-0.0139447	8.19008
21	-0.0131565	0.0181875	0.0173653	0.0474867	0.000531011	0.0332646	0.0252008	-0.0300167	0.00382562	-0.00978133	-0.0269084	0.0714463	0.0500761	-0.00133828	0.0209912	-2.20929	0.00471313	-1.54658	0	0	0	0	-0	0	0	0	-0.1265	0	-0	0	0	0	0	0	-0	0	0.105	0.015	0	0	-0	0	0	0.098	0.1	0	-0	0	0	0	0	0	-0	0	0.05595	0	0	0	-0	0	0	0	0	0	-0	0	570.967	564.105	324.677	204.468	0.213483	-2.89273	0.00964367	-0.0139675	8.13376
22	-0.0179317	0.0181741	0.0173666	0.047535	0.000542385	0.0332809	0.0251981	-0.0300217	0.00382507	0.0128159	-0.0334818	0.0842153	0.0501522	-0.00134125	0.0207721	-2.21446	0.0048189	-1.5466	0	0	0	0	-0	0	0	0	-0.1265	0	-0	0	0	0	0	0	-0	0	0.105	0.015	0	0	-0	0	0	0.098	0.1	0	-0	0	0	0	0	0	-0	0	0.05595	0	0	0	-0	0	0	0	0	0	-0	0	571.261	564.488	324.7	204.667	0.2089	-2.86332	0.00956246	-0.0139674	8.09787
23	-0.0151505	0.0182228	0.0173463	0.047537	0.000526946	0.0332505	0.0251939	-0.0300139	0.0038275	0.00883424	-0.0344395	0.086189	0.0500521	-0.00134488	0.0209575	-2.21264	0.0046892	-1.54667	0	0	0	0	-0	0	0	0	-0.1265	0	-0	0	0	0	0	0	-0	0	0.105	0.015	0	0	-0	0	0	0.098	0.1	0	-0	0	0	0	0	0	-0	0	0.05595	0	0	0	-0	0	0	0	0	0	-0	0	571.846	565.253	324.739	205.124	0.198696	-2.79559	0.00954932	-0.0140017	7.98484
24	-0.0188157	0.0182435	0.0173534	0.047562	0.000516719	0.0332613	0.0251949	-0.0300124	0.0038295	0.0129607	-0.0300886	0.0829383	0.050113	-0.00134852	0.0207885	-2.21655	0.00476001	-1.54671	0	0	0	0	-0	0	0	0	-0.1265	0	-0	0	0	0	0	0	-0	0	0.105	0.015	0	0	-0	0	0	0.098	0.1	0	-0	0	0	0	0	0	-0	0	0.05595	0	0	0	-0	0	0	0	0	0	-0	0	572.009	565.457	324.755	205.248	0.195968	-2.77887	0.00956554	-0.0140292	7.96306
25	-0.00909678	0.0182539	0.0173546	0.047582	0.000515224	0.0332705	0.0251954	-0.0300118	0.00383125	0.0146328	-0.0230013	0.0827798	0.0498927	-0.00135137	0.0212927	-2.20717	0.00450279	-1.54669	0	0	0	0	-0	0	0	0	-0.1265	0	-0	0	0	0	0	0	-0	0	0.105	0.015	0	0	-0	0	0	0.098	0.1	0	-0	0	0	0	0	0	-0	0	0.05595	0	0	0	-0	0	0	0	0	0	-0	0	572.224	565.728	324.779	205.419	0.192564	-2.758	0.00956494	-0.0140445	7.93689
26	-0.00180838	0.0182736	0.0173484	0.047576	0.000510534	0.0332641	0.0251938	-0.0300126	0.0038304	0.0224383	-0.0234319	0.0848332	0.0497126	-0.00135388	0.021679	-2.20041	0.00428491	-1.54671	0	0	0	0	-0	0	0	0	-0.1265	0	-0	0	0	0	0	0	-0	0	0.105	0.015	0	0	-0	0	0	0.098	0.1	0	-0	0	0	0	0	0	-0	0	0.05595	0	0	0	-0	0	0	0	0	0	-0	0	572.523	566.109	324.814	205.678	0.187588	-2.72606	0.00958014	-0.0140568	7.889
27	0.000826585	0.0182824	0.0173491	0.0475794	0.000506569	0.0332609	0.0251937	-0.0300128	0.00383068	0.0295539	-0.0213571	0.0842328	0.0496439	-0.00135519	0.0218188	-2.19798	0.00420158	-1.54672	0	0	0	0	-0	0	0	0	-0.1265	0	-0	0	0	0	0	0	-0	0	0.105	0.015	0	0	-0	0	0	0.098	0.1	0	-0	0	0	0	0	0	-0	0	0.05595	0	0	0	-0	0	0	0	0	0	-0	0	572.644	566.261	324.83	205.784	0.185459	-2.7128	0.00959438	-0.0140627	7.87068
28	0.00414437	0.0182835	0.0173478	0.0476034	0.000508911	0.0332679	0.0251946	-0.0300133	0.00383365	0.0255294	-0.0163234	0.0927355	0.0495582	-0.00135677	0.0219944	-2.19495	0.00409793	-1.54673	0	0	0	0	-0	0	0	0	-0.1265	0	-0	0	0	0	0	0	-0	0	0.105	0.015	0	0	-0	0	0	0.098	0.1	0	-0	0	0	0	0	0	-0	0	0.05595	0	0	0	-0	0	0	0	0	0	-0	0	572.806	566.466	324.854	205.929	0.182709	-2.69593	0.0095975	-0.0140691	7.84954
29	0.01115	0.0182991	0.0173309	0.0476507	0.000516935	0.033277	0.025195	-0.0300122	0.00383544	0.0302827	-0.0321144	0.0971052	0.0493609	-0.00136125	0.022381	-2.1892	0.00381053	-1.54682	0	0	0	0	-0	0	0	0	-0.1265	0	-0	0	0	0	0	0	-0	0	0.105	0.015	0	0	-0	0	0	0.098	0.1	0	-0	0	0	0	0	0	-0	0	0.05595	0	0	0	-0	0	0	0	0	0	-0	0	573.413	567.246	324.96	206.574	0.172126	-2.62964	0.00964264	-0.0140899	7.7571
30	0.00335805	0.0183036	0.0173323	0.0476331	0.000517038	0.0332671	0.0251934	-0.0300133	0.00383362	0.0273303	-0.0265	0.0897904	0.0495214	-0.00136242	0.0220067	-2.19733	0.00396053	-1.5469	0	0	0	0	-0	0	0	0	-0.1265	0	-0	0	0	0	0	0	-0	0	0.105	0.015	0	0	-0	0	0	0.098	0.1	0	-0	0	0	0	0	0	-0	0	0.05595	0	0	0	-0	0	0	0	0	0	-0	0	573.577	567.454	324.994	206.751	0.169075	-2.60949	0.00965976	-0.0140728	7.72895
31	0.0142988	0.0183237	0.0173234	0.0476379	0.000512172	0.0332588	0.0251905	-0.0300166	0.00383095	0.00883977	-0.0110275	0.0801039	0.0492562	-0.00136437	0.0225702	-2.18715	0.00360683	-1.54696	0	0	0	0	-0	0	0	0	-0.1265	0	-0	0	0	0	0	0	-0	0	0.105	0.015	0	0	-0	0	0	0.098	0.1	0	-0	0	0	0	0	0	-0	0	0.05595	0	0	0	-0	0	0	0	0	0	-0	0	573.911	567.873	325.068	207.139	0.162569	-2.5677	0.00975086	-0.0140775	7.66341
32	0.0127223	0.0183478	0.0173164	0.0475926	0.000492961	0.0332248	0.025189	-0.0300137	0.00382933	0.00963207	-0.00692581	0.0753259	0.0492849	-0.00136293	0.022497	-2.18884	0.00361275	-1.54702	0	0	0	0	-0	0	0	0	-0.1265	0	-0	0	0	0	0	0	-0	0	0.105	0.015	0	0	-0	0	0	0.098	0.1	0	-0	0	0	0	0	0	-0	0	0.05595	0	0	0	-0	0	0	0	0	0	-0	0	573.957	567.929	325.078	207.193	0.16136	-2.56052	0.00982924	-0.0140707	7.64896
33	0.00992406	0.0183464	0.0173175	0.0476351	0.000496986	0.0332427	0.0251898	-0.0300133	0.00383346	0.00998968	-0.00744008	0.0720657	0.0493355	-0.00136488	0.022368	-2.19204	0.00362975	-1.54707	0	0	0	0	-0	0	0	0	-0.1265	0	-0	0	0	0	0	0	-0	0	0.105	0.015	0	0	-0	0	0	0.098	0.1	0	-0	0	0	0	0	0	-0	0	0.05595	0	0	0	-0	0	0	0	0	0	-0	0	574.138	568.152	325.125	207.41	0.157592	-2.53626	0.0098579	-0.0140741	7.61306
34	0.0120177	0.0183494	0.0173183	0.0476685	0.000498693	0.0332567	0.0251903	-0.0300161	0.00383652	-0.00403982	-0.00580221	0.0716884	0.0492752	-0.00136689	0.0224817	-2.19035	0.00352491	-1.54712	0	0	0	0	-0	0	0	0	-0.1265	0	-0	0	0	0	0	0	-0	0	0.105	0.015	0	0	-0	0	0	0.098	0.1	0	-0	0	0	0	0	0	-0	0	0.05595	0	0	0	-0	0	0	0	0	0	-0	0	574.315	568.367	325.177	207.626	0.154165	-2.51521	0.00990617	-0.0140764	7.58516
35	0.0151787	0.0183541	0.0173148	0.0476966	0.000501884	0.0332618	0.025192	-0.0300171	0.00383776	-0.012457	-0.00707363	0.0608569	0.0491866	-0.00136897	0.0226523	-2.18778	0.00335933	-1.5472	0	0	0	0	-0	0	0	0	-0.1265	0	-0	0	0	0	0	0	-0	0	0.105	0.015	0	0	-0	0	0	0.098	0.1	0	-0	0	0	0	0	0	-0	0	0.05595	0	0	0	-0	0	0	0	0	0	-0	0	574.56	568.668	325.257	207.944	0.149423	-2.48609	0.00998765	-0.0140754	7.54517
36	-0.00266115	0.0183619	0.0173004	0.0477223	0.000517875	0.0332601	0.0251922	-0.0300188	0.00384183	-0.0221567	-0.00649102	0.0736421	0.0495554	-0.00137259	0.0218037	-2.20735	0.00349541	-1.54756	0	0	0	0	-0	0	0	0	-0.1265	0	-0	0	0	0	0	0	-0	0	0.105	0.015	0	0	-0	0	0	0.098	0.1	0	-0	0	0	0	0	0	-0	0	0.05595	0	0	0	-0	0	0	0	0	0	-0	0	575.149	569.415	325.503	208.87	0.1371	-2.40799	0.0102167	-0.0140494	7.42887
37	-0.00209844	0.0183795	0.0172926	0.0476783	0.00051118	0.0332369	0.0251919	-0.0300191	0.00384375	-0.00992117	-0.024701	0.0584254	0.0495204	-0.0013729	0.0218446	-2.20763	0.00330331	-1.54775	0	0	0	0	-0	0	0	0	-0.1265	0	-0	0	0	0	0	0	-0	0	0.105	0.015	0	0	-0	0	0	0.098	0.1	0	-0	0	0	0	0	0	-0	0	0.05595	0	0	0	-0	0	0	0	0	0	-0	0	575.429	569.746	325.642	209.326	0.130057	-2.36023	0.0104371	-0.0140134	7.34057
38	0.00567376	0.0183446	0.0172965	0.0477865	0.000535201	0.0332935	0.0251929	-0.0300167	0.00384344	0.00970028	-0.0517009	0.0659825	0.0493318	-0.00137544	0.0222373	-2.20043	0.00298894	-1.54783	0	0	0	0	-0	0	0	0	-0.1265	0	-0	0	0	0	0	0	-0	0	0.105	0.015	0	0	-0	0	0	0.098	0.1	0	-0	0	0	0	0	0	-0	0	0.05595	0	0	0	-0	0	0	0	0	0	-0	0	575.639	569.977	325.776	209.661	0.126004	-2.34053	0.0105465	-0.0139907	7.33865
39	0.00771443	0.0183804	0.0172964	0.0477268	0.000515131	0.0332609	0.0251906	-0.0300171	0.00383921	0.00354183	-0.0526156	0.0567841	0.0492782	-0.00137532	0.0223458	-2.19866	0.0028627	-1.54794	0	0	0	0	-0	0	0	0	-0.1265	0	-0	0	0	0	0	0	-0	0	0.105	0.015	0	0	-0	0	0	0.098	0.1	0	-0	0	0	0	0	0	-0	0	0.05595	0	0	0	-0	0	0	0	0	0	-0	0	575.72	570.069	325.829	209.799	0.123982	-2.3282	0.0106723	-0.013969	7.31648
40	0.00640991	0.0183911	0.0172931	0.0477368	0.000513234	0.0332597	0.02519	-0.030018	0.00384181	0.0137227	-0.0537678	0.0476835	0.0492956	-0.0013762	0.022291	-2.20056	0.00273309	-1.54811	0	0	0	0	-0	0	0	0	-0.1265	0	-0	0	0	0	0	0	-0	0	0.105	0.015	0	0	-0	0	0	0.098	0.1	0	-0	0	0	0	0	0	-0	0	0.05595	0	0	0	-0	0	0	0	0	0	-0	0	575.902	570.283	325.96	210.124	0.11954	-2.30057	0.0108268	-0.0139482	7.27211
41	0.00357621	0.0183918	0.0172942	0.047765	0.000513441	0.0332705	0.0251902	-0.0300166	0.00384409	0.00920255	-0.0486365	0.0551488	0.0493517	-0.00137705	0.0221561	-2.20369	0.00270852	-1.54821	0	0	0	0	-0	0	0	0	-0.1265	0	-0	0	0	0	0	0	-0	0	0.105	0.015	0	0	-0	0	0	0.098	0.1	0	-0	0	0	0	0	0	-0	0	0.05595	0	0	0	-0	0	0	0	0	0	-0	0	576	570.389	326.037	210.294	0.117179	-2.28754	0.0109186	-0.0139365	7.25702
42	-0.000243032	0.0183979	0.0172965	0.0477738	0.000509155	0.0332757	0.0251902	-0.0300157	0.00384402	0.00983055	-0.0518757	0.0497664	0.0494325	-0.00137768	0.0219702	-2.20763	0.00275553	-1.54826	0	0	0	0	-0	0	0	0	-0.1265	0	-0	0	0	0	0	0	-0	0	0.105	0.015	0	0	-0	0	0	0.098	0.1	0	-0	0	0	0	0	0	-0	0	0.05595	0	0	0	-0	0	0	0	0	0	-0	0	576.04	570.431	326.069	210.364	0.11617	-2.28238	0.0109684	-0.0139327	7.2521
43	-0.00191136	0.0184099	0.0172948	0.0477741	0.000507118	0.0332735	0.0251918	-0.0300181	0.00384161	0.0141968	-0.0571569	0.063821	0.0494585	-0.00137894	0.0218972	-2.20982	0.00263381	-1.54844	0	0	0	0	-0	0	0	0	-0.1265	0	-0	0	0	0	0	0	-0	0	0.105	0.015	0	0	-0	0	0	0.098	0.1	0	-0	0	0	0	0	0	-0	0	0.05595	0	0	0	-0	0	0	0	0	0	-0	0	576.19	570.604	326.201	210.644	0.112779	-2.26236	0.0111178	-0.013912	7.2222
44	0.00378877	0.0184051	0.0172908	0.0477601	0.000519809	0.0332619	0.0251902	-0.0300174	0.00384293	0.0163776	-0.0617678	0.0546051	0.0493236	-0.00137931	0.0221865	-2.20486	0.00226878	-1.54867	0	0	0	0	-0	0	0	0	-0.1265	0	-0	0	0	0	0	0	-0	0	0.105	0.015	0	0	-0	0	0	0.098	0.1	0	-0	0	0	0	0	0	-0	0	0.05595	0	0	0	-0	0	0	0	0	0	-0	0	576.381	570.832	326.403	211.05	0.107736	-2.22953	0.0113021	-0.013854	7.16583
45	0.00651113	0.0184169	0.0172874	0.0477724	0.00051761	0.0332661	0.0251904	-0.0300177	0.00384203	0.0190656	-0.0664487	0.0655867	0.0492502	-0.00138037	0.0223304	-2.20285	0.00195346	-1.54893	0	0	0	0	-0	0	0	0	-0.1265	0	-0	0	0	0	0	0	-0	0	0.105	0.015	0	0	-0	0	0	0.098	0.1	0	-0	0	0	0	0	0	-0	0	0.05595	0	0	0	-0	0	0	0	0	0	-0	0	576.57	571.042	326.615	211.445	0.102774	-2.20001	0.0115408	-0.0138137	7.11869
46	0.00335737	0.0184252	0.0172858	0.0477658	0.00051777	0.0332601	0.0251894	-0.0300195	0.00384177	0.00648074	-0.0680415	0.0597707	0.0493111	-0.00138078	0.0221821	-2.20657	0.00180008	-1.54917	0	0	0	0	-0	0	0	0	-0.1265	0	-0	0	0	0	0	0	-0	0	0.105	0.015	0	0	-0	0	0	0.098	0.1	0	-0	0	0	0	0	0	-0	0	0.05595	0	0	0	-0	0	0	0	0	0	-0	0	576.715	571.197	326.799	211.761	0.0985877	-2.1746	0.0117562	-0.0137681	7.07563
47	-0.00646085	0.0184334	0.0172843	0.0477691	0.000515533	0.0332567	0.0251901	-0.0300184	0.0038443	0.00862166	-0.0765285	0.0489358	0.0495207	-0.00138115	0.0217043	-2.21685	0.0018144	-1.5494	0	0	0	0	-0	0	0	0	-0.1265	0	-0	0	0	0	0	0	-0	0	0.105	0.015	0	0	-0	0	0	0.098	0.1	0	-0	0	0	0	0	0	-0	0	0.05595	0	0	0	-0	0	0	0	0	0	-0	0	576.834	571.32	326.96	212.019	0.095033	-2.15326	0.0119501	-0.0137326	7.03842
48	-0.000760869	0.0184369	0.0172828	0.0477761	0.000522423	0.0332621	0.0251912	-0.0300197	0.00384414	0.0121156	-0.0704853	0.0614059	0.0493825	-0.00138273	0.021995	-2.21212	0.00125461	-1.54983	0	0	0	0	-0	0	0	0	-0.1265	0	-0	0	0	0	0	0	-0	0	0.105	0.015	0	0	-0	0	0	0.098	0.1	0	-0	0	0	0	0	0	-0	0	0.05595	0	0	0	-0	0	0	0	0	0	-0	0	577.054	571.567	327.329	212.562	0.0885426	-2.11141	0.0122645	-0.013645	6.95964
49	0.0113251	0.0184335	0.0172827	0.0477807	0.000529014	0.0332649	0.0251906	-0.0300175	0.00384288	0.0108774	-0.0592145	0.0548926	0.0491074	-0.00138282	0.0225965	-2.20052	0.00076242	-1.55007	0	0	0	0	-0	0	0	0	-0.1265	0	-0	0	0	0	0	0	-0	0	0.105	0.015	0	0	-0	0	0	0.098	0.1	0	-0	0	0	0	0	0	-0	0	0.05595	0	0	0	-0	0	0	0	0	0	-0	0	577.17	571.677	327.532	212.833	0.0849179	-2.09111	0.0124842	-0.0135865	6.92949
50	0.00971389	0.0184588	0.0172802	0.0477274	0.00051185	0.0332414	0.0251878	-0.0300171	0.00383917	0.0092255	-0.0581179	0.0622278	0.0491375	-0.00138202	0.0225204	-2.20224	0.000730197	-1.55016	0	0	0	0	-0	0	0	0	-0.1265	0	-0	0	0	0	0	0	-0	0	0.105	0.015	0	0	-0	0	0	0.098	0.1	0	-0	0	0	0	0	0	-0	0	0.05595	0	0	0	-0	0	0	0	0	0	-0	0	577.196	571.697	327.574	212.889	0.0838975	-2.08584	0.0126082	-0.0135736	6.91719
51	0.00954534	0.0184663	0.0172805	0.0477538	0.000509643	0.0332516	0.0251876	-0.0300171	0.00384289	0.000635739	-0.0487498	0.0686957	0.0491338	-0.00138292	0.0225171	-2.2028	0.000518871	-1.55038	0	0	0	0	-0	0	0	0	-0.1265	0	-0	0	0	0	0	0	-0	0	0.105	0.015	0	0	-0	0	0	0.098	0.1	0	-0	0	0	0	0	0	-0	0	0.05595	0	0	0	-0	0	0	0	0	0	-0	0	577.292	571.785	327.755	213.114	0.0807895	-2.06746	0.0127958	-0.0135425	6.8836
52	0.0198199	0.0184695	0.0172839	0.0477867	0.000508307	0.0332663	0.0251889	-0.0300173	0.0038442	-0.00129248	-0.0505146	0.061107	0.0488969	-0.00138405	0.0230254	-2.19275	0.000179511	-1.55051	0	0	0	0	-0	0	0	0	-0.1265	0	-0	0	0	0	0	0	-0	0	0.105	0.015	0	0	-0	0	0	0.098	0.1	0	-0	0	0	0	0	0	-0	0	0.05595	0	0	0	-0	0	0	0	0	0	-0	0	577.352	571.834	327.866	213.245	0.0789359	-2.05863	0.0129218	-0.0135273	6.87357
53	0.0163961	0.0184812	0.0172839	0.0477546	0.000502382	0.0332506	0.0251882	-0.0300162	0.00384187	0.00130726	-0.0606492	0.0587696	0.0489701	-0.00138409	0.0228612	-2.19636	0.000144783	-1.55063	0	0	0	0	-0	0	0	0	-0.1265	0	-0	0	0	0	0	0	-0	0	0.105	0.015	0	0	-0	0	0	0.098	0.1	0	-0	0	0	0	0	0	-0	0	0.05595	0	0	0	-0	0	0	0	0	0	-0	0	577.393	571.87	327.95	213.342	0.0776467	-2.0509	0.0130353	-0.0135042	6.85637
54	0.00965396	0.0184828	0.017285	0.0477709	0.000509871	0.0332588	0.0251888	-0.0300181	0.00384558	-0.00818858	-0.0503613	0.0685712	0.049114	-0.00138549	0.0225374	-2.20383	-0.000157397	-1.5511	0	0	0	0	-0	0	0	0	-0.1265	0	-0	0	0	0	0	0	-0	0	0.105	0.015	0	0	-0	0	0	0.098	0.1	0	-0	0	0	0	0	0	-0	0	0.05595	0	0	0	-0	0	0	0	0	0	-0	0	577.543	572.032	328.328	213.755	0.0728807	-2.02024	0.0132989	-0.0134075	6.79508
55	0.00789933	0.01848	0.0172874	0.0477946	0.000511259	0.0332697	0.0251888	-0.0300172	0.00384541	-0.0057891	-0.0514105	0.0642648	0.0491501	-0.00138566	0.0224512	-2.20567	-0.000189494	-1.55116	0	0	0	0	-0	0	0	0	-0.1265	0	-0	0	0	0	0	0	-0	0	0.105	0.015	0	0	-0	0	0	0.098	0.1	0	-0	0	0	0	0	0	-0	0	0.05595	0	0	0	-0	0	0	0	0	0	-0	0	577.571	572.05	328.384	213.813	0.0716109	-2.01491	0.0133845	-0.0133986	6.79131
56	0.00549789	0.0184905	0.0172888	0.0477916	0.000508987	0.0332661	0.0251898	-0.0300183	0.00384557	-0.00491976	-0.0566402	0.0537706	0.0491961	-0.00138652	0.02234	-2.20849	-0.00041601	-1.55145	0	0	0	0	-0	0	0	0	-0.1265	0	-0	0	0	0	0	0	-0	0	0.105	0.015	0	0	-0	0	0	0.098	0.1	0	-0	0	0	0	0	0	-0	0	0.05595	0	0	0	-0	0	0	0	0	0	-0	0	577.662	572.132	328.613	214.043	0.0688763	-1.99895	0.0135898	-0.0133419	6.76036
57	-3.9038e-05	0.0184852	0.01729	0.047794	0.000514354	0.0332678	0.025189	-0.0300176	0.00384511	-0.00726912	-0.0586298	0.0494482	0.049316	-0.00138654	0.0220697	-2.21423	-0.000449789	-1.55159	0	0	0	0	-0	0	0	0	-0.1265	0	-0	0	0	0	0	0	-0	0	0.105	0.015	0	0	-0	0	0	0.098	0.1	0	-0	0	0	0	0	0	-0	0	0.05595	0	0	0	-0	0	0	0	0	0	-0	0	577.711	572.171	328.733	214.158	0.0671573	-1.98939	0.0137054	-0.0133051	6.74487
58	-0.00351139	0.0184995	0.0172894	0.0477765	0.000504978	0.0332588	0.025188	-0.0300169	0.00384336	-0.00980286	-0.0603455	0.0502462	0.0493896	-0.00138644	0.0219013	-2.21779	-0.000451615	-1.55167	0	0	0	0	-0	0	0	0	-0.1265	0	-0	0	0	0	0	0	-0	0	0.105	0.015	0	0	-0	0	0	0.098	0.1	0	-0	0	0	0	0	0	-0	0	0.05595	0	0	0	-0	0	0	0	0	0	-0	0	577.731	572.186	328.782	214.206	0.066393	-1.98581	0.0137924	-0.013296	6.7374
59	0.00458422	0.0185086	0.0172895	0.0477731	0.000501101	0.0332551	0.0251888	-0.030018	0.00384306	-0.00554984	-0.0576112	0.0413864	0.0492078	-0.0013868	0.0223052	-2.20992	-0.000772073	-1.55184	0	0	0	0	-0	0	0	0	-0.1265	0	-0	0	0	0	0	0	-0	0	0.105	0.015	0	0	-0	0	0	0.098	0.1	0	-0	0	0	0	0	0	-0	0	0.05595	0	0	0	-0	0	0	0	0	0	-0	0	577.781	572.229	328.917	214.333	0.0646977	-1.97544	0.0139202	-0.013266	6.71455
60	-0.00277721	0.0185104	0.0172885	0.0477536	0.000503461	0.0332471	0.0251878	-0.0300193	0.00383937	0.00558933	-0.0649344	0.0506397	0.0493666	-0.0013868	0.021946	-2.21762	-0.000877024	-1.55209	0	0	0	0	-0	0	0	0	-0.1265	0	-0	0	0	0	0	0	-0	0	0.105	0.015	0	0	-0	0	0	0.098	0.1	0	-0	0	0	0	0	0	-0	0	0.05595	0	0	0	-0	0	0	0	0	0	-0	0	577.846	572.29	329.122	214.519	0.0622143	-1.95849	0.0140839	-0.0132045	6.67435
61	0.00286433	0.0185234	0.017286	0.0477231	0.000496638	0.033228	0.0251872	-0.0300185	0.00383814	0.00497803	-0.0627337	0.0410145	0.0492392	-0.00138611	0.0222272	-2.21215	-0.0011187	-1.55225	0	0	0	0	-0	0	0	0	-0.1265	0	-0	0	0	0	0	0	-0	0	0.105	0.015	0	0	-0	0	0	0.098	0.1	0	-0	0	0	0	0	0	-0	0	0.05595	0	0	0	-0	0	0	0	0	0	-0	0	577.88	572.316	329.225	214.612	0.0605884	-1.9481	0.0142201	-0.0131742	6.64804
62	-3.19215e-05	0.018521	0.0172854	0.0477284	0.000498132	0.0332318	0.0251872	-0.0300177	0.00383895	0.00646714	-0.0580309	0.0347763	0.0493011	-0.00138592	0.0220847	-2.21517	-0.00116066	-1.55234	0	0	0	0	-0	0	0	0	-0.1265	0	-0	0	0	0	0	0	-0	0	0.105	0.015	0	0	-0	0	0	0.098	0.1	0	-0	0	0	0	0	0	-0	0	0.05595	0	0	0	-0	0	0	0	0	0	-0	0	577.907	572.338	329.305	214.682	0.0593485	-1.94037	0.0142928	-0.0131525	6.63228
63	0.000576836	0.0185198	0.0172877	0.0477466	0.000503364	0.0332401	0.025189	-0.0300206	0.00384106	-0.00465805	-0.0653665	0.0296888	0.0492822	-0.00138679	0.0221177	-2.21494	-0.00147839	-1.55265	0	0	0	0	-0	0	0	0	-0.1265	0	-0	0	0	0	0	0	-0	0	0.105	0.015	0	0	-0	0	0	0.098	0.1	0	-0	0	0	0	0	0	-0	0	0.05595	0	0	0	-0	0	0	0	0	0	-0	0	577.982	572.409	329.566	214.901	0.0564279	-1.92007	0.0144601	-0.0130845	6.58453
64	-0.00110408	0.0185069	0.0172896	0.047761	0.00051372	0.0332475	0.0251896	-0.0300195	0.00384214	-0.00849135	-0.0717319	0.0384963	0.0493167	-0.00138682	0.0220351	-2.21681	-0.00160391	-1.5528	0	0	0	0	-0	0	0	0	-0.1265	0	-0	0	0	0	0	0	-0	0	0.105	0.015	0	0	-0	0	0	0.098	0.1	0	-0	0	0	0	0	0	-0	0	0.05595	0	0	0	-0	0	0	0	0	0	-0	0	578.022	572.44	329.702	215.01	0.0546857	-1.90968	0.0145626	-0.0130404	6.56587
65	-0.0024871	0.0185081	0.0172909	0.0477625	0.000514176	0.0332493	0.0251885	-0.0300188	0.00384225	-0.0105391	-0.0705724	0.0308155	0.0493443	-0.001387	0.0219686	-2.21833	-0.00170267	-1.55293	0	0	0	0	-0	0	0	0	-0.1265	0	-0	0	0	0	0	0	-0	0	0.105	0.015	0	0	-0	0	0	0.098	0.1	0	-0	0	0	0	0	0	-0	0	0.05595	0	0	0	-0	0	0	0	0	0	-0	0	578.053	572.463	329.806	215.093	0.0534365	-1.90208	0.0146556	-0.013012	6.54972
66	-0.00262503	0.0185193	0.0172918	0.047763	0.000506637	0.0332475	0.0251876	-0.0300177	0.00384247	-0.0134373	-0.0732478	0.0319234	0.0493455	-0.00138725	0.0219637	-2.21853	-0.00175712	-1.55299	0	0	0	0	-0	0	0	0	-0.1265	0	-0	0	0	0	0	0	-0	0	0.105	0.015	0	0	-0	0	0	0.098	0.1	0	-0	0	0	0	0	0	-0	0	0.05595	0	0	0	-0	0	0	0	0	0	-0	0	578.067	572.472	329.848	215.127	0.0527865	-1.89892	0.0147203	-0.0130102	6.54285
67	-0.00973187	0.0185297	0.0172938	0.047769	0.000502428	0.0332481	0.025188	-0.0300192	0.00384295	-0.0227034	-0.077036	0.0300209	0.049497	-0.0013881	0.0216174	-2.22587	-0.00184409	-1.5532	0	0	0	0	-0	0	0	0	-0.1265	0	-0	0	0	0	0	0	-0	0	0.105	0.015	0	0	-0	0	0	0.098	0.1	0	-0	0	0	0	0	0	-0	0	0.05595	0	0	0	-0	0	0	0	0	0	-0	0	578.117	572.515	330.025	215.262	0.0509687	-1.88716	0.0148533	-0.0129721	6.51418
68	-0.0142853	0.0185374	0.0172947	0.0477538	0.000501376	0.033241	0.0251881	-0.0300189	0.00384195	-0.0179049	-0.0722908	0.0355049	0.0495898	-0.00138852	0.0213965	-2.23078	-0.00208748	-1.55352	0	0	0	0	-0	0	0	0	-0.1265	0	-0	0	0	0	0	0	-0	0	0.105	0.015	0	0	-0	0	0	0.098	0.1	0	-0	0	0	0	0	0	-0	0	0.05595	0	0	0	-0	0	0	0	0	0	-0	0	578.183	572.574	330.29	215.46	0.0483157	-1.86924	0.0150453	-0.0128973	6.4689
69	-0.0113292	0.0185398	0.0172958	0.0477555	0.000501633	0.033241	0.0251879	-0.0300198	0.00384221	-0.00769036	-0.0691225	0.0356327	0.0495229	-0.00138857	0.0215451	-2.22801	-0.00232057	-1.55371	0	0	0	0	-0	0	0	0	-0.1265	0	-0	0	0	0	0	0	-0	0	0.105	0.015	0	0	-0	0	0	0.098	0.1	0	-0	0	0	0	0	0	-0	0	0.05595	0	0	0	-0	0	0	0	0	0	-0	0	578.222	572.604	330.438	215.568	0.0465038	-1.85851	0.0151772	-0.0128591	6.4458
70	-0.0156464	0.0185428	0.0172967	0.0477595	0.000500594	0.0332409	0.0251876	-0.0300182	0.0038422	-0.00788657	-0.0738256	0.0395504	0.0496127	-0.00138872	0.0213335	-2.23248	-0.00240017	-1.55385	0	0	0	0	-0	0	0	0	-0.1265	0	-0	0	0	0	0	0	-0	0	0.105	0.015	0	0	-0	0	0	0.098	0.1	0	-0	0	0	0	0	0	-0	0	0.05595	0	0	0	-0	0	0	0	0	0	-0	0	578.256	572.628	330.563	215.656	0.0450704	-1.85004	0.0152858	-0.0128282	6.42721
71	-0.0159248	0.0185517	0.0172983	0.0477553	0.000497312	0.0332385	0.025189	-0.0300184	0.00384115	-0.00683817	-0.0634084	0.0324641	0.0496143	-0.00138918	0.0213232	-2.23299	-0.00262701	-1.55408	0	0	0	0	-0	0	0	0	-0.1265	0	-0	0	0	0	0	0	-0	0	0.105	0.015	0	0	-0	0	0	0.098	0.1	0	-0	0	0	0	0	0	-0	0	0.05595	0	0	0	-0	0	0	0	0	0	-0	0	578.3	572.666	330.752	215.787	0.0432034	-1.83765	0.0154259	-0.0127798	6.39575
72	-0.0187161	0.0185459	0.0172995	0.0477493	0.000503749	0.033238	0.025189	-0.0300195	0.00384163	-0.0126206	-0.0693401	0.0397497	0.0496713	-0.00138901	0.0211859	-2.23596	-0.00275326	-1.55425	0	0	0	0	-0	0	0	0	-0.1265	0	-0	0	0	0	0	0	-0	0	0.105	0.015	0	0	-0	0	0	0.098	0.1	0	-0	0	0	0	0	0	-0	0	0.05595	0	0	0	-0	0	0	0	0	0	-0	0	578.336	572.693	330.896	215.885	0.0415713	-1.82672	0.0155289	-0.0127308	6.37094
73	-0.017627	0.0185447	0.0173001	0.0477534	0.000505189	0.0332401	0.0251882	-0.0300189	0.00384212	-0.0147841	-0.0721968	0.0461883	0.0496455	-0.00138904	0.0212416	-2.23499	-0.00290513	-1.55438	0	0	0	0	-0	0	0	0	-0.1265	0	-0	0	0	0	0	0	-0	0	0.105	0.015	0	0	-0	0	0	0.098	0.1	0	-0	0	0	0	0	0	-0	0	0.05595	0	0	0	-0	0	0	0	0	0	-0	0	578.363	572.713	331.006	215.959	0.0404085	-1.81967	0.0156166	-0.0127001	6.35535
74	-0.00456675	0.0185548	0.0173032	0.0477594	0.000505647	0.0332417	0.0251855	-0.0300212	0.003844	0.00578559	-0.0876124	0.0442053	0.0493609	-0.00139026	0.021896	-2.22248	-0.0037045	-1.55501	0	0	0	0	-0	0	0	0	-0.1265	0	-0	0	0	0	0	0	-0	0	0.105	0.015	0	0	-0	0	0	0.098	0.1	0	-0	0	0	0	0	0	-0	0	0.05595	0	0	0	-0	0	0	0	0	0	-0	0	578.455	572.809	331.493	216.269	0.0364821	-1.79039	0.0158622	-0.012564	6.27519
75	-0.0108966	0.0186033	0.0173003	0.0477214	0.000474619	0.0332171	0.0251862	-0.0300192	0.00383964	0.00357347	-0.0872517	0.0516535	0.0494902	-0.00139061	0.0215925	-2.2291	-0.00392568	-1.55535	0	0	0	0	-0	0	0	0	-0.1265	0	-0	0	0	0	0	0	-0	0	0.105	0.015	0	0	-0	0	0	0.098	0.1	0	-0	0	0	0	0	0	-0	0	0.05595	0	0	0	-0	0	0	0	0	0	-0	0	578.515	572.844	331.739	216.424	0.0334687	-1.77247	0.0161742	-0.0125255	6.22233
76	-0.0123292	0.0185975	0.0173034	0.0477264	0.000479725	0.0332181	0.0251866	-0.0300188	0.00384018	0.00305429	-0.089989	0.0460388	0.0495181	-0.00139045	0.021521	-2.23064	-0.00403116	-1.55546	0	0	0	0	-0	0	0	0	-0.1265	0	-0	0	0	0	0	0	-0	0	0.105	0.015	0	0	-0	0	0	0.098	0.1	0	-0	0	0	0	0	0	-0	0	0.05595	0	0	0	-0	0	0	0	0	0	-0	0	578.541	572.857	331.845	216.488	0.0318959	-1.76352	0.0162729	-0.0124973	6.20573
77	-0.0186013	0.0185912	0.0173068	0.047744	0.000485232	0.0332257	0.0251866	-0.0300183	0.00384152	0.00271409	-0.0894271	0.0462235	0.0496494	-0.00139081	0.0212116	-2.23706	-0.00411091	-1.55561	0	0	0	0	-0	0	0	0	-0.1265	0	-0	0	0	0	0	0	-0	0	0.105	0.015	0	0	-0	0	0	0.098	0.1	0	-0	0	0	0	0	0	-0	0	0.05595	0	0	0	-0	0	0	0	0	0	-0	0	578.576	572.88	331.994	216.576	0.0303675	-1.75363	0.0163668	-0.0124561	6.18399
78	-0.00994336	0.018601	0.017309	0.0477412	0.000481634	0.0332242	0.0251871	-0.0300189	0.00384093	0.00224469	-0.0866092	0.0395409	0.0494604	-0.00139142	0.0216457	-2.22863	-0.00451332	-1.55592	0	0	0	0	-0	0	0	0	-0.1265	0	-0	0	0	0	0	0	-0	0	0.105	0.015	0	0	-0	0	0	0.098	0.1	0	-0	0	0	0	0	0	-0	0	0.05595	0	0	0	-0	0	0	0	0	0	-0	0	578.622	572.916	332.216	216.704	0.0284421	-1.74036	0.016515	-0.0123963	6.14792
79	-0.00349262	0.0186099	0.0173088	0.0477212	0.000477966	0.0332161	0.0251878	-0.0300196	0.00383989	-0.00412045	-0.0943219	0.0391271	0.0493163	-0.00139137	0.0219676	-2.22235	-0.00481553	-1.55617	0	0	0	0	-0	0	0	0	-0.1265	0	-0	0	0	0	0	0	-0	0	0.105	0.015	0	0	-0	0	0	0.098	0.1	0	-0	0	0	0	0	0	-0	0	0.05595	0	0	0	-0	0	0	0	0	0	-0	0	578.656	572.94	332.384	216.8	0.0267582	-1.72888	0.0166545	-0.012347	6.11619
80	-0.00181272	0.0186018	0.0173099	0.0477253	0.000484435	0.0332193	0.0251865	-0.0300199	0.00384121	0.0057679	-0.0993265	0.03475	0.0492761	-0.00139122	0.0220505	-2.2208	-0.00499084	-1.55632	0	0	0	0	-0	0	0	0	-0.1265	0	-0	0	0	0	0	0	-0	0	0.105	0.015	0	0	-0	0	0	0.098	0.1	0	-0	0	0	0	0	0	-0	0	0.05595	0	0	0	-0	0	0	0	0	0	-0	0	578.683	572.958	332.513	216.872	0.0254166	-1.71992	0.0167385	-0.0123059	6.09543
81	-0.00184423	0.018605	0.0173124	0.0477504	0.000481376	0.0332266	0.025187	-0.030019	0.00384241	0.00632502	-0.0988402	0.0308114	0.0492748	-0.00139171	0.0220495	-2.22087	-0.00505579	-1.55638	0	0	0	0	-0	0	0	0	-0.1265	0	-0	0	0	0	0	0	-0	0	0.105	0.015	0	0	-0	0	0	0.098	0.1	0	-0	0	0	0	0	0	-0	0	0.05595	0	0	0	-0	0	0	0	0	0	-0	0	578.696	572.965	332.567	216.901	0.0246528	-1.71613	0.0167903	-0.0123053	6.08848
82	-0.0015446	0.0186086	0.0173149	0.0477548	0.000480739	0.0332277	0.025187	-0.0300187	0.00384282	0.00246683	-0.094223	0.031765	0.0492653	-0.00139225	0.0220667	-2.22069	-0.00520737	-1.55654	0	0	0	0	-0	0	0	0	-0.1265	0	-0	0	0	0	0	0	-0	0	0.105	0.015	0	0	-0	0	0	0.098	0.1	0	-0	0	0	0	0	0	-0	0	0.05595	0	0	0	-0	0	0	0	0	0	-0	0	578.723	572.985	332.69	216.969	0.0235725	-1.70896	0.0168693	-0.0122729	6.07026
83	0.00251211	0.0186151	0.0173176	0.0477579	0.000479758	0.0332284	0.0251882	-0.0300186	0.00384266	0.000760534	-0.0837847	0.0289561	0.0491711	-0.00139298	0.022271	-2.21686	-0.00554984	-1.55686	0	0	0	0	-0	0	0	0	-0.1265	0	-0	0	0	0	0	0	-0	0	0.105	0.015	0	0	-0	0	0	0.098	0.1	0	-0	0	0	0	0	0	-0	0	0.05595	0	0	0	-0	0	0	0	0	0	-0	0	578.768	573.024	332.93	217.096	0.0217783	-1.69645	0.0170012	-0.0122067	6.03611
84	0.00861952	0.018618	0.0173201	0.0477476	0.000483382	0.0332264	0.0251874	-0.0300189	0.00384226	0.000117054	-0.082996	0.0269256	0.0490299	-0.00139338	0.0225751	-2.21108	-0.00605929	-1.55734	0	0	0	0	-0	0	0	0	-0.1265	0	-0	0	0	0	0	0	-0	0	0.105	0.015	0	0	-0	0	0	0.098	0.1	0	-0	0	0	0	0	0	-0	0	0.05595	0	0	0	-0	0	0	0	0	0	-0	0	578.826	573.078	333.29	217.283	0.01904	-1.67569	0.0171794	-0.0120943	5.97738
85	0.00803453	0.0186339	0.0173201	0.0477394	0.000473039	0.0332201	0.0251873	-0.0300192	0.00384176	-0.00220631	-0.086885	0.0237768	0.04904	-0.00139334	0.0225492	-2.21175	-0.00616429	-1.55746	0	0	0	0	-0	0	0	0	-0.1265	0	-0	0	0	0	0	0	-0	0	0.105	0.015	0	0	-0	0	0	0.098	0.1	0	-0	0	0	0	0	0	-0	0	0.05595	0	0	0	-0	0	0	0	0	0	-0	0	578.847	573.087	333.378	217.329	0.0177936	-1.6696	0.0173075	-0.0120824	5.96281
86	0.00867239	0.0186349	0.0173235	0.0477474	0.000476704	0.0332232	0.0251879	-0.0300194	0.00384284	-0.00167547	-0.0804254	0.0270575	0.0490197	-0.00139404	0.0225849	-2.21142	-0.00660013	-1.55791	0	0	0	0	-0	0	0	0	-0.1265	0	-0	0	0	0	0	0	-0	0	0.105	0.015	0	0	-0	0	0	0.098	0.1	0	-0	0	0	0	0	0	-0	0	0.05595	0	0	0	-0	0	0	0	0	0	-0	0	578.907	573.141	333.742	217.51	0.0150924	-1.6492	0.0174785	-0.0119761	5.90536
87	0.00800847	0.0186371	0.0173261	0.0477549	0.000475573	0.0332252	0.0251882	-0.03002	0.00384326	0.00130316	-0.0773531	0.021062	0.0490323	-0.0013942	0.0225537	-2.21217	-0.00671431	-1.55804	0	0	0	0	-0	0	0	0	-0.1265	0	-0	0	0	0	0	0	-0	0	0.105	0.015	0	0	-0	0	0	0.098	0.1	0	-0	0	0	0	0	0	-0	0	0.05595	0	0	0	-0	0	0	0	0	0	-0	0	578.93	573.15	333.844	217.56	0.0137603	-1.6423	0.0175858	-0.011955	5.89161
88	0.00704766	0.0186394	0.0173272	0.0477532	0.000474205	0.0332239	0.0251879	-0.0300198	0.00384323	0.00414851	-0.0757582	0.0168398	0.0490522	-0.00139425	0.0225082	-2.21319	-0.00678799	-1.55812	0	0	0	0	-0	0	0	0	-0.1265	0	-0	0	0	0	0	0	-0	0	0.105	0.015	0	0	-0	0	0	0.098	0.1	0	-0	0	0	0	0	0	-0	0	0.05595	0	0	0	-0	0	0	0	0	0	-0	0	578.946	573.159	333.915	217.595	0.0129878	-1.63782	0.0176521	-0.0119367	5.88105
89	0.00349621	0.0186458	0.0173291	0.0477531	0.000472865	0.0332235	0.0251879	-0.0300202	0.00384338	0.0100559	-0.0736112	0.0137153	0.0491273	-0.00139484	0.0223386	-2.21696	-0.00704929	-1.55842	0	0	0	0	-0	0	0	0	-0.1265	0	-0	0	0	0	0	0	-0	0	0.105	0.015	0	0	-0	0	0	0.098	0.1	0	-0	0	0	0	0	0	-0	0	0.05595	0	0	0	-0	0	0	0	0	0	-0	0	578.991	573.194	334.173	217.719	0.0111647	-1.62407	0.0177853	-0.0118631	5.8406
90	0.00512568	0.0186541	0.017331	0.0477501	0.000469925	0.033221	0.0251883	-0.0300212	0.0038437	0.0173374	-0.0727077	0.00621744	0.0490866	-0.00139525	0.0224227	-2.21553	-0.00734543	-1.55872	0	0	0	0	-0	0	0	0	-0.1265	0	-0	0	0	0	0	0	-0	0	0.105	0.015	0	0	-0	0	0	0.098	0.1	0	-0	0	0	0	0	0	-0	0	0.05595	0	0	0	-0	0	0	0	0	0	-0	0	579.031	573.223	334.402	217.828	0.00928344	-1.61131	0.0179325	-0.0118008	5.80509
91	0.00965613	0.0186534	0.0173327	0.0477546	0.000470539	0.0332221	0.025188	-0.0300201	0.00384374	0.0189145	-0.0689964	0.00645228	0.0489831	-0.00139529	0.0226462	-2.21107	-0.00751463	-1.55887	0	0	0	0	-0	0	0	0	-0.1265	0	-0	0	0	0	0	0	-0	0	0.105	0.015	0	0	-0	0	0	0.098	0.1	0	-0	0	0	0	0	0	-0	0	0.05595	0	0	0	-0	0	0	0	0	0	-0	0	579.05	573.233	334.498	217.873	0.00820013	-1.60515	0.0180147	-0.0117773	5.79148
92	0.0143456	0.0186641	0.0173334	0.0477471	0.000464762	0.0332182	0.0251876	-0.0300199	0.00384295	0.0154904	-0.0707527	0.00566722	0.0488734	-0.0013956	0.0228793	-2.20649	-0.00772984	-1.55908	0	0	0	0	-0	0	0	0	-0.1265	0	-0	0	0	0	0	0	-0	0	0.105	0.015	0	0	-0	0	0	0.098	0.1	0	-0	0	0	0	0	0	-0	0	0.05595	0	0	0	-0	0	0	0	0	0	-0	0	579.075	573.249	334.63	217.934	0.0071573	-1.59815	0.0181126	-0.0117442	5.77067
93	0.0172895	0.0186765	0.0173367	0.0477407	0.000464469	0.033216	0.0251873	-0.0300221	0.00384476	0.00197777	-0.0632677	0.0131921	0.0487988	-0.00139659	0.0230292	-2.204	-0.00844918	-1.55984	0	0	0	0	-0	0	0	0	-0.1265	0	-0	0	0	0	0	0	-0	0	0.105	0.015	0	0	-0	0	0	0.098	0.1	0	-0	0	0	0	0	0	-0	0	0.05595	0	0	0	-0	0	0	0	0	0	-0	0	579.149	573.33	335.215	218.191	0.00345918	-1.56662	0.0183277	-0.0115663	5.67154
94	0.0190959	0.0186826	0.0173423	0.0477656	0.000463243	0.0332229	0.0251903	-0.0300253	0.00384728	-0.0110401	-0.0638375	0.0259391	0.0487491	-0.00139758	0.0231235	-2.2025	-0.00895678	-1.56037	0	0	0	0	-0	0	0	0	-0.1265	0	-0	0	0	0	0	0	-0	0	0.105	0.015	0	0	-0	0	0	0.098	0.1	0	-0	0	0	0	0	0	-0	0	0.05595	0	0	0	-0	0	0	0	0	0	-0	0	579.219	573.375	335.631	218.372	0.00014111	-1.54599	0.0185839	-0.0114625	5.61828
95	0.0250063	0.0186657	0.017348	0.0477659	0.000476502	0.0332287	0.025191	-0.0300223	0.00384526	-0.0123906	-0.0728001	0.0327011	0.0486066	-0.00139798	0.0234148	-2.19683	-0.00938543	-1.5608	0	0	0	0	-0	0	0	0	-0.1265	0	-0	0	0	0	0	0	-0	0	0.105	0.015	0	0	-0	0	0	0.098	0.1	0	-0	0	0	0	0	0	-0	0	0.05595	0	0	0	-0	0	0	0	0	0	-0	0	579.278	573.407	335.951	218.508	-0.0026774	-1.52779	0.0187878	-0.0113691	5.57365
96	0.0254254	0.0186853	0.0173464	0.047734	0.000465625	0.0332152	0.0251889	-0.0300211	0.00384287	-0.0161238	-0.0761266	0.033514	0.0485928	-0.00139752	0.0234391	-2.19651	-0.00955361	-1.561	0	0	0	0	-0	0	0	0	-0.1265	0	-0	0	0	0	0	0	-0	0	0.105	0.015	0	0	-0	0	0	0.098	0.1	0	-0	0	0	0	0	0	-0	0	0.05595	0	0	0	-0	0	0	0	0	0	-0	0	579.301	573.418	336.084	218.565	-0.00391058	-1.52	0.0189256	-0.0113288	5.55022
97	0.0347741	0.0187031	0.0173477	0.0477377	0.000455354	0.0332119	0.025188	-0.0300207	0.0038431	-0.0120773	-0.0787404	0.0321998	0.0483697	-0.00139791	0.0238975	-2.1873	-0.00986485	-1.56134	0	0	0	0	-0	0	0	0	-0.1265	0	-0	0	0	0	0	0	-0	0	0.105	0.015	0	0	-0	0	0	0.098	0.1	0	-0	0	0	0	0	0	-0	0	0.05595	0	0	0	-0	0	0	0	0	0	-0	0	579.33	573.438	336.269	218.643	-0.005378	-1.50962	0.0190452	-0.0112853	5.51889
98	0.0313075	0.0187287	0.0173472	0.0477147	0.000439612	0.0331986	0.025188	-0.03002	0.00384109	-0.00925645	-0.0889412	0.0322074	0.048448	-0.0013982	0.023734	-2.19088	-0.0100019	-1.56151	0	0	0	0	-0	0	0	0	-0.1265	0	-0	0	0	0	0	0	-0	0	0.105	0.015	0	0	-0	0	0	0.098	0.1	0	-0	0	0	0	0	0	-0	0	0.05595	0	0	0	-0	0	0	0	0	0	-0	0	579.352	573.454	336.407	218.7	-0.00656506	-1.50132	0.0191687	-0.011256	5.49055
99	0.042228	0.0187299	0.0173529	0.0477244	0.00044684	0.0332036	0.0251878	-0.0300212	0.00384163	-0.00303394	-0.0901032	0.0349131	0.048182	-0.0013992	0.0242666	-2.18037	-0.0108097	-1.56241	0	0	0	0	-0	0	0	0	-0.1265	0	-0	0	0	0	0	0	-0	0	0.105	0.015	0	0	-0	0	0	0.098	0.1	0	-0	0	0	0	0	0	-0	0	0.05595	0	0	0	-0	0	0	0	0	0	-0	0	579.423	573.533	337.03	218.943	-0.0104302	-1.46715	0.0193485	-0.0110616	5.38418
100	0.0446655	0.0187612	0.0173524	0.0476923	0.000428861	0.0331856	0.0251887	-0.0300237	0.0038404	-0.0119413	-0.0905748	0.0467212	0.0481158	-0.00139927	0.0243897	-2.17816	-0.0112005	-1.56288	0	0	0	0	-0	0	0	0	-0.1265	0	-0	0	0	0	0	0	-0	0	0.105	0.015	0	0	-0	0	0	0.098	0.1	0	-0	0	0	0	0	0	-0	0	0.05595	0	0	0	-0	0	0	0	0	0	-0	0	579.47	573.56	337.343	219.067	-0.0133621	-1.44659	0.0196003	-0.0109831	5.3207
