Stefan210/kinematic_calibration/src/kinematic_calibration/validation/experiments/experiments/impact_noise/bad_precision/larm_noise_1_pixel_rk_true/optimization_intermediate_results.csv
iteration	HeadPitch_offset	HeadYaw_offset	LElbowRoll_offset	LElbowYaw_offset	LShoulderPitch_offset	LShoulderRoll_offset	marker_transform_larm_tx	marker_transform_larm_ty	marker_transform_larm_tz	marker_transform_larm_rr	marker_transform_larm_rp	marker_transform_larm_ry	camera_transform_tx	camera_transform_ty	camera_transform_tz	camera_transform_rr	camera_transform_rp	camera_transform_ry	HeadPitch_transform_tx	HeadPitch_transform_ty	HeadPitch_transform_tz	HeadPitch_transform_rr	HeadPitch_transform_rp	HeadPitch_transform_ry	HeadYaw_transform_tx	HeadYaw_transform_ty	HeadYaw_transform_tz	HeadYaw_transform_rr	HeadYaw_transform_rp	HeadYaw_transform_ry	LElbowRoll_transform_tx	LElbowRoll_transform_ty	LElbowRoll_transform_tz	LElbowRoll_transform_rr	LElbowRoll_transform_rp	LElbowRoll_transform_ry	LElbowYaw_transform_tx	LElbowYaw_transform_ty	LElbowYaw_transform_tz	LElbowYaw_transform_rr	LElbowYaw_transform_rp	LElbowYaw_transform_ry	LShoulderPitch_transform_tx	LShoulderPitch_transform_ty	LShoulderPitch_transform_tz	LShoulderPitch_transform_rr	LShoulderPitch_transform_rp	LShoulderPitch_transform_ry	LShoulderRoll_transform_tx	LShoulderRoll_transform_ty	LShoulderRoll_transform_tz	LShoulderRoll_transform_rr	LShoulderRoll_transform_rp	LShoulderRoll_transform_ry	LWristYaw_transform_tx	LWristYaw_transform_ty	LWristYaw_transform_tz	LWristYaw_transform_rr	LWristYaw_transform_rp	LWristYaw_transform_ry	l_wrist_joint_transform_tx	l_wrist_joint_transform_ty	l_wrist_joint_transform_tz	l_wrist_joint_transform_rr	l_wrist_joint_transform_rp	l_wrist_joint_transform_ry	camera_fx	camera_fy	camera_cx	camera_cy	camera_D0	camera_D1	camera_D2	camera_D3	camera_D4	
0	0.0249164	-0.0307543	0.000853157	4.65819e-06	-0.000318322	-0.00310766	0.05071	0	0.01774	-2.26369	1.66533e-16	-1.5708	545.901	551.038	324.928	201.58	0.0255298	2.61142	-0.0636736	-0.0350419	0.213964
1	-0.0169971	0.00205486	0.0300859	0.0294941	0.0120546	0.0309156	0.0260292	-0.0302936	0.00213944	-0.000153755	-0.000442116	-0.002926	0.0552201	-0.00137646	0.0140365	-2.19454	0.00383708	-1.5338	0	0	0	0	-0	0	0	0	-0.1265	0	-0	0	0	0	0	0	-0	0	0.105	0.015	0	0	-0	0	0	0.098	0.1	0	-0	0	0	0	0	0	-0	0	0.05595	0	0	0	-0	0	0	0	0	0	-0	0	545.901	551.039	324.928	201.581	0.000323942	2.60266	-0.0853589	0.0273826	0.212143
2	-0.0166216	0.019197	0.0253766	0.0339228	0.0016936	0.0311691	0.0256427	-0.0303088	0.00256231	-0.000202658	-0.000484937	-0.00297969	0.0554641	-0.00169102	0.0146923	-2.19625	0.00179117	-1.54928	0	0	0	0	-0	0	0	0	-0.1265	0	-0	0	0	0	0	0	-0	0	0.105	0.015	0	0	-0	0	0	0.098	0.1	0	-0	0	0	0	0	0	-0	0	0.05595	0	0	0	-0	0	0	0	0	0	-0	0	545.915	551.039	324.922	201.599	-0.369686	2.2882	-0.0189507	-0.00770759	0.116664
3	-0.0165092	0.02064	0.0237808	0.0374264	-9.74753e-05	0.0307293	0.0254893	-0.0303183	0.00282745	-0.000231446	-0.000526611	-0.0029915	0.0556685	-0.00161744	0.0145048	-2.19656	0.00208806	-1.5512	0	0	0	0	-0	0	0	0	-0.1265	0	-0	0	0	0	0	0	-0	0	0.105	0.015	0	0	-0	0	0	0.098	0.1	0	-0	0	0	0	0	0	-0	0	0.05595	0	0	0	-0	0	0	0	0	0	-0	0	545.954	551.034	324.92	201.627	-0.400337	1.72489	-0.00378085	-0.0132728	-0.0768624
4	-0.0162167	0.019912	0.0228475	0.0388888	-0.000259391	0.0303862	0.0254056	-0.0302799	0.00295017	-0.000191706	-0.00052213	-0.00298138	0.0552427	-0.00158312	0.0150398	-2.1979	0.00316733	-1.55076	0	0	0	0	-0	0	0	0	-0.1265	0	-0	0	0	0	0	0	-0	0	0.105	0.015	0	0	-0	0	0	0.098	0.1	0	-0	0	0	0	0	0	-0	0	0.05595	0	0	0	-0	0	0	0	0	0	-0	0	546.037	551.016	324.923	201.657	-0.22663	0.85773	-0.00502825	-0.0138808	-0.388481
5	-0.0161665	0.0194199	0.0218664	0.0391597	-0.000125979	0.0305386	0.0253445	-0.0302212	0.00298923	-0.000206537	-0.00035232	-0.00332091	0.0546609	-0.00150036	0.0157538	-2.19935	0.00388447	-1.55071	0	0	0	0	-0	0	0	0	-0.1265	0	-0	0	0	0	0	0	-0	0	0.105	0.015	0	0	-0	0	0	0.098	0.1	0	-0	0	0	0	0	0	-0	0	0.05595	0	0	0	-0	0	0	0	0	0	-0	0	546.219	550.969	324.943	201.661	-0.0462506	0.171971	-0.00941561	-0.0137063	-0.609543
6	-0.0160367	0.01918	0.021289	0.039088	-1.10368e-05	0.0306004	0.0253097	-0.0301895	0.00299792	-7.49044e-05	-0.000469556	-0.00374598	0.0542821	-0.00143178	0.0162853	-2.20039	0.00410719	-1.55092	0	0	0	0	-0	0	0	0	-0.1265	0	-0	0	0	0	0	0	-0	0	0.105	0.015	0	0	-0	0	0	0.098	0.1	0	-0	0	0	0	0	0	-0	0	0.05595	0	0	0	-0	0	0	0	0	0	-0	0	546.704	550.844	324.96	201.652	0.0587808	-0.245915	-0.0118024	-0.0133056	-0.580924
7	-0.0163386	0.019472	0.0210555	0.0388252	-8.98645e-05	0.0305941	0.0252913	-0.0301726	0.00298975	-0.000260802	-3.98431e-05	-0.0041419	0.0539236	-0.00140884	0.0167934	-2.20171	0.00404613	-1.55139	0	0	0	0	-0	0	0	0	-0.1265	0	-0	0	0	0	0	0	-0	0	0.105	0.015	0	0	-0	0	0	0.098	0.1	0	-0	0	0	0	0	0	-0	0	0.05595	0	0	0	-0	0	0	0	0	0	-0	0	547.992	550.575	324.925	201.642	0.111083	-0.596723	-0.0100268	-0.0132575	-0.041025
8	-0.0154507	0.0198972	0.0209583	0.0386673	-0.00030894	0.0305458	0.0252784	-0.0301631	0.00299648	0.00370927	-0.00960199	-0.00409929	0.0532804	-0.00142632	0.0176676	-2.20207	0.00400757	-1.55157	0	0	0	0	-0	0	0	0	-0.1265	0	-0	0	0	0	0	0	-0	0	0.105	0.015	0	0	-0	0	0	0.098	0.1	0	-0	0	0	0	0	0	-0	0	0.05595	0	0	0	-0	0	0	0	0	0	-0	0	550.934	550.271	324.781	201.573	0.148949	-1.11426	-0.00308717	-0.0134487	1.27292
9	-0.0138723	0.0203615	0.0209213	0.0385765	-0.000535088	0.0305047	0.0252649	-0.0301631	0.00302046	-0.0128245	0.000175066	0.00166306	0.0523028	-0.00147236	0.0189384	-2.20181	0.00419188	-1.55131	0	0	0	0	-0	0	0	0	-0.1265	0	-0	0	0	0	0	0	-0	0	0.105	0.015	0	0	-0	0	0	0.098	0.1	0	-0	0	0	0	0	0	-0	0	0.05595	0	0	0	-0	0	0	0	0	0	-0	0	556.039	551.068	324.448	201.187	0.171942	-1.75383	0.00756826	-0.0138134	3.23064
10	-0.00781597	0.0207177	0.0210099	0.0385256	-0.000639364	0.0304415	0.0252772	-0.0301696	0.00302656	-0.0155169	-0.0239997	0.0223616	0.0515822	-0.00152297	0.0199725	-2.1959	0.00410539	-1.55131	0	0	0	0	-0	0	0	0	-0.1265	0	-0	0	0	0	0	0	-0	0	0.105	0.015	0	0	-0	0	0	0.098	0.1	0	-0	0	0	0	0	0	-0	0	0.05595	0	0	0	-0	0	0	0	0	0	-0	0	559.558	552.415	324.353	200.592	0.173196	-2.09371	0.0135551	-0.0139469	4.45879
11	0.0109532	0.0209261	0.0210115	0.0384247	-0.000696958	0.0304001	0.025267	-0.0301875	0.00303353	-0.0359948	-0.0286706	-0.00295396	0.0507322	-0.00154799	0.0214778	-2.1768	0.00377749	-1.55124	0	0	0	0	-0	0	0	0	-0.1265	0	-0	0	0	0	0	0	-0	0	0.105	0.015	0	0	-0	0	0	0.098	0.1	0	-0	0	0	0	0	0	-0	0	0.05595	0	0	0	-0	0	0	0	0	0	-0	0	562.76	554.743	324.288	199.799	0.16118	-2.22835	0.0164224	-0.0140266	5.16063
12	0.0263246	0.0210215	0.0209246	0.0383253	-0.000760137	0.0303487	0.0252595	-0.0301952	0.00303399	-0.0422465	-0.033904	0.0327392	0.0501235	-0.00154504	0.0225349	-2.1612	0.0033845	-1.55131	0	0	0	0	-0	0	0	0	-0.1265	0	-0	0	0	0	0	0	-0	0	0.105	0.015	0	0	-0	0	0	0.098	0.1	0	-0	0	0	0	0	0	-0	0	0.05595	0	0	0	-0	0	0	0	0	0	-0	0	564.58	556.504	324.322	199.283	0.152713	-2.25512	0.0171899	-0.0141158	5.39743
13	0.0242465	0.0209615	0.0209781	0.038293	-0.000733497	0.0302852	0.0252485	-0.0301913	0.00303974	-0.0664092	-0.0356039	0.0459057	0.0500159	-0.00156057	0.0225689	-2.16307	0.00345793	-1.55124	0	0	0	0	-0	0	0	0	-0.1265	0	-0	0	0	0	0	0	-0	0	0.105	0.015	0	0	-0	0	0	0.098	0.1	0	-0	0	0	0	0	0	-0	0	0.05595	0	0	0	-0	0	0	0	0	0	-0	0	565.752	557.798	324.347	198.94	0.142892	-2.22268	0.0170991	-0.0141609	5.43657
14	0.0284994	0.0210285	0.021064	0.038392	-0.000757033	0.0302598	0.025262	-0.0302046	0.0030465	-0.0963672	-0.0492267	0.0294255	0.0497248	-0.00159501	0.0229829	-2.15857	0.00339516	-1.5512	0	0	0	0	-0	0	0	0	-0.1265	0	-0	0	0	0	0	0	-0	0	0.105	0.015	0	0	-0	0	0	0.098	0.1	0	-0	0	0	0	0	0	-0	0	0.05595	0	0	0	-0	0	0	0	0	0	-0	0	567.275	559.594	324.377	198.523	0.131698	-2.15002	0.0164537	-0.0142776	5.35287
15	0.0342305	0.0210282	0.0210252	0.038395	-0.000721726	0.0302735	0.0252531	-0.03019	0.00303197	-0.0638548	-0.0943701	0.0465237	0.049355	-0.00160547	0.0235048	-2.15275	0.003345	-1.55113	0	0	0	0	-0	0	0	0	-0.1265	0	-0	0	0	0	0	0	-0	0	0.105	0.015	0	0	-0	0	0	0.098	0.1	0	-0	0	0	0	0	0	-0	0	0.05595	0	0	0	-0	0	0	0	0	0	-0	0	569.623	562.747	324.377	198.042	0.103234	-1.92182	0.0147866	-0.0142495	4.90898
16	0.0446079	0.0209968	0.0209893	0.0383099	-0.000716252	0.0302689	0.0252473	-0.0301834	0.00304379	-0.0599402	-0.122704	0.0358971	0.0489905	-0.00160336	0.0241286	-2.14244	0.00316732	-1.55107	0	0	0	0	-0	0	0	0	-0.1265	0	-0	0	0	0	0	0	-0	0	0.105	0.015	0	0	-0	0	0	0.098	0.1	0	-0	0	0	0	0	0	-0	0	0.05595	0	0	0	-0	0	0	0	0	0	-0	0	570.621	564.296	324.387	197.878	0.0971583	-1.84482	0.0135969	-0.014238	4.73993
17	0.0548729	0.0208975	0.021085	0.0383359	-0.000664673	0.0302947	0.0252508	-0.0301867	0.00304528	-0.0508124	-0.116382	0.0269593	0.0486858	-0.00161893	0.0246789	-2.1322	0.00301971	-1.55084	0	0	0	0	-0	0	0	0	-0.1265	0	-0	0	0	0	0	0	-0	0	0.105	0.015	0	0	-0	0	0	0.098	0.1	0	-0	0	0	0	0	0	-0	0	0.05595	0	0	0	-0	0	0	0	0	0	-0	0	571.056	564.94	324.383	197.817	0.097041	-1.8196	0.0127842	-0.0142676	4.69449
18	0.0429259	0.0209661	0.0210382	0.038357	-0.000678785	0.0303098	0.0252463	-0.030186	0.00304639	-0.0463998	-0.105215	0.0303427	0.048831	-0.00162533	0.0242355	-2.14449	0.00336624	-1.55078	0	0	0	0	-0	0	0	0	-0.1265	0	-0	0	0	0	0	0	-0	0	0.105	0.015	0	0	-0	0	0	0.098	0.1	0	-0	0	0	0	0	0	-0	0	0.05595	0	0	0	-0	0	0	0	0	0	-0	0	572.471	567.008	324.286	197.751	0.0831995	-1.68993	0.0114444	-0.0143055	4.42584
19	0.0399266	0.0209509	0.0210427	0.0383655	-0.000654023	0.0303041	0.0252466	-0.0301888	0.00304535	-0.0495213	-0.10318	0.0168602	0.0488577	-0.00162877	0.024126	-2.14759	0.00347529	-1.55072	0	0	0	0	-0	0	0	0	-0.1265	0	-0	0	0	0	0	0	-0	0	0.105	0.015	0	0	-0	0	0	0.098	0.1	0	-0	0	0	0	0	0	-0	0	0.05595	0	0	0	-0	0	0	0	0	0	-0	0	572.854	567.561	324.251	197.747	0.0804058	-1.65927	0.0110207	-0.0143144	4.36825
20	0.0389049	0.0209624	0.0210255	0.0383747	-0.000644021	0.0303026	0.0252437	-0.0301974	0.00304913	-0.075311	-0.103314	0.0243873	0.0488341	-0.00163054	0.0241195	-2.14879	0.00356843	-1.55065	0	0	0	0	-0	0	0	0	-0.1265	0	-0	0	0	0	0	0	-0	0	0.105	0.015	0	0	-0	0	0	0.098	0.1	0	-0	0	0	0	0	0	-0	0	0.05595	0	0	0	-0	0	0	0	0	0	-0	0	573.341	568.247	324.19	197.766	0.0746563	-1.61219	0.0106582	-0.0143279	4.27899
21	0.0414817	0.0209759	0.0210071	0.0384095	-0.000633323	0.030301	0.0252446	-0.030191	0.00304984	-0.0703217	-0.0928761	0.0213273	0.0487259	-0.00163292	0.0242885	-2.14644	0.00359634	-1.55054	0	0	0	0	-0	0	0	0	-0.1265	0	-0	0	0	0	0	0	-0	0	0.105	0.015	0	0	-0	0	0	0.098	0.1	0	-0	0	0	0	0	0	-0	0	0.05595	0	0	0	-0	0	0	0	0	0	-0	0	573.843	568.916	324.116	197.812	0.0675545	-1.55771	0.0103916	-0.0143649	4.17303
22	0.0371928	0.0209759	0.0210004	0.0383985	-0.000626547	0.0302971	0.0252442	-0.0301898	0.00304913	-0.0745597	-0.104985	0.0181108	0.0488099	-0.00163271	0.0240954	-2.15081	0.00371876	-1.55052	0	0	0	0	-0	0	0	0	-0.1265	0	-0	0	0	0	0	0	-0	0	0.105	0.015	0	0	-0	0	0	0.098	0.1	0	-0	0	0	0	0	0	-0	0	0.05595	0	0	0	-0	0	0	0	0	0	-0	0	574.037	569.19	324.087	197.834	0.0651301	-1.53712	0.010255	-0.0143619	4.13379
23	0.0441545	0.02099	0.0209868	0.0383982	-0.000624303	0.0302957	0.0252418	-0.0301913	0.00304935	-0.08355	-0.105842	0.0286296	0.0486093	-0.00163357	0.0244648	-2.14406	0.00364756	-1.55043	0	0	0	0	-0	0	0	0	-0.1265	0	-0	0	0	0	0	0	-0	0	0.105	0.015	0	0	-0	0	0	0.098	0.1	0	-0	0	0	0	0	0	-0	0	0.05595	0	0	0	-0	0	0	0	0	0	-0	0	574.403	569.7	324.025	197.895	0.0599351	-1.49586	0.0100353	-0.0143794	4.05266
24	0.0509634	0.0210076	0.0209668	0.0384031	-0.000627594	0.0302912	0.0252417	-0.0301932	0.00304904	-0.0846851	-0.109228	0.0122906	0.0484132	-0.0016332	0.024821	-2.13746	0.00356683	-1.55034	0	0	0	0	-0	0	0	0	-0.1265	0	-0	0	0	0	0	0	-0	0	0.105	0.015	0	0	-0	0	0	0.098	0.1	0	-0	0	0	0	0	0	-0	0	0.05595	0	0	0	-0	0	0	0	0	0	-0	0	574.715	570.142	323.966	197.96	0.0555097	-1.46036	0.0098578	-0.0144051	3.98023
25	0.054024	0.0210159	0.0209408	0.0384036	-0.000620453	0.0302888	0.0252405	-0.0301959	0.00304791	-0.0746733	-0.102555	0.0265811	0.0482918	-0.00163327	0.0250078	-2.13487	0.00365817	-1.55015	0	0	0	0	-0	0	0	0	-0.1265	0	-0	0	0	0	0	0	-0	0	0.105	0.015	0	0	-0	0	0	0.098	0.1	0	-0	0	0	0	0	0	-0	0	0.05595	0	0	0	-0	0	0	0	0	0	-0	0	575.301	570.972	323.827	198.14	0.0459217	-1.38375	0.00951018	-0.0144539	3.82288
26	0.0565827	0.021044	0.0209167	0.0384143	-0.000618953	0.03029	0.0252276	-0.0302175	0.00305429	-0.121894	-0.0884608	0.0331696	0.0481786	-0.00163483	0.0251744	-2.13304	0.00383412	-1.54988	0	0	0	0	-0	0	0	0	-0.1265	0	-0	0	0	0	0	0	-0	0	0.105	0.015	0	0	-0	0	0	0.098	0.1	0	-0	0	0	0	0	0	-0	0	0.05595	0	0	0	-0	0	0	0	0	0	-0	0	575.995	571.946	323.614	198.456	0.0341332	-1.29024	0.00915108	-0.0145389	3.63135
27	0.070112	0.0210874	0.020879	0.0385046	-0.000627453	0.0302749	0.0252367	-0.0302025	0.00305653	-0.107282	-0.0754465	0.027752	0.0478002	-0.00163678	0.0258618	-2.11991	0.00363336	-1.54971	0	0	0	0	-0	0	0	0	-0.1265	0	-0	0	0	0	0	0	-0	0	0.105	0.015	0	0	-0	0	0	0.098	0.1	0	-0	0	0	0	0	0	-0	0	0.05595	0	0	0	-0	0	0	0	0	0	-0	0	576.365	572.388	323.504	198.621	0.0289931	-1.25196	0.00912512	-0.014638	3.55028
28	0.0692604	0.0210703	0.0208805	0.0384348	-0.00062784	0.0302791	0.0252308	-0.0301937	0.003049	-0.111737	-0.0718567	0.0228403	0.0478182	-0.00163291	0.0258168	-2.12082	0.00368604	-1.54968	0	0	0	0	-0	0	0	0	-0.1265	0	-0	0	0	0	0	0	-0	0	0.105	0.015	0	0	-0	0	0	0.098	0.1	0	-0	0	0	0	0	0	-0	0	0.05595	0	0	0	-0	0	0	0	0	0	-0	0	576.416	572.489	323.483	198.655	0.0278125	-1.24167	0.00905908	-0.0146029	3.53196
29	0.0733579	0.0210989	0.0208707	0.0384414	-0.000634353	0.030267	0.0252326	-0.0301921	0.00304999	-0.107473	-0.0576515	0.0270085	0.04769	-0.0016352	0.0260288	-2.11703	0.0036818	-1.54958	0	0	0	0	-0	0	0	0	-0.1265	0	-0	0	0	0	0	0	-0	0	0.105	0.015	0	0	-0	0	0	0.098	0.1	0	-0	0	0	0	0	0	-0	0	0.05595	0	0	0	-0	0	0	0	0	0	-0	0	576.645	572.84	323.402	198.798	0.0249617	-1.21508	0.00888071	-0.0146381	3.47667
30	0.0869234	0.0211134	0.0208701	0.0384431	-0.000629817	0.0302715	0.0252305	-0.0301941	0.00305207	-0.0942958	-0.064648	0.0162916	0.0473165	-0.00163741	0.0266905	-2.10392	0.00352805	-1.54937	0	0	0	0	-0	0	0	0	-0.1265	0	-0	0	0	0	0	0	-0	0	0.105	0.015	0	0	-0	0	0	0.098	0.1	0	-0	0	0	0	0	0	-0	0	0.05595	0	0	0	-0	0	0	0	0	0	-0	0	576.95	573.276	323.277	199.02	0.0199778	-1.17458	0.00869871	-0.0146776	3.39857
31	0.0808065	0.0211244	0.0208549	0.0384431	-0.000635663	0.0302688	0.0252277	-0.030191	0.0030493	-0.0936584	-0.0674256	0.0155643	0.0474692	-0.00163516	0.0264039	-2.1101	0.00366528	-1.54939	0	0	0	0	-0	0	0	0	-0.1265	0	-0	0	0	0	0	0	-0	0	0.105	0.015	0	0	-0	0	0	0.098	0.1	0	-0	0	0	0	0	0	-0	0	0.05595	0	0	0	-0	0	0	0	0	0	-0	0	576.989	573.339	323.26	199.05	0.019806	-1.17153	0.00868428	-0.0146863	3.38905
32	0.0822762	0.0211415	0.0208454	0.0384528	-0.000641354	0.0302613	0.0252267	-0.0301927	0.00304792	-0.105446	-0.0650511	0.0092183	0.0474149	-0.00163653	0.0264838	-2.10888	0.00370414	-1.5493	0	0	0	0	-0	0	0	0	-0.1265	0	-0	0	0	0	0	0	-0	0	0.105	0.015	0	0	-0	0	0	0.098	0.1	0	-0	0	0	0	0	0	-0	0	0.05595	0	0	0	-0	0	0	0	0	0	-0	0	577.148	573.573	323.191	199.175	0.017835	-1.15446	0.00858675	-0.0147176	3.35565
33	0.0849719	0.0211465	0.0208419	0.0384569	-0.000642092	0.0302581	0.0252268	-0.0301909	0.00304893	-0.107157	-0.0722695	0.00762644	0.0473373	-0.00163698	0.0266156	-2.10631	0.00368354	-1.54925	0	0	0	0	-0	0	0	0	-0.1265	0	-0	0	0	0	0	0	-0	0	0.105	0.015	0	0	-0	0	0	0.098	0.1	0	-0	0	0	0	0	0	-0	0	0.05595	0	0	0	-0	0	0	0	0	0	-0	0	577.224	573.689	323.155	199.237	0.0168387	-1.14562	0.00852575	-0.0147289	3.33878
34	0.0825846	0.0211488	0.0208452	0.0384593	-0.000639346	0.0302582	0.0252268	-0.0301907	0.00304912	-0.110212	-0.0744544	0.0098375	0.0473981	-0.00163786	0.0265038	-2.10875	0.00375114	-1.54924	0	0	0	0	-0	0	0	0	-0.1265	0	-0	0	0	0	0	0	-0	0	0.105	0.015	0	0	-0	0	0	0.098	0.1	0	-0	0	0	0	0	0	-0	0	0.05595	0	0	0	-0	0	0	0	0	0	-0	0	577.256	573.734	323.141	199.263	0.016452	-1.14181	0.00849122	-0.0147296	3.33249
35	0.0899778	0.0211553	0.0208423	0.0384645	-0.000639345	0.0302584	0.0252268	-0.030191	0.00304948	-0.104871	-0.0716987	0.00784486	0.0471965	-0.00163828	0.0268583	-2.10146	0.00362132	-1.54918	0	0	0	0	-0	0	0	0	-0.1265	0	-0	0	0	0	0	0	-0	0	0.105	0.015	0	0	-0	0	0	0.098	0.1	0	-0	0	0	0	0	0	-0	0	0.05595	0	0	0	-0	0	0	0	0	0	-0	0	577.32	573.823	323.111	199.315	0.0156213	-1.13476	0.00845916	-0.0147413	3.31872
36	0.0866918	0.0211611	0.0208345	0.0384639	-0.000642208	0.0302587	0.0252264	-0.0301916	0.00304989	-0.10937	-0.0698968	0.0164097	0.0472776	-0.00163771	0.0267075	-2.10491	0.00373668	-1.54914	0	0	0	0	-0	0	0	0	-0.1265	0	-0	0	0	0	0	0	-0	0	0.105	0.015	0	0	-0	0	0	0.098	0.1	0	-0	0	0	0	0	0	-0	0	0.05595	0	0	0	-0	0	0	0	0	0	-0	0	577.405	573.947	323.066	199.394	0.0143824	-1.1247	0.00842413	-0.0147593	3.29839
37	0.0922528	0.0211615	0.0208379	0.0384682	-0.000638499	0.0302593	0.0252264	-0.0301909	0.00304975	-0.111657	-0.070955	0.0190867	0.0471264	-0.00163866	0.0269718	-2.09942	0.00364047	-1.54908	0	0	0	0	-0	0	0	0	-0.1265	0	-0	0	0	0	0	0	-0	0	0.105	0.015	0	0	-0	0	0	0.098	0.1	0	-0	0	0	0	0	0	-0	0	0.05595	0	0	0	-0	0	0	0	0	0	-0	0	577.45	574.008	323.044	199.434	0.0136909	-1.11924	0.00839189	-0.0147657	3.28957
38	0.0902632	0.0211692	0.0208306	0.0384711	-0.000640618	0.0302587	0.0252274	-0.0301924	0.00304987	-0.103538	-0.0628815	0.0214552	0.0471721	-0.00163856	0.0268834	-2.10159	0.00373361	-1.54903	0	0	0	0	-0	0	0	0	-0.1265	0	-0	0	0	0	0	0	-0	0	0.105	0.015	0	0	-0	0	0	0.098	0.1	0	-0	0	0	0	0	0	-0	0	0.05595	0	0	0	-0	0	0	0	0	0	-0	0	577.542	574.139	322.994	199.522	0.0124793	-1.10933	0.0083543	-0.0147868	3.27026
39	0.0951076	0.0211649	0.0208368	0.0384703	-0.000634298	0.0302627	0.0252269	-0.0301918	0.00304991	-0.100312	-0.0619759	0.0159097	0.0470411	-0.00163917	0.0271119	-2.09683	0.00365823	-1.54897	0	0	0	0	-0	0	0	0	-0.1265	0	-0	0	0	0	0	0	-0	0	0.105	0.015	0	0	-0	0	0	0.098	0.1	0	-0	0	0	0	0	0	-0	0	0.05595	0	0	0	-0	0	0	0	0	0	-0	0	577.586	574.202	322.968	199.566	0.0115981	-1.10248	0.00831621	-0.014789	3.25911
40	0.0987863	0.0211777	0.0208254	0.038478	-0.000636756	0.0302619	0.0252282	-0.0301904	0.00304997	-0.0975208	-0.0785814	0.0173738	0.046929	-0.00163944	0.027294	-2.09353	0.00368982	-1.54881	0	0	0	0	-0	0	0	0	-0.1265	0	-0	0	0	0	0	0	-0	0	0.105	0.015	0	0	-0	0	0	0.098	0.1	0	-0	0	0	0	0	0	-0	0	0.05595	0	0	0	-0	0	0	0	0	0	-0	0	577.764	574.448	322.855	199.76	0.00887012	-1.08101	0.00826757	-0.0148403	3.21673
41	0.0998593	0.0211738	0.0208329	0.0384729	-0.000629897	0.030266	0.0252265	-0.0301911	0.00304983	-0.0983572	-0.0786198	0.0211812	0.0468991	-0.00163957	0.0273434	-2.0925	0.0036856	-1.54879	0	0	0	0	-0	0	0	0	-0.1265	0	-0	0	0	0	0	0	-0	0	0.105	0.015	0	0	-0	0	0	0.098	0.1	0	-0	0	0	0	0	0	-0	0	0.05595	0	0	0	-0	0	0	0	0	0	-0	0	577.786	574.483	322.84	199.787	0.00858026	-1.07748	0.00822063	-0.0148315	3.21187
42	0.100813	0.0211801	0.0208271	0.0384803	-0.000631601	0.0302624	0.0252266	-0.0301915	0.00304989	-0.0958606	-0.072753	0.0162625	0.0468692	-0.00163988	0.0273906	-2.09162	0.00368302	-1.54876	0	0	0	0	-0	0	0	0	-0.1265	0	-0	0	0	0	0	0	-0	0	0.105	0.015	0	0	-0	0	0	0.098	0.1	0	-0	0	0	0	0	0	-0	0	0.05595	0	0	0	-0	0	0	0	0	0	-0	0	577.817	574.53	322.819	199.823	0.00832461	-1.07457	0.00820405	-0.014844	3.20471
43	0.102078	0.0211842	0.0208234	0.0384839	-0.000632127	0.0302625	0.0252248	-0.0301936	0.00305054	-0.110657	-0.0688553	0.0171957	0.0468308	-0.00164006	0.0274526	-2.09051	0.00370287	-1.54869	0	0	0	0	-0	0	0	0	-0.1265	0	-0	0	0	0	0	0	-0	0	0.105	0.015	0	0	-0	0	0	0.098	0.1	0	-0	0	0	0	0	0	-0	0	0.05595	0	0	0	-0	0	0	0	0	0	-0	0	577.885	574.631	322.771	199.904	0.00730296	-1.06605	0.00816533	-0.0148624	3.18829
44	0.103985	0.0211932	0.0208136	0.0384964	-0.000635297	0.0302591	0.0252224	-0.0301971	0.00305024	-0.133749	-0.0591377	0.0146099	0.0467711	-0.0016404	0.0275477	-2.08883	0.00372845	-1.54859	0	0	0	0	-0	0	0	0	-0.1265	0	-0	0	0	0	0	0	-0	0	0.105	0.015	0	0	-0	0	0	0.098	0.1	0	-0	0	0	0	0	0	-0	0	0.05595	0	0	0	-0	0	0	0	0	0	-0	0	577.985	574.767	322.7	200.022	0.00598789	-1.05588	0.00814099	-0.0148988	3.169
45	0.103495	0.0211987	0.0208013	0.0385101	-0.000640773	0.0302536	0.0252238	-0.0301937	0.00305209	-0.140254	-0.0591617	0.0228464	0.0467801	-0.00163976	0.0275283	-2.08944	0.00377012	-1.54855	0	0	0	0	-0	0	0	0	-0.1265	0	-0	0	0	0	0	0	-0	0	0.105	0.015	0	0	-0	0	0	0.098	0.1	0	-0	0	0	0	0	0	-0	0	0.05595	0	0	0	-0	0	0	0	0	0	-0	0	578.03	574.836	322.663	200.081	0.00555279	-1.05168	0.00812515	-0.0149203	3.15867
46	0.109636	0.021198	0.0208071	0.0385064	-0.000636381	0.0302564	0.0252256	-0.0301922	0.0030523	-0.138974	-0.0502585	0.0277669	0.0466096	-0.00164066	0.0278163	-2.08343	0.00368077	-1.54847	0	0	0	0	-0	0	0	0	-0.1265	0	-0	0	0	0	0	0	-0	0	0.105	0.015	0	0	-0	0	0	0.098	0.1	0	-0	0	0	0	0	0	-0	0	0.05595	0	0	0	-0	0	0	0	0	0	-0	0	578.083	574.911	322.62	200.15	0.00471465	-1.04503	0.00808261	-0.0149281	3.14946
47	0.10916	0.0211958	0.0208121	0.0385	-0.00063128	0.0302618	0.0252249	-0.0301914	0.0030513	-0.140278	-0.0467054	0.026122	0.0466224	-0.00164038	0.027793	-2.08393	0.00370267	-1.54846	0	0	0	0	-0	0	0	0	-0.1265	0	-0	0	0	0	0	0	-0	0	0.105	0.015	0	0	-0	0	0	0.098	0.1	0	-0	0	0	0	0	0	-0	0	0.05595	0	0	0	-0	0	0	0	0	0	-0	0	578.093	574.927	322.612	200.165	0.00457386	-1.04324	0.00805968	-0.0149209	3.14712
48	0.108922	0.0211993	0.0208102	0.0385007	-0.000631636	0.03026	0.0252245	-0.0301911	0.00305111	-0.14298	-0.0419642	0.025589	0.0466266	-0.00164066	0.027783	-2.08422	0.00372614	-1.54844	0	0	0	0	-0	0	0	0	-0.1265	0	-0	0	0	0	0	0	-0	0	0.105	0.015	0	0	-0	0	0	0.098	0.1	0	-0	0	0	0	0	0	-0	0	0.05595	0	0	0	-0	0	0	0	0	0	-0	0	578.114	574.958	322.594	200.194	0.0043942	-1.04108	0.00804629	-0.0149285	3.14231
49	0.109094	0.0212017	0.0208087	0.0385016	-0.000632479	0.0302587	0.0252243	-0.0301913	0.00305105	-0.139772	-0.0410432	0.0270378	0.0466205	-0.00164082	0.0277918	-2.08408	0.00373108	-1.54843	0	0	0	0	-0	0	0	0	-0.1265	0	-0	0	0	0	0	0	-0	0	0.105	0.015	0	0	-0	0	0	0.098	0.1	0	-0	0	0	0	0	0	-0	0	0.05595	0	0	0	-0	0	0	0	0	0	-0	0	578.124	574.975	322.584	200.209	0.00435279	-1.04016	0.00803559	-0.0149319	3.14018
50	0.109349	0.0212029	0.0208077	0.0385025	-0.000632876	0.0302583	0.0252242	-0.0301912	0.0030511	-0.140646	-0.0413314	0.0297944	0.0466126	-0.00164087	0.0278041	-2.08384	0.00373204	-1.54842	0	0	0	0	-0	0	0	0	-0.1265	0	-0	0	0	0	0	0	-0	0	0.105	0.015	0	0	-0	0	0	0.098	0.1	0	-0	0	0	0	0	0	-0	0	0.05595	0	0	0	-0	0	0	0	0	0	-0	0	578.132	574.987	322.578	200.22	0.00429733	-1.03949	0.00802878	-0.0149343	3.13893
51	0.110763	0.0212043	0.0208067	0.0385038	-0.000633054	0.0302582	0.0252245	-0.030191	0.00305096	-0.139951	-0.0471145	0.0322235	0.0465723	-0.00164096	0.0278707	-2.08248	0.00371566	-1.54839	0	0	0	0	-0	0	0	0	-0.1265	0	-0	0	0	0	0	0	-0	0	0.105	0.015	0	0	-0	0	0	0.098	0.1	0	-0	0	0	0	0	0	-0	0	0.05595	0	0	0	-0	0	0	0	0	0	-0	0	578.15	575.014	322.562	200.245	0.00405303	-1.03744	0.00801858	-0.0149403	3.13526
52	0.11333	0.0212048	0.0208063	0.0385035	-0.000632538	0.030259	0.0252241	-0.030191	0.00305098	-0.13725	-0.0510352	0.0332754	0.0464997	-0.00164093	0.0279908	-2.07998	0.00368182	-1.54835	0	0	0	0	-0	0	0	0	-0.1265	0	-0	0	0	0	0	0	-0	0	0.105	0.015	0	0	-0	0	0	0.098	0.1	0	-0	0	0	0	0	0	-0	0	0.05595	0	0	0	-0	0	0	0	0	0	-0	0	578.175	575.053	322.539	200.282	0.00367675	-1.0343	0.00800164	-0.0149476	3.12976
53	0.114159	0.021206	0.0208044	0.0385042	-0.000633117	0.0302581	0.0252242	-0.0301911	0.00305128	-0.137553	-0.046309	0.0358481	0.0464753	-0.00164089	0.0280299	-2.07918	0.00367417	-1.54833	0	0	0	0	-0	0	0	0	-0.1265	0	-0	0	0	0	0	0	-0	0	0.105	0.015	0	0	-0	0	0	0.098	0.1	0	-0	0	0	0	0	0	-0	0	0.05595	0	0	0	-0	0	0	0	0	0	-0	0	578.188	575.072	322.527	200.3	0.00357252	-1.03316	0.00799318	-0.0149523	3.12744
54	0.116851	0.0212075	0.0208049	0.0385078	-0.000631856	0.030259	0.0252244	-0.0301912	0.00305144	-0.135628	-0.0425207	0.0352067	0.0463987	-0.00164119	0.0281557	-2.07657	0.00363955	-1.54829	0	0	0	0	-0	0	0	0	-0.1265	0	-0	0	0	0	0	0	-0	0	0.105	0.015	0	0	-0	0	0	0.098	0.1	0	-0	0	0	0	0	0	-0	0	0.05595	0	0	0	-0	0	0	0	0	0	-0	0	578.216	575.114	322.501	200.341	0.00316327	-1.02982	0.007974	-0.0149617	3.12202
55	0.113693	0.0212077	0.0208042	0.0385082	-0.00063115	0.0302596	0.025224	-0.0301912	0.00305148	-0.136871	-0.0410993	0.0369885	0.0464868	-0.00164108	0.0280094	-2.07976	0.00372381	-1.54828	0	0	0	0	-0	0	0	0	-0.1265	0	-0	0	0	0	0	0	-0	0	0.105	0.015	0	0	-0	0	0	0.098	0.1	0	-0	0	0	0	0	0	-0	0	0.05595	0	0	0	-0	0	0	0	0	0	-0	0	578.229	575.135	322.488	200.362	0.00301315	-1.02825	0.00796106	-0.0149648	3.11903
56	0.114792	0.0212089	0.0208025	0.038509	-0.000631772	0.0302589	0.0252238	-0.0301912	0.00305132	-0.140159	-0.0398721	0.0352168	0.046455	-0.00164106	0.028061	-2.07869	0.0037084	-1.54827	0	0	0	0	-0	0	0	0	-0.1265	0	-0	0	0	0	0	0	-0	0	0.105	0.015	0	0	-0	0	0	0.098	0.1	0	-0	0	0	0	0	0	-0	0	0.05595	0	0	0	-0	0	0	0	0	0	-0	0	578.239	575.15	322.479	200.377	0.00295048	-1.02747	0.00795403	-0.0149688	3.11739
57	0.114246	0.0212104	0.020801	0.0385108	-0.000632196	0.0302582	0.0252241	-0.0301914	0.00305149	-0.143782	-0.0437852	0.0342831	0.046469	-0.00164119	0.0280364	-2.0793	0.00374248	-1.54824	0	0	0	0	-0	0	0	0	-0.1265	0	-0	0	0	0	0	0	-0	0	0.105	0.015	0	0	-0	0	0	0.098	0.1	0	-0	0	0	0	0	0	-0	0	0.05595	0	0	0	-0	0	0	0	0	0	-0	0	578.262	575.184	322.456	200.411	0.002649	-1.02497	0.00794244	-0.014978	3.11294
58	0.113324	0.0212111	0.0208015	0.0385134	-0.000630466	0.0302597	0.0252238	-0.0301915	0.00305184	-0.149413	-0.0414619	0.0353872	0.0464938	-0.00164138	0.0279941	-2.08032	0.0037968	-1.5482	0	0	0	0	-0	0	0	0	-0.1265	0	-0	0	0	0	0	0	-0	0	0.105	0.015	0	0	-0	0	0	0.098	0.1	0	-0	0	0	0	0	0	-0	0	0.05595	0	0	0	-0	0	0	0	0	0	-0	0	578.294	575.232	322.423	200.461	0.00216304	-1.02108	0.00792161	-0.0149891	3.1068
59	0.118401	0.0212145	0.0207985	0.0385184	-0.000630475	0.0302593	0.0252246	-0.0301924	0.00305234	-0.147623	-0.0426073	0.0267433	0.0463489	-0.0016416	0.028232	-2.07538	0.00373021	-1.54811	0	0	0	0	-0	0	0	0	-0.1265	0	-0	0	0	0	0	0	-0	0	0.105	0.015	0	0	-0	0	0	0.098	0.1	0	-0	0	0	0	0	0	-0	0	0.05595	0	0	0	-0	0	0	0	0	0	-0	0	578.342	575.301	322.374	200.536	0.00156753	-1.01613	0.0079018	-0.0150094	3.09817
60	0.121343	0.0212124	0.0207998	0.0385176	-0.00062759	0.0302625	0.0252241	-0.0301918	0.00305217	-0.144024	-0.0412699	0.0252781	0.0462655	-0.00164127	0.0283678	-2.07251	0.00368915	-1.54806	0	0	0	0	-0	0	0	0	-0.1265	0	-0	0	0	0	0	0	-0	0	0.105	0.015	0	0	-0	0	0	0.098	0.1	0	-0	0	0	0	0	0	-0	0	0.05595	0	0	0	-0	0	0	0	0	0	-0	0	578.364	575.335	322.349	200.573	0.0012332	-1.01332	0.00788004	-0.0150135	3.09411
61	0.123993	0.021214	0.0207983	0.0385199	-0.000627568	0.0302613	0.0252239	-0.0301914	0.00305215	-0.142712	-0.0385307	0.0256364	0.0461888	-0.00164142	0.0284909	-2.06991	0.00364701	-1.54803	0	0	0	0	-0	0	0	0	-0.1265	0	-0	0	0	0	0	0	-0	0	0.105	0.015	0	0	-0	0	0	0.098	0.1	0	-0	0	0	0	0	0	-0	0	0.05595	0	0	0	-0	0	0	0	0	0	-0	0	578.38	575.361	322.33	200.6	0.00112811	-1.01184	0.0078645	-0.0150204	3.09109
62	0.12722	0.0212155	0.0207972	0.0385213	-0.000627861	0.0302604	0.0252238	-0.0301913	0.00305203	-0.143372	-0.0354881	0.0233856	0.0460956	-0.00164154	0.0286403	-2.06672	0.00358714	-1.548	0	0	0	0	-0	0	0	0	-0.1265	0	-0	0	0	0	0	0	-0	0	0.105	0.015	0	0	-0	0	0	0.098	0.1	0	-0	0	0	0	0	0	-0	0	0.05595	0	0	0	-0	0	0	0	0	0	-0	0	578.392	575.38	322.316	200.621	0.0010764	-1.01095	0.00785111	-0.015025	3.08959
63	0.127271	0.0212162	0.0207959	0.0385217	-0.000628369	0.0302598	0.0252236	-0.0301914	0.00305207	-0.145525	-0.0373532	0.0212023	0.0460933	-0.0016415	0.0286428	-2.0667	0.00359608	-1.54799	0	0	0	0	-0	0	0	0	-0.1265	0	-0	0	0	0	0	0	-0	0	0.105	0.015	0	0	-0	0	0	0.098	0.1	0	-0	0	0	0	0	0	-0	0	0.05595	0	0	0	-0	0	0	0	0	0	-0	0	578.4	575.395	322.306	200.636	0.00101527	-1.01014	0.00784246	-0.0150284	3.08796
64	0.126977	0.0212175	0.0207957	0.0385246	-0.000627831	0.0302599	0.0252235	-0.0301919	0.00305243	-0.138743	-0.0384085	0.020132	0.0461008	-0.00164175	0.0286298	-2.06706	0.0036261	-1.54795	0	0	0	0	-0	0	0	0	-0.1265	0	-0	0	0	0	0	0	-0	0	0.105	0.015	0	0	-0	0	0	0.098	0.1	0	-0	0	0	0	0	0	-0	0	0.05595	0	0	0	-0	0	0	0	0	0	-0	0	578.42	575.425	322.282	200.67	0.00078909	-1.00828	0.00782773	-0.0150373	3.08563
65	0.125755	0.0212184	0.0207952	0.0385285	-0.000627135	0.0302599	0.0252241	-0.030192	0.0030525	-0.137875	-0.0365029	0.0140916	0.0461352	-0.00164189	0.0285736	-2.06831	0.00366524	-1.54794	0	0	0	0	-0	0	0	0	-0.1265	0	-0	0	0	0	0	0	-0	0	0.105	0.015	0	0	-0	0	0	0.098	0.1	0	-0	0	0	0	0	0	-0	0	0.05595	0	0	0	-0	0	0	0	0	0	-0	0	578.43	575.44	322.27	200.687	0.000730326	-1.00748	0.00781629	-0.0150416	3.08425
66	0.130887	0.0212178	0.0207961	0.0385292	-0.000625431	0.0302617	0.0252239	-0.0301916	0.00305288	-0.139288	-0.0328707	0.0170006	0.0459884	-0.00164188	0.0288104	-2.06325	0.0035752	-1.54789	0	0	0	0	-0	0	0	0	-0.1265	0	-0	0	0	0	0	0	-0	0	0.105	0.015	0	0	-0	0	0	0.098	0.1	0	-0	0	0	0	0	0	-0	0	0.05595	0	0	0	-0	0	0	0	0	0	-0	0	578.452	575.473	322.243	200.725	0.000358038	-1.0045	0.00780234	-0.0150493	3.07954
67	0.133664	0.0212185	0.0207941	0.0385294	-0.000626031	0.0302613	0.0252235	-0.0301914	0.00305264	-0.139356	-0.0314315	0.0164075	0.045907	-0.00164165	0.0289382	-2.06051	0.00352373	-1.54786	0	0	0	0	-0	0	0	0	-0.1265	0	-0	0	0	0	0	0	-0	0	0.105	0.015	0	0	-0	0	0	0.098	0.1	0	-0	0	0	0	0	0	-0	0	0.05595	0	0	0	-0	0	0	0	0	0	-0	0	578.462	575.49	322.23	200.744	0.000304888	-1.0037	0.00779528	-0.0150541	3.07772
68	0.133365	0.0212195	0.020793	0.0385307	-0.000626516	0.03026	0.0252236	-0.0301914	0.00305274	-0.138538	-0.028083	0.018865	0.0459147	-0.00164179	0.0289247	-2.06083	0.0035401	-1.54785	0	0	0	0	-0	0	0	0	-0.1265	0	-0	0	0	0	0	0	-0	0	0.105	0.015	0	0	-0	0	0	0.098	0.1	0	-0	0	0	0	0	0	-0	0	0.05595	0	0	0	-0	0	0	0	0	0	-0	0	578.469	575.502	322.22	200.758	0.000277962	-1.00311	0.00778654	-0.015058	3.07655
69	0.135194	0.0212204	0.0207936	0.038533	-0.000625329	0.0302607	0.0252237	-0.0301916	0.00305273	-0.140309	-0.0273072	0.0153433	0.0458614	-0.00164205	0.0290087	-2.05906	0.00352049	-1.54781	0	0	0	0	-0	0	0	0	-0.1265	0	-0	0	0	0	0	0	-0	0	0.105	0.015	0	0	-0	0	0	0.098	0.1	0	-0	0	0	0	0	0	-0	0	0.05595	0	0	0	-0	0	0	0	0	0	-0	0	578.486	575.528	322.197	200.79	3.37135e-05	-1.001	0.00777255	-0.0150658	3.07331
70	0.1347	0.0212212	0.0207923	0.0385354	-0.000624974	0.0302609	0.0252241	-0.0301922	0.00305294	-0.14126	-0.0282493	0.00819495	0.0458747	-0.00164207	0.0289864	-2.05964	0.00356462	-1.54776	0	0	0	0	-0	0	0	0	-0.1265	0	-0	0	0	0	0	0	-0	0	0.105	0.015	0	0	-0	0	0	0.098	0.1	0	-0	0	0	0	0	0	-0	0	0.05595	0	0	0	-0	0	0	0	0	0	-0	0	578.511	575.565	322.163	200.836	-0.000263214	-0.998457	0.00775844	-0.0150783	3.0693
71	0.137051	0.021221	0.0207933	0.0385392	-0.000622282	0.0302631	0.0252233	-0.0301926	0.00305371	-0.131028	-0.0338579	0.00678419	0.045806	-0.00164225	0.0290944	-2.05741	0.00356058	-1.54768	0	0	0	0	-0	0	0	0	-0.1265	0	-0	0	0	0	0	0	-0	0	0.105	0.015	0	0	-0	0	0	0.098	0.1	0	-0	0	0	0	0	0	-0	0	0.05595	0	0	0	-0	0	0	0	0	0	-0	0	578.548	575.62	322.112	200.905	-0.000823806	-0.993856	0.00773401	-0.0150953	3.06218
72	0.139044	0.0212236	0.0207901	0.0385465	-0.00062243	0.0302614	0.025224	-0.0301928	0.00305418	-0.12563	-0.0331715	0.000730374	0.0457464	-0.00164241	0.0291864	-2.05548	0.00353706	-1.54764	0	0	0	0	-0	0	0	0	-0.1265	0	-0	0	0	0	0	0	-0	0	0.105	0.015	0	0	-0	0	0	0.098	0.1	0	-0	0	0	0	0	0	-0	0	0.05595	0	0	0	-0	0	0	0	0	0	-0	0	578.565	575.647	322.086	200.939	-0.000866549	-0.992706	0.00771748	-0.0151065	3.05957
73	0.139228	0.021222	0.0207927	0.038548	-0.00061971	0.0302638	0.0252239	-0.030192	0.00305411	-0.126696	-0.0319276	0.00273364	0.0457414	-0.00164249	0.0291944	-2.05531	0.00353905	-1.54763	0	0	0	0	-0	0	0	0	-0.1265	0	-0	0	0	0	0	0	-0	0	0.105	0.015	0	0	-0	0	0	0.098	0.1	0	-0	0	0	0	0	0	-0	0	0.05595	0	0	0	-0	0	0	0	0	0	-0	0	578.568	575.652	322.081	200.946	-0.00090358	-0.99203	0.00770269	-0.0151037	3.05897
74	0.138262	0.0212232	0.0207917	0.0385483	-0.000619822	0.0302633	0.0252239	-0.0301918	0.00305396	-0.128167	-0.0345296	0.0021066	0.0457688	-0.00164252	0.0291504	-2.0563	0.00357206	-1.54762	0	0	0	0	-0	0	0	0	-0.1265	0	-0	0	0	0	0	0	-0	0	0.105	0.015	0	0	-0	0	0	0.098	0.1	0	-0	0	0	0	0	0	-0	0	0.05595	0	0	0	-0	0	0	0	0	0	-0	0	578.575	575.664	322.07	200.96	-0.00091991	-0.991474	0.00769604	-0.0151072	3.0577
75	0.140946	0.021224	0.0207909	0.0385485	-0.000620062	0.030263	0.0252237	-0.0301916	0.00305383	-0.129931	-0.0309627	0.00136797	0.0456901	-0.00164254	0.0292734	-2.05366	0.00352563	-1.54759	0	0	0	0	-0	0	0	0	-0.1265	0	-0	0	0	0	0	0	-0	0	0.105	0.015	0	0	-0	0	0	0.098	0.1	0	-0	0	0	0	0	0	-0	0	0.05595	0	0	0	-0	0	0	0	0	0	-0	0	578.586	575.681	322.054	200.981	-0.00101275	-0.990499	0.00768668	-0.0151127	3.05621
76	0.140975	0.0212243	0.0207896	0.038548	-0.000620768	0.0302622	0.0252235	-0.0301917	0.00305366	-0.131617	-0.0304089	-0.000982565	0.0456887	-0.00164241	0.0292749	-2.05365	0.00353241	-1.54758	0	0	0	0	-0	0	0	0	-0.1265	0	-0	0	0	0	0	0	-0	0	0.105	0.015	0	0	-0	0	0	0.098	0.1	0	-0	0	0	0	0	0	-0	0	0.05595	0	0	0	-0	0	0	0	0	0	-0	0	578.591	575.689	322.046	200.992	-0.00103356	-0.990118	0.00768308	-0.0151155	3.05536
77	0.141488	0.0212249	0.0207888	0.0385492	-0.000620945	0.0302616	0.0252237	-0.0301919	0.0030536	-0.131925	-0.0284273	-0.0057324	0.0456734	-0.00164249	0.0292982	-2.05318	0.00353799	-1.54755	0	0	0	0	-0	0	0	0	-0.1265	0	-0	0	0	0	0	0	-0	0	0.105	0.015	0	0	-0	0	0	0.098	0.1	0	-0	0	0	0	0	0	-0	0	0.05595	0	0	0	-0	0	0	0	0	0	-0	0	578.601	575.708	322.027	201.015	-0.00115699	-0.9889	0.00767148	-0.0151225	3.05335
78	0.144456	0.0212244	0.0207889	0.0385502	-0.000619973	0.0302623	0.0252237	-0.0301919	0.00305405	-0.131003	-0.0313209	-0.0100546	0.0455866	-0.0016425	0.0294334	-2.05027	0.00349582	-1.5475	0	0	0	0	-0	0	0	0	-0.1265	0	-0	0	0	0	0	0	-0	0	0.105	0.015	0	0	-0	0	0	0.098	0.1	0	-0	0	0	0	0	0	-0	0	0.05595	0	0	0	-0	0	0	0	0	0	-0	0	578.617	575.735	322	201.05	-0.00138719	-0.986837	0.00765498	-0.0151315	3.05016
79	0.144404	0.0212245	0.0207891	0.0385522	-0.000618836	0.0302631	0.0252241	-0.0301918	0.00305394	-0.130343	-0.0258008	-0.0122852	0.0455878	-0.00164254	0.0294309	-2.05036	0.00351023	-1.54748	0	0	0	0	-0	0	0	0	-0.1265	0	-0	0	0	0	0	0	-0	0	0.105	0.015	0	0	-0	0	0	0.098	0.1	0	-0	0	0	0	0	0	-0	0	0.05595	0	0	0	-0	0	0	0	0	0	-0	0	578.625	575.748	321.986	201.067	-0.00142632	-0.986193	0.00764233	-0.0151352	3.04945
80	0.144717	0.0212244	0.0207894	0.0385533	-0.000617543	0.0302641	0.0252236	-0.0301917	0.0030541	-0.134024	-0.0225336	-0.0123211	0.0455786	-0.00164262	0.0294449	-2.05011	0.00353343	-1.54744	0	0	0	0	-0	0	0	0	-0.1265	0	-0	0	0	0	0	0	-0	0	0.105	0.015	0	0	-0	0	0	0.098	0.1	0	-0	0	0	0	0	0	-0	0	0.05595	0	0	0	-0	0	0	0	0	0	-0	0	578.643	575.778	321.955	201.106	-0.00168654	-0.983677	0.00762326	-0.015145	3.0451
81	0.147773	0.0212258	0.0207878	0.0385563	-0.000617747	0.030263	0.0252238	-0.0301919	0.00305423	-0.136587	-0.0261017	-0.0109833	0.0454878	-0.00164272	0.0295845	-2.04709	0.00347623	-1.54741	0	0	0	0	-0	0	0	0	-0.1265	0	-0	0	0	0	0	0	-0	0	0.105	0.015	0	0	-0	0	0	0.098	0.1	0	-0	0	0	0	0	0	-0	0	0.05595	0	0	0	-0	0	0	0	0	0	-0	0	578.652	575.794	321.939	201.125	-0.00167836	-0.983165	0.00761043	-0.015151	3.04399
82	0.145856	0.0212259	0.0207868	0.0385578	-0.000617512	0.0302634	0.0252239	-0.0301923	0.00305433	-0.133382	-0.0231592	-0.00634082	0.0455442	-0.00164264	0.029497	-2.04908	0.00355444	-1.54736	0	0	0	0	-0	0	0	0	-0.1265	0	-0	0	0	0	0	0	-0	0	0.105	0.015	0	0	-0	0	0	0.098	0.1	0	-0	0	0	0	0	0	-0	0	0.05595	0	0	0	-0	0	0	0	0	0	-0	0	578.67	575.823	321.904	201.167	-0.00188349	-0.981381	0.0075959	-0.0151633	3.04173
83	0.143318	0.0212247	0.0207879	0.0385599	-0.000615567	0.0302645	0.025224	-0.0301923	0.00305459	-0.132855	-0.0214441	-0.00148176	0.0456193	-0.00164271	0.0293809	-2.05166	0.00363147	-1.54735	0	0	0	0	-0	0	0	0	-0.1265	0	-0	0	0	0	0	0	-0	0	0.105	0.015	0	0	-0	0	0	0.098	0.1	0	-0	0	0	0	0	0	-0	0	0.05595	0	0	0	-0	0	0	0	0	0	-0	0	578.679	575.839	321.887	201.188	-0.0019791	-0.980223	0.00757831	-0.0151672	3.04018
84	0.139989	0.0212256	0.0207869	0.038563	-0.000614896	0.0302648	0.0252238	-0.0301922	0.00305464	-0.136084	-0.0226356	-0.00472683	0.0457164	-0.0016428	0.0292291	-2.05507	0.0037476	-1.5473	0	0	0	0	-0	0	0	0	-0.1265	0	-0	0	0	0	0	0	-0	0	0.105	0.015	0	0	-0	0	0	0.098	0.1	0	-0	0	0	0	0	0	-0	0	0.05595	0	0	0	-0	0	0	0	0	0	-0	0	578.7	575.872	321.847	201.235	-0.00218199	-0.978258	0.00756105	-0.0151817	3.03741
85	0.13943	0.0212267	0.020784	0.0385659	-0.000615119	0.0302641	0.0252233	-0.0301919	0.00305481	-0.133261	-0.0248384	-0.00554831	0.0457319	-0.00164276	0.0292033	-2.05575	0.0038174	-1.54722	0	0	0	0	-0	0	0	0	-0.1265	0	-0	0	0	0	0	0	-0	0	0.105	0.015	0	0	-0	0	0	0.098	0.1	0	-0	0	0	0	0	0	-0	0	0.05595	0	0	0	-0	0	0	0	0	0	-0	0	578.73	575.921	321.787	201.302	-0.00249553	-0.975147	0.00753615	-0.0152037	3.03228
86	0.142899	0.0212278	0.0207827	0.0385694	-0.000614655	0.0302629	0.0252238	-0.0301921	0.00305455	-0.134545	-0.0205567	-0.0106864	0.0456297	-0.00164299	0.0293622	-2.05234	0.00376391	-1.54717	0	0	0	0	-0	0	0	0	-0.1265	0	-0	0	0	0	0	0	-0	0	0.105	0.015	0	0	-0	0	0	0.098	0.1	0	-0	0	0	0	0	0	-0	0	0.05595	0	0	0	-0	0	0	0	0	0	-0	0	578.744	575.946	321.758	201.336	-0.00252418	-0.973921	0.00751271	-0.0152135	3.03002
87	0.138871	0.0212262	0.0207823	0.0385685	-0.000613916	0.0302636	0.0252234	-0.0301921	0.00305521	-0.138281	-0.0165308	-0.00651513	0.0457482	-0.0016427	0.0291776	-2.05641	0.00388152	-1.54715	0	0	0	0	-0	0	0	0	-0.1265	0	-0	0	0	0	0	0	-0	0	0.105	0.015	0	0	-0	0	0	0.098	0.1	0	-0	0	0	0	0	0	-0	0	0.05595	0	0	0	-0	0	0	0	0	0	-0	0	578.753	575.966	321.735	201.36	-0.00257143	-0.972959	0.00749124	-0.0152181	3.02869
88	0.135903	0.021228	0.0207812	0.0385737	-0.000613253	0.0302639	0.0252233	-0.0301918	0.00305526	-0.137486	-0.0170764	-0.00599614	0.0458337	-0.00164296	0.0290419	-2.05948	0.00400018	-1.54709	0	0	0	0	-0	0	0	0	-0.1265	0	-0	0	0	0	0	0	-0	0	0.105	0.015	0	0	-0	0	0	0.098	0.1	0	-0	0	0	0	0	0	-0	0	0.05595	0	0	0	-0	0	0	0	0	0	-0	0	578.777	576.004	321.684	201.415	-0.00274659	-0.971302	0.00747009	-0.0152374	3.02751
89	0.13591	0.0212281	0.0207802	0.0385751	-0.000612898	0.0302631	0.0252233	-0.0301918	0.00305527	-0.138373	-0.0199567	-0.00675963	0.0458327	-0.00164298	0.0290422	-2.05949	0.00400684	-1.54708	0	0	0	0	-0	0	0	0	-0.1265	0	-0	0	0	0	0	0	-0	0	0.105	0.015	0	0	-0	0	0	0.098	0.1	0	-0	0	0	0	0	0	-0	0	0.05595	0	0	0	-0	0	0	0	0	0	-0	0	578.78	576.009	321.677	201.422	-0.00263403	-0.97133	0.00745641	-0.015238	3.02695
90	0.137669	0.0212285	0.0207807	0.0385772	-0.000612009	0.0302635	0.0252234	-0.0301919	0.00305551	-0.139722	-0.0181119	-0.00414415	0.0457816	-0.00164318	0.0291226	-2.05775	0.00397969	-1.54705	0	0	0	0	-0	0	0	0	-0.1265	0	-0	0	0	0	0	0	-0	0	0.105	0.015	0	0	-0	0	0	0.098	0.1	0	-0	0	0	0	0	0	-0	0	0.05595	0	0	0	-0	0	0	0	0	0	-0	0	578.786	576.02	321.663	201.437	-0.00264231	-0.970888	0.00744278	-0.0152419	3.02673
91	0.137372	0.0212288	0.0207808	0.0385789	-0.000611271	0.030264	0.0252234	-0.030192	0.00305557	-0.138472	-0.0178501	-0.00643911	0.0457901	-0.00164325	0.0291089	-2.05806	0.00399392	-1.54704	0	0	0	0	-0	0	0	0	-0.1265	0	-0	0	0	0	0	0	-0	0	0.105	0.015	0	0	-0	0	0	0.098	0.1	0	-0	0	0	0	0	0	-0	0	0.05595	0	0	0	-0	0	0	0	0	0	-0	0	578.789	576.025	321.655	201.445	-0.00263391	-0.970617	0.00743522	-0.0152435	3.02622
92	0.139618	0.0212291	0.0207806	0.0385806	-0.000610859	0.0302642	0.0252238	-0.0301921	0.00305574	-0.136495	-0.0137044	-0.00456389	0.0457246	-0.00164333	0.0292117	-2.05585	0.00395656	-1.54701	0	0	0	0	-0	0	0	0	-0.1265	0	-0	0	0	0	0	0	-0	0	0.105	0.015	0	0	-0	0	0	0.098	0.1	0	-0	0	0	0	0	0	-0	0	0.05595	0	0	0	-0	0	0	0	0	0	-0	0	578.795	576.036	321.639	201.462	-0.00265634	-0.970277	0.00742672	-0.015249	3.02628
93	0.142716	0.0212286	0.0207812	0.0385817	-0.000609687	0.0302654	0.0252238	-0.0301925	0.00305576	-0.141127	-0.0164181	-0.00630861	0.0456342	-0.00164333	0.0293529	-2.0528	0.0039071	-1.54697	0	0	0	0	-0	0	0	0	-0.1265	0	-0	0	0	0	0	0	-0	0	0.105	0.015	0	0	-0	0	0	0.098	0.1	0	-0	0	0	0	0	0	-0	0	0.05595	0	0	0	-0	0	0	0	0	0	-0	0	578.806	576.054	321.614	201.487	-0.00275608	-0.969284	0.00741215	-0.0152562	3.02545
94	0.139591	0.0212277	0.020781	0.0385825	-0.000608947	0.0302659	0.0252235	-0.0301921	0.00305578	-0.141486	-0.0171703	-0.00490797	0.0457258	-0.00164321	0.0292101	-2.05594	0.00399351	-1.54696	0	0	0	0	-0	0	0	0	-0.1265	0	-0	0	0	0	0	0	-0	0	0.105	0.015	0	0	-0	0	0	0.098	0.1	0	-0	0	0	0	0	0	-0	0	0.05595	0	0	0	-0	0	0	0	0	0	-0	0	578.81	576.062	321.602	201.499	-0.00275548	-0.969043	0.00740374	-0.0152595	3.02527
95	0.144509	0.0212287	0.020779	0.0385837	-0.000609805	0.0302646	0.0252235	-0.0301927	0.00305635	-0.135219	-0.0189594	-0.0100418	0.0455818	-0.0016432	0.0294347	-2.05107	0.00390249	-1.5469	0	0	0	0	-0	0	0	0	-0.1265	0	-0	0	0	0	0	0	-0	0	0.105	0.015	0	0	-0	0	0	0.098	0.1	0	-0	0	0	0	0	0	-0	0	0.05595	0	0	0	-0	0	0	0	0	0	-0	0	578.82	576.083	321.574	201.527	-0.00277408	-0.96847	0.00738807	-0.0152702	3.02464
96	0.143213	0.0212289	0.020778	0.0385876	-0.000609218	0.0302653	0.0252234	-0.0301922	0.00305602	-0.133182	-0.0214293	-0.00753256	0.0456196	-0.00164322	0.029375	-2.05244	0.00397294	-1.54685	0	0	0	0	-0	0	0	0	-0.1265	0	-0	0	0	0	0	0	-0	0	0.105	0.015	0	0	-0	0	0	0.098	0.1	0	-0	0	0	0	0	0	-0	0	0.05595	0	0	0	-0	0	0	0	0	0	-0	0	578.837	576.112	321.532	201.567	-0.00289858	-0.967108	0.00736528	-0.0152852	3.02331
97	0.146533	0.0212287	0.0207775	0.0385883	-0.000608695	0.0302645	0.0252236	-0.0301925	0.00305612	-0.128464	-0.0189682	-0.0101038	0.0455216	-0.00164333	0.0295263	-2.04916	0.00391416	-1.54681	0	0	0	0	-0	0	0	0	-0.1265	0	-0	0	0	0	0	0	-0	0	0.105	0.015	0	0	-0	0	0	0.098	0.1	0	-0	0	0	0	0	0	-0	0	0.05595	0	0	0	-0	0	0	0	0	0	-0	0	578.844	576.125	321.511	201.587	-0.00285491	-0.966801	0.00734918	-0.015291	3.02313
98	0.145009	0.021228	0.020778	0.0385895	-0.000607561	0.0302654	0.0252236	-0.0301922	0.00305621	-0.127005	-0.0162979	-0.00752631	0.0455666	-0.00164331	0.0294564	-2.05071	0.00396631	-1.54679	0	0	0	0	-0	0	0	0	-0.1265	0	-0	0	0	0	0	0	-0	0	0.105	0.015	0	0	-0	0	0	0.098	0.1	0	-0	0	0	0	0	0	-0	0	0.05595	0	0	0	-0	0	0	0	0	0	-0	0	578.849	576.136	321.495	201.602	-0.00286969	-0.966303	0.00733539	-0.0152946	3.02268
99	0.146288	0.0212286	0.0207778	0.038592	-0.000606803	0.0302656	0.0252232	-0.0301924	0.00305641	-0.119787	-0.020424	-0.00762829	0.0455288	-0.00164351	0.0295144	-2.04949	0.00397009	-1.54673	0	0	0	0	-0	0	0	0	-0.1265	0	-0	0	0	0	0	0	-0	0	0.105	0.015	0	0	-0	0	0	0.098	0.1	0	-0	0	0	0	0	0	-0	0	0.05595	0	0	0	-0	0	0	0	0	0	-0	0	578.862	576.157	321.46	201.635	-0.00289218	-0.965735	0.00731637	-0.0153067	3.02307
100	0.14701	0.0212294	0.0207764	0.0385949	-0.000606893	0.0302646	0.0252233	-0.0301921	0.00305645	-0.119547	-0.0194833	-0.00931517	0.0455068	-0.0016436	0.0295476	-2.04878	0.00395677	-1.54672	0	0	0	0	-0	0	0	0	-0.1265	0	-0	0	0	0	0	0	-0	0	0.105	0.015	0	0	-0	0	0	0.098	0.1	0	-0	0	0	0	0	0	-0	0	0.05595	0	0	0	-0	0	0	0	0	0	-0	0	578.863	576.16	321.455	201.64	-0.0027854	-0.965988	0.00730875	-0.0153086	3.02293
