Stefan210/kinematic_calibration/src/kinematic_calibration/validation/experiments/experiments/single_point_vs_pose/marker_single_point/rarm_30/optimization_intermediate_results.csv
iteration	HeadPitch_offset	HeadYaw_offset	RElbowRoll_offset	RElbowYaw_offset	RShoulderPitch_offset	RShoulderRoll_offset	marker_transform_rarm_tx	marker_transform_rarm_ty	marker_transform_rarm_tz	marker_transform_rarm_rr	marker_transform_rarm_rp	marker_transform_rarm_ry	camera_transform_tx	camera_transform_ty	camera_transform_tz	camera_transform_rr	camera_transform_rp	camera_transform_ry	HeadPitch_transform_tx	HeadPitch_transform_ty	HeadPitch_transform_tz	HeadPitch_transform_rr	HeadPitch_transform_rp	HeadPitch_transform_ry	HeadYaw_transform_tx	HeadYaw_transform_ty	HeadYaw_transform_tz	HeadYaw_transform_rr	HeadYaw_transform_rp	HeadYaw_transform_ry	RElbowRoll_transform_tx	RElbowRoll_transform_ty	RElbowRoll_transform_tz	RElbowRoll_transform_rr	RElbowRoll_transform_rp	RElbowRoll_transform_ry	RElbowYaw_transform_tx	RElbowYaw_transform_ty	RElbowYaw_transform_tz	RElbowYaw_transform_rr	RElbowYaw_transform_rp	RElbowYaw_transform_ry	RShoulderPitch_transform_tx	RShoulderPitch_transform_ty	RShoulderPitch_transform_tz	RShoulderPitch_transform_rr	RShoulderPitch_transform_rp	RShoulderPitch_transform_ry	RShoulderRoll_transform_tx	RShoulderRoll_transform_ty	RShoulderRoll_transform_tz	RShoulderRoll_transform_rr	RShoulderRoll_transform_rp	RShoulderRoll_transform_ry	RWristYaw_transform_tx	RWristYaw_transform_ty	RWristYaw_transform_tz	RWristYaw_transform_rr	RWristYaw_transform_rp	RWristYaw_transform_ry	r_wrist_joint_transform_tx	r_wrist_joint_transform_ty	r_wrist_joint_transform_tz	r_wrist_joint_transform_rr	r_wrist_joint_transform_rp	r_wrist_joint_transform_ry	camera_fx	camera_fy	camera_cx	camera_cy	camera_D0	camera_D1	camera_D2	camera_D3	camera_D4	
0	0.0230449	0.0294606	-0.0013508	-0.00116347	0.000678263	0.00258603	0.05071	0	0.01774	-2.26369	1.66533e-16	-1.5708	545.901	551.038	324.928	201.58	0.0255298	2.61142	-0.0636736	-0.0350419	0.213964
1	-0.015806	-0.0253273	0.00299205	0.0310889	-0.0104117	-0.0243138	0.020751	0.0279829	-0.00205879	-0.00125405	0.000755614	0.0027193	0.0519186	-0.00160613	0.0188205	-2.20033	0.0139794	-1.53462	0	0	0	0	-0	0	0	0	-0.1265	0	-0	0	0	0	0	0	-0	0	0.105	-0.015	0	0	-0	0	0	-0.098	0.1	0	-0	0	0	0	0	0	-0	0	0.05595	0	0	0	-0	0	0	0	0	0	-0	0	545.901	551.039	324.929	201.58	-0.00863714	2.60138	-0.0664356	-0.0761743	0.211915
2	-0.0153752	-0.0387495	-0.00389498	0.0387876	-0.0217629	-0.0220353	0.0208263	0.0280672	-0.00264045	-0.00131869	0.000801227	0.002717	0.0515231	-0.000495948	0.0207266	-2.20223	0.0201262	-1.5259	0	0	0	0	-0	0	0	0	-0.1265	0	-0	0	0	0	0	0	-0	0	0.105	-0.015	0	0	-0	0	0	-0.098	0.1	0	-0	0	0	0	0	0	-0	0	0.05595	0	0	0	-0	0	0	0	0	0	-0	0	545.901	551.04	324.932	201.583	-0.120974	2.53699	-0.0396265	-0.0624531	0.191795
3	-0.0158799	-0.0348362	-0.00238264	0.0402483	-0.017867	-0.025002	0.020834	0.0282714	-0.00295848	-0.00134816	0.000823123	0.00273235	0.0526281	-0.0014783	0.018287	-2.19956	0.0213435	-1.52724	0	0	0	0	-0	0	0	0	-0.1265	0	-0	0	0	0	0	0	-0	0	0.105	-0.015	0	0	-0	0	0	-0.098	0.1	0	-0	0	0	0	0	0	-0	0	0.05595	0	0	0	-0	0	0	0	0	0	-0	0	545.902	551.041	324.938	201.587	-0.351138	2.40214	-0.0204995	-0.044577	0.150195
4	-0.0161317	-0.0299165	-0.000354217	0.0391099	-0.0137609	-0.0292974	0.020917	0.0286142	-0.00320763	-0.00136708	0.00084412	0.00275524	0.0537487	-0.00262447	0.0156811	-2.19785	0.0226785	-1.53072	0	0	0	0	-0	0	0	0	-0.1265	0	-0	0	0	0	0	0	-0	0	0.105	-0.015	0	0	-0	0	0	-0.098	0.1	0	-0	0	0	0	0	0	-0	0	0.05595	0	0	0	-0	0	0	0	0	0	-0	0	545.906	551.043	324.949	201.594	-0.608436	2.16594	0.00924599	-0.0165296	0.0690425
5	-0.0162226	-0.0262508	0.00178987	0.0373365	-0.0112665	-0.0323282	0.0209655	0.0288122	-0.00322361	-0.00134415	0.00083947	0.00277286	0.0538496	-0.00336549	0.0148126	-2.19728	0.0227055	-1.53314	0	0	0	0	-0	0	0	0	-0.1265	0	-0	0	0	0	0	0	-0	0	0.105	-0.015	0	0	-0	0	0	-0.098	0.1	0	-0	0	0	0	0	0	-0	0	0.05595	0	0	0	-0	0	0	0	0	0	-0	0	545.919	551.043	324.967	201.602	-0.616603	1.7931	0.0183359	-0.00374363	-0.08006
6	-0.0161993	-0.0236283	0.00339802	0.0356129	-0.010432	-0.0338293	0.0209939	0.0289084	-0.00305877	-0.00126912	0.00082684	0.00275835	0.0526643	-0.00369711	0.0158392	-2.19779	0.0211766	-1.53474	0	0	0	0	-0	0	0	0	-0.1265	0	-0	0	0	0	0	0	-0	0	0.105	-0.015	0	0	-0	0	0	-0.098	0.1	0	-0	0	0	0	0	0	-0	0	0.05595	0	0	0	-0	0	0	0	0	0	-0	0	545.947	551.04	324.995	201.614	-0.367071	1.11215	0.00990463	-0.000831283	-0.368975
7	-0.0161995	-0.0213992	0.00486127	0.0334142	-0.0101369	-0.0350021	0.0210297	0.0289987	-0.00282478	-0.00132229	0.000697696	0.00285521	0.0509737	-0.00394177	0.0174549	-2.19846	0.019416	-1.53597	0	0	0	0	-0	0	0	0	-0.1265	0	-0	0	0	0	0	0	-0	0	0.105	-0.015	0	0	-0	0	0	-0.098	0.1	0	-0	0	0	0	0	0	-0	0	0.05595	0	0	0	-0	0	0	0	0	0	-0	0	545.994	551.037	325.021	201.618	-0.00243118	0.13603	-0.00345813	0.00114106	-0.786331
8	-0.0162072	-0.0201552	0.00582704	0.0311572	-0.0102358	-0.0357908	0.0210696	0.029064	-0.00260755	-0.00138121	0.000766896	0.00292125	0.0495971	-0.00407456	0.0187996	-2.19903	0.0182597	-1.53667	0	0	0	0	-0	0	0	0	-0.1265	0	-0	0	0	0	0	0	-0	0	0.105	-0.015	0	0	-0	0	0	-0.098	0.1	0	-0	0	0	0	0	0	-0	0	0.05595	0	0	0	-0	0	0	0	0	0	-0	0	546.06	551.048	325.028	201.607	0.309608	-0.769593	-0.0139524	0.00312892	-1.1762
9	-0.0163086	-0.0196489	0.00625443	0.0296696	-0.0104616	-0.0361609	0.0210968	0.0290998	-0.00247012	-0.00104136	-4.61538e-05	0.00237228	0.0487851	-0.00411299	0.0196208	-2.19956	0.0176253	-1.53706	0	0	0	0	-0	0	0	0	-0.1265	0	-0	0	0	0	0	0	-0	0	0.105	-0.015	0	0	-0	0	0	-0.098	0.1	0	-0	0	0	0	0	0	-0	0	0.05595	0	0	0	-0	0	0	0	0	0	-0	0	546.186	551.114	325.035	201.591	0.497069	-1.34654	-0.0196694	0.00458748	-1.43845
10	-0.0174283	-0.0194937	0.00638195	0.0291471	-0.0105559	-0.0362485	0.0211042	0.0291101	-0.00242404	-0.00587755	0.000146601	0.000342517	0.048542	-0.00411494	0.0198444	-2.20092	0.0173839	-1.53733	0	0	0	0	-0	0	0	0	-0.1265	0	-0	0	0	0	0	0	-0	0	0.105	-0.015	0	0	-0	0	0	-0.098	0.1	0	-0	0	0	0	0	0	-0	0	0.05595	0	0	0	-0	0	0	0	0	0	-0	0	546.492	551.356	325.079	201.592	0.551087	-1.51301	-0.0211846	0.00512875	-1.56768
11	-0.0201002	-0.0193906	0.00640974	0.0290445	-0.0105488	-0.0362702	0.0211041	0.0291121	-0.002417	-0.000291936	0.000605247	0.000669875	0.0484994	-0.00410486	0.0198192	-2.20393	0.0171685	-1.53776	0	0	0	0	-0	0	0	0	-0.1265	0	-0	0	0	0	0	0	-0	0	0.105	-0.015	0	0	-0	0	0	-0.098	0.1	0	-0	0	0	0	0	0	-0	0	0.05595	0	0	0	-0	0	0	0	0	0	-0	0	547.269	552.144	325.209	201.634	0.548025	-1.46789	-0.0212713	0.00536347	-1.76259
12	-0.028581	-0.0191759	0.00648608	0.0289922	-0.0104275	-0.0363567	0.0211297	0.0291169	-0.00240737	-0.00473693	0.0426332	-0.0147398	0.0485092	-0.00408634	0.0195804	-2.21326	0.0166899	-1.53884	0	0	0	0	-0	0	0	0	-0.1265	0	-0	0	0	0	0	0	-0	0	0.105	-0.015	0	0	-0	0	0	-0.098	0.1	0	-0	0	0	0	0	0	-0	0	0.05595	0	0	0	-0	0	0	0	0	0	-0	0	549.207	554.512	325.585	201.762	0.519477	-1.22772	-0.0218788	0.0056951	-2.42555
13	-0.0326391	-0.0190737	0.00653	0.0289886	-0.0103518	-0.0363926	0.0211101	0.0291172	-0.00241218	0.00666527	0.0357731	0.000353687	0.04852	-0.0040782	0.0194594	-2.21772	0.0164642	-1.53932	0	0	0	0	-0	0	0	0	-0.1265	0	-0	0	0	0	0	0	-0	0	0.105	-0.015	0	0	-0	0	0	-0.098	0.1	0	-0	0	0	0	0	0	-0	0	0.05595	0	0	0	-0	0	0	0	0	0	-0	0	550.104	555.673	325.758	201.83	0.505681	-1.10537	-0.0223215	0.00578201	-2.76268
14	-0.0311626	-0.0189342	0.00660179	0.0289548	-0.0102491	-0.036465	0.0211136	0.0291129	-0.00240668	0.00101363	0.0554128	-0.00514366	0.0483948	-0.00406919	0.019639	-2.21681	0.0159038	-1.5399	0	0	0	0	-0	0	0	0	-0.1265	0	-0	0	0	0	0	0	-0	0	0.105	-0.015	0	0	-0	0	0	-0.098	0.1	0	-0	0	0	0	0	0	-0	0	0.05595	0	0	0	-0	0	0	0	0	0	-0	0	551.363	557.334	326.022	201.917	0.485359	-0.918723	-0.0229865	0.00595883	-3.28475
15	-0.00996114	-0.0187456	0.00670702	0.0289051	-0.0101051	-0.0365672	0.0211132	0.0291134	-0.0023994	0.00109461	0.0483782	0.0112627	0.0478457	-0.00405753	0.020812	-2.19634	0.0145026	-1.54045	0	0	0	0	-0	0	0	0	-0.1265	0	-0	0	0	0	0	0	-0	0	0.105	-0.015	0	0	-0	0	0	-0.098	0.1	0	-0	0	0	0	0	0	-0	0	0.05595	0	0	0	-0	0	0	0	0	0	-0	0	553.112	559.665	326.427	202.017	0.455982	-0.641837	-0.0239932	0.00620559	-4.066
16	-0.00674675	-0.0185047	0.00684819	0.0288296	-0.00991908	-0.0367025	0.0211253	0.0291036	-0.00239363	0.0180076	0.09513	0.0106332	0.0475846	-0.00404207	0.0211506	-2.19402	0.0133499	-1.54168	0	0	0	0	-0	0	0	0	-0.1265	0	-0	0	0	0	0	0	-0	0	0.105	-0.015	0	0	-0	0	0	-0.098	0.1	0	-0	0	0	0	0	0	-0	0	0.05595	0	0	0	-0	0	0	0	0	0	-0	0	555.456	562.815	327.043	202.11	0.41542	-0.250373	-0.0254168	0.00658828	-5.18837
17	-0.0122442	-0.0184118	0.00689923	0.0288231	-0.00983989	-0.0367393	0.0211205	0.0291084	-0.00238595	0.017721	0.0716104	0.0219772	0.047633	-0.0040347	0.0209593	-2.19987	0.0131154	-1.54221	0	0	0	0	-0	0	0	0	-0.1265	0	-0	0	0	0	0	0	-0	0	0.105	-0.015	0	0	-0	0	0	-0.098	0.1	0	-0	0	0	0	0	0	-0	0	0.05595	0	0	0	-0	0	0	0	0	0	-0	0	556.351	564.042	327.267	202.151	0.400018	-0.0974816	-0.0260241	0.00668307	-5.63338
18	-0.0104425	-0.0181184	0.00708404	0.028694	-0.00961789	-0.0369211	0.0211221	0.029124	-0.00237117	-0.0120005	0.0752259	0.0373567	0.0473504	-0.00401347	0.0213074	-2.19906	0.0114068	-1.54407	0	0	0	0	-0	0	0	0	-0.1265	0	-0	0	0	0	0	0	-0	0	0.105	-0.015	0	0	-0	0	0	-0.098	0.1	0	-0	0	0	0	0	0	-0	0	0.05595	0	0	0	-0	0	0	0	0	0	-0	0	559.519	568.35	328.288	202.165	0.343184	0.476058	-0.0281171	0.00735056	-7.32745
19	-0.0213409	-0.0179097	0.00721563	0.0286211	-0.00944872	-0.0370277	0.0211308	0.0291277	-0.00237915	-0.0396675	0.0665674	0.00246412	0.047405	-0.00399476	0.0209811	-2.21062	0.010449	-1.54558	0	0	0	0	-0	0	0	0	-0.1265	0	-0	0	0	0	0	0	-0	0	0.105	-0.015	0	0	-0	0	0	-0.098	0.1	0	-0	0	0	0	0	0	-0	0	0.05595	0	0	0	-0	0	0	0	0	0	-0	0	561.849	571.587	329.059	202.141	0.301115	0.919945	-0.029846	0.00780233	-8.67553
20	-0.00358924	-0.0177742	0.0072999	0.0285827	-0.00933577	-0.0370931	0.0211494	0.0291312	-0.00234913	-0.0315002	0.045204	0.0455815	0.0469165	-0.00398132	0.0219505	-2.19329	0.00917407	-1.54629	0	0	0	0	-0	0	0	0	-0.1265	0	-0	0	0	0	0	0	-0	0	0.105	-0.015	0	0	-0	0	0	-0.098	0.1	0	-0	0	0	0	0	0	-0	0	0.05595	0	0	0	-0	0	0	0	0	0	-0	0	563.401	573.764	329.562	202.109	0.272864	1.22055	-0.0310364	0.00808762	-9.59356
21	0.00606275	-0.0176782	0.00736161	0.0285447	-0.00925816	-0.0371409	0.0211367	0.0291327	-0.00235968	0.00594495	0.0322744	0.0669153	0.0466111	-0.00397216	0.0224871	-2.18391	0.00839425	-1.54683	0	0	0	0	-0	0	0	0	-0.1265	0	-0	0	0	0	0	0	-0	0	0.105	-0.015	0	0	-0	0	0	-0.098	0.1	0	-0	0	0	0	0	0	-0	0	0.05595	0	0	0	-0	0	0	0	0	0	-0	0	564.468	575.267	329.903	202.078	0.253829	1.43159	-0.0319077	0.0082771	-10.2485
22	0.0270591	-0.0175232	0.00747338	0.0284544	-0.00913618	-0.0372379	0.021127	0.0291019	-0.00234536	-0.0113567	0.0122062	0.0612763	0.0459792	-0.0039561	0.0236268	-2.16327	0.00674811	-1.54797	0	0	0	0	-0	0	0	0	-0.1265	0	-0	0	0	0	0	0	-0	0	0.105	-0.015	0	0	-0	0	0	-0.098	0.1	0	-0	0	0	0	0	0	-0	0	0.05595	0	0	0	-0	0	0	0	0	0	-0	0	566.513	578.133	330.667	201.941	0.214077	1.86327	-0.0335156	0.00876825	-11.583
23	0.0251541	-0.0174985	0.00748929	0.0284485	-0.0091138	-0.0372391	0.0211292	0.0291039	-0.00233933	-0.0159363	0.00959282	0.0762773	0.0459908	-0.00395303	0.0235514	-2.16523	0.00667539	-1.54814	0	0	0	0	-0	0	0	0	-0.1265	0	-0	0	0	0	0	0	-0	0	0.105	-0.015	0	0	-0	0	0	-0.098	0.1	0	-0	0	0	0	0	0	-0	0	0.05595	0	0	0	-0	0	0	0	0	0	-0	0	566.774	578.515	330.746	201.927	0.209613	1.91633	-0.0337692	0.0087956	-11.7551
24	0.0053661	-0.0174688	0.00751047	0.0284345	-0.00908915	-0.037257	0.0211283	0.0290999	-0.00233861	-0.0229388	-0.00243393	0.07782	0.0464283	-0.00395013	0.0226699	-2.18508	0.00694913	-1.54847	0	0	0	0	-0	0	0	0	-0.1265	0	-0	0	0	0	0	0	-0	0	0.105	-0.015	0	0	-0	0	0	-0.098	0.1	0	-0	0	0	0	0	0	-0	0	0.05595	0	0	0	-0	0	0	0	0	0	-0	0	567.128	579.018	330.855	201.906	0.202909	1.99207	-0.0340746	0.00885604	-11.9907
25	-0.00261597	-0.0174105	0.00755321	0.0284006	-0.00904317	-0.0372931	0.0211322	0.0290986	-0.00233674	-0.00970864	0.0231674	0.0795041	0.0465429	-0.00394409	0.0223557	-2.19317	0.00673702	-1.54896	0	0	0	0	-0	0	0	0	-0.1265	0	-0	0	0	0	0	0	-0	0	0.105	-0.015	0	0	-0	0	0	-0.098	0.1	0	-0	0	0	0	0	0	-0	0	0.05595	0	0	0	-0	0	0	0	0	0	-0	0	567.874	580.069	331.101	201.845	0.188447	2.1522	-0.034683	0.00901116	-12.4887
26	-0.00552193	-0.0173945	0.00756391	0.0283966	-0.00902857	-0.0372988	0.0211305	0.0291	-0.00233421	-0.0117679	0.033388	0.0803505	0.0465926	-0.00394205	0.0222356	-2.19611	0.00669876	-1.54908	0	0	0	0	-0	0	0	0	-0.1265	0	-0	0	0	0	0	0	-0	0	0.105	-0.015	0	0	-0	0	0	-0.098	0.1	0	-0	0	0	0	0	0	-0	0	0.05595	0	0	0	-0	0	0	0	0	0	-0	0	568.071	580.352	331.162	201.83	0.184593	2.19459	-0.0348556	0.00903756	-12.6188
27	-0.0164451	-0.0173732	0.00757921	0.0283855	-0.00901119	-0.0373115	0.0211306	0.0291007	-0.00233208	-0.0122409	0.0293799	0.089812	0.0468151	-0.00393984	0.0217481	-2.20707	0.00680078	-1.5493	0	0	0	0	-0	0	0	0	-0.1265	0	-0	0	0	0	0	0	-0	0	0.105	-0.015	0	0	-0	0	0	-0.098	0.1	0	-0	0	0	0	0	0	-0	0	0.05595	0	0	0	-0	0	0	0	0	0	-0	0	568.335	580.726	331.245	201.809	0.179452	2.25193	-0.0350771	0.00908711	-12.797
28	-0.0102167	-0.0173434	0.00760103	0.0283683	-0.00898745	-0.0373294	0.0211346	0.0291042	-0.00233367	-0.0105375	0.0397721	0.108019	0.0466481	-0.00393659	0.0220703	-2.20089	0.00646711	-1.54947	0	0	0	0	-0	0	0	0	-0.1265	0	-0	0	0	0	0	0	-0	0	0.105	-0.015	0	0	-0	0	0	-0.098	0.1	0	-0	0	0	0	0	0	-0	0	0.05595	0	0	0	-0	0	0	0	0	0	-0	0	568.718	581.267	331.368	201.774	0.171988	2.33524	-0.035397	0.00916257	-13.0566
29	-0.0121811	-0.0173222	0.00761634	0.0283593	-0.00896915	-0.0373406	0.0211328	0.0291041	-0.0023297	0.00491341	0.0305901	0.108045	0.0466701	-0.00393404	0.022	-2.20289	0.00636651	-1.54964	0	0	0	0	-0	0	0	0	-0.1265	0	-0	0	0	0	0	0	-0	0	0.105	-0.015	0	0	-0	0	0	-0.098	0.1	0	-0	0	0	0	0	0	-0	0	0.05595	0	0	0	-0	0	0	0	0	0	-0	0	568.994	581.662	331.456	201.748	0.16648	2.39573	-0.0356328	0.00921101	-13.2427
30	-0.0195473	-0.017292	0.00763868	0.0283409	-0.00894547	-0.0373587	0.0211348	0.0291028	-0.00232985	0.00766613	0.0397927	0.124589	0.0468016	-0.00393059	0.0216892	-2.2103	0.00631112	-1.54991	0	0	0	0	-0	0	0	0	-0.1265	0	-0	0	0	0	0	0	-0	0	0.105	-0.015	0	0	-0	0	0	-0.098	0.1	0	-0	0	0	0	0	0	-0	0	0.05595	0	0	0	-0	0	0	0	0	0	-0	0	569.391	582.226	331.587	201.706	0.15875	2.48304	-0.0359748	0.00929156	-13.5162
31	-0.0184778	-0.0172708	0.0076547	0.0283299	-0.00892767	-0.0373705	0.0211348	0.0291029	-0.00232611	0.0200938	0.027548	0.124621	0.0467565	-0.00392801	0.021762	-2.20926	0.00613678	-1.55006	0	0	0	0	-0	0	0	0	-0.1265	0	-0	0	0	0	0	0	-0	0	0.105	-0.015	0	0	-0	0	0	-0.098	0.1	0	-0	0	0	0	0	0	-0	0	0.05595	0	0	0	-0	0	0	0	0	0	-0	0	569.678	582.635	331.681	201.675	0.152994	2.5467	-0.0362203	0.00934484	-13.7131
32	-0.0248867	-0.0172649	0.00765859	0.028327	-0.00892285	-0.0373725	0.0211316	0.0290986	-0.0023253	0.0199965	0.0303541	0.12451	0.0468905	-0.00392725	0.0214683	-2.21567	0.00623243	-1.55013	0	0	0	0	-0	0	0	0	-0.1265	0	-0	0	0	0	0	0	-0	0	0.105	-0.015	0	0	-0	0	0	-0.098	0.1	0	-0	0	0	0	0	0	-0	0	0.05595	0	0	0	-0	0	0	0	0	0	-0	0	569.749	582.736	331.703	201.667	0.151659	2.56193	-0.036283	0.00935591	-13.7608
33	-0.0296597	-0.0172445	0.00767498	0.0283126	-0.00890673	-0.0373864	0.0211302	0.0291016	-0.00232617	-0.00236071	0.017715	0.120318	0.0469712	-0.00392503	0.0212672	-2.22047	0.00618155	-1.55032	0	0	0	0	-0	0	0	0	-0.1265	0	-0	0	0	0	0	0	-0	0	0.105	-0.015	0	0	-0	0	0	-0.098	0.1	0	-0	0	0	0	0	0	-0	0	0.05595	0	0	0	-0	0	0	0	0	0	-0	0	570.028	583.134	331.795	201.634	0.146049	2.62522	-0.0365254	0.00941446	-13.9588
34	-0.0412832	-0.0172158	0.00769717	0.0282941	-0.00888384	-0.037404	0.0211309	0.0291047	-0.00232321	-0.0264508	0.0135788	0.117514	0.0471884	-0.00392146	0.0207543	-2.23212	0.00619845	-1.55061	0	0	0	0	-0	0	0	0	-0.1265	0	-0	0	0	0	0	0	-0	0	0.105	-0.015	0	0	-0	0	0	-0.098	0.1	0	-0	0	0	0	0	0	-0	0	0.05595	0	0	0	-0	0	0	0	0	0	-0	0	570.434	583.707	331.931	201.584	0.137802	2.71688	-0.0368672	0.00949804	-14.2438
35	-0.0519539	-0.0171774	0.00772882	0.0282672	-0.00885234	-0.0374284	0.0211329	0.0290992	-0.00232157	-0.0473085	-0.00547002	0.112929	0.0473668	-0.00391662	0.0202959	-2.24281	0.00609313	-1.55099	0	0	0	0	-0	0	0	0	-0.1265	0	-0	0	0	0	0	0	-0	0	0.105	-0.015	0	0	-0	0	0	-0.098	0.1	0	-0	0	0	0	0	0	-0	0	0.05595	0	0	0	-0	0	0	0	0	0	-0	0	570.992	584.51	332.127	201.507	0.126388	2.84606	-0.0373719	0.00961661	-14.6476
36	-0.0583298	-0.0171583	0.00774354	0.028256	-0.00883667	-0.0374378	0.0211346	0.0290979	-0.00231931	-0.0603271	-0.0221622	0.10838	0.047475	-0.00391404	0.0200157	-2.2492	0.00606896	-1.55117	0	0	0	0	-0	0	0	0	-0.1265	0	-0	0	0	0	0	0	-0	0	0.105	-0.015	0	0	-0	0	0	-0.098	0.1	0	-0	0	0	0	0	0	-0	0	0.05595	0	0	0	-0	0	0	0	0	0	-0	0	571.26	584.894	332.216	201.472	0.121034	2.90659	-0.0376126	0.00966639	-14.8368
37	-0.0533427	-0.0171321	0.00776489	0.0282384	-0.00881547	-0.0374541	0.0211394	0.029107	-0.00231685	-0.0790832	-0.0125486	0.0960277	0.0473473	-0.00391064	0.0202845	-2.24423	0.00575616	-1.55134	0	0	0	0	-0	0	0	0	-0.1265	0	-0	0	0	0	0	0	-0	0	0.105	-0.015	0	0	-0	0	0	-0.098	0.1	0	-0	0	0	0	0	0	-0	0	0.05595	0	0	0	-0	0	0	0	0	0	-0	0	571.641	585.443	332.346	201.419	0.113362	2.99404	-0.0379611	0.0097438	-15.111
38	-0.062824	-0.0171131	0.00777898	0.0282281	-0.00879978	-0.0374637	0.0211346	0.029102	-0.00231465	-0.0971812	-0.0124836	0.0925988	0.0475198	-0.00390788	0.0198578	-2.25372	0.00579009	-1.55154	0	0	0	0	-0	0	0	0	-0.1265	0	-0	0	0	0	0	0	-0	0	0.105	-0.015	0	0	-0	0	0	-0.098	0.1	0	-0	0	0	0	0	0	-0	0	0.05595	0	0	0	-0	0	0	0	0	0	-0	0	571.912	585.831	332.436	201.383	0.107872	3.05566	-0.0382024	0.00979381	-15.3028
39	-0.0604835	-0.0171071	0.00778349	0.028224	-0.00879483	-0.0374664	0.0211354	0.0290977	-0.00231343	-0.0960645	-0.00890553	0.0980362	0.0474663	-0.00390723	0.0199746	-2.25139	0.00570426	-1.55156	0	0	0	0	-0	0	0	0	-0.1265	0	-0	0	0	0	0	0	-0	0	0.105	-0.015	0	0	-0	0	0	-0.098	0.1	0	-0	0	0	0	0	0	-0	0	0.05595	0	0	0	-0	0	0	0	0	0	-0	0	571.985	585.937	332.459	201.373	0.106421	3.07225	-0.0382695	0.0098076	-15.355
40	-0.0560936	-0.0171001	0.00778954	0.0282194	-0.00878908	-0.037471	0.0211359	0.0290973	-0.00231287	-0.0970106	-0.0175872	0.0957388	0.0473712	-0.00390638	0.0201915	-2.247	0.00556622	-1.55159	0	0	0	0	-0	0	0	0	-0.1265	0	-0	0	0	0	0	0	-0	0	0.105	-0.015	0	0	-0	0	0	-0.098	0.1	0	-0	0	0	0	0	0	-0	0	0.05595	0	0	0	-0	0	0	0	0	0	-0	0	572.085	586.083	332.49	201.359	0.104465	3.0951	-0.0383673	0.00982544	-15.4269
41	-0.0505773	-0.0170728	0.007813	0.0281981	-0.00876755	-0.0374895	0.0211359	0.0291	-0.0023145	-0.114592	-0.0306595	0.0863929	0.0472293	-0.0039027	0.0204882	-2.24149	0.00522206	-1.55178	0	0	0	0	-0	0	0	0	-0.1265	0	-0	0	0	0	0	0	-0	0	0.105	-0.015	0	0	-0	0	0	-0.098	0.1	0	-0	0	0	0	0	0	-0	0	0.05595	0	0	0	-0	0	0	0	0	0	-0	0	572.506	586.689	332.636	201.293	0.0958131	3.19387	-0.0387529	0.0099161	-15.7371
42	-0.0458605	-0.0170586	0.00782469	0.0281897	-0.00875462	-0.037497	0.0211374	0.0291033	-0.00230811	-0.0962595	-0.0347269	0.0777005	0.047118	-0.00390077	0.0207267	-2.23678	0.00502249	-1.55187	0	0	0	0	-0	0	0	0	-0.1265	0	-0	0	0	0	0	0	-0	0	0.105	-0.015	0	0	-0	0	0	-0.098	0.1	0	-0	0	0	0	0	0	-0	0	0.05595	0	0	0	-0	0	0	0	0	0	-0	0	572.71	586.985	332.703	201.262	0.0914224	3.24259	-0.0389397	0.00995161	-15.8871
43	-0.0323158	-0.0170304	0.00784844	0.028167	-0.00873293	-0.0375152	0.0211408	0.029102	-0.00230717	-0.0930522	-0.0397943	0.0592913	0.0468049	-0.00389677	0.0214016	-2.22324	0.00451889	-1.55204	0	0	0	0	-0	0	0	0	-0.1265	0	-0	0	0	0	0	0	-0	0	0.105	-0.015	0	0	-0	0	0	-0.098	0.1	0	-0	0	0	0	0	0	-0	0	0.05595	0	0	0	-0	0	0	0	0	0	-0	0	573.148	587.615	332.856	201.192	0.0824553	3.34591	-0.0393441	0.0100467	-16.2134
44	-0.0330865	-0.0170259	0.00785206	0.0281651	-0.00872812	-0.0375159	0.0211377	0.0290977	-0.00230617	-0.0949823	-0.0377505	0.0677669	0.0468131	-0.00389609	0.0213673	-2.22401	0.00450403	-1.55208	0	0	0	0	-0	0	0	0	-0.1265	0	-0	0	0	0	0	0	-0	0	0.105	-0.015	0	0	-0	0	0	-0.098	0.1	0	-0	0	0	0	0	0	-0	0	0.05595	0	0	0	-0	0	0	0	0	0	-0	0	573.207	587.701	332.875	201.184	0.081134	3.36018	-0.0393999	0.0100522	-16.2562
45	-0.039505	-0.0170203	0.00785666	0.0281612	-0.00872381	-0.0375196	0.021137	0.0290966	-0.00230575	-0.0966765	-0.0390753	0.065976	0.0469442	-0.00389541	0.0210736	-2.23043	0.00458285	-1.55215	0	0	0	0	-0	0	0	0	-0.1265	0	-0	0	0	0	0	0	-0	0	0.105	-0.015	0	0	-0	0	0	-0.098	0.1	0	-0	0	0	0	0	0	-0	0	0.05595	0	0	0	-0	0	0	0	0	0	-0	0	573.287	587.817	332.899	201.172	0.0795543	3.37865	-0.0394752	0.0100677	-16.3148
46	-0.0359528	-0.0170183	0.00785828	0.0281596	-0.00872212	-0.0375206	0.021137	0.0290966	-0.00230549	-0.0943009	-0.0377818	0.0660222	0.0468664	-0.00389516	0.0212423	-2.22688	0.00450267	-1.55214	0	0	0	0	-0	0	0	0	-0.1265	0	-0	0	0	0	0	0	-0	0	0.105	-0.015	0	0	-0	0	0	-0.098	0.1	0	-0	0	0	0	0	0	-0	0	0.05595	0	0	0	-0	0	0	0	0	0	-0	0	573.313	587.855	332.907	201.168	0.0790248	3.38482	-0.0395007	0.0100725	-16.3343
47	-0.0359997	-0.0170145	0.0078614	0.0281571	-0.00871911	-0.037523	0.0211373	0.0290969	-0.00230533	-0.0977592	-0.0372823	0.0620405	0.0468632	-0.00389468	0.0212444	-2.22693	0.00447587	-1.55217	0	0	0	0	-0	0	0	0	-0.1265	0	-0	0	0	0	0	0	-0	0	0.105	-0.015	0	0	-0	0	0	-0.098	0.1	0	-0	0	0	0	0	0	-0	0	0.05595	0	0	0	-0	0	0	0	0	0	-0	0	573.367	587.933	332.924	201.16	0.0779292	3.39739	-0.0395504	0.0100824	-16.3737
48	-0.0403184	-0.017009	0.00786591	0.0281531	-0.00871469	-0.0375265	0.0211384	0.0290964	-0.00230428	-0.0948006	-0.0258726	0.0587078	0.046949	-0.00389394	0.0210488	-2.23125	0.00451464	-1.55223	0	0	0	0	-0	0	0	0	-0.1265	0	-0	0	0	0	0	0	-0	0	0.105	-0.015	0	0	-0	0	0	-0.098	0.1	0	-0	0	0	0	0	0	-0	0	0.05595	0	0	0	-0	0	0	0	0	0	-0	0	573.448	588.049	332.949	201.148	0.0762881	3.41625	-0.039624	0.0100975	-16.433
49	-0.0384344	-0.0170063	0.00786818	0.0281513	-0.00871242	-0.0375279	0.0211376	0.0290969	-0.00230474	-0.0930783	-0.024157	0.0639793	0.0469062	-0.00389355	0.0211403	-2.22936	0.00445911	-1.55224	0	0	0	0	-0	0	0	0	-0.1265	0	-0	0	0	0	0	0	-0	0	0.105	-0.015	0	0	-0	0	0	-0.098	0.1	0	-0	0	0	0	0	0	-0	0	0.05595	0	0	0	-0	0	0	0	0	0	-0	0	573.487	588.106	332.961	201.142	0.0754637	3.42552	-0.0396598	0.0101039	-16.4618
50	-0.0482439	-0.0170001	0.00787316	0.0281476	-0.00870729	-0.0375317	0.0211377	0.0290967	-0.00230399	-0.094139	-0.0242385	0.0687054	0.0471071	-0.00389273	0.0206874	-2.23917	0.00459456	-1.55233	0	0	0	0	-0	0	0	0	-0.1265	0	-0	0	0	0	0	0	-0	0	0.105	-0.015	0	0	-0	0	0	-0.098	0.1	0	-0	0	0	0	0	0	-0	0	0.05595	0	0	0	-0	0	0	0	0	0	-0	0	573.576	588.235	332.989	201.128	0.0736219	3.44628	-0.0397418	0.0101201	-16.5263
51	-0.0528059	-0.0169969	0.00787551	0.0281453	-0.00870481	-0.0375333	0.0211375	0.0290964	-0.00230382	-0.0932531	-0.0219187	0.0694801	0.047196	-0.00389228	0.0204754	-2.24373	0.00465532	-1.55238	0	0	0	0	-0	0	0	0	-0.1265	0	-0	0	0	0	0	0	-0	0	0.105	-0.015	0	0	-0	0	0	-0.098	0.1	0	-0	0	0	0	0	0	-0	0	0.05595	0	0	0	-0	0	0	0	0	0	-0	0	573.621	588.298	333.003	201.121	0.0727568	3.45622	-0.0397809	0.0101284	-16.5577
52	-0.0515801	-0.0169933	0.00787857	0.0281428	-0.00870184	-0.0375357	0.021138	0.029097	-0.00230363	-0.0974199	-0.0198433	0.0647667	0.0471668	-0.00389181	0.0205373	-2.24251	0.00460549	-1.5524	0	0	0	0	-0	0	0	0	-0.1265	0	-0	0	0	0	0	0	-0	0	0.105	-0.015	0	0	-0	0	0	-0.098	0.1	0	-0	0	0	0	0	0	-0	0	0.05595	0	0	0	-0	0	0	0	0	0	-0	0	573.674	588.374	333.019	201.113	0.0715891	3.46913	-0.0398273	0.0101376	-16.5974
53	-0.0508293	-0.0169844	0.00788532	0.0281372	-0.00869514	-0.0375408	0.0211396	0.029099	-0.00230259	-0.0924202	-0.0223463	0.0522411	0.0471416	-0.00389048	0.0205842	-2.24176	0.00452234	-1.55246	0	0	0	0	-0	0	0	0	-0.1265	0	-0	0	0	0	0	0	-0	0	0.105	-0.015	0	0	-0	0	0	-0.098	0.1	0	-0	0	0	0	0	0	-0	0	0.05595	0	0	0	-0	0	0	0	0	0	-0	0	573.805	588.563	333.06	201.092	0.0690561	3.49849	-0.039948	0.0101631	-16.6904
54	-0.0504719	-0.0169799	0.00788887	0.0281345	-0.00869132	-0.037543	0.0211384	0.0290968	-0.00230246	-0.0896817	-0.0252645	0.0572023	0.0471297	-0.0038898	0.0206064	-2.2414	0.00448224	-1.55249	0	0	0	0	-0	0	0	0	-0.1265	0	-0	0	0	0	0	0	-0	0	0.105	-0.015	0	0	-0	0	0	-0.098	0.1	0	-0	0	0	0	0	0	-0	0	0.05595	0	0	0	-0	0	0	0	0	0	-0	0	573.87	588.657	333.079	201.082	0.0677193	3.51356	-0.0400076	0.0101731	-16.737
55	-0.0468593	-0.0169735	0.00789434	0.0281299	-0.00868604	-0.0375472	0.021139	0.0290965	-0.00230175	-0.088277	-0.0332132	0.0601867	0.0470486	-0.003889	0.0207844	-2.23779	0.00436733	-1.55252	0	0	0	0	-0	0	0	0	-0.1265	0	-0	0	0	0	0	0	-0	0	0.105	-0.015	0	0	-0	0	0	-0.098	0.1	0	-0	0	0	0	0	0	-0	0	0.05595	0	0	0	-0	0	0	0	0	0	-0	0	573.964	588.793	333.108	201.066	0.065734	3.53597	-0.0400936	0.0101905	-16.8068
56	-0.0459141	-0.0169713	0.00789624	0.0281282	-0.00868419	-0.0375484	0.0211382	0.0290969	-0.0023016	-0.0948348	-0.0325812	0.0632071	0.0470264	-0.00388869	0.0208314	-2.23685	0.00433377	-1.55253	0	0	0	0	-0	0	0	0	-0.1265	0	-0	0	0	0	0	0	-0	0	0.105	-0.015	0	0	-0	0	0	-0.098	0.1	0	-0	0	0	0	0	0	-0	0	0.05595	0	0	0	-0	0	0	0	0	0	-0	0	573.996	588.838	333.118	201.061	0.0651079	3.54343	-0.0401249	0.0101957	-16.8304
57	-0.0524624	-0.0169669	0.0078999	0.0281248	-0.00868071	-0.0375513	0.0211382	0.0290961	-0.00230139	-0.0928466	-0.0315398	0.0636639	0.0471582	-0.00388813	0.0205288	-2.24339	0.0044202	-1.55259	0	0	0	0	-0	0	0	0	-0.1265	0	-0	0	0	0	0	0	-0	0	0.105	-0.015	0	0	-0	0	0	-0.098	0.1	0	-0	0	0	0	0	0	-0	0	0.05595	0	0	0	-0	0	0	0	0	0	-0	0	574.059	588.93	333.138	201.051	0.0637908	3.55855	-0.0401835	0.0102077	-16.8778
58	-0.0522845	-0.0169608	0.00790543	0.0281202	-0.00867547	-0.0375553	0.0211383	0.0290962	-0.00230093	-0.0894507	-0.0298576	0.0647065	0.0471471	-0.00388733	0.0205443	-2.24321	0.0043679	-1.55264	0	0	0	0	-0	0	0	0	-0.1265	0	-0	0	0	0	0	0	-0	0	0.105	-0.015	0	0	-0	0	0	-0.098	0.1	0	-0	0	0	0	0	0	-0	0	0.05595	0	0	0	-0	0	0	0	0	0	-0	0	574.152	589.065	333.167	201.035	0.0617953	3.58106	-0.0402699	0.0102246	-16.9477
59	-0.0444556	-0.0169509	0.00791434	0.0281119	-0.00866743	-0.0375622	0.0211376	0.029098	-0.00230056	-0.0739198	-0.0230683	0.0654696	0.0469753	-0.00388597	0.0209263	-2.23538	0.00414165	-1.55269	0	0	0	0	-0	0	0	0	-0.1265	0	-0	0	0	0	0	0	-0	0	0.105	-0.015	0	0	-0	0	0	-0.098	0.1	0	-0	0	0	0	0	0	-0	0	0.05595	0	0	0	-0	0	0	0	0	0	-0	0	574.308	589.289	333.218	201.009	0.0584758	3.61907	-0.0404147	0.0102557	-17.0668
60	-0.0521384	-0.0169454	0.00791856	0.0281085	-0.00866272	-0.0375648	0.0211398	0.0290973	-0.00229997	-0.0741663	-0.0265532	0.0558207	0.0471292	-0.00388519	0.020571	-2.24306	0.00423999	-1.55276	0	0	0	0	-0	0	0	0	-0.1265	0	-0	0	0	0	0	0	-0	0	0.105	-0.015	0	0	-0	0	0	-0.098	0.1	0	-0	0	0	0	0	0	-0	0	0.05595	0	0	0	-0	0	0	0	0	0	-0	0	574.384	589.401	333.243	200.996	0.0569136	3.63698	-0.0404884	0.0102692	-17.1228
61	-0.0491122	-0.0169419	0.0079219	0.0281062	-0.00865954	-0.037567	0.0211388	0.0290963	-0.00229952	-0.068046	-0.024401	0.0587095	0.0470618	-0.00388467	0.0207176	-2.24004	0.00415565	-1.55277	0	0	0	0	-0	0	0	0	-0.1265	0	-0	0	0	0	0	0	-0	0	0.105	-0.015	0	0	-0	0	0	-0.098	0.1	0	-0	0	0	0	0	0	-0	0	0.05595	0	0	0	-0	0	0	0	0	0	-0	0	574.44	589.483	333.26	200.986	0.0557141	3.65061	-0.0405435	0.0102779	-17.165
62	-0.0484737	-0.0169375	0.00792535	0.028103	-0.00865628	-0.0375696	0.0211391	0.0290967	-0.0022995	-0.0749543	-0.0271129	0.0534	0.0470435	-0.00388402	0.0207532	-2.2394	0.00410972	-1.5528	0	0	0	0	-0	0	0	0	-0.1265	0	-0	0	0	0	0	0	-0	0	0.105	-0.015	0	0	-0	0	0	-0.098	0.1	0	-0	0	0	0	0	0	-0	0	0.05595	0	0	0	-0	0	0	0	0	0	-0	0	574.506	589.578	333.281	200.976	0.0544054	3.66568	-0.0406028	0.010291	-17.2126
63	-0.0490657	-0.0169342	0.00792792	0.0281009	-0.00865361	-0.0375713	0.0211395	0.0290969	-0.00229905	-0.0796844	-0.0279431	0.0461568	0.0470523	-0.00388351	0.0207295	-2.23999	0.00409492	-1.55283	0	0	0	0	-0	0	0	0	-0.1265	0	-0	0	0	0	0	0	-0	0	0.105	-0.015	0	0	-0	0	0	-0.098	0.1	0	-0	0	0	0	0	0	-0	0	0.05595	0	0	0	-0	0	0	0	0	0	-0	0	574.555	589.648	333.296	200.967	0.0534183	3.67693	-0.040648	0.0102995	-17.2478
64	-0.0481952	-0.0169274	0.00793372	0.0280956	-0.00864827	-0.0375757	0.0211407	0.0290981	-0.00229807	-0.0706206	-0.0347399	0.0402756	0.0470268	-0.00388255	0.0207791	-2.23912	0.00402368	-1.55288	0	0	0	0	-0	0	0	0	-0.1265	0	-0	0	0	0	0	0	-0	0	0.105	-0.015	0	0	-0	0	0	-0.098	0.1	0	-0	0	0	0	0	0	-0	0	0.05595	0	0	0	-0	0	0	0	0	0	-0	0	574.66	589.799	333.329	200.949	0.0512073	3.70211	-0.040744	0.0103198	-17.3266
65	-0.0531197	-0.0169238	0.00793663	0.0280936	-0.0086451	-0.0375775	0.0211401	0.0290976	-0.00229678	-0.0773594	-0.036175	0.0504026	0.0471254	-0.00388199	0.0205519	-2.24404	0.00408437	-1.55292	0	0	0	0	-0	0	0	0	-0.1265	0	-0	0	0	0	0	0	-0	0	0.105	-0.015	0	0	-0	0	0	-0.098	0.1	0	-0	0	0	0	0	0	-0	0	0.05595	0	0	0	-0	0	0	0	0	0	-0	0	574.712	589.876	333.345	200.941	0.0501238	3.71446	-0.0407946	0.0103279	-17.365
66	-0.0543882	-0.016921	0.00793881	0.0280913	-0.00864304	-0.0375791	0.0211395	0.0290962	-0.00229761	-0.0813136	-0.0359742	0.0463604	0.0471481	-0.00388163	0.0204952	-2.24531	0.00408678	-1.55295	0	0	0	0	-0	0	0	0	-0.1265	0	-0	0	0	0	0	0	-0	0	0.105	-0.015	0	0	-0	0	0	-0.098	0.1	0	-0	0	0	0	0	0	-0	0	0.05595	0	0	0	-0	0	0	0	0	0	-0	0	574.75	589.931	333.357	200.934	0.0493705	3.72337	-0.0408311	0.0103353	-17.3934
67	-0.0534247	-0.0169192	0.00794043	0.0280899	-0.00864158	-0.0375802	0.0211396	0.029096	-0.00229727	-0.0782223	-0.0387683	0.0485574	0.0471264	-0.00388139	0.0205429	-2.24435	0.00405487	-1.55296	0	0	0	0	-0	0	0	0	-0.1265	0	-0	0	0	0	0	0	-0	0	0.105	-0.015	0	0	-0	0	0	-0.098	0.1	0	-0	0	0	0	0	0	-0	0	0.05595	0	0	0	-0	0	0	0	0	0	-0	0	574.779	589.972	333.366	200.929	0.0487574	3.73024	-0.0408561	0.0103408	-17.4148
68	-0.0560118	-0.0169149	0.00794395	0.0280872	-0.0086381	-0.0375828	0.0211406	0.029096	-0.00229637	-0.0781608	-0.0301802	0.0431786	0.0471749	-0.00388077	0.0204264	-2.24693	0.00406767	-1.553	0	0	0	0	-0	0	0	0	-0.1265	0	-0	0	0	0	0	0	-0	0	0.105	-0.015	0	0	-0	0	0	-0.098	0.1	0	-0	0	0	0	0	0	-0	0	0.05595	0	0	0	-0	0	0	0	0	0	-0	0	574.843	590.065	333.386	200.918	0.0474639	3.74505	-0.0409169	0.0103521	-17.4611
69	-0.0494526	-0.0169091	0.00794886	0.0280825	-0.00863364	-0.0375865	0.0211403	0.0290989	-0.00229278	-0.0920252	-0.0411142	0.0567818	0.0470343	-0.00387989	0.0207434	-2.24037	0.0039027	-1.55302	0	0	0	0	-0	0	0	0	-0.1265	0	-0	0	0	0	0	0	-0	0	0.105	-0.015	0	0	-0	0	0	-0.098	0.1	0	-0	0	0	0	0	0	-0	0	0.05595	0	0	0	-0	0	0	0	0	0	-0	0	574.935	590.197	333.414	200.902	0.0454991	3.76708	-0.0409973	0.0103695	-17.5297
70	-0.0450354	-0.0169055	0.00795178	0.0280796	-0.00863064	-0.0375885	0.0211396	0.0290962	-0.0022963	-0.0852629	-0.0402281	0.0581133	0.0469383	-0.00387945	0.0209546	-2.23595	0.00380047	-1.55303	0	0	0	0	-0	0	0	0	-0.1265	0	-0	0	0	0	0	0	-0	0	0.105	-0.015	0	0	-0	0	0	-0.098	0.1	0	-0	0	0	0	0	0	-0	0	0.05595	0	0	0	-0	0	0	0	0	0	-0	0	574.981	590.264	333.428	200.894	0.0445839	3.7782	-0.0410459	0.0103765	-17.565
71	-0.0424226	-0.0169034	0.0079539	0.0280783	-0.00862856	-0.03759	0.0211402	0.0290958	-0.00229617	-0.0844316	-0.0448775	0.0540136	0.0468808	-0.00387916	0.0210798	-2.23334	0.00373592	-1.55303	0	0	0	0	-0	0	0	0	-0.1265	0	-0	0	0	0	0	0	-0	0	0.105	-0.015	0	0	-0	0	0	-0.098	0.1	0	-0	0	0	0	0	0	-0	0	0.05595	0	0	0	-0	0	0	0	0	0	-0	0	575.017	590.317	333.439	200.888	0.0437432	3.78723	-0.0410778	0.0103831	-17.5924
72	-0.0424584	-0.0169016	0.00795535	0.0280773	-0.0086271	-0.0375909	0.0211406	0.0290959	-0.00229641	-0.0852192	-0.0519089	0.0487225	0.0468793	-0.00387887	0.0210803	-2.23338	0.00372265	-1.55305	0	0	0	0	-0	0	0	0	-0.1265	0	-0	0	0	0	0	0	-0	0	0.105	-0.015	0	0	-0	0	0	-0.098	0.1	0	-0	0	0	0	0	0	-0	0	0.05595	0	0	0	-0	0	0	0	0	0	-0	0	575.045	590.357	333.447	200.883	0.0431864	3.79357	-0.0411034	0.0103876	-17.6121
73	-0.0435413	-0.0168976	0.0079583	0.0280752	-0.00862407	-0.0375931	0.0211399	0.0290956	-0.00229558	-0.0837673	-0.0515749	0.0514435	0.0468978	-0.00387821	0.0210347	-2.23446	0.00371115	-1.55308	0	0	0	0	-0	0	0	0	-0.1265	0	-0	0	0	0	0	0	-0	0	0.105	-0.015	0	0	-0	0	0	-0.098	0.1	0	-0	0	0	0	0	0	-0	0	0.05595	0	0	0	-0	0	0	0	0	0	-0	0	575.105	590.444	333.465	200.873	0.0419886	3.80706	-0.041158	0.0103983	-17.6542
74	-0.0412369	-0.0168955	0.00796007	0.0280732	-0.00862247	-0.0375943	0.0211402	0.0290955	-0.00229519	-0.0843435	-0.0570068	0.0533418	0.046847	-0.00387793	0.0211454	-2.23215	0.00365518	-1.55309	0	0	0	0	-0	0	0	0	-0.1265	0	-0	0	0	0	0	0	-0	0	0.105	-0.015	0	0	-0	0	0	-0.098	0.1	0	-0	0	0	0	0	0	-0	0	0.05595	0	0	0	-0	0	0	0	0	0	-0	0	575.135	590.487	333.474	200.867	0.041384	3.81417	-0.0411858	0.0104038	-17.6768
75	-0.0366551	-0.016894	0.00796127	0.0280722	-0.00862133	-0.0375951	0.0211406	0.0290956	-0.00229495	-0.0842498	-0.0643976	0.0561157	0.0467483	-0.00387769	0.0213619	-2.22757	0.00356273	-1.55308	0	0	0	0	-0	0	0	0	-0.1265	0	-0	0	0	0	0	0	-0	0	0.105	-0.015	0	0	-0	0	0	-0.098	0.1	0	-0	0	0	0	0	0	-0	0	0.05595	0	0	0	-0	0	0	0	0	0	-0	0	575.157	590.519	333.481	200.864	0.040984	3.81906	-0.0412086	0.0104077	-17.6925
76	-0.0328039	-0.0168909	0.00796415	0.0280698	-0.00861868	-0.0375972	0.02114	0.0290955	-0.00229512	-0.0898409	-0.0706011	0.0556709	0.0466623	-0.00387728	0.0215455	-2.22372	0.00347032	-1.55309	0	0	0	0	-0	0	0	0	-0.1265	0	-0	0	0	0	0	0	-0	0	0.105	-0.015	0	0	-0	0	0	-0.098	0.1	0	-0	0	0	0	0	0	-0	0	0.05595	0	0	0	-0	0	0	0	0	0	-0	0	575.205	590.589	333.496	200.855	0.039919	3.83092	-0.0412528	0.0104158	-17.7289
77	-0.0273487	-0.0168863	0.00796864	0.0280659	-0.00861453	-0.0376006	0.0211401	0.0290968	-0.00229434	-0.0798333	-0.0703943	0.0530082	0.0465393	-0.00387671	0.0218056	-2.21826	0.00333724	-1.55311	0	0	0	0	-0	0	0	0	-0.1265	0	-0	0	0	0	0	0	-0	0	0.105	-0.015	0	0	-0	0	0	-0.098	0.1	0	-0	0	0	0	0	0	-0	0	0.05595	0	0	0	-0	0	0	0	0	0	-0	0	575.277	590.694	333.518	200.842	0.0383599	3.84893	-0.0413241	0.0104287	-17.7851
78	-0.0175186	-0.0168798	0.00797428	0.0280608	-0.00860925	-0.0376048	0.0211411	0.0290964	-0.002294	-0.0868916	-0.0654388	0.0523626	0.046317	-0.00387576	0.0222708	-2.20843	0.0031108	-1.55313	0	0	0	0	-0	0	0	0	-0.1265	0	-0	0	0	0	0	0	-0	0	0.105	-0.015	0	0	-0	0	0	-0.098	0.1	0	-0	0	0	0	0	0	-0	0	0.05595	0	0	0	-0	0	0	0	0	0	-0	0	575.379	590.841	333.55	200.823	0.0361433	3.87388	-0.0414173	0.0104478	-17.8626
79	-0.0162546	-0.0168765	0.00797703	0.0280582	-0.00860664	-0.0376064	0.0211415	0.0290966	-0.00229397	-0.0870176	-0.0682793	0.0427666	0.0462827	-0.00387523	0.0223325	-2.20716	0.00306291	-1.55315	0	0	0	0	-0	0	0	0	-0.1265	0	-0	0	0	0	0	0	-0	0	0.105	-0.015	0	0	-0	0	0	-0.098	0.1	0	-0	0	0	0	0	0	-0	0	0.05595	0	0	0	-0	0	0	0	0	0	-0	0	575.429	590.914	333.566	200.814	0.0351655	3.88555	-0.0414673	0.0104569	-17.8998
80	-0.0113768	-0.016874	0.00797905	0.0280573	-0.00860441	-0.0376077	0.0211406	0.0290954	-0.00229343	-0.084414	-0.0700618	0.0445717	0.046171	-0.00387482	0.0225612	-2.20229	0.00295803	-1.55315	0	0	0	0	-0	0	0	0	-0.1265	0	-0	0	0	0	0	0	-0	0	0.105	-0.015	0	0	-0	0	0	-0.098	0.1	0	-0	0	0	0	0	0	-0	0	0.05595	0	0	0	-0	0	0	0	0	0	-0	0	575.467	590.971	333.578	200.807	0.0343875	3.8943	-0.0415054	0.0104621	-17.9266
81	-0.0100527	-0.0168721	0.0079807	0.0280552	-0.00860308	-0.037609	0.0211409	0.0290956	-0.00229345	-0.0841182	-0.0665941	0.0491905	0.0461383	-0.00387458	0.0226245	-2.20096	0.00292077	-1.55317	0	0	0	0	-0	0	0	0	-0.1265	0	-0	0	0	0	0	0	-0	0	0.105	-0.015	0	0	-0	0	0	-0.098	0.1	0	-0	0	0	0	0	0	-0	0	0.05595	0	0	0	-0	0	0	0	0	0	-0	0	575.495	591.011	333.586	200.802	0.0338368	3.90098	-0.0415315	0.0104683	-17.9483
82	-0.00517173	-0.016868	0.00798434	0.0280525	-0.00859955	-0.0376116	0.0211411	0.0290953	-0.00229297	-0.0855691	-0.0612044	0.0504075	0.0460233	-0.003874	0.0228546	-2.19608	0.00280396	-1.55318	0	0	0	0	-0	0	0	0	-0.1265	0	-0	0	0	0	0	0	-0	0	0.105	-0.015	0	0	-0	0	0	-0.098	0.1	0	-0	0	0	0	0	0	-0	0	0.05595	0	0	0	-0	0	0	0	0	0	-0	0	575.558	591.103	333.605	200.791	0.0324809	3.91623	-0.0415915	0.0104786	-17.9953
83	-0.00584178	-0.0168659	0.00798597	0.0280512	-0.00859784	-0.0376126	0.021141	0.0290956	-0.00229341	-0.081252	-0.0561655	0.0555669	0.0460359	-0.00387368	0.0228258	-2.19675	0.002801	-1.5532	0	0	0	0	-0	0	0	0	-0.1265	0	-0	0	0	0	0	0	-0	0	0.105	-0.015	0	0	-0	0	0	-0.098	0.1	0	-0	0	0	0	0	0	-0	0	0.05595	0	0	0	-0	0	0	0	0	0	-0	0	575.589	591.147	333.614	200.785	0.0318	3.92359	-0.0416177	0.0104834	-18.0177
84	-0.00536694	-0.0168617	0.00798981	0.0280479	-0.00859432	-0.0376155	0.0211404	0.0290971	-0.00229265	-0.0685207	-0.0546296	0.0557841	0.0460201	-0.00387307	0.022853	-2.19627	0.00275946	-1.55323	0	0	0	0	-0	0	0	0	-0.1265	0	-0	0	0	0	0	0	-0	0	0.105	-0.015	0	0	-0	0	0	-0.098	0.1	0	-0	0	0	0	0	0	-0	0	0.05595	0	0	0	-0	0	0	0	0	0	-0	0	575.655	591.245	333.635	200.773	0.0304191	3.93968	-0.0416837	0.0104956	-18.0683
85	-0.00269292	-0.0168609	0.00799027	0.0280476	-0.00859356	-0.0376156	0.0211408	0.0290951	-0.00229226	-0.0678382	-0.0540741	0.05554	0.0459584	-0.00387294	0.0229767	-2.1936	0.00270789	-1.55323	0	0	0	0	-0	0	0	0	-0.1265	0	-0	0	0	0	0	0	-0	0	0.105	-0.015	0	0	-0	0	0	-0.098	0.1	0	-0	0	0	0	0	0	-0	0	0.05595	0	0	0	-0	0	0	0	0	0	-0	0	575.664	591.258	333.637	200.771	0.0302075	3.94193	-0.0416919	0.0104965	-18.0749
86	-0.00547853	-0.0168597	0.00799134	0.0280464	-0.00859284	-0.0376164	0.0211412	0.0290954	-0.002292	-0.0669822	-0.0571862	0.0598685	0.0460205	-0.00387276	0.0228504	-2.19638	0.0027476	-1.55325	0	0	0	0	-0	0	0	0	-0.1265	0	-0	0	0	0	0	0	-0	0	0.105	-0.015	0	0	-0	0	0	-0.098	0.1	0	-0	0	0	0	0	0	-0	0	0.05595	0	0	0	-0	0	0	0	0	0	-0	0	575.683	591.286	333.643	200.768	0.0298843	3.9461	-0.0417115	0.0105004	-18.0888
87	-0.00501075	-0.0168578	0.00799268	0.0280452	-0.00859149	-0.0376174	0.0211409	0.0290951	-0.00229198	-0.0674903	-0.0545733	0.0595497	0.0460073	-0.00387243	0.0228744	-2.19591	0.00272544	-1.55326	0	0	0	0	-0	0	0	0	-0.1265	0	-0	0	0	0	0	0	-0	0	0.105	-0.015	0	0	-0	0	0	-0.098	0.1	0	-0	0	0	0	0	0	-0	0	0.05595	0	0	0	-0	0	0	0	0	0	-0	0	575.712	591.327	333.651	200.763	0.029381	3.95216	-0.0417388	0.0105057	-18.1083
88	-0.00617585	-0.016855	0.00799505	0.0280432	-0.00858928	-0.0376191	0.0211418	0.0290964	-0.00229208	-0.0633455	-0.055386	0.0678633	0.0460309	-0.00387205	0.022824	-2.19707	0.00272588	-1.55328	0	0	0	0	-0	0	0	0	-0.1265	0	-0	0	0	0	0	0	-0	0	0.105	-0.015	0	0	-0	0	0	-0.098	0.1	0	-0	0	0	0	0	0	-0	0	0.05595	0	0	0	-0	0	0	0	0	0	-0	0	575.754	591.387	333.664	200.755	0.0284809	3.96223	-0.0417765	0.0105129	-18.1395
89	-0.00547359	-0.0168538	0.00799615	0.0280423	-0.00858814	-0.0376198	0.0211412	0.0290955	-0.00229173	-0.0597524	-0.0571823	0.0710017	0.0460135	-0.00387184	0.0228578	-2.19637	0.0027038	-1.55329	0	0	0	0	-0	0	0	0	-0.1265	0	-0	0	0	0	0	0	-0	0	0.105	-0.015	0	0	-0	0	0	-0.098	0.1	0	-0	0	0	0	0	0	-0	0	0.05595	0	0	0	-0	0	0	0	0	0	-0	0	575.774	591.416	333.67	200.751	0.0280178	3.96734	-0.0417943	0.0105159	-18.1551
90	-0.00632841	-0.0168509	0.00799885	0.0280403	-0.00858556	-0.0376218	0.0211423	0.0290964	-0.00229169	-0.0655178	-0.049779	0.0758607	0.0460299	-0.00387146	0.0228218	-2.19722	0.00269725	-1.55332	0	0	0	0	-0	0	0	0	-0.1265	0	-0	0	0	0	0	0	-0	0	0.105	-0.015	0	0	-0	0	0	-0.098	0.1	0	-0	0	0	0	0	0	-0	0	0.05595	0	0	0	-0	0	0	0	0	0	-0	0	575.819	591.481	333.683	200.743	0.0270121	3.97838	-0.0418361	0.010523	-18.1887
91	-0.00821308	-0.0168468	0.00800256	0.0280365	-0.00858236	-0.0376248	0.0211423	0.0290972	-0.00229099	-0.0567257	-0.055104	0.0693106	0.0460681	-0.00387088	0.0227402	-2.19911	0.00269797	-1.55336	0	0	0	0	-0	0	0	0	-0.1265	0	-0	0	0	0	0	0	-0	0	0.105	-0.015	0	0	-0	0	0	-0.098	0.1	0	-0	0	0	0	0	0	-0	0	0.05595	0	0	0	-0	0	0	0	0	0	-0	0	575.885	591.575	333.703	200.731	0.0255393	3.99509	-0.0418938	0.0105356	-18.2409
92	-0.00242854	-0.0168446	0.00800454	0.0280348	-0.00858037	-0.0376259	0.0211418	0.0290956	-0.0022907	-0.0545809	-0.0587019	0.0751512	0.0459342	-0.00387057	0.0230092	-2.19332	0.00258107	-1.55336	0	0	0	0	-0	0	0	0	-0.1265	0	-0	0	0	0	0	0	-0	0	0.105	-0.015	0	0	-0	0	0	-0.098	0.1	0	-0	0	0	0	0	0	-0	0	0.05595	0	0	0	-0	0	0	0	0	0	-0	0	575.916	591.622	333.713	200.725	0.0248675	4.00297	-0.0419274	0.0105405	-18.2655
93	-0.000519577	-0.016843	0.00800587	0.0280334	-0.00857921	-0.0376269	0.0211415	0.0290953	-0.00229071	-0.0515626	-0.06052	0.0788194	0.0458875	-0.00387034	0.0230986	-2.19141	0.00253592	-1.55336	0	0	0	0	-0	0	0	0	-0.1265	0	-0	0	0	0	0	0	-0	0	0.105	-0.015	0	0	-0	0	0	-0.098	0.1	0	-0	0	0	0	0	0	-0	0	0.05595	0	0	0	-0	0	0	0	0	0	-0	0	575.94	591.657	333.72	200.721	0.0244345	4.00833	-0.0419512	0.0105454	-18.283
94	-0.00212574	-0.0168397	0.00800891	0.0280308	-0.00857642	-0.0376292	0.0211415	0.0290953	-0.00229039	-0.0559436	-0.058244	0.0782206	0.0459206	-0.00386987	0.023029	-2.19302	0.00253779	-1.5534	0	0	0	0	-0	0	0	0	-0.1265	0	-0	0	0	0	0	0	-0	0	0.105	-0.015	0	0	-0	0	0	-0.098	0.1	0	-0	0	0	0	0	0	-0	0	0.05595	0	0	0	-0	0	0	0	0	0	-0	0	575.992	591.734	333.737	200.711	0.0233382	4.02107	-0.0420032	0.0105551	-18.323
95	0.000478195	-0.0168345	0.00801287	0.0280275	-0.00857255	-0.0376319	0.0211414	0.029095	-0.00228977	-0.0618552	-0.0636349	0.0804504	0.0458546	-0.00386904	0.0231549	-2.19041	0.00245415	-1.55343	0	0	0	0	-0	0	0	0	-0.1265	0	-0	0	0	0	0	0	-0	0	0.105	-0.015	0	0	-0	0	0	-0.098	0.1	0	-0	0	0	0	0	0	-0	0	0.05595	0	0	0	-0	0	0	0	0	0	-0	0	576.071	591.847	333.76	200.696	0.0217484	4.03903	-0.0420743	0.0105692	-18.3791
96	-0.0019916	-0.0168321	0.00801535	0.028025	-0.00857038	-0.0376336	0.021143	0.029095	-0.00228966	-0.0617916	-0.074818	0.0815104	0.045909	-0.00386874	0.0230444	-2.19288	0.00247885	-1.55345	0	0	0	0	-0	0	0	0	-0.1265	0	-0	0	0	0	0	0	-0	0	0.105	-0.015	0	0	-0	0	0	-0.098	0.1	0	-0	0	0	0	0	0	-0	0	0.05595	0	0	0	-0	0	0	0	0	0	-0	0	576.109	591.902	333.772	200.689	0.0208931	4.04886	-0.0421111	0.0105755	-18.4097
97	0.00336011	-0.0168303	0.00801673	0.028024	-0.008569	-0.0376345	0.0211418	0.0290951	-0.0022896	-0.0628832	-0.0730093	0.0858979	0.0457833	-0.0038684	0.0232924	-2.18752	0.00237213	-1.55346	0	0	0	0	-0	0	0	0	-0.1265	0	-0	0	0	0	0	0	-0	0	0.105	-0.015	0	0	-0	0	0	-0.098	0.1	0	-0	0	0	0	0	0	-0	0	0.05595	0	0	0	-0	0	0	0	0	0	-0	0	576.137	591.944	333.78	200.684	0.0203427	4.05534	-0.0421391	0.0105799	-18.4301
98	-0.00209382	-0.0168262	0.00802005	0.0280207	-0.00856589	-0.0376371	0.0211418	0.0290948	-0.00228922	-0.0625541	-0.0763848	0.0862229	0.0459051	-0.00386782	0.0230472	-2.19297	0.00243706	-1.5535	0	0	0	0	-0	0	0	0	-0.1265	0	-0	0	0	0	0	0	-0	0	0.105	-0.015	0	0	-0	0	0	-0.098	0.1	0	-0	0	0	0	0	0	-0	0	0.05595	0	0	0	-0	0	0	0	0	0	-0	0	576.2	592.032	333.799	200.673	0.018987	4.07031	-0.042191	0.0105918	-18.4765
99	-0.00542698	-0.0168241	0.0080219	0.0280194	-0.008564	-0.0376382	0.0211418	0.0290957	-0.00228952	-0.0697757	-0.0774185	0.0825062	0.045979	-0.00386753	0.0228963	-2.19631	0.00247995	-1.55352	0	0	0	0	-0	0	0	0	-0.1265	0	-0	0	0	0	0	0	-0	0	0.105	-0.015	0	0	-0	0	0	-0.098	0.1	0	-0	0	0	0	0	0	-0	0	0.05595	0	0	0	-0	0	0	0	0	0	-0	0	576.23	592.077	333.808	200.667	0.0183446	4.07769	-0.042222	0.0105962	-18.4994
100	-0.00583324	-0.0168227	0.00802321	0.0280186	-0.00856259	-0.0376391	0.021142	0.029095	-0.00228902	-0.0707084	-0.0747363	0.086076	0.0459866	-0.00386731	0.0228791	-2.19671	0.00247629	-1.55353	0	0	0	0	-0	0	0	0	-0.1265	0	-0	0	0	0	0	0	-0	0	0.105	-0.015	0	0	-0	0	0	-0.098	0.1	0	-0	0	0	0	0	0	-0	0	0.05595	0	0	0	-0	0	0	0	0	0	-0	0	576.252	592.11	333.814	200.663	0.0178536	4.08317	-0.0422445	0.0105992	-18.516
