Stefan210/kinematic_calibration/src/kinematic_calibration/validation/experiments/experiments/anzahl_messungen/AB_C/larm_82/optimization_intermediate_results.csv
iteration	HeadPitch_offset	HeadYaw_offset	LElbowRoll_offset	LElbowYaw_offset	LShoulderPitch_offset	LShoulderRoll_offset	marker_transform_larm_tx	marker_transform_larm_ty	marker_transform_larm_tz	marker_transform_larm_rr	marker_transform_larm_rp	marker_transform_larm_ry	camera_transform_tx	camera_transform_ty	camera_transform_tz	camera_transform_rr	camera_transform_rp	camera_transform_ry	HeadPitch_transform_tx	HeadPitch_transform_ty	HeadPitch_transform_tz	HeadPitch_transform_rr	HeadPitch_transform_rp	HeadPitch_transform_ry	HeadYaw_transform_tx	HeadYaw_transform_ty	HeadYaw_transform_tz	HeadYaw_transform_rr	HeadYaw_transform_rp	HeadYaw_transform_ry	LElbowRoll_transform_tx	LElbowRoll_transform_ty	LElbowRoll_transform_tz	LElbowRoll_transform_rr	LElbowRoll_transform_rp	LElbowRoll_transform_ry	LElbowYaw_transform_tx	LElbowYaw_transform_ty	LElbowYaw_transform_tz	LElbowYaw_transform_rr	LElbowYaw_transform_rp	LElbowYaw_transform_ry	LShoulderPitch_transform_tx	LShoulderPitch_transform_ty	LShoulderPitch_transform_tz	LShoulderPitch_transform_rr	LShoulderPitch_transform_rp	LShoulderPitch_transform_ry	LShoulderRoll_transform_tx	LShoulderRoll_transform_ty	LShoulderRoll_transform_tz	LShoulderRoll_transform_rr	LShoulderRoll_transform_rp	LShoulderRoll_transform_ry	LWristYaw_transform_tx	LWristYaw_transform_ty	LWristYaw_transform_tz	LWristYaw_transform_rr	LWristYaw_transform_rp	LWristYaw_transform_ry	l_wrist_joint_transform_tx	l_wrist_joint_transform_ty	l_wrist_joint_transform_tz	l_wrist_joint_transform_rr	l_wrist_joint_transform_rp	l_wrist_joint_transform_ry	camera_fx	camera_fy	camera_cx	camera_cy	camera_D0	camera_D1	camera_D2	camera_D3	camera_D4	
0	0.0249164	-0.0307543	0.000853157	4.65819e-06	-0.000318322	-0.00310766	0.05071	0	0.01774	-2.26369	1.66533e-16	-1.5708	545.901	551.038	324.928	201.58	0.0255298	2.61142	-0.0636736	-0.0350419	0.213964
1	-0.0162884	0.00379073	0.024798	0.0330938	0.0034738	0.0343078	0.0252624	-0.0302615	0.00279367	-0.000233832	-0.000510024	-0.00301634	0.0561212	-0.000263718	0.0153832	-2.19766	-0.000294293	-1.53448	0	0	0	0	-0	0	0	0	-0.1265	0	-0	0	0	0	0	0	-0	0	0.105	0.015	0	0	-0	0	0	0.098	0.1	0	-0	0	0	0	0	0	-0	0	0.05595	0	0	0	-0	0	0	0	0	0	-0	0	545.901	551.039	324.928	201.581	-0.0104921	2.60035	-0.0844134	0.03696	0.211725
2	-0.0167006	0.0139233	0.0219955	0.0434086	-0.00050607	0.0384358	0.0254756	-0.0303945	0.00368793	-0.000340221	-0.00059751	-0.00300442	0.0537322	-0.000421604	0.0179748	-2.19678	-0.00171768	-1.54526	0	0	0	0	-0	0	0	0	-0.1265	0	-0	0	0	0	0	0	-0	0	0.105	0.015	0	0	-0	0	0	0.098	0.1	0	-0	0	0	0	0	0	-0	0	0.05595	0	0	0	-0	0	0	0	0	0	-0	0	545.903	551.039	324.925	201.584	-0.14595	2.52013	-0.0519935	0.0108602	0.187127
3	-0.0171286	0.0161879	0.0198886	0.0409267	-0.000960406	0.0381947	0.0253133	-0.0303182	0.00334733	-0.000301273	-0.000565138	-0.00301596	0.0551138	-4.81831e-05	0.0157261	-2.1945	-0.00277979	-1.54884	0	0	0	0	-0	0	0	0	-0.1265	0	-0	0	0	0	0	0	-0	0	0.105	0.015	0	0	-0	0	0	0.098	0.1	0	-0	0	0	0	0	0	-0	0	0.05595	0	0	0	-0	0	0	0	0	0	-0	0	545.907	551.04	324.921	201.591	-0.404811	2.36268	-0.0244136	0.00319018	0.139683
4	-0.0171101	0.0228275	0.0177196	0.0369167	-0.00375896	0.0371055	0.0251249	-0.0301637	0.00284891	-0.000245077	-0.000515285	-0.00302348	0.056454	0.00014988	0.0140411	-2.19416	-0.00543206	-1.55688	0	0	0	0	-0	0	0	0	-0.1265	0	-0	0	0	0	0	0	-0	0	0.105	0.015	0	0	-0	0	0	0.098	0.1	0	-0	0	0	0	0	0	-0	0	0.05595	0	0	0	-0	0	0	0	0	0	-0	0	545.916	551.04	324.914	201.601	-0.646644	2.09314	0.0118165	-0.00764974	0.045663
5	-0.0168282	0.0263481	0.0154877	0.0354051	-0.00534018	0.0360823	0.0249514	-0.0300509	0.00265863	-0.000209951	-0.000508273	-0.00304002	0.0566339	0.000200805	0.0139634	-2.19528	-0.00628244	-1.56135	0	0	0	0	-0	0	0	0	-0.1265	0	-0	0	0	0	0	0	-0	0	0.105	0.015	0	0	-0	0	0	0.098	0.1	0	-0	0	0	0	0	0	-0	0	0.05595	0	0	0	-0	0	0	0	0	0	-0	0	545.938	551.036	324.902	201.614	-0.610375	1.66856	0.0196796	-0.0107218	-0.129437
6	-0.0163478	0.0269243	0.0138184	0.0350596	-0.00572677	0.0350658	0.0248247	-0.0299815	0.00264022	-0.000181033	-0.000506912	-0.00301369	0.0559588	0.000158549	0.0149647	-2.19742	-0.00541739	-1.56228	0	0	0	0	-0	0	0	0	-0.1265	0	-0	0	0	0	0	0	-0	0	0.105	0.015	0	0	-0	0	0	0.098	0.1	0	-0	0	0	0	0	0	-0	0	0.05595	0	0	0	-0	0	0	0	0	0	-0	0	545.98	551.022	324.888	201.626	-0.38625	1.04398	0.0108236	-0.00962053	-0.403621
7	-0.0159058	0.027125	0.012747	0.034913	-0.00598041	0.0342801	0.0247418	-0.0299329	0.00264614	-0.000227218	-0.000488381	-0.00301624	0.0552487	0.000101808	0.0159795	-2.1992	-0.00464898	-1.56262	0	0	0	0	-0	0	0	0	-0.1265	0	-0	0	0	0	0	0	-0	0	0.105	0.015	0	0	-0	0	0	0.098	0.1	0	-0	0	0	0	0	0	-0	0	0.05595	0	0	0	-0	0	0	0	0	0	-0	0	546.059	550.981	324.876	201.624	-0.171147	0.460749	0.0019674	-0.00833257	-0.674595
8	-0.0158358	0.0273345	0.0123106	0.0349352	-0.00618568	0.0339055	0.0247073	-0.0299104	0.00265586	0.000101427	-0.00040299	-0.0031457	0.0548715	6.92473e-05	0.0165102	-2.20017	-0.00439878	-1.56285	0	0	0	0	-0	0	0	0	-0.1265	0	-0	0	0	0	0	0	-0	0	0.105	0.015	0	0	-0	0	0	0.098	0.1	0	-0	0	0	0	0	0	-0	0	0.05595	0	0	0	-0	0	0	0	0	0	-0	0	546.248	550.86	324.868	201.601	-0.0709175	0.184089	-0.00136342	-0.00782593	-0.851977
9	-0.0148828	0.0274468	0.0121861	0.0350716	-0.00628838	0.0336982	0.0246945	-0.0299038	0.00266532	0.00119969	-0.0006164	-0.0028494	0.0547134	5.69233e-05	0.0167556	-2.19946	-0.00442299	-1.56295	0	0	0	0	-0	0	0	0	-0.1265	0	-0	0	0	0	0	0	-0	0	0.105	0.015	0	0	-0	0	0	0.098	0.1	0	-0	0	0	0	0	0	-0	0	0.05595	0	0	0	-0	0	0	0	0	0	-0	0	546.765	550.517	324.866	201.54	-0.0620419	0.181279	-0.000326722	-0.00782088	-1.01876
10	-0.0137404	0.0275697	0.0120838	0.0353915	-0.00640529	0.0333437	0.0246781	-0.0298978	0.00268309	0.00172252	0.00133518	-0.00346917	0.0545235	4.25691e-05	0.0170357	-2.19839	-0.00461303	-1.56305	0	0	0	0	-0	0	0	0	-0.1265	0	-0	0	0	0	0	0	-0	0	0.105	0.015	0	0	-0	0	0	0.098	0.1	0	-0	0	0	0	0	0	-0	0	0.05595	0	0	0	-0	0	0	0	0	0	-0	0	548.089	549.673	324.897	201.381	-0.0955233	0.342022	0.00421109	-0.00805713	-1.38737
11	-0.0097743	0.0277963	0.0118981	0.0360234	-0.00662191	0.0326819	0.0246479	-0.0298872	0.00271827	0.000442284	0.00458719	-0.00794051	0.0541281	1.47182e-05	0.0176669	-2.19441	-0.00518931	-1.56345	0	0	0	0	-0	0	0	0	-0.1265	0	-0	0	0	0	0	0	-0	0	0.105	0.015	0	0	-0	0	0	0.098	0.1	0	-0	0	0	0	0	0	-0	0	0.05595	0	0	0	-0	0	0	0	0	0	-0	0	550.773	548.183	325.124	201.009	-0.168374	0.700176	0.0131173	-0.00847574	-2.18393
12	0.00330941	0.0280993	0.0116598	0.0368378	-0.00690539	0.0319671	0.0246174	-0.029876	0.00276499	0.0019067	-0.0161415	-0.00382853	0.0534696	-2.136e-05	0.0189107	-2.18077	-0.00685288	-1.56507	0	0	0	0	-0	0	0	0	-0.1265	0	-0	0	0	0	0	0	-0	0	0.105	0.015	0	0	-0	0	0	0.098	0.1	0	-0	0	0	0	0	0	-0	0	0.05595	0	0	0	-0	0	0	0	0	0	-0	0	554.403	547.152	326.202	200.197	-0.267543	1.22564	0.0232415	-0.00867462	-3.34274
13	0.0296128	0.0284351	0.0114405	0.0375057	-0.00720018	0.031675	0.0245962	-0.029872	0.00280955	-0.00446604	-0.0160129	-0.0121083	0.0525762	-5.04068e-05	0.0207894	-2.15253	-0.011259	-1.57024	0	0	0	0	-0	0	0	0	-0.1265	0	-0	0	0	0	0	0	-0	0	0.105	0.015	0	0	-0	0	0	0.098	0.1	0	-0	0	0	0	0	0	-0	0	0.05595	0	0	0	-0	0	0	0	0	0	-0	0	557.75	548.416	329.754	198.604	-0.345042	1.66288	0.0279068	-0.00775909	-4.20558
14	0.0250034	0.0286364	0.0113594	0.0376908	-0.00735391	0.0316238	0.024632	-0.029866	0.00281699	-0.0114224	0.0451264	-0.0218771	0.052529	-5.83783e-05	0.0206726	-2.15647	-0.0132068	-1.5727	0	0	0	0	-0	0	0	0	-0.1265	0	-0	0	0	0	0	0	-0	0	0.105	0.015	0	0	-0	0	0	0.098	0.1	0	-0	0	0	0	0	0	-0	0	0.05595	0	0	0	-0	0	0	0	0	0	-0	0	558.763	549.102	331.47	198.06	-0.366514	1.78612	0.0287404	-0.00735899	-4.43554
15	0.0253798	0.0287279	0.0113156	0.0377729	-0.00742719	0.0316094	0.0246001	-0.0298662	0.00282892	-0.0037232	0.00772542	-0.0214779	0.0524591	-6.19067e-05	0.0207699	-2.1557	-0.0145915	-1.57437	0	0	0	0	-0	0	0	0	-0.1265	0	-0	0	0	0	0	0	-0	0	0.105	0.015	0	0	-0	0	0	0.098	0.1	0	-0	0	0	0	0	0	-0	0	0.05595	0	0	0	-0	0	0	0	0	0	-0	0	559.303	549.575	332.653	197.749	-0.376238	1.83971	0.0289577	-0.00701467	-4.52046
16	0.0180585	0.0288353	0.0112628	0.037871	-0.00751368	0.0316075	0.0245953	-0.0298796	0.00283712	0.00841724	0.022133	-0.000163849	0.0525422	-6.58004e-05	0.020472	-2.16261	-0.0164746	-1.57649	0	0	0	0	-0	0	0	0	-0.1265	0	-0	0	0	0	0	0	-0	0	0.105	0.015	0	0	-0	0	0	0.098	0.1	0	-0	0	0	0	0	0	-0	0	0.05595	0	0	0	-0	0	0	0	0	0	-0	0	559.858	550.143	334.243	197.424	-0.383583	1.87399	0.0289954	-0.00651418	-4.54757
17	0.0046742	0.028918	0.0112274	0.0379234	-0.00757631	0.0316012	0.0245821	-0.0298683	0.00283705	-0.00966347	0.0390917	-0.00652633	0.0527734	-6.80838e-05	0.0198232	-2.1758	-0.0178263	-1.57775	0	0	0	0	-0	0	0	0	-0.1265	0	-0	0	0	0	0	0	-0	0	0.105	0.015	0	0	-0	0	0	0.098	0.1	0	-0	0	0	0	0	0	-0	0	0.05595	0	0	0	-0	0	0	0	0	0	-0	0	560.181	550.461	335.31	197.255	-0.387377	1.89017	0.029075	-0.00619653	-4.55808
18	-0.00302292	0.0289618	0.0112116	0.037942	-0.00760793	0.0315933	0.0245826	-0.0298686	0.00284125	-0.00172606	0.038209	-0.015327	0.0529049	-6.92181e-05	0.0194392	-2.18344	-0.0183932	-1.57819	0	0	0	0	-0	0	0	0	-0.1265	0	-0	0	0	0	0	0	-0	0	0.105	0.015	0	0	-0	0	0	0.098	0.1	0	-0	0	0	0	0	0	-0	0	0.05595	0	0	0	-0	0	0	0	0	0	-0	0	560.301	550.562	335.726	197.199	-0.388647	1.8956	0.029153	-0.00608297	-4.56405
19	-0.0273972	0.0290294	0.0111808	0.0379786	-0.007664	0.0315928	0.0245862	-0.0298714	0.00285823	-0.0246463	0.0678533	0.00219451	0.0533398	-7.10515e-05	0.0182001	-2.20764	-0.0204577	-1.5798	0	0	0	0	-0	0	0	0	-0.1265	0	-0	0	0	0	0	0	-0	0	0.105	0.015	0	0	-0	0	0	0.098	0.1	0	-0	0	0	0	0	0	-0	0	0.05595	0	0	0	-0	0	0	0	0	0	-0	0	560.587	550.888	337.274	197.06	-0.389992	1.89078	0.0290537	-0.00556549	-4.50793
20	-0.0217025	0.0290895	0.011159	0.0379965	-0.00770768	0.0315805	0.0245818	-0.0298702	0.00284413	-0.0112496	0.0780446	0.00836174	0.0532028	-7.21495e-05	0.0185276	-2.20192	-0.0212964	-1.58083	0	0	0	0	-0	0	0	0	-0.1265	0	-0	0	0	0	0	0	-0	0	0.105	0.015	0	0	-0	0	0	0.098	0.1	0	-0	0	0	0	0	0	-0	0	0.05595	0	0	0	-0	0	0	0	0	0	-0	0	560.712	550.987	337.965	197.023	-0.39064	1.89026	0.0291552	-0.0053695	-4.49778
21	-0.0204507	0.0291255	0.0111477	0.0380039	-0.00773425	0.031573	0.0245782	-0.0298731	0.00284396	0.0105779	0.0798188	0.013375	0.0531651	-7.30293e-05	0.0186135	-2.20066	-0.0220662	-1.58171	0	0	0	0	-0	0	0	0	-0.1265	0	-0	0	0	0	0	0	-0	0	0.105	0.015	0	0	-0	0	0	0.098	0.1	0	-0	0	0	0	0	0	-0	0	0.05595	0	0	0	-0	0	0	0	0	0	-0	0	560.798	551.056	338.599	197.005	-0.390532	1.88479	0.0291857	-0.00516741	-4.47311
22	-0.0198238	0.0291577	0.0111374	0.0380102	-0.0077582	0.0315659	0.0245786	-0.0298672	0.00284952	0.0227509	0.0634255	0.00290698	0.0531436	-7.36981e-05	0.0186618	-2.20004	-0.0227427	-1.58246	0	0	0	0	-0	0	0	0	-0.1265	0	-0	0	0	0	0	0	-0	0	0.105	0.015	0	0	-0	0	0	0.098	0.1	0	-0	0	0	0	0	0	-0	0	0.05595	0	0	0	-0	0	0	0	0	0	-0	0	560.853	551.097	339.151	197.002	-0.390167	1.87847	0.0292153	-0.00499414	-4.44931
23	-0.0291132	0.0291822	0.0111293	0.0380125	-0.00777659	0.0315584	0.024577	-0.0298702	0.00284781	0.00652939	0.0673653	0.0135213	0.0533102	-7.41405e-05	0.0181785	-2.20934	-0.0233427	-1.58278	0	0	0	0	-0	0	0	0	-0.1265	0	-0	0	0	0	0	0	-0	0	0.105	0.015	0	0	-0	0	0	0.098	0.1	0	-0	0	0	0	0	0	-0	0	0.05595	0	0	0	-0	0	0	0	0	0	-0	0	560.885	551.112	339.545	197.005	-0.389665	1.87239	0.0292475	-0.0048711	-4.42976
24	-0.0351584	0.0291947	0.0111261	0.0380137	-0.00778494	0.0315554	0.0245763	-0.0298651	0.0028447	0.00896108	0.0741783	0.0162	0.0534148	-7.43801e-05	0.0178603	-2.2154	-0.0235859	-1.58282	0	0	0	0	-0	0	0	0	-0.1265	0	-0	0	0	0	0	0	-0	0	0.105	0.015	0	0	-0	0	0	0.098	0.1	0	-0	0	0	0	0	0	-0	0	0.05595	0	0	0	-0	0	0	0	0	0	-0	0	560.896	551.116	339.678	197.008	-0.389415	1.86995	0.0292726	-0.00483429	-4.42368
25	-0.038266	0.029203	0.0111239	0.0380129	-0.00779137	0.0315523	0.024576	-0.0298646	0.00284424	0.00779351	0.0826805	0.0149134	0.0534671	-7.45649e-05	0.0176978	-2.21851	-0.0238503	-1.58298	0	0	0	0	-0	0	0	0	-0.1265	0	-0	0	0	0	0	0	-0	0	0.105	0.015	0	0	-0	0	0	0.098	0.1	0	-0	0	0	0	0	0	-0	0	0.05595	0	0	0	-0	0	0	0	0	0	-0	0	560.909	551.12	339.857	197.012	-0.389185	1.86715	0.0292805	-0.00477488	-4.4141
26	-0.0344357	0.0292091	0.0111223	0.0380131	-0.00779553	0.0315506	0.0245752	-0.0298648	0.00284425	0.00898509	0.084829	0.0128657	0.0533976	-7.46731e-05	0.0179048	-2.21469	-0.0238964	-1.58317	0	0	0	0	-0	0	0	0	-0.1265	0	-0	0	0	0	0	0	-0	0	0.105	0.015	0	0	-0	0	0	0.098	0.1	0	-0	0	0	0	0	0	-0	0	0.05595	0	0	0	-0	0	0	0	0	0	-0	0	560.914	551.121	339.93	197.014	-0.389035	1.86572	0.0292913	-0.00475364	-4.41038
27	-0.0253432	0.0292194	0.0111193	0.0380125	-0.00780388	0.0315475	0.0245749	-0.0298656	0.0028435	0.00236566	0.0877591	0.00620147	0.0532319	-7.48746e-05	0.0183945	-2.20561	-0.0241484	-1.58377	0	0	0	0	-0	0	0	0	-0.1265	0	-0	0	0	0	0	0	-0	0	0.105	0.015	0	0	-0	0	0	0.098	0.1	0	-0	0	0	0	0	0	-0	0	0.05595	0	0	0	-0	0	0	0	0	0	-0	0	560.925	551.127	340.223	197.023	-0.388539	1.86038	0.0292863	-0.00465491	-4.39244
28	-0.0180999	0.0292296	0.0111168	0.038012	-0.00781087	0.0315449	0.0245752	-0.0298654	0.00284399	0.00365393	0.0898268	-0.000886615	0.0530944	-7.50394e-05	0.0187827	-2.19837	-0.0242312	-1.58414	0	0	0	0	-0	0	0	0	-0.1265	0	-0	0	0	0	0	0	-0	0	0.105	0.015	0	0	-0	0	0	0.098	0.1	0	-0	0	0	0	0	0	-0	0	0.05595	0	0	0	-0	0	0	0	0	0	-0	0	560.93	551.126	340.366	197.029	-0.388187	1.85722	0.0292994	-0.00461174	-4.38407
29	-0.00989603	0.0292425	0.0111134	0.0380091	-0.00782102	0.0315409	0.024576	-0.0298664	0.0028433	0.00118246	0.0842809	0.00930077	0.0529365	-7.52434e-05	0.0192219	-2.19019	-0.0245639	-1.58482	0	0	0	0	-0	0	0	0	-0.1265	0	-0	0	0	0	0	0	-0	0	0.105	0.015	0	0	-0	0	0	0.098	0.1	0	-0	0	0	0	0	0	-0	0	0.05595	0	0	0	-0	0	0	0	0	0	-0	0	560.933	551.124	340.726	197.046	-0.387311	1.84903	0.0292903	-0.00449023	-4.35903
30	-0.00894199	0.029263	0.0111092	0.038003	-0.00783638	0.031535	0.0245783	-0.0298698	0.0028442	-0.0085542	0.0730112	-0.00383418	0.0529142	-7.55466e-05	0.0192763	-2.18928	-0.0251768	-1.58553	0	0	0	0	-0	0	0	0	-0.1265	0	-0	0	0	0	0	0	-0	0	0.105	0.015	0	0	-0	0	0	0.098	0.1	0	-0	0	0	0	0	0	-0	0	0.05595	0	0	0	-0	0	0	0	0	0	-0	0	560.926	551.111	341.238	197.078	-0.386017	1.83754	0.0292821	-0.00432119	-4.32528
31	0.00177165	0.0292794	0.0111052	0.0380011	-0.0078477	0.0315295	0.0245753	-0.0298668	0.00284254	-0.00687317	0.0769711	-0.016269	0.0527049	-7.5774e-05	0.0198479	-2.17859	-0.0253195	-1.58613	0	0	0	0	-0	0	0	0	-0.1265	0	-0	0	0	0	0	0	-0	0	0.105	0.015	0	0	-0	0	0	0.098	0.1	0	-0	0	0	0	0	0	-0	0	0.05595	0	0	0	-0	0	0	0	0	0	-0	0	560.924	551.095	341.484	197.095	-0.385179	1.83068	0.0293098	-0.00424647	-4.30832
32	0.00460652	0.0292977	0.0111024	0.0379921	-0.00786163	0.0315221	0.0245702	-0.029875	0.00284932	0.0236278	0.0643801	-0.0243399	0.052645	-7.60774e-05	0.0199986	-2.17581	-0.0259129	-1.58692	0	0	0	0	-0	0	0	0	-0.1265	0	-0	0	0	0	0	0	-0	0	0.105	0.015	0	0	-0	0	0	0.098	0.1	0	-0	0	0	0	0	0	-0	0	0.05595	0	0	0	-0	0	0	0	0	0	-0	0	560.902	551.06	342.011	197.138	-0.383571	1.81715	0.0293007	-0.00406865	-4.26998
33	0.00874385	0.0293157	0.0110975	0.0379935	-0.00787415	0.0315162	0.0245776	-0.0298653	0.00284189	0.0206742	0.0451785	-0.0208082	0.0525596	-7.63566e-05	0.0202207	-2.17171	-0.0261521	-1.58737	0	0	0	0	-0	0	0	0	-0.1265	0	-0	0	0	0	0	0	-0	0	0.105	0.015	0	0	-0	0	0	0.098	0.1	0	-0	0	0	0	0	0	-0	0	0.05595	0	0	0	-0	0	0	0	0	0	-0	0	560.892	551.034	342.262	197.162	-0.382581	1.80948	0.0293335	-0.00399323	-4.25189
34	0.000788129	0.0293232	0.0110975	0.0379845	-0.00787928	0.0315119	0.0245731	-0.0298661	0.00283868	0.0294442	0.0351066	-0.00899905	0.0527196	-7.64393e-05	0.0198035	-2.1797	-0.0265071	-1.58742	0	0	0	0	-0	0	0	0	-0.1265	0	-0	0	0	0	0	0	-0	0	0.105	0.015	0	0	-0	0	0	0.098	0.1	0	-0	0	0	0	0	0	-0	0	0.05595	0	0	0	-0	0	0	0	0	0	-0	0	560.882	551.015	342.448	197.18	-0.381844	1.80361	0.0293382	-0.00393084	-4.23678
35	0.00495459	0.0293307	0.0110965	0.0379826	-0.00788443	0.0315092	0.0245724	-0.0298655	0.00284104	0.0307056	0.0345228	0.000382335	0.0526349	-7.65949e-05	0.0200238	-2.17555	-0.0266055	-1.58771	0	0	0	0	-0	0	0	0	-0.1265	0	-0	0	0	0	0	0	-0	0	0.105	0.015	0	0	-0	0	0	0.098	0.1	0	-0	0	0	0	0	0	-0	0	0.05595	0	0	0	-0	0	0	0	0	0	-0	0	560.874	550.999	342.584	197.194	-0.381297	1.79938	0.0293473	-0.00388702	-4.22627
36	0.00954795	0.029335	0.0110953	0.0379825	-0.00788747	0.0315075	0.0245719	-0.0298648	0.00284129	0.0353955	0.039381	0.000719837	0.0525419	-7.66565e-05	0.0202664	-2.17096	-0.0265949	-1.58791	0	0	0	0	-0	0	0	0	-0.1265	0	-0	0	0	0	0	0	-0	0	0.105	0.015	0	0	-0	0	0	0.098	0.1	0	-0	0	0	0	0	0	-0	0	0.05595	0	0	0	-0	0	0	0	0	0	-0	0	560.871	550.992	342.64	197.199	-0.381042	1.79747	0.0293556	-0.00387039	-4.22195
37	0.00901056	0.0293387	0.0110948	0.0379804	-0.00789037	0.0315052	0.024571	-0.0298644	0.00284108	0.04089	0.0354933	0.000988411	0.0525523	-7.67225e-05	0.0202383	-2.17152	-0.0267402	-1.58805	0	0	0	0	-0	0	0	0	-0.1265	0	-0	0	0	0	0	0	-0	0	0.105	0.015	0	0	-0	0	0	0.098	0.1	0	-0	0	0	0	0	0	-0	0	0.05595	0	0	0	-0	0	0	0	0	0	-0	0	560.864	550.978	342.753	197.211	-0.380648	1.79425	0.0293588	-0.00383214	-4.21327
38	0.00605562	0.0293429	0.0110941	0.0379791	-0.0078933	0.0315032	0.0245721	-0.0298659	0.0028409	0.0341677	0.030978	-0.00570588	0.0526118	-7.67951e-05	0.0200837	-2.17448	-0.0268852	-1.58808	0	0	0	0	-0	0	0	0	-0.1265	0	-0	0	0	0	0	0	-0	0	0.105	0.015	0	0	-0	0	0	0.098	0.1	0	-0	0	0	0	0	0	-0	0	0.05595	0	0	0	-0	0	0	0	0	0	-0	0	560.858	550.967	342.83	197.219	-0.380316	1.79171	0.0293655	-0.00380729	-4.20708
39	0.00748467	0.0293476	0.0110938	0.0379749	-0.00789692	0.0315004	0.0245721	-0.0298642	0.00284254	0.0423786	0.0162578	-0.0104636	0.0525835	-7.68569e-05	0.0201586	-2.17308	-0.0270675	-1.58835	0	0	0	0	-0	0	0	0	-0.1265	0	-0	0	0	0	0	0	-0	0	0.105	0.015	0	0	-0	0	0	0.098	0.1	0	-0	0	0	0	0	0	-0	0	0.05595	0	0	0	-0	0	0	0	0	0	-0	0	560.843	550.945	343.001	197.238	-0.379645	1.78638	0.0293649	-0.00374906	-4.19288
40	0.00877629	0.029353	0.0110927	0.0379734	-0.00790069	0.0314983	0.0245712	-0.0298648	0.00284058	0.0398955	0.0160966	-0.00418272	0.0525571	-7.69246e-05	0.0202273	-2.1718	-0.0271472	-1.5885	0	0	0	0	-0	0	0	0	-0.1265	0	-0	0	0	0	0	0	-0	0	0.105	0.015	0	0	-0	0	0	0.098	0.1	0	-0	0	0	0	0	0	-0	0	0.05595	0	0	0	-0	0	0	0	0	0	-0	0	560.837	550.934	343.085	197.247	-0.379267	1.78355	0.0293713	-0.00372276	-4.18622
41	0.00729338	0.029362	0.0110928	0.0379636	-0.00790759	0.0314934	0.0245727	-0.0298668	0.00284024	0.0356865	0.00926483	-0.015175	0.0525893	-7.70499e-05	0.0201478	-2.17333	-0.0276153	-1.58895	0	0	0	0	-0	0	0	0	-0.1265	0	-0	0	0	0	0	0	-0	0	0.105	0.015	0	0	-0	0	0	0.098	0.1	0	-0	0	0	0	0	0	-0	0	0.05595	0	0	0	-0	0	0	0	0	0	-0	0	560.8	550.888	343.452	197.288	-0.377832	1.7724	0.0293551	-0.00359599	-4.15622
42	0.00961618	0.0293725	0.0110913	0.0379593	-0.00791451	0.0314896	0.0245725	-0.0298685	0.00283947	0.0218906	0.00106489	-0.0172129	0.0525422	-7.71729e-05	0.0202711	-2.17104	-0.027789	-1.58926	0	0	0	0	-0	0	0	0	-0.1265	0	-0	0	0	0	0	0	-0	0	0.105	0.015	0	0	-0	0	0	0.098	0.1	0	-0	0	0	0	0	0	-0	0	0.05595	0	0	0	-0	0	0	0	0	0	-0	0	560.783	550.863	343.628	197.309	-0.376952	1.76595	0.0293665	-0.00354047	-4.14122
43	0.0181681	0.0293829	0.0110914	0.0379483	-0.00792221	0.0314835	0.0245705	-0.0298652	0.00283729	0.0174442	0.00627138	-0.0254247	0.0523713	-7.73097e-05	0.0207185	-2.16254	-0.0280897	-1.59001	0	0	0	0	-0	0	0	0	-0.1265	0	-0	0	0	0	0	0	-0	0	0.105	0.015	0	0	-0	0	0	0.098	0.1	0	-0	0	0	0	0	0	-0	0	0.05595	0	0	0	-0	0	0	0	0	0	-0	0	560.737	550.803	344.011	197.355	-0.375229	1.75292	0.0293565	-0.00340897	-4.10769
44	0.0149489	0.0293943	0.0110902	0.0379431	-0.00792977	0.0314785	0.0245688	-0.0298658	0.00283745	0.0297765	0.00200193	-0.0225425	0.0524359	-7.74949e-05	0.0205504	-2.16579	-0.0283729	-1.59018	0	0	0	0	-0	0	0	0	-0.1265	0	-0	0	0	0	0	0	-0	0	0.105	0.015	0	0	-0	0	0	0.098	0.1	0	-0	0	0	0	0	0	-0	0	0.05595	0	0	0	-0	0	0	0	0	0	-0	0	560.716	550.769	344.196	197.379	-0.374257	1.74591	0.0293731	-0.00335018	-4.09169
45	0.0221629	0.0294032	0.0110897	0.0379362	-0.00793625	0.0314734	0.0245683	-0.0298661	0.00283724	0.0159775	0.00695938	-0.0238797	0.0522888	-7.76285e-05	0.0209278	-2.15862	-0.0285549	-1.59076	0	0	0	0	-0	0	0	0	-0.1265	0	-0	0	0	0	0	0	-0	0	0.105	0.015	0	0	-0	0	0	0.098	0.1	0	-0	0	0	0	0	0	-0	0	0.05595	0	0	0	-0	0	0	0	0	0	-0	0	560.686	550.726	344.465	197.414	-0.373035	1.73676	0.029373	-0.00325852	-4.06864
46	0.0215527	0.0294096	0.0110886	0.0379352	-0.00794024	0.0314714	0.0245693	-0.0298645	0.00283733	0.0172674	0.0108056	-0.0195402	0.0522993	-7.7725e-05	0.0208968	-2.15924	-0.0286318	-1.59082	0	0	0	0	-0	0	0	0	-0.1265	0	-0	0	0	0	0	0	-0	0	0.105	0.015	0	0	-0	0	0	0.098	0.1	0	-0	0	0	0	0	0	-0	0	0.05595	0	0	0	-0	0	0	0	0	0	-0	0	560.681	550.716	344.519	197.421	-0.372643	1.73407	0.0293864	-0.00324402	-4.06341
47	0.0168694	0.0294129	0.0110886	0.0379305	-0.00794286	0.0314686	0.0245693	-0.029865	0.00283798	0.0230104	0.00485438	-0.0266157	0.0523981	-7.7765e-05	0.0206511	-2.16395	-0.0288914	-1.59087	0	0	0	0	-0	0	0	0	-0.1265	0	-0	0	0	0	0	0	-0	0	0.105	0.015	0	0	-0	0	0	0.098	0.1	0	-0	0	0	0	0	0	-0	0	0.05595	0	0	0	-0	0	0	0	0	0	-0	0	560.663	550.691	344.658	197.439	-0.371972	1.72906	0.029384	-0.00319517	-4.05069
48	0.0204417	0.0294169	0.0110881	0.0379288	-0.00794553	0.0314668	0.0245686	-0.0298643	0.00283652	0.0196897	0.00479917	-0.0287064	0.0523238	-7.78195e-05	0.0208384	-2.16039	-0.0289028	-1.59107	0	0	0	0	-0	0	0	0	-0.1265	0	-0	0	0	0	0	0	-0	0	0.105	0.015	0	0	-0	0	0	0.098	0.1	0	-0	0	0	0	0	0	-0	0	0.05595	0	0	0	-0	0	0	0	0	0	-0	0	560.655	550.678	344.727	197.448	-0.371587	1.72628	0.0293899	-0.00317342	-4.04435
49	0.0171397	0.0294215	0.0110886	0.0379227	-0.00794899	0.0314631	0.024571	-0.0298642	0.00283713	0.0179732	0.0198621	-0.0256587	0.052394	-7.79009e-05	0.0206641	-2.16372	-0.0291999	-1.59124	0	0	0	0	-0	0	0	0	-0.1265	0	-0	0	0	0	0	0	-0	0	0.105	0.015	0	0	-0	0	0	0.098	0.1	0	-0	0	0	0	0	0	-0	0	0.05595	0	0	0	-0	0	0	0	0	0	-0	0	560.629	550.642	344.92	197.474	-0.370724	1.71984	0.0293877	-0.00310625	-4.02789
50	0.014987	0.0294295	0.0110889	0.0379129	-0.00795467	0.0314582	0.0245698	-0.0298662	0.00283543	0.0144398	0.0175613	-0.015	0.0524405	-7.7979e-05	0.0205493	-2.16592	-0.0295784	-1.59155	0	0	0	0	-0	0	0	0	-0.1265	0	-0	0	0	0	0	0	-0	0	0.105	0.015	0	0	-0	0	0	0.098	0.1	0	-0	0	0	0	0	0	-0	0	0.05595	0	0	0	-0	0	0	0	0	0	-0	0	560.589	550.591	345.198	197.511	-0.369282	1.7093	0.0293801	-0.00301024	-4.00183
