Stefan210/kinematic_calibration/src/kinematic_calibration/validation/experiments/experiments/anzahl_messungen/BC_A/larm_73/optimization_intermediate_results.csv
iteration	HeadPitch_offset	HeadYaw_offset	LElbowRoll_offset	LElbowYaw_offset	LShoulderPitch_offset	LShoulderRoll_offset	marker_transform_larm_tx	marker_transform_larm_ty	marker_transform_larm_tz	marker_transform_larm_rr	marker_transform_larm_rp	marker_transform_larm_ry	camera_transform_tx	camera_transform_ty	camera_transform_tz	camera_transform_rr	camera_transform_rp	camera_transform_ry	HeadPitch_transform_tx	HeadPitch_transform_ty	HeadPitch_transform_tz	HeadPitch_transform_rr	HeadPitch_transform_rp	HeadPitch_transform_ry	HeadYaw_transform_tx	HeadYaw_transform_ty	HeadYaw_transform_tz	HeadYaw_transform_rr	HeadYaw_transform_rp	HeadYaw_transform_ry	LElbowRoll_transform_tx	LElbowRoll_transform_ty	LElbowRoll_transform_tz	LElbowRoll_transform_rr	LElbowRoll_transform_rp	LElbowRoll_transform_ry	LElbowYaw_transform_tx	LElbowYaw_transform_ty	LElbowYaw_transform_tz	LElbowYaw_transform_rr	LElbowYaw_transform_rp	LElbowYaw_transform_ry	LShoulderPitch_transform_tx	LShoulderPitch_transform_ty	LShoulderPitch_transform_tz	LShoulderPitch_transform_rr	LShoulderPitch_transform_rp	LShoulderPitch_transform_ry	LShoulderRoll_transform_tx	LShoulderRoll_transform_ty	LShoulderRoll_transform_tz	LShoulderRoll_transform_rr	LShoulderRoll_transform_rp	LShoulderRoll_transform_ry	LWristYaw_transform_tx	LWristYaw_transform_ty	LWristYaw_transform_tz	LWristYaw_transform_rr	LWristYaw_transform_rp	LWristYaw_transform_ry	l_wrist_joint_transform_tx	l_wrist_joint_transform_ty	l_wrist_joint_transform_tz	l_wrist_joint_transform_rr	l_wrist_joint_transform_rp	l_wrist_joint_transform_ry	camera_fx	camera_fy	camera_cx	camera_cy	camera_D0	camera_D1	camera_D2	camera_D3	camera_D4	
0	0.0249164	-0.0307543	0.000853157	4.65819e-06	-0.000318322	-0.00310766	0.05071	0	0.01774	-2.26369	1.66533e-16	-1.5708	545.901	551.038	324.928	201.58	0.0255298	2.61142	-0.0636736	-0.0350419	0.213964
1	-0.0151827	0.0288939	0.0139437	0.032525	-0.0132155	0.0292113	0.0240311	-0.0301248	0.00286163	-0.00024215	-0.000520827	-0.00315352	0.0565888	-0.000281488	0.0179944	-2.20262	-0.00870866	-1.56114	0	0	0	0	-0	0	0	0	-0.1265	0	-0	0	0	0	0	0	-0	0	0.105	0.015	0	0	-0	0	0	0.098	0.1	0	-0	0	0	0	0	0	-0	0	0.05595	0	0	0	-0	0	0	0	0	0	-0	0	545.901	551.039	324.928	201.581	-0.0139337	2.59812	-0.0837435	0.045269	0.211012
2	-0.0138273	0.0409927	0.0121248	0.038091	-0.0211258	0.0364457	0.0240386	-0.0301575	0.00319695	-0.000283206	-0.000554036	-0.00315554	0.0550761	-0.000368314	0.0217877	-2.20903	-0.011907	-1.57135	0	0	0	0	-0	0	0	0	-0.1265	0	-0	0	0	0	0	0	-0	0	0.105	0.015	0	0	-0	0	0	0.098	0.1	0	-0	0	0	0	0	0	-0	0	0.05595	0	0	0	-0	0	0	0	0	0	-0	0	545.902	551.039	324.925	201.585	-0.14565	2.51488	-0.046219	0.0172334	0.183619
3	-0.0149459	0.0375616	0.0118117	0.0386829	-0.0175806	0.0370109	0.0241601	-0.0300852	0.00312977	-0.000272823	-0.000546461	-0.0031359	0.0563977	7.50074e-05	0.0186144	-2.20374	-0.0113474	-1.5704	0	0	0	0	-0	0	0	0	-0.1265	0	-0	0	0	0	0	0	-0	0	0.105	0.015	0	0	-0	0	0	0.098	0.1	0	-0	0	0	0	0	0	-0	0	0.05595	0	0	0	-0	0	0	0	0	0	-0	0	545.905	551.039	324.92	201.591	-0.394944	2.35756	-0.0246797	0.0100096	0.13331
4	-0.0156785	0.0355704	0.0127001	0.0379179	-0.0148607	0.0372596	0.0243385	-0.0300173	0.00292625	-0.000251259	-0.000522678	-0.00310766	0.0574579	0.000342044	0.0159308	-2.20013	-0.0114412	-1.56953	0	0	0	0	-0	0	0	0	-0.1265	0	-0	0	0	0	0	0	-0	0	0.105	0.015	0	0	-0	0	0	0.098	0.1	0	-0	0	0	0	0	0	-0	0	0.05595	0	0	0	-0	0	0	0	0	0	-0	0	545.913	551.038	324.912	201.6	-0.603767	2.11014	0.00454248	-0.000364689	0.0423963
5	-0.0159673	0.0339769	0.0127428	0.0364856	-0.0135419	0.0366307	0.024402	-0.0299697	0.00275259	-0.000212779	-0.00050265	-0.0030972	0.0571395	0.000458972	0.0155718	-2.19896	-0.0111863	-1.56878	0	0	0	0	-0	0	0	0	-0.1265	0	-0	0	0	0	0	0	-0	0	0.105	0.015	0	0	-0	0	0	0.098	0.1	0	-0	0	0	0	0	0	-0	0	0.05595	0	0	0	-0	0	0	0	0	0	-0	0	545.932	551.03	324.902	201.613	-0.538354	1.74597	0.00730486	-0.00314511	-0.111109
6	-0.0160619	0.0320141	0.0122614	0.0346812	-0.012667	0.0355021	0.0244038	-0.02994	0.00260372	-0.000143124	-0.000514783	-0.00310925	0.0558806	0.00049628	0.0165183	-2.19889	-0.0104207	-1.56724	0	0	0	0	-0	0	0	0	-0.1265	0	-0	0	0	0	0	0	-0	0	0.105	0.015	0	0	-0	0	0	0.098	0.1	0	-0	0	0	0	0	0	-0	0	0.05595	0	0	0	-0	0	0	0	0	0	-0	0	545.975	551.011	324.892	201.627	-0.303535	1.19644	-0.00394657	-0.00289678	-0.333774
7	-0.0160708	0.0307299	0.011908	0.0330987	-0.0122519	0.0345463	0.0243972	-0.0299223	0.00247972	5.38385e-05	-0.000603466	-0.00306406	0.0546888	0.000484213	0.0175533	-2.19909	-0.00986446	-1.56602	0	0	0	0	-0	0	0	0	-0.1265	0	-0	0	0	0	0	0	-0	0	0.105	0.015	0	0	-0	0	0	0.098	0.1	0	-0	0	0	0	0	0	-0	0	0.05595	0	0	0	-0	0	0	0	0	0	-0	0	546.077	550.962	324.883	201.629	-0.0722783	0.632214	-0.0147304	-0.00259592	-0.489322
8	-0.0157214	0.0304242	0.0118008	0.0323103	-0.0122774	0.0341043	0.0243935	-0.0299171	0.00241746	-7.72716e-05	-0.000405808	-0.00312211	0.0540272	0.000449144	0.018225	-2.19911	-0.00964311	-1.56553	0	0	0	0	-0	0	0	0	-0.1265	0	-0	0	0	0	0	0	-0	0	0.105	0.015	0	0	-0	0	0	0.098	0.1	0	-0	0	0	0	0	0	-0	0	0.05595	0	0	0	-0	0	0	0	0	0	-0	0	546.35	550.833	324.848	201.6	0.0554213	0.238417	-0.0190829	-0.00266775	-0.361933
9	-0.0151174	0.0305811	0.0117931	0.0320078	-0.0124396	0.034014	0.0243936	-0.0299202	0.00239166	0.00112076	-0.000610116	-0.002794	0.0536514	0.000410341	0.0186937	-2.19893	-0.00942857	-1.56529	0	0	0	0	-0	0	0	0	-0.1265	0	-0	0	0	0	0	0	-0	0	0.105	0.015	0	0	-0	0	0	0.098	0.1	0	-0	0	0	0	0	0	-0	0	0.05595	0	0	0	-0	0	0	0	0	0	-0	0	547.106	550.477	324.717	201.491	0.113973	-0.131025	-0.0177376	-0.00297779	0.287963
10	-0.0141581	0.0311032	0.011815	0.0316698	-0.0127679	0.0340485	0.0243956	-0.0299312	0.0023609	-0.000902899	0.00199868	-0.00327117	0.0530683	0.000341101	0.0194752	-2.19862	-0.00896259	-1.56498	0	0	0	0	-0	0	0	0	-0.1265	0	-0	0	0	0	0	0	-0	0	0.105	0.015	0	0	-0	0	0	0.098	0.1	0	-0	0	0	0	0	0	-0	0	0.05595	0	0	0	-0	0	0	0	0	0	-0	0	549.003	549.604	324.383	201.151	0.18316	-0.813013	-0.0114974	-0.00363498	1.82868
11	-0.00657888	0.0320568	0.0118967	0.0310993	-0.0133072	0.0341569	0.0244014	-0.0299521	0.0023102	-0.00327793	-0.00626142	-0.00570817	0.0519246	0.000224642	0.0211679	-2.19152	-0.00818583	-1.56456	0	0	0	0	-0	0	0	0	-0.1265	0	-0	0	0	0	0	0	-0	0	0.105	0.015	0	0	-0	0	0	0.098	0.1	0	-0	0	0	0	0	0	-0	0	0.05595	0	0	0	-0	0	0	0	0	0	-0	0	552.747	548.106	323.782	200.198	0.276896	-1.87614	0.000715884	-0.00476282	4.32631
12	-0.0211703	0.0330244	0.0120151	0.0305012	-0.0137904	0.0343031	0.0244079	-0.0299798	0.00225979	0.0111772	-0.00581965	-0.0223487	0.0510011	9.64699e-05	0.0219396	-2.20453	-0.00704396	-1.56379	0	0	0	0	-0	0	0	0	-0.1265	0	-0	0	0	0	0	0	-0	0	0.105	0.015	0	0	-0	0	0	0.098	0.1	0	-0	0	0	0	0	0	-0	0	0.05595	0	0	0	-0	0	0	0	0	0	-0	0	557.834	547.274	323.069	197.849	0.34715	-2.83061	0.0144229	-0.00594602	6.64038
13	-0.0340539	0.0333329	0.0120306	0.0302389	-0.0138948	0.0343879	0.0244255	-0.0299923	0.00221653	0.00181412	0.0270626	-0.0527766	0.0503627	1.01306e-05	0.0224564	-2.2121	-0.00625675	-1.56333	0	0	0	0	-0	0	0	0	-0.1265	0	-0	0	0	0	0	0	-0	0	0.105	0.015	0	0	-0	0	0	0.098	0.1	0	-0	0	0	0	0	0	-0	0	0.05595	0	0	0	-0	0	0	0	0	0	-0	0	562.244	548.859	322.826	193.675	0.364523	-3.08283	0.0193797	-0.00636061	7.13411
14	-0.018285	0.0332588	0.0119896	0.0302011	-0.0138106	0.0344275	0.0244373	-0.0300169	0.00223098	0.0288278	0.0512504	-0.0847248	0.0494133	-4.27929e-05	0.0239929	-2.18935	-0.00608173	-1.56334	0	0	0	0	-0	0	0	0	-0.1265	0	-0	0	0	0	0	0	-0	0	0.105	0.015	0	0	-0	0	0	0.098	0.1	0	-0	0	0	0	0	0	-0	0	0.05595	0	0	0	-0	0	0	0	0	0	-0	0	565.49	551.697	322.967	188.87	0.350936	-2.86751	0.0177144	-0.00634196	6.38544
15	-0.021907	0.0332237	0.0119804	0.0301836	-0.0137772	0.0344313	0.0244219	-0.0299932	0.00221901	0.0216674	0.064559	-0.116812	0.0492629	-6.42424e-05	0.0240534	-2.18994	-0.00574032	-1.56304	0	0	0	0	-0	0	0	0	-0.1265	0	-0	0	0	0	0	0	-0	0	0.105	0.015	0	0	-0	0	0	0.098	0.1	0	-0	0	0	0	0	0	-0	0	0.05595	0	0	0	-0	0	0	0	0	0	-0	0	566.721	552.988	322.855	186.809	0.342423	-2.76297	0.0166718	-0.00649541	6.07726
16	-0.0159913	0.0331704	0.0119649	0.0301965	-0.0137413	0.034439	0.0244198	-0.0299801	0.00223306	0.0251276	0.0346815	-0.124955	0.0489676	-7.82487e-05	0.0245223	-2.18158	-0.0054322	-1.56277	0	0	0	0	-0	0	0	0	-0.1265	0	-0	0	0	0	0	0	-0	0	0.105	0.015	0	0	-0	0	0	0.098	0.1	0	-0	0	0	0	0	0	-0	0	0.05595	0	0	0	-0	0	0	0	0	0	-0	0	567.606	554.054	322.683	185.181	0.336908	-2.67525	0.0153897	-0.00657688	5.81511
17	-0.0101397	0.0331096	0.0119455	0.0302141	-0.0137047	0.0344415	0.0244102	-0.0299782	0.002241	0.0616551	-0.00188472	-0.132848	0.0486922	-9.00916e-05	0.0249539	-2.17345	-0.00502676	-1.56236	0	0	0	0	-0	0	0	0	-0.1265	0	-0	0	0	0	0	0	-0	0	0.105	0.015	0	0	-0	0	0	0.098	0.1	0	-0	0	0	0	0	0	-0	0	0.05595	0	0	0	-0	0	0	0	0	0	-0	0	568.367	555.072	322.413	183.678	0.332477	-2.59574	0.0139836	-0.00669431	5.58119
18	-0.0129779	0.0330867	0.0119396	0.0302176	-0.0136927	0.0344363	0.0244105	-0.0299827	0.0022284	0.0491646	-0.00473791	-0.14706	0.04871	-9.55983e-05	0.0248707	-2.1754	-0.00477527	-1.56211	0	0	0	0	-0	0	0	0	-0.1265	0	-0	0	0	0	0	0	-0	0	0.105	0.015	0	0	-0	0	0	0.098	0.1	0	-0	0	0	0	0	0	-0	0	0.05595	0	0	0	-0	0	0	0	0	0	-0	0	568.648	555.474	322.261	183.092	0.331673	-2.56991	0.0133855	-0.0067778	5.50133
19	-0.0105646	0.0330521	0.0119306	0.0302289	-0.0136734	0.0344374	0.0244132	-0.029979	0.00223024	0.0448523	-0.0207673	-0.138809	0.0485888	-0.000100904	0.0250563	-2.17184	-0.00446258	-1.56179	0	0	0	0	-0	0	0	0	-0.1265	0	-0	0	0	0	0	0	-0	0	0.105	0.015	0	0	-0	0	0	0.098	0.1	0	-0	0	0	0	0	0	-0	0	0.05595	0	0	0	-0	0	0	0	0	0	-0	0	568.997	556.005	322.032	182.335	0.330727	-2.53576	0.0125303	-0.00686802	5.39767
20	-0.000220919	0.0330043	0.0119166	0.0302444	-0.0136488	0.0344362	0.0244173	-0.0299928	0.00223577	0.0192953	-0.0365317	-0.125258	0.0482498	-0.000107979	0.0256464	-2.15991	-0.00401803	-1.56128	0	0	0	0	-0	0	0	0	-0.1265	0	-0	0	0	0	0	0	-0	0	0.105	0.015	0	0	-0	0	0	0.098	0.1	0	-0	0	0	0	0	0	-0	0	0.05595	0	0	0	-0	0	0	0	0	0	-0	0	569.46	556.747	321.643	181.297	0.329594	-2.49	0.0112925	-0.00702438	5.26099
21	0.00234906	0.0329671	0.011906	0.0302543	-0.0136317	0.0344289	0.0244106	-0.0299807	0.00223811	0.0348632	-0.0397376	-0.141824	0.0481242	-0.000113431	0.0258279	-2.15623	-0.00359153	-1.56079	0	0	0	0	-0	0	0	0	-0.1265	0	-0	0	0	0	0	0	-0	0	0.105	0.015	0	0	-0	0	0	0.098	0.1	0	-0	0	0	0	0	0	-0	0	0.05595	0	0	0	-0	0	0	0	0	0	-0	0	569.765	557.286	321.3	180.567	0.330208	-2.46412	0.0103045	-0.00717377	5.17726
22	0.00534538	0.0329235	0.0118929	0.0302719	-0.0136139	0.0344231	0.0244141	-0.0299815	0.00223229	0.0298916	-0.0356371	-0.164944	0.047977	-0.000119942	0.0260465	-2.1517	-0.00289473	-1.56002	0	0	0	0	-0	0	0	0	-0.1265	0	-0	0	0	0	0	0	-0	0	0.105	0.015	0	0	-0	0	0	0.098	0.1	0	-0	0	0	0	0	0	-0	0	0.05595	0	0	0	-0	0	0	0	0	0	-0	0	570.167	558.033	320.73	179.565	0.330648	-2.42766	0.00891306	-0.0074076	5.06589
23	-0.0048233	0.0329072	0.0118921	0.0302625	-0.0136081	0.0344115	0.0244079	-0.0299731	0.00223455	0.0295979	-0.0393494	-0.166074	0.0482229	-0.000122296	0.025576	-2.16155	-0.00261338	-1.5598	0	0	0	0	-0	0	0	0	-0.1265	0	-0	0	0	0	0	0	-0	0	0.105	0.015	0	0	-0	0	0	0.098	0.1	0	-0	0	0	0	0	0	-0	0	0.05595	0	0	0	-0	0	0	0	0	0	-0	0	570.233	558.197	320.595	179.362	0.332586	-2.42587	0.00848823	-0.0074745	5.04851
24	-0.00475449	0.0328948	0.0118879	0.0302684	-0.0136051	0.0344075	0.0244089	-0.0299733	0.00223549	0.0280217	-0.0479503	-0.169654	0.0482022	-0.000124124	0.0255961	-2.16106	-0.00236973	-1.55954	0	0	0	0	-0	0	0	0	-0.1265	0	-0	0	0	0	0	0	-0	0	0.105	0.015	0	0	-0	0	0	0.098	0.1	0	-0	0	0	0	0	0	-0	0	0.05595	0	0	0	-0	0	0	0	0	0	-0	0	570.325	558.413	320.401	179.089	0.333505	-2.41989	0.00802849	-0.00755469	5.02691
25	-0.011015	0.0328763	0.0118824	0.0302756	-0.0135994	0.0344024	0.0244095	-0.0299728	0.00223382	0.03467	-0.0599025	-0.16113	0.0483386	-0.000126448	0.0253198	-2.16671	-0.00192407	-1.55912	0	0	0	0	-0	0	0	0	-0.1265	0	-0	0	0	0	0	0	-0	0	0.105	0.015	0	0	-0	0	0	0.098	0.1	0	-0	0	0	0	0	0	-0	0	0.05595	0	0	0	-0	0	0	0	0	0	-0	0	570.459	558.73	320.101	178.692	0.334718	-2.40994	0.00735476	-0.00767867	4.99261
26	-0.00357562	0.0328654	0.0118805	0.0302741	-0.0135961	0.0343962	0.0244078	-0.0299723	0.00223517	0.0385526	-0.0642001	-0.155617	0.0481381	-0.000127804	0.0256906	-2.15902	-0.00184639	-1.55896	0	0	0	0	-0	0	0	0	-0.1265	0	-0	0	0	0	0	0	-0	0	0.105	0.015	0	0	-0	0	0	0.098	0.1	0	-0	0	0	0	0	0	-0	0	0.05595	0	0	0	-0	0	0	0	0	0	-0	0	570.508	558.862	319.97	178.532	0.335929	-2.4078	0.00702186	-0.00773583	4.97991
27	-0.00585501	0.0328556	0.0118773	0.0302789	-0.013594	0.0343925	0.0244089	-0.0299726	0.00223626	0.0425228	-0.0548899	-0.157596	0.0481829	-0.000129116	0.0255933	-2.16097	-0.00159409	-1.55871	0	0	0	0	-0	0	0	0	-0.1265	0	-0	0	0	0	0	0	-0	0	0.105	0.015	0	0	-0	0	0	0.098	0.1	0	-0	0	0	0	0	0	-0	0	0.05595	0	0	0	-0	0	0	0	0	0	-0	0	570.575	559.038	319.787	178.315	0.336885	-2.40383	0.00662757	-0.00781278	4.96436
28	-0.00484313	0.0328493	0.0118759	0.0302783	-0.0135922	0.0343886	0.0244076	-0.029972	0.00223613	0.0435422	-0.0555984	-0.151592	0.0481506	-0.000129881	0.0256483	-2.15982	-0.00150953	-1.5586	0	0	0	0	-0	0	0	0	-0.1265	0	-0	0	0	0	0	0	-0	0	0.105	0.015	0	0	-0	0	0	0.098	0.1	0	-0	0	0	0	0	0	-0	0	0.05595	0	0	0	-0	0	0	0	0	0	-0	0	570.601	559.111	319.709	178.226	0.337619	-2.40291	0.00643781	-0.00784679	4.95792
29	-0.00105636	0.0328372	0.0118715	0.0302872	-0.0135905	0.0343852	0.0244081	-0.0299727	0.00223733	0.0512254	-0.0495461	-0.155141	0.0480352	-0.000131635	0.0258508	-2.15549	-0.00116545	-1.55819	0	0	0	0	-0	0	0	0	-0.1265	0	-0	0	0	0	0	0	-0	0	0.105	0.015	0	0	-0	0	0	0.098	0.1	0	-0	0	0	0	0	0	-0	0	0.05595	0	0	0	-0	0	0	0	0	0	-0	0	570.711	559.4	319.387	177.874	0.338843	-2.39571	0.00581546	-0.00798038	4.93301
30	-0.00398319	0.0328223	0.0118674	0.0302915	-0.0135882	0.0343772	0.024408	-0.0299708	0.00224011	0.0391838	-0.0362533	-0.148511	0.0480913	-0.000133681	0.0257301	-2.15788	-0.000724976	-1.55774	0	0	0	0	-0	0	0	0	-0.1265	0	-0	0	0	0	0	0	-0	0	0.105	0.015	0	0	-0	0	0	0.098	0.1	0	-0	0	0	0	0	0	-0	0	0.05595	0	0	0	-0	0	0	0	0	0	-0	0	570.811	559.682	319.052	177.53	0.340792	-2.39054	0.00514226	-0.00812246	4.90983
31	-0.00392692	0.0327978	0.0118554	0.0303226	-0.0135948	0.0343646	0.0243932	-0.0299985	0.00226219	0.102595	-0.0630661	-0.165793	0.0480166	-0.0001407	0.025816	-2.15579	0.00105362	-1.55581	0	0	0	0	-0	0	0	0	-0.1265	0	-0	0	0	0	0	0	-0	0	0.105	0.015	0	0	-0	0	0	0.098	0.1	0	-0	0	0	0	0	0	-0	0	0.05595	0	0	0	-0	0	0	0	0	0	-0	0	571.267	560.776	317.556	176.202	0.345717	-2.36936	0.00287046	-0.00876544	4.83442
32	-0.017609	0.0327666	0.0118411	0.0303393	-0.0135993	0.0343285	0.0244039	-0.0299962	0.00225341	0.0572931	-0.0623002	-0.149376	0.0483377	-0.000145199	0.0251908	-2.16844	0.00227401	-1.55471	0	0	0	0	-0	0	0	0	-0.1265	0	-0	0	0	0	0	0	-0	0	0.105	0.015	0	0	-0	0	0	0.098	0.1	0	-0	0	0	0	0	0	-0	0	0.05595	0	0	0	-0	0	0	0	0	0	-0	0	571.389	561.398	316.701	175.551	0.353861	-2.37245	0.00106504	-0.00913875	4.80922
33	-0.0185266	0.0327517	0.011841	0.030326	-0.0135982	0.0343104	0.0244059	-0.0299695	0.00224358	0.0464463	-0.058596	-0.139255	0.0483472	-0.000146706	0.0251524	-2.16914	0.00253365	-1.55446	0	0	0	0	-0	0	0	0	-0.1265	0	-0	0	0	0	0	0	-0	0	0.105	0.015	0	0	-0	0	0	0.098	0.1	0	-0	0	0	0	0	0	-0	0	0.05595	0	0	0	-0	0	0	0	0	0	-0	0	571.394	561.545	316.505	175.416	0.357416	-2.37647	0.000492638	-0.00922994	4.80294
34	-0.0397385	0.0327497	0.01184	0.0303334	-0.0136151	0.0342955	0.0244084	-0.0299702	0.00224291	0.0408898	-0.0641445	-0.124593	0.0488687	-0.00014832	0.0241413	-2.18951	0.00385339	-1.5535	0	0	0	0	-0	0	0	0	-0.1265	0	-0	0	0	0	0	0	-0	0	0.105	0.015	0	0	-0	0	0	0.098	0.1	0	-0	0	0	0	0	0	-0	0	0.05595	0	0	0	-0	0	0	0	0	0	-0	0	571.482	562.081	315.684	174.885	0.362628	-2.37929	-0.000907397	-0.0095841	4.79536
35	-0.0339307	0.0327506	0.0118349	0.0303482	-0.0136433	0.0342656	0.0244133	-0.0299736	0.00224617	0.0286507	-0.0831079	-0.135928	0.0486937	-0.000151481	0.0244493	-2.18253	0.00527243	-1.55193	0	0	0	0	-0	0	0	0	-0.1265	0	-0	0	0	0	0	0	-0	0	0.105	0.015	0	0	-0	0	0	0.098	0.1	0	-0	0	0	0	0	0	-0	0	0.05595	0	0	0	-0	0	0	0	0	0	-0	0	571.625	562.861	314.416	174.137	0.371716	-2.38869	-0.00299541	-0.0101464	4.79117
36	-0.0401626	0.0327366	0.0118313	0.0303363	-0.0136452	0.0342406	0.0244038	-0.0299645	0.00224371	0.0212143	-0.0781013	-0.136875	0.048834	-0.000153319	0.024155	-2.18858	0.00562056	-1.5517	0	0	0	0	-0	0	0	0	-0.1265	0	-0	0	0	0	0	0	-0	0	0.105	0.015	0	0	-0	0	0	0.098	0.1	0	-0	0	0	0	0	0	-0	0	0.05595	0	0	0	-0	0	0	0	0	0	-0	0	571.62	562.992	314.223	174.033	0.376185	-2.39472	-0.00362011	-0.0102396	4.7858
37	-0.0418421	0.0327472	0.0118294	0.0303552	-0.0136709	0.0342246	0.0244036	-0.0299633	0.00224582	0.0174817	-0.0726462	-0.136269	0.0488717	-0.000154108	0.0240766	-2.18959	0.00660274	-1.55074	0	0	0	0	-0	0	0	0	-0.1265	0	-0	0	0	0	0	0	-0	0	0.105	0.015	0	0	-0	0	0	0.098	0.1	0	-0	0	0	0	0	0	-0	0	0.05595	0	0	0	-0	0	0	0	0	0	-0	0	571.66	563.48	313.418	173.614	0.381792	-2.40195	-0.00496625	-0.0105981	4.79059
38	-0.0484058	0.0327413	0.0118269	0.0303501	-0.0136767	0.0342068	0.0244034	-0.0299638	0.00224584	0.0112416	-0.074604	-0.132246	0.0490238	-0.000155173	0.023761	-2.19596	0.00701427	-1.55049	0	0	0	0	-0	0	0	0	-0.1265	0	-0	0	0	0	0	0	-0	0	0.105	0.015	0	0	-0	0	0	0.098	0.1	0	-0	0	0	0	0	0	-0	0	0.05595	0	0	0	-0	0	0	0	0	0	-0	0	571.657	563.63	313.186	173.498	0.385334	-2.40652	-0.00554834	-0.0107062	4.78779
39	-0.047338	0.0327623	0.0118255	0.0303697	-0.0137114	0.0341881	0.0244084	-0.0299716	0.00224153	-0.00190251	-0.0690412	-0.155364	0.0489938	-0.000155979	0.0238202	-2.19417	0.008116	-1.54934	0	0	0	0	-0	0	0	0	-0.1265	0	-0	0	0	0	0	0	-0	0	0.105	0.015	0	0	-0	0	0	0.098	0.1	0	-0	0	0	0	0	0	-0	0	0.05595	0	0	0	-0	0	0	0	0	0	-0	0	571.713	564.184	312.234	173.042	0.391938	-2.41679	-0.00704851	-0.0111382	4.79785
40	-0.0508427	0.0327658	0.0118236	0.0303674	-0.0137293	0.0341634	0.0244046	-0.0299629	0.00224933	-0.000162015	-0.0787016	-0.166199	0.0490709	-0.000157012	0.023655	-2.1973	0.00878033	-1.54876	0	0	0	0	-0	0	0	0	-0.1265	0	-0	0	0	0	0	0	-0	0	0.105	0.015	0	0	-0	0	0	0.098	0.1	0	-0	0	0	0	0	0	-0	0	0.05595	0	0	0	-0	0	0	0	0	0	-0	0	571.716	564.486	311.735	172.815	0.397737	-2.42482	-0.00808603	-0.0113708	4.7971
41	-0.0548173	0.0327866	0.011822	0.0303802	-0.0137623	0.034142	0.0244084	-0.0299689	0.00224313	0.00980788	-0.0868694	-0.142553	0.049163	-0.00015777	0.023464	-2.20074	0.00976703	-1.54789	0	0	0	0	-0	0	0	0	-0.1265	0	-0	0	0	0	0	0	-0	0	0.105	0.015	0	0	-0	0	0	0.098	0.1	0	-0	0	0	0	0	0	-0	0	0.05595	0	0	0	-0	0	0	0	0	0	-0	0	571.743	564.926	310.972	172.48	0.40381	-2.43446	-0.00936074	-0.011725	4.80523
42	-0.0447694	0.0328508	0.0118228	0.030407	-0.01384	0.0341045	0.0244046	-0.029958	0.00224961	0.000682331	-0.0663779	-0.148765	0.0489126	-0.000159662	0.0239824	-2.18962	0.0114873	-1.54582	0	0	0	0	-0	0	0	0	-0.1265	0	-0	0	0	0	0	0	-0	0	0.105	0.015	0	0	-0	0	0	0.098	0.1	0	-0	0	0	0	0	0	-0	0	0.05595	0	0	0	-0	0	0	0	0	0	-0	0	571.883	565.87	309.302	171.792	0.416164	-2.45769	-0.011851	-0.0125109	4.83195
43	-0.0366681	0.0329261	0.0118205	0.0304263	-0.0139335	0.0340479	0.0243964	-0.029965	0.0022549	-0.0267312	-0.064272	-0.147354	0.0487016	-0.000161754	0.0244002	-2.18051	0.0132124	-1.54371	0	0	0	0	-0	0	0	0	-0.1265	0	-0	0	0	0	0	0	-0	0	0.105	0.015	0	0	-0	0	0	0.098	0.1	0	-0	0	0	0	0	0	-0	0	0.05595	0	0	0	-0	0	0	0	0	0	-0	0	572.001	566.891	307.613	171.145	0.430865	-2.48053	-0.0147182	-0.0133271	4.84586
44	-0.0315382	0.0329623	0.0118158	0.0304309	-0.0139844	0.034005	0.0244018	-0.0299608	0.00225556	-0.0181366	-0.0570546	-0.16395	0.0485697	-0.000162813	0.024656	-2.17494	0.0139084	-1.54273	0	0	0	0	-0	0	0	0	-0.1265	0	-0	0	0	0	0	0	-0	0	0.105	0.015	0	0	-0	0	0	0.098	0.1	0	-0	0	0	0	0	0	-0	0	0.05595	0	0	0	-0	0	0	0	0	0	-0	0	572	567.374	306.864	170.881	0.439861	-2.49041	-0.0163475	-0.0137089	4.83751
45	-0.0208563	0.0330123	0.0118159	0.0304432	-0.0140409	0.0339758	0.0243966	-0.0299542	0.00225612	-0.0201673	-0.061447	-0.160374	0.0483078	-0.00016272	0.0251758	-2.1638	0.014554	-1.54157	0	0	0	0	-0	0	0	0	-0.1265	0	-0	0	0	0	0	0	-0	0	0.105	0.015	0	0	-0	0	0	0.098	0.1	0	-0	0	0	0	0	0	-0	0	0.05595	0	0	0	-0	0	0	0	0	0	-0	0	572.025	567.905	306.012	170.594	0.447221	-2.49941	-0.0178776	-0.0141335	4.83862
46	-0.0145184	0.0330984	0.0118158	0.0304686	-0.0141293	0.0339391	0.0243974	-0.0299596	0.00226272	-0.0032401	-0.061142	-0.177148	0.0481418	-0.000163141	0.0254924	-2.15684	0.0157353	-1.53998	0	0	0	0	-0	0	0	0	-0.1265	0	-0	0	0	0	0	0	-0	0	0.105	0.015	0	0	-0	0	0	0.098	0.1	0	-0	0	0	0	0	0	-0	0	0.05595	0	0	0	-0	0	0	0	0	0	-0	0	572.119	568.689	304.763	170.193	0.457471	-2.51607	-0.0199361	-0.01476	4.85309
47	-0.0131206	0.0331362	0.0118122	0.0304692	-0.014173	0.0339081	0.0243989	-0.0299504	0.00225981	0.00358225	-0.082707	-0.178141	0.0481003	-0.000163638	0.0255661	-2.15518	0.0162644	-1.53931	0	0	0	0	-0	0	0	0	-0.1265	0	-0	0	0	0	0	0	-0	0	0.105	0.015	0	0	-0	0	0	0.098	0.1	0	-0	0	0	0	0	0	-0	0	0.05595	0	0	0	-0	0	0	0	0	0	-0	0	572.137	569.044	304.23	170.033	0.463528	-2.52046	-0.021067	-0.0150432	4.84061
48	-0.0114539	0.0331857	0.0118127	0.0304793	-0.0142228	0.0338874	0.0244	-0.0299535	0.00225692	0.00253244	-0.0644115	-0.192468	0.0480593	-0.000163332	0.0256482	-2.15322	0.0168876	-1.53854	0	0	0	0	-0	0	0	0	-0.1265	0	-0	0	0	0	0	0	-0	0	0.105	0.015	0	0	-0	0	0	0.098	0.1	0	-0	0	0	0	0	0	-0	0	0.05595	0	0	0	-0	0	0	0	0	0	-0	0	572.173	569.455	303.605	169.849	0.468575	-2.52488	-0.0221745	-0.0153654	4.83703
49	-0.00903456	0.0332995	0.011813	0.030514	-0.0143274	0.0338552	0.024394	-0.0299559	0.00225938	-0.0136106	-0.0649638	-0.208514	0.0479895	-0.00016349	0.0257836	-2.15026	0.0182274	-1.53693	0	0	0	0	-0	0	0	0	-0.1265	0	-0	0	0	0	0	0	-0	0	0.105	0.015	0	0	-0	0	0	0.098	0.1	0	-0	0	0	0	0	0	-0	0	0.05595	0	0	0	-0	0	0	0	0	0	-0	0	572.345	570.319	302.288	169.479	0.47779	-2.53679	-0.0241815	-0.0160456	4.84386
50	0.00555442	0.0333782	0.011809	0.0305265	-0.0144036	0.0338199	0.0243899	-0.029947	0.00226518	-0.0304048	-0.0516461	-0.206648	0.0476039	-0.000163996	0.0264994	-2.13535	0.0186015	-1.53568	0	0	0	0	-0	0	0	0	-0.1265	0	-0	0	0	0	0	0	-0	0	0.105	0.015	0	0	-0	0	0	0.098	0.1	0	-0	0	0	0	0	0	-0	0	0.05595	0	0	0	-0	0	0	0	0	0	-0	0	572.44	570.896	301.462	169.264	0.485316	-2.54191	-0.0256955	-0.0164916	4.83024
