Stefan210/kinematic_calibration/src/kinematic_calibration/validation/experiments/experiments/single_point_vs_pose/marker_single_point/rarm_120/optimization_intermediate_results.csv
iteration	HeadPitch_offset	HeadYaw_offset	RElbowRoll_offset	RElbowYaw_offset	RShoulderPitch_offset	RShoulderRoll_offset	marker_transform_rarm_tx	marker_transform_rarm_ty	marker_transform_rarm_tz	marker_transform_rarm_rr	marker_transform_rarm_rp	marker_transform_rarm_ry	camera_transform_tx	camera_transform_ty	camera_transform_tz	camera_transform_rr	camera_transform_rp	camera_transform_ry	HeadPitch_transform_tx	HeadPitch_transform_ty	HeadPitch_transform_tz	HeadPitch_transform_rr	HeadPitch_transform_rp	HeadPitch_transform_ry	HeadYaw_transform_tx	HeadYaw_transform_ty	HeadYaw_transform_tz	HeadYaw_transform_rr	HeadYaw_transform_rp	HeadYaw_transform_ry	RElbowRoll_transform_tx	RElbowRoll_transform_ty	RElbowRoll_transform_tz	RElbowRoll_transform_rr	RElbowRoll_transform_rp	RElbowRoll_transform_ry	RElbowYaw_transform_tx	RElbowYaw_transform_ty	RElbowYaw_transform_tz	RElbowYaw_transform_rr	RElbowYaw_transform_rp	RElbowYaw_transform_ry	RShoulderPitch_transform_tx	RShoulderPitch_transform_ty	RShoulderPitch_transform_tz	RShoulderPitch_transform_rr	RShoulderPitch_transform_rp	RShoulderPitch_transform_ry	RShoulderRoll_transform_tx	RShoulderRoll_transform_ty	RShoulderRoll_transform_tz	RShoulderRoll_transform_rr	RShoulderRoll_transform_rp	RShoulderRoll_transform_ry	RWristYaw_transform_tx	RWristYaw_transform_ty	RWristYaw_transform_tz	RWristYaw_transform_rr	RWristYaw_transform_rp	RWristYaw_transform_ry	r_wrist_joint_transform_tx	r_wrist_joint_transform_ty	r_wrist_joint_transform_tz	r_wrist_joint_transform_rr	r_wrist_joint_transform_rp	r_wrist_joint_transform_ry	camera_fx	camera_fy	camera_cx	camera_cy	camera_D0	camera_D1	camera_D2	camera_D3	camera_D4	
0	0.0230449	0.0294606	-0.0013508	-0.00116347	0.000678263	0.00258603	0.05071	0	0.01774	-2.26369	1.66533e-16	-1.5708	545.901	551.038	324.928	201.58	0.0255298	2.61142	-0.0636736	-0.0350419	0.213964
1	-0.014878	-0.0209372	0.0073364	0.00936625	-0.0126615	-0.0384084	0.0211463	0.0284278	-0.000701905	-0.00109305	0.000628673	0.00271419	0.0539632	-0.00276099	0.0182883	-2.20383	0.0115834	-1.53378	0	0	0	0	-0	0	0	0	-0.1265	0	-0	0	0	0	0	0	-0	0	0.105	-0.015	0	0	-0	0	0	-0.098	0.1	0	-0	0	0	0	0	0	-0	0	0.05595	0	0	0	-0	0	0	0	0	0	-0	0	545.901	551.039	324.929	201.581	-0.0277097	2.59496	-0.0823787	-0.0689237	0.21049
2	-0.013502	-0.0371154	-0.0006093	0.0124389	-0.0222195	-0.0326459	0.0212045	0.0284261	-0.000750257	-0.00109723	0.000632824	0.00270772	0.0536333	-0.00132986	0.0206813	-2.20959	0.0183979	-1.52359	0	0	0	0	-0	0	0	0	-0.1265	0	-0	0	0	0	0	0	-0	0	0.105	-0.015	0	0	-0	0	0	-0.098	0.1	0	-0	0	0	0	0	0	-0	0	0.05595	0	0	0	-0	0	0	0	0	0	-0	0	545.902	551.039	324.933	201.586	-0.202087	2.48563	-0.0361172	-0.0441271	0.17409
3	-0.0142669	-0.0299439	0.00212706	0.0131342	-0.0176243	-0.036689	0.0212633	0.0285352	-0.00102961	-0.00112639	0.00065611	0.00271097	0.0550833	-0.00237522	0.0176736	-2.20576	0.0183056	-1.52756	0	0	0	0	-0	0	0	0	-0.1265	0	-0	0	0	0	0	0	-0	0	0.105	-0.015	0	0	-0	0	0	-0.098	0.1	0	-0	0	0	0	0	0	-0	0	0.05595	0	0	0	-0	0	0	0	0	0	-0	0	545.904	551.04	324.939	201.591	-0.447116	2.33211	-0.0190112	-0.0338304	0.124087
4	-0.014304	-0.0243269	0.00397209	0.0128153	-0.014339	-0.0399362	0.0213496	0.0286564	-0.00123171	-0.00115082	0.000679058	0.00271029	0.0560289	-0.00317509	0.0156069	-2.2051	0.0184217	-1.53334	0	0	0	0	-0	0	0	0	-0.1265	0	-0	0	0	0	0	0	-0	0	0.105	-0.015	0	0	-0	0	0	-0.098	0.1	0	-0	0	0	0	0	0	-0	0	0.05595	0	0	0	-0	0	0	0	0	0	-0	0	545.909	551.04	324.948	201.599	-0.659124	2.09049	0.0113527	-0.0139134	0.0325396
5	-0.0143639	-0.021399	0.00566085	0.0126068	-0.0130813	-0.041806	0.0213454	0.0287144	-0.00129051	-0.00115433	0.000687243	0.00270588	0.0558414	-0.00362908	0.01535	-2.20485	0.0181102	-1.53592	0	0	0	0	-0	0	0	0	-0.1265	0	-0	0	0	0	0	0	-0	0	0.105	-0.015	0	0	-0	0	0	-0.098	0.1	0	-0	0	0	0	0	0	-0	0	0.05595	0	0	0	-0	0	0	0	0	0	-0	0	545.922	551.038	324.961	201.61	-0.60697	1.74192	0.0152993	-0.00949721	-0.12261
6	-0.0144241	-0.0197393	0.00760097	0.0119197	-0.0128298	-0.0429823	0.0212966	0.0287171	-0.00121308	-0.00116891	0.000682437	0.00271796	0.0547702	-0.00388262	0.0163186	-2.20497	0.0172978	-1.53736	0	0	0	0	-0	0	0	0	-0.1265	0	-0	0	0	0	0	0	-0	0	0.105	-0.015	0	0	-0	0	0	-0.098	0.1	0	-0	0	0	0	0	0	-0	0	0.05595	0	0	0	-0	0	0	0	0	0	-0	0	545.945	551.031	324.98	201.623	-0.368293	1.19566	0.00446828	-0.0123848	-0.374617
7	-0.0144233	-0.0186985	0.00922775	0.0110539	-0.0128838	-0.0437957	0.0212523	0.0287072	-0.00111017	-0.00118435	0.00061601	0.00265935	0.0536743	-0.00404133	0.0174062	-2.20526	0.0165731	-1.53839	0	0	0	0	-0	0	0	0	-0.1265	0	-0	0	0	0	0	0	-0	0	0.105	-0.015	0	0	-0	0	0	-0.098	0.1	0	-0	0	0	0	0	0	-0	0	0.05595	0	0	0	-0	0	0	0	0	0	-0	0	545.981	551.015	324.996	201.633	-0.114614	0.611488	-0.00714515	-0.0157549	-0.633112
8	-0.0142208	-0.0183912	0.00995236	0.010475	-0.0130534	-0.0440925	0.0212312	0.0286992	-0.00104444	-0.00113888	0.000660834	0.00277146	0.0530715	-0.00408819	0.0180562	-2.20545	0.0162098	-1.53885	0	0	0	0	-0	0	0	0	-0.1265	0	-0	0	0	0	0	0	-0	0	0.105	-0.015	0	0	-0	0	0	-0.098	0.1	0	-0	0	0	0	0	0	-0	0	0.05595	0	0	0	-0	0	0	0	0	0	-0	0	546.052	550.979	325.013	201.644	0.0275563	0.253538	-0.0128643	-0.017338	-0.751231
9	-0.0136142	-0.0183354	0.0101191	0.010258	-0.0131134	-0.0441222	0.0212257	0.028696	-0.0010229	-0.000825614	0.0015661	0.0027144	0.0528778	-0.00408761	0.0182937	-2.20512	0.0160232	-1.53906	0	0	0	0	-0	0	0	0	-0.1265	0	-0	0	0	0	0	0	-0	0	0.105	-0.015	0	0	-0	0	0	-0.098	0.1	0	-0	0	0	0	0	0	-0	0	0.05595	0	0	0	-0	0	0	0	0	0	-0	0	546.226	550.888	325.05	201.682	0.0678466	0.114931	-0.0137633	-0.0176459	-0.681977
10	-0.0129122	-0.0182968	0.0101683	0.0100883	-0.013114	-0.0440784	0.0212239	0.0286921	-0.00101208	-0.000838535	0.00203507	0.00433194	0.0527707	-0.00407283	0.018435	-2.20483	0.0157873	-1.53937	0	0	0	0	-0	0	0	0	-0.1265	0	-0	0	0	0	0	0	-0	0	0.105	-0.015	0	0	-0	0	0	-0.098	0.1	0	-0	0	0	0	0	0	-0	0	0.05595	0	0	0	-0	0	0	0	0	0	-0	0	546.635	550.683	325.14	201.806	0.0807029	-0.00287162	-0.0127311	-0.0175906	-0.428488
11	-0.0101279	-0.0182434	0.0102273	0.00982839	-0.0131069	-0.0439989	0.021222	0.0286861	-0.000996615	-0.00557724	0.00391809	0.00575124	0.0525874	-0.00404808	0.018726	-2.20303	0.015344	-1.53989	0	0	0	0	-0	0	0	0	-0.1265	0	-0	0	0	0	0	0	-0	0	0.105	-0.015	0	0	-0	0	0	-0.098	0.1	0	-0	0	0	0	0	0	-0	0	0.05595	0	0	0	-0	0	0	0	0	0	-0	0	547.337	550.391	325.316	202.188	0.0956856	-0.177718	-0.0107687	-0.017447	-0.0145439
12	-0.00822805	-0.0182015	0.0102678	0.00958241	-0.0131002	-0.0439116	0.0212281	0.0286868	-0.000979638	-0.0159405	0.0192819	-0.011242	0.0524337	-0.00402501	0.018954	-2.20343	0.0148175	-1.54063	0	0	0	0	-0	0	0	0	-0.1265	0	-0	0	0	0	0	0	-0	0	0.105	-0.015	0	0	-0	0	0	-0.098	0.1	0	-0	0	0	0	0	0	-0	0	0.05595	0	0	0	-0	0	0	0	0	0	-0	0	548.094	550.325	325.637	203.292	0.108039	-0.325196	-0.00878489	-0.017272	0.339063
13	-0.0142634	-0.018193	0.0102656	0.00947238	-0.0130964	-0.043856	0.0212179	0.0286863	-0.000973909	-0.0428848	0.014488	-0.0125784	0.0525046	-0.00401528	0.0186853	-2.21237	0.0145266	-1.54148	0	0	0	0	-0	0	0	0	-0.1265	0	-0	0	0	0	0	0	-0	0	0.105	-0.015	0	0	-0	0	0	-0.098	0.1	0	-0	0	0	0	0	0	-0	0	0.05595	0	0	0	-0	0	0	0	0	0	-0	0	548.563	550.602	326.055	204.79	0.111057	-0.364908	-0.00775195	-0.0171018	0.438851
14	-0.0192706	-0.0182019	0.010251	0.0094246	-0.0130986	-0.0438197	0.0212209	0.028685	-0.000970991	-0.0650689	0.016463	-0.022449	0.0525841	-0.00401147	0.018439	-2.21996	0.0142519	-1.54219	0	0	0	0	-0	0	0	0	-0.1265	0	-0	0	0	0	0	0	-0	0	0.105	-0.015	0	0	-0	0	0	-0.098	0.1	0	-0	0	0	0	0	0	-0	0	0.05595	0	0	0	-0	0	0	0	0	0	-0	0	548.872	550.943	326.45	206.154	0.110036	-0.356936	-0.00717295	-0.0169459	0.419463
15	-0.00822203	-0.0182045	0.0102428	0.00941215	-0.0130983	-0.0438067	0.0212215	0.028677	-0.00096509	-0.0615912	0.0306191	-0.0329862	0.0523758	-0.00401035	0.0190249	-2.20993	0.0137708	-1.54228	0	0	0	0	-0	0	0	0	-0.1265	0	-0	0	0	0	0	0	-0	0	0.105	-0.015	0	0	-0	0	0	-0.098	0.1	0	-0	0	0	0	0	0	-0	0	0.05595	0	0	0	-0	0	0	0	0	0	-0	0	548.983	551.079	326.605	206.694	0.109289	-0.348235	-0.00696241	-0.0168786	0.394368
16	-0.00652265	-0.0182104	0.0102305	0.00940205	-0.0130991	-0.0437905	0.0212248	0.0286804	-0.000967492	-0.0729417	0.0463309	-0.0248047	0.0523378	-0.00400922	0.0191165	-2.20957	0.0135134	-1.54258	0	0	0	0	-0	0	0	0	-0.1265	0	-0	0	0	0	0	0	-0	0	0.105	-0.015	0	0	-0	0	0	-0.098	0.1	0	-0	0	0	0	0	0	-0	0	0.05595	0	0	0	-0	0	0	0	0	0	-0	0	549.127	551.266	326.81	207.4	0.10781	-0.334199	-0.00670781	-0.0168034	0.35926
17	0.00075683	-0.0182139	0.0102229	0.00939194	-0.0130991	-0.0437789	0.0212202	0.028676	-0.000965979	-0.0728927	0.0356165	-0.0296665	0.0521962	-0.00400845	0.0195008	-2.20326	0.013157	-1.54272	0	0	0	0	-0	0	0	0	-0.1265	0	-0	0	0	0	0	0	-0	0	0.105	-0.015	0	0	-0	0	0	-0.098	0.1	0	-0	0	0	0	0	0	-0	0	0.05595	0	0	0	-0	0	0	0	0	0	-0	0	549.232	551.404	326.958	207.911	0.10674	-0.323357	-0.00652013	-0.0167426	0.330349
18	-0.00255568	-0.0182215	0.0102113	0.00937955	-0.0131011	-0.0437621	0.0212229	0.0286776	-0.000965022	-0.0670549	0.0205983	-0.0373502	0.052257	-0.00400732	0.0193312	-2.20793	0.0130356	-1.5431	0	0	0	0	-0	0	0	0	-0.1265	0	-0	0	0	0	0	0	-0	0	0.105	-0.015	0	0	-0	0	0	-0.098	0.1	0	-0	0	0	0	0	0	-0	0	0.05595	0	0	0	-0	0	0	0	0	0	-0	0	549.379	551.599	327.17	208.638	0.105082	-0.307645	-0.00625406	-0.0166602	0.290282
19	-0.000758026	-0.0182281	0.0101978	0.009364	-0.0131015	-0.0437424	0.0212254	0.0286777	-0.000962422	-0.0588677	-9.84081e-05	-0.0388056	0.0522183	-0.00400593	0.0194303	-2.20776	0.0127252	-1.54347	0	0	0	0	-0	0	0	0	-0.1265	0	-0	0	0	0	0	0	-0	0	0.105	-0.015	0	0	-0	0	0	-0.098	0.1	0	-0	0	0	0	0	0	-0	0	0.05595	0	0	0	-0	0	0	0	0	0	-0	0	549.555	551.834	327.424	209.497	0.103203	-0.289183	-0.00593887	-0.0165578	0.241781
20	-0.00728045	-0.0182427	0.0101711	0.00933371	-0.0131038	-0.0437037	0.0212182	0.0286758	-0.000961379	-0.0434421	0.0192818	-0.0323075	0.0523375	-0.00400303	0.0191006	-2.21742	0.012372	-1.54435	0	0	0	0	-0	0	0	0	-0.1265	0	-0	0	0	0	0	0	-0	0	0.105	-0.015	0	0	-0	0	0	-0.098	0.1	0	-0	0	0	0	0	0	-0	0	0.05595	0	0	0	-0	0	0	0	0	0	-0	0	549.899	552.298	327.934	211.16	0.0995989	-0.254286	-0.0053286	-0.0163505	0.150667
21	-0.00435738	-0.0182476	0.0101638	0.00932301	-0.0131052	-0.043693	0.0212202	0.0286763	-0.000958281	-0.0417369	0.0105396	-0.0424137	0.0522778	-0.00400211	0.0192573	-2.21532	0.0121546	-1.54452	0	0	0	0	-0	0	0	0	-0.1265	0	-0	0	0	0	0	0	-0	0	0.105	-0.015	0	0	-0	0	0	-0.098	0.1	0	-0	0	0	0	0	0	-0	0	0.05595	0	0	0	-0	0	0	0	0	0	-0	0	549.989	552.417	328.066	211.599	0.0983017	-0.239358	-0.00514363	-0.0162733	0.104557
22	-0.00235445	-0.0182519	0.010154	0.00931368	-0.0131052	-0.0436799	0.0212226	0.0286792	-0.000958029	-0.0388463	0.000958649	-0.0596669	0.0522373	-0.00400127	0.0193645	-2.21439	0.0119236	-1.54476	0	0	0	0	-0	0	0	0	-0.1265	0	-0	0	0	0	0	0	-0	0	0.105	-0.015	0	0	-0	0	0	-0.098	0.1	0	-0	0	0	0	0	0	-0	0	0.05595	0	0	0	-0	0	0	0	0	0	-0	0	550.108	552.574	328.239	212.17	0.096398	-0.221184	-0.00491806	-0.0161981	0.0557267
23	-0.0114481	-0.0182548	0.0101473	0.00930588	-0.0131051	-0.0436702	0.0212175	0.028676	-0.000956082	-0.0505425	-0.00657009	-0.0634571	0.0524114	-0.00400057	0.0188921	-2.22426	0.0120306	-1.54507	0	0	0	0	-0	0	0	0	-0.1265	0	-0	0	0	0	0	0	-0	0	0.105	-0.015	0	0	-0	0	0	-0.098	0.1	0	-0	0	0	0	0	0	-0	0	0.05595	0	0	0	-0	0	0	0	0	0	-0	0	550.194	552.687	328.363	212.581	0.0951124	-0.208443	-0.00474886	-0.0161391	0.0199075
24	-0.000343219	-0.0182608	0.0101384	0.00929629	-0.0131067	-0.0436578	0.0212195	0.0286745	-0.000955014	-0.0494601	0.00597647	-0.0589746	0.0521974	-0.00399963	0.0194768	-2.21415	0.0115749	-1.54518	0	0	0	0	-0	0	0	0	-0.1265	0	-0	0	0	0	0	0	-0	0	0.105	-0.015	0	0	-0	0	0	-0.098	0.1	0	-0	0	0	0	0	0	-0	0	0.05595	0	0	0	-0	0	0	0	0	0	-0	0	550.306	552.836	328.524	213.11	0.093521	-0.192811	-0.00454221	-0.0160669	-0.0231079
25	0.00688949	-0.018264	0.0101313	0.00929064	-0.013107	-0.0436489	0.0212214	0.0286795	-0.000953327	-0.0341179	-0.00316562	-0.0648377	0.0520516	-0.00399897	0.0198556	-2.20763	0.0112704	-1.54528	0	0	0	0	-0	0	0	0	-0.1265	0	-0	0	0	0	0	0	-0	0	0.105	-0.015	0	0	-0	0	0	-0.098	0.1	0	-0	0	0	0	0	0	-0	0	0.05595	0	0	0	-0	0	0	0	0	0	-0	0	550.386	552.943	328.641	213.49	0.0922445	-0.179978	-0.00438737	-0.0160111	-0.0594565
26	0.00898081	-0.0182652	0.0101274	0.00928367	-0.0131063	-0.0436423	0.0212188	0.0286756	-0.000952739	-0.033488	-0.00458135	-0.0743886	0.0520074	-0.00399847	0.0199656	-2.20606	0.0111308	-1.54539	0	0	0	0	-0	0	0	0	-0.1265	0	-0	0	0	0	0	0	-0	0	0.105	-0.015	0	0	-0	0	0	-0.098	0.1	0	-0	0	0	0	0	0	-0	0	0.05595	0	0	0	-0	0	0	0	0	0	-0	0	550.445	553.019	328.725	213.767	0.0912739	-0.170466	-0.00426768	-0.0159687	-0.0865641
27	0.00181867	-0.0182698	0.0101204	0.00927629	-0.0131075	-0.0436329	0.0212179	0.028674	-0.000951654	-0.0383419	-0.0144756	-0.0734537	0.0521485	-0.00399771	0.0195958	-2.21397	0.011187	-1.54566	0	0	0	0	-0	0	0	0	-0.1265	0	-0	0	0	0	0	0	-0	0	0.105	-0.015	0	0	-0	0	0	-0.098	0.1	0	-0	0	0	0	0	0	-0	0	0.05595	0	0	0	-0	0	0	0	0	0	-0	0	550.53	553.129	328.847	214.162	0.0899768	-0.157971	-0.00410374	-0.0159129	-0.12122
28	-0.00238356	-0.0182713	0.0101173	0.00927349	-0.0131078	-0.0436289	0.0212177	0.0286749	-0.000951394	-0.0456019	-0.0151087	-0.0726731	0.0522285	-0.00399735	0.0193775	-2.21847	0.0112409	-1.54578	0	0	0	0	-0	0	0	0	-0.1265	0	-0	0	0	0	0	0	-0	0	0.105	-0.015	0	0	-0	0	0	-0.098	0.1	0	-0	0	0	0	0	0	-0	0	0.05595	0	0	0	-0	0	0	0	0	0	-0	0	550.563	553.173	328.896	214.321	0.0895133	-0.152905	-0.00403591	-0.0158862	-0.136755
29	0.00326609	-0.018277	0.0101074	0.00926184	-0.0131088	-0.0436149	0.0212175	0.0286746	-0.00094972	-0.0388317	-0.0112244	-0.0764545	0.0521158	-0.00399624	0.0196767	-2.21395	0.0108983	-1.54601	0	0	0	0	-0	0	0	0	-0.1265	0	-0	0	0	0	0	0	-0	0	0.105	-0.015	0	0	-0	0	0	-0.098	0.1	0	-0	0	0	0	0	0	-0	0	0.05595	0	0	0	-0	0	0	0	0	0	-0	0	550.695	553.351	329.087	214.925	0.08759	-0.134338	-0.00379706	-0.0158005	-0.187863
30	2.57892e-05	-0.0182782	0.0101044	0.00925783	-0.0131088	-0.0436107	0.021218	0.0286745	-0.000949447	-0.0356599	-0.0105456	-0.0824111	0.0521773	-0.00399579	0.0195094	-2.2175	0.0109258	-1.54613	0	0	0	0	-0	0	0	0	-0.1265	0	-0	0	0	0	0	0	-0	0	0.105	-0.015	0	0	-0	0	0	-0.098	0.1	0	-0	0	0	0	0	0	-0	0	0.05595	0	0	0	-0	0	0	0	0	0	-0	0	550.73	553.395	329.138	215.087	0.0871087	-0.128848	-0.00372111	-0.0157681	-0.205796
31	0.00864828	-0.0182802	0.0101006	0.00925391	-0.0131091	-0.0436055	0.0212197	0.0286762	-0.00094857	-0.0321904	-0.0165957	-0.0706883	0.052008	-0.00399542	0.0199603	-2.20928	0.0106421	-1.54614	0	0	0	0	-0	0	0	0	-0.1265	0	-0	0	0	0	0	0	-0	0	0.105	-0.015	0	0	-0	0	0	-0.098	0.1	0	-0	0	0	0	0	0	-0	0	0.05595	0	0	0	-0	0	0	0	0	0	-0	0	550.775	553.454	329.206	215.303	0.0862935	-0.120907	-0.00362826	-0.0157354	-0.228272
32	0.01376	-0.0182811	0.0100979	0.00925113	-0.0131089	-0.0436016	0.0212175	0.028674	-0.000949035	-0.0281091	-0.0144763	-0.069319	0.0519031	-0.00399512	0.0202266	-2.20447	0.0104647	-1.54617	0	0	0	0	-0	0	0	0	-0.1265	0	-0	0	0	0	0	0	-0	0	0.105	-0.015	0	0	-0	0	0	-0.098	0.1	0	-0	0	0	0	0	0	-0	0	0.05595	0	0	0	-0	0	0	0	0	0	-0	0	550.809	553.499	329.256	215.461	0.0857352	-0.115265	-0.00355877	-0.0157097	-0.24485
33	0.0163503	-0.0182841	0.0100938	0.00924639	-0.0131099	-0.0435961	0.021221	0.0286746	-0.000946976	-0.0299094	0.00151943	-0.0764665	0.051849	-0.00399465	0.0203625	-2.20231	0.0103261	-1.54625	0	0	0	0	-0	0	0	0	-0.1265	0	-0	0	0	0	0	0	-0	0	0.105	-0.015	0	0	-0	0	0	-0.098	0.1	0	-0	0	0	0	0	0	-0	0	0.05595	0	0	0	-0	0	0	0	0	0	-0	0	550.859	553.564	329.329	215.691	0.0849188	-0.107351	-0.00346105	-0.0156743	-0.267288
34	0.0254557	-0.0182878	0.0100854	0.00923773	-0.01311	-0.0435848	0.0212195	0.0286732	-0.000946005	-0.0367419	-0.0189682	-0.0718941	0.0516608	-0.00399368	0.0208381	-2.19411	0.00994146	-1.5464	0	0	0	0	-0	0	0	0	-0.1265	0	-0	0	0	0	0	0	-0	0	0.105	-0.015	0	0	-0	0	0	-0.098	0.1	0	-0	0	0	0	0	0	-0	0	0.05595	0	0	0	-0	0	0	0	0	0	-0	0	550.962	553.702	329.485	216.169	0.0834508	-0.0926571	-0.00326488	-0.0156007	-0.309432
35	0.0190167	-0.018289	0.0100831	0.00923563	-0.0131104	-0.043582	0.0212175	0.0286738	-0.000947097	-0.0344184	-0.0181686	-0.0739939	0.0517918	-0.00399337	0.0205059	-2.20074	0.0100652	-1.54652	0	0	0	0	-0	0	0	0	-0.1265	0	-0	0	0	0	0	0	-0	0	0.105	-0.015	0	0	-0	0	0	-0.098	0.1	0	-0	0	0	0	0	0	-0	0	0.05595	0	0	0	-0	0	0	0	0	0	-0	0	550.983	553.731	329.518	216.271	0.0831398	-0.0889538	-0.00321606	-0.0155771	-0.322066
36	0.0224855	-0.0182909	0.010081	0.00923214	-0.0131111	-0.0435786	0.0212176	0.0286743	-0.000946794	-0.0407052	-0.016708	-0.0725721	0.0517192	-0.00399314	0.0206858	-2.19753	0.00993537	-1.54655	0	0	0	0	-0	0	0	0	-0.1265	0	-0	0	0	0	0	0	-0	0	0.105	-0.015	0	0	-0	0	0	-0.098	0.1	0	-0	0	0	0	0	0	-0	0	0.05595	0	0	0	-0	0	0	0	0	0	-0	0	551.012	553.768	329.563	216.409	0.0825547	-0.0833094	-0.00315429	-0.015554	-0.338238
37	0.018586	-0.0182928	0.0100776	0.00922811	-0.0131113	-0.0435738	0.0212177	0.0286738	-0.000946816	-0.0384836	-0.0119952	-0.0681386	0.0517986	-0.00399275	0.0204853	-2.2018	0.00996251	-1.5467	0	0	0	0	-0	0	0	0	-0.1265	0	-0	0	0	0	0	0	-0	0	0.105	-0.015	0	0	-0	0	0	-0.098	0.1	0	-0	0	0	0	0	0	-0	0	0.05595	0	0	0	-0	0	0	0	0	0	-0	0	551.056	553.826	329.629	216.608	0.0817735	-0.0757262	-0.00306769	-0.0155211	-0.359939
38	0.0202269	-0.0182937	0.010076	0.00922663	-0.0131115	-0.0435718	0.0212174	0.0286743	-0.000946475	-0.0450072	-0.0132641	-0.071079	0.051764	-0.00399255	0.020571	-2.20031	0.00989542	-1.54672	0	0	0	0	-0	0	0	0	-0.1265	0	-0	0	0	0	0	0	-0	0	0.105	-0.015	0	0	-0	0	0	-0.098	0.1	0	-0	0	0	0	0	0	-0	0	0.05595	0	0	0	-0	0	0	0	0	0	-0	0	551.073	553.849	329.655	216.689	0.081512	-0.0728406	-0.00303209	-0.0155055	-0.369077
39	0.0165596	-0.0182947	0.0100742	0.00922417	-0.0131117	-0.0435692	0.0212173	0.0286742	-0.000945963	-0.038054	-0.0122269	-0.0712986	0.0518388	-0.00399233	0.0203819	-2.20418	0.00994658	-1.54681	0	0	0	0	-0	0	0	0	-0.1265	0	-0	0	0	0	0	0	-0	0	0.105	-0.015	0	0	-0	0	0	-0.098	0.1	0	-0	0	0	0	0	0	-0	0	0.05595	0	0	0	-0	0	0	0	0	0	-0	0	551.096	553.879	329.691	216.797	0.081142	-0.0691091	-0.0029847	-0.0154873	-0.380082
40	0.0211845	-0.0182964	0.0100713	0.00922137	-0.013112	-0.0435654	0.0212195	0.0286751	-0.000946167	-0.0318446	-0.0212924	-0.077745	0.0517436	-0.00399205	0.0206224	-2.19986	0.0097811	-1.54685	0	0	0	0	-0	0	0	0	-0.1265	0	-0	0	0	0	0	0	-0	0	0.105	-0.015	0	0	-0	0	0	-0.098	0.1	0	-0	0	0	0	0	0	-0	0	0.05595	0	0	0	-0	0	0	0	0	0	-0	0	551.13	553.925	329.744	216.956	0.0804633	-0.0624518	-0.00291589	-0.0154607	-0.399184
41	0.0250451	-0.0182962	0.0100705	0.00922105	-0.0131117	-0.0435645	0.0212175	0.0286735	-0.000945535	-0.031218	-0.0170115	-0.0783346	0.0516631	-0.00399197	0.0208223	-2.19606	0.00967763	-1.54683	0	0	0	0	-0	0	0	0	-0.1265	0	-0	0	0	0	0	0	-0	0	0.105	-0.015	0	0	-0	0	0	-0.098	0.1	0	-0	0	0	0	0	0	-0	0	0.05595	0	0	0	-0	0	0	0	0	0	-0	0	551.137	553.934	329.755	216.988	0.0803804	-0.0613842	-0.00289992	-0.0154529	-0.403046
42	0.0304313	-0.0182981	0.0100682	0.00921858	-0.0131124	-0.0435614	0.0212175	0.0286751	-0.000944764	-0.0401214	-0.0183487	-0.0724864	0.0515502	-0.00399173	0.0211011	-2.19092	0.00950427	-1.54684	0	0	0	0	-0	0	0	0	-0.1265	0	-0	0	0	0	0	0	-0	0	0.105	-0.015	0	0	-0	0	0	-0.098	0.1	0	-0	0	0	0	0	0	-0	0	0.05595	0	0	0	-0	0	0	0	0	0	-0	0	551.165	553.971	329.798	217.118	0.0798058	-0.0558317	-0.00284425	-0.015432	-0.418702
43	0.0346851	-0.0182997	0.0100651	0.00921447	-0.0131125	-0.0435569	0.02122	0.0286744	-0.000944111	-0.0441741	-0.00544631	-0.0779978	0.0514586	-0.00399134	0.0213216	-2.18702	0.00933739	-1.5469	0	0	0	0	-0	0	0	0	-0.1265	0	-0	0	0	0	0	0	-0	0	0.105	-0.015	0	0	-0	0	0	-0.098	0.1	0	-0	0	0	0	0	0	-0	0	0.05595	0	0	0	-0	0	0	0	0	0	-0	0	551.207	554.027	329.862	217.306	0.0790946	-0.0487641	-0.0027639	-0.0153994	-0.439317
44	0.0417445	-0.0183021	0.0100599	0.00920987	-0.0131127	-0.0435504	0.0212195	0.0286744	-0.000946616	-0.0463981	-0.0191834	-0.0873832	0.051306	-0.00399076	0.0216867	-2.18046	0.00907518	-1.54698	0	0	0	0	-0	0	0	0	-0.1265	0	-0	0	0	0	0	0	-0	0	0.105	-0.015	0	0	-0	0	0	-0.098	0.1	0	-0	0	0	0	0	0	-0	0	0.05595	0	0	0	-0	0	0	0	0	0	-0	0	551.266	554.105	329.954	217.572	0.0781208	-0.0390404	-0.00264777	-0.0153527	-0.467849
45	0.0376417	-0.018304	0.0100575	0.00920724	-0.0131135	-0.043547	0.0212172	0.0286744	-0.000944359	-0.054398	-0.0208917	-0.0899189	0.0513927	-0.00399045	0.0214769	-2.18481	0.00912807	-1.54709	0	0	0	0	-0	0	0	0	-0.1265	0	-0	0	0	0	0	0	-0	0	0.105	-0.015	0	0	-0	0	0	-0.098	0.1	0	-0	0	0	0	0	0	-0	0	0.05595	0	0	0	-0	0	0	0	0	0	-0	0	551.294	554.141	329.999	217.702	0.0776671	-0.0343687	-0.00258579	-0.0153256	-0.482534
46	0.0392859	-0.0183045	0.0100567	0.00920495	-0.0131136	-0.0435456	0.0212174	0.0286735	-0.00094377	-0.0559008	-0.018541	-0.0930144	0.0513566	-0.00399028	0.0215618	-2.18326	0.00907017	-1.5471	0	0	0	0	-0	0	0	0	-0.1265	0	-0	0	0	0	0	0	-0	0	0.105	-0.015	0	0	-0	0	0	-0.098	0.1	0	-0	0	0	0	0	0	-0	0	0.05595	0	0	0	-0	0	0	0	0	0	-0	0	551.305	554.157	330.018	217.755	0.0774857	-0.0324194	-0.00256186	-0.015314	-0.488742
47	0.0418056	-0.0183069	0.0100527	0.00920162	-0.0131142	-0.0435407	0.0212201	0.0286737	-0.000941914	-0.0558792	-0.0348056	-0.0864203	0.0513015	-0.00398991	0.0216924	-2.18113	0.00893622	-1.54719	0	0	0	0	-0	0	0	0	-0.1265	0	-0	0	0	0	0	0	-0	0	0.105	-0.015	0	0	-0	0	0	-0.098	0.1	0	-0	0	0	0	0	0	-0	0	0.05595	0	0	0	-0	0	0	0	0	0	-0	0	551.348	554.217	330.091	217.963	0.0766721	-0.0242185	-0.00247598	-0.015278	-0.512509
48	0.0445056	-0.0183094	0.0100471	0.00919643	-0.0131144	-0.0435336	0.0212197	0.0286764	-0.000942866	-0.0448342	-0.0423315	-0.0797221	0.051241	-0.00398927	0.021833	-2.17898	0.00876528	-1.54733	0	0	0	0	-0	0	0	0	-0.1265	0	-0	0	0	0	0	0	-0	0	0.105	-0.015	0	0	-0	0	0	-0.098	0.1	0	-0	0	0	0	0	0	-0	0	0.05595	0	0	0	-0	0	0	0	0	0	-0	0	551.411	554.302	330.197	218.253	0.0756019	-0.0133964	-0.0023494	-0.0152231	-0.544658
49	0.0483236	-0.0183109	0.0100449	0.00919231	-0.0131147	-0.0435298	0.0212197	0.0286745	-0.000943486	-0.0407155	-0.0539133	-0.0868692	0.0511564	-0.00398891	0.0220299	-2.17543	0.00862399	-1.54738	0	0	0	0	-0	0	0	0	-0.1265	0	-0	0	0	0	0	0	-0	0	0.105	-0.015	0	0	-0	0	0	-0.098	0.1	0	-0	0	0	0	0	0	-0	0	0.05595	0	0	0	-0	0	0	0	0	0	-0	0	551.441	554.341	330.248	218.394	0.0751274	-0.00843326	-0.00228167	-0.0151911	-0.560636
50	0.0540132	-0.0183125	0.0100426	0.00919089	-0.0131153	-0.0435272	0.0212171	0.0286733	-0.000942269	-0.043642	-0.0565934	-0.0866112	0.05103	-0.00398867	0.0223218	-2.16994	0.00845284	-1.54739	0	0	0	0	-0	0	0	0	-0.1265	0	-0	0	0	0	0	0	-0	0	0.105	-0.015	0	0	-0	0	0	-0.098	0.1	0	-0	0	0	0	0	0	-0	0	0.05595	0	0	0	-0	0	0	0	0	0	-0	0	551.464	554.372	330.286	218.498	0.0747271	-0.00426789	-0.00223559	-0.01517	-0.573388
51	0.0551858	-0.0183133	0.0100418	0.00918944	-0.0131157	-0.0435261	0.0212171	0.0286734	-0.000942272	-0.0398331	-0.0537209	-0.0850663	0.0510027	-0.00398853	0.0223817	-2.16884	0.00841019	-1.5474	0	0	0	0	-0	0	0	0	-0.1265	0	-0	0	0	0	0	0	-0	0	0.105	-0.015	0	0	-0	0	0	-0.098	0.1	0	-0	0	0	0	0	0	-0	0	0.05595	0	0	0	-0	0	0	0	0	0	-0	0	551.473	554.384	330.301	218.54	0.0745528	-0.0025085	-0.00221471	-0.0151602	-0.578894
52	0.0559131	-0.0183151	0.010039	0.0091868	-0.0131162	-0.0435225	0.0212178	0.0286735	-0.000942686	-0.0420459	-0.0619437	-0.0905676	0.050986	-0.00398827	0.0224194	-2.16839	0.00833854	-1.54748	0	0	0	0	-0	0	0	0	-0.1265	0	-0	0	0	0	0	0	-0	0	0.105	-0.015	0	0	-0	0	0	-0.098	0.1	0	-0	0	0	0	0	0	-0	0	0.05595	0	0	0	-0	0	0	0	0	0	-0	0	551.504	554.426	330.357	218.687	0.0738795	0.00413286	-0.00215039	-0.0151319	-0.598151
53	0.0611305	-0.0183158	0.0100376	0.00918507	-0.0131163	-0.0435205	0.0212171	0.0286733	-0.000941652	-0.0388996	-0.0624734	-0.0913539	0.0508683	-0.00398806	0.0226862	-2.16331	0.00818992	-1.54748	0	0	0	0	-0	0	0	0	-0.1265	0	-0	0	0	0	0	0	-0	0	0.105	-0.015	0	0	-0	0	0	-0.098	0.1	0	-0	0	0	0	0	0	-0	0	0.05595	0	0	0	-0	0	0	0	0	0	-0	0	551.52	554.445	330.384	218.76	0.0736487	0.00644934	-0.00211228	-0.0151153	-0.605691
54	0.0653111	-0.0183165	0.0100365	0.00918356	-0.0131165	-0.0435188	0.0212174	0.0286739	-0.000941538	-0.0453022	-0.0603797	-0.0915726	0.0507723	-0.00398789	0.0228991	-2.15925	0.00806842	-1.54749	0	0	0	0	-0	0	0	0	-0.1265	0	-0	0	0	0	0	0	-0	0	0.105	-0.015	0	0	-0	0	0	-0.098	0.1	0	-0	0	0	0	0	0	-0	0	0.05595	0	0	0	-0	0	0	0	0	0	-0	0	551.534	554.464	330.408	218.825	0.0734249	0.00880788	-0.00208313	-0.0151018	-0.61303
55	0.0685784	-0.018317	0.0100355	0.00918255	-0.0131165	-0.0435177	0.0212171	0.0286738	-0.000941813	-0.0514041	-0.0631601	-0.0953593	0.0506968	-0.00398778	0.0230652	-2.15608	0.00797449	-1.54749	0	0	0	0	-0	0	0	0	-0.1265	0	-0	0	0	0	0	0	-0	0	0.105	-0.015	0	0	-0	0	0	-0.098	0.1	0	-0	0	0	0	0	0	-0	0	0.05595	0	0	0	-0	0	0	0	0	0	-0	0	551.544	554.479	330.426	218.873	0.0732338	0.0108074	-0.00206324	-0.0150914	-0.619122
56	0.0653207	-0.0183184	0.0100336	0.00918038	-0.013117	-0.043515	0.0212169	0.0286755	-0.000942061	-0.0387253	-0.059542	-0.0912724	0.0507711	-0.00398756	0.0229006	-2.15953	0.00801124	-1.54758	0	0	0	0	-0	0	0	0	-0.1265	0	-0	0	0	0	0	0	-0	0	0.105	-0.015	0	0	-0	0	0	-0.098	0.1	0	-0	0	0	0	0	0	-0	0	0.05595	0	0	0	-0	0	0	0	0	0	-0	0	551.566	554.509	330.466	218.978	0.0728221	0.0149041	-0.0020156	-0.0150703	-0.63134
57	0.063126	-0.0183189	0.0100329	0.00917868	-0.013117	-0.0435136	0.021217	0.0286733	-0.000941259	-0.0345662	-0.0551421	-0.0892029	0.0508207	-0.00398743	0.0227896	-2.16182	0.00804251	-1.54762	0	0	0	0	-0	0	0	0	-0.1265	0	-0	0	0	0	0	0	-0	0	0.105	-0.015	0	0	-0	0	0	-0.098	0.1	0	-0	0	0	0	0	0	-0	0	0.05595	0	0	0	-0	0	0	0	0	0	-0	0	551.577	554.524	330.485	219.029	0.0726429	0.0167545	-0.00199066	-0.0150577	-0.637325
58	0.0650317	-0.01832	0.010031	0.00917789	-0.0131174	-0.0435118	0.0212176	0.0286735	-0.000940886	-0.0390387	-0.0502334	-0.089398	0.0507768	-0.00398726	0.0228869	-2.16006	0.00796928	-1.54765	0	0	0	0	-0	0	0	0	-0.1265	0	-0	0	0	0	0	0	-0	0	0.105	-0.015	0	0	-0	0	0	-0.098	0.1	0	-0	0	0	0	0	0	-0	0	0.05595	0	0	0	-0	0	0	0	0	0	-0	0	551.592	554.545	330.515	219.105	0.0723683	0.0196969	-0.00195882	-0.0150425	-0.64627
59	0.0657947	-0.0183199	0.0100306	0.00917749	-0.0131173	-0.0435113	0.0212171	0.0286732	-0.000940843	-0.0369697	-0.0518447	-0.0908669	0.0507591	-0.0039872	0.0229258	-2.15933	0.00794549	-1.54766	0	0	0	0	-0	0	0	0	-0.1265	0	-0	0	0	0	0	0	-0	0	0.105	-0.015	0	0	-0	0	0	-0.098	0.1	0	-0	0	0	0	0	0	-0	0	0.05595	0	0	0	-0	0	0	0	0	0	-0	0	551.596	554.549	330.521	219.121	0.0723172	0.0202469	-0.00194937	-0.0150378	-0.648251
60	0.0677568	-0.0183205	0.0100301	0.00917673	-0.0131175	-0.0435105	0.0212172	0.0286732	-0.000940823	-0.0376968	-0.0494024	-0.0887031	0.0507139	-0.00398712	0.0230256	-2.15743	0.00788762	-1.54766	0	0	0	0	-0	0	0	0	-0.1265	0	-0	0	0	0	0	0	-0	0	0.105	-0.015	0	0	-0	0	0	-0.098	0.1	0	-0	0	0	0	0	0	-0	0	0.05595	0	0	0	-0	0	0	0	0	0	-0	0	551.603	554.559	330.533	219.154	0.0721738	0.0216595	-0.00193438	-0.0150311	-0.652429
61	0.0703166	-0.018321	0.0100291	0.0091757	-0.0131177	-0.0435093	0.0212171	0.0286731	-0.000940631	-0.038788	-0.0477072	-0.0898258	0.0506545	-0.003987	0.0231558	-2.15496	0.00780989	-1.54767	0	0	0	0	-0	0	0	0	-0.1265	0	-0	0	0	0	0	0	-0	0	0.105	-0.015	0	0	-0	0	0	-0.098	0.1	0	-0	0	0	0	0	0	-0	0	0.05595	0	0	0	-0	0	0	0	0	0	-0	0	551.614	554.573	330.552	219.202	0.0720031	0.0233804	-0.00191235	-0.0150209	-0.65767
62	0.0672708	-0.018322	0.0100278	0.00917435	-0.013118	-0.0435075	0.0212173	0.0286736	-0.000940593	-0.0431659	-0.0465357	-0.0933491	0.0507246	-0.00398685	0.0230019	-2.15814	0.00785291	-1.54774	0	0	0	0	-0	0	0	0	-0.1265	0	-0	0	0	0	0	0	-0	0	0.105	-0.015	0	0	-0	0	0	-0.098	0.1	0	-0	0	0	0	0	0	-0	0	0.05595	0	0	0	-0	0	0	0	0	0	-0	0	551.628	554.593	330.58	219.273	0.0717366	0.0261411	-0.00188142	-0.0150059	-0.666064
63	0.0663557	-0.0183223	0.0100271	0.00917352	-0.013118	-0.0435065	0.0212174	0.0286733	-0.000940099	-0.0434983	-0.0513697	-0.0891563	0.0507451	-0.00398676	0.0229557	-2.15912	0.00786031	-1.54777	0	0	0	0	-0	0	0	0	-0.1265	0	-0	0	0	0	0	0	-0	0	0.105	-0.015	0	0	-0	0	0	-0.098	0.1	0	-0	0	0	0	0	0	-0	0	0.05595	0	0	0	-0	0	0	0	0	0	-0	0	551.636	554.603	330.594	219.308	0.071591	0.0276319	-0.00186366	-0.0149972	-0.670806
64	0.061466	-0.0183232	0.0100256	0.00917214	-0.0131183	-0.0435047	0.0212178	0.0286746	-0.000939102	-0.0488888	-0.0560247	-0.0791211	0.050857	-0.0039866	0.0227081	-2.16415	0.00794219	-1.54785	0	0	0	0	-0	0	0	0	-0.1265	0	-0	0	0	0	0	0	-0	0	0.105	-0.015	0	0	-0	0	0	-0.098	0.1	0	-0	0	0	0	0	0	-0	0	0.05595	0	0	0	-0	0	0	0	0	0	-0	0	551.652	554.627	330.624	219.385	0.0712468	0.0311492	-0.00183126	-0.0149809	-0.681243
65	0.0628364	-0.0183244	0.0100235	0.00916985	-0.0131184	-0.0435019	0.0212189	0.0286744	-0.000940289	-0.0417302	-0.0645751	-0.0832726	0.0508247	-0.00398637	0.0227782	-2.16299	0.00786541	-1.54791	0	0	0	0	-0	0	0	0	-0.1265	0	-0	0	0	0	0	0	-0	0	0.105	-0.015	0	0	-0	0	0	-0.098	0.1	0	-0	0	0	0	0	0	-0	0	0.05595	0	0	0	-0	0	0	0	0	0	-0	0	551.675	554.659	330.67	219.497	0.070839	0.0354574	-0.00178362	-0.0149563	-0.694483
66	0.0619031	-0.0183251	0.0100223	0.00916881	-0.0131187	-0.0435004	0.0212171	0.0286732	-0.000940256	-0.0451859	-0.0691835	-0.0864756	0.0508454	-0.00398621	0.0227314	-2.16403	0.00786449	-1.54795	0	0	0	0	-0	0	0	0	-0.1265	0	-0	0	0	0	0	0	-0	0	0.105	-0.015	0	0	-0	0	0	-0.098	0.1	0	-0	0	0	0	0	0	-0	0	0.05595	0	0	0	-0	0	0	0	0	0	-0	0	551.687	554.675	330.692	219.552	0.070629	0.0375716	-0.00175579	-0.0149423	-0.701245
67	0.0615696	-0.0183266	0.0100207	0.0091671	-0.0131193	-0.0434984	0.0212169	0.0286737	-0.000939943	-0.0382232	-0.0672136	-0.0846683	0.0508526	-0.00398602	0.022715	-2.16451	0.00783906	-1.54801	0	0	0	0	-0	0	0	0	-0.1265	0	-0	0	0	0	0	0	-0	0	0.105	-0.015	0	0	-0	0	0	-0.098	0.1	0	-0	0	0	0	0	0	-0	0	0.05595	0	0	0	-0	0	0	0	0	0	-0	0	551.704	554.699	330.725	219.632	0.07031	0.0407661	-0.00172062	-0.0149241	-0.710851
68	0.0591591	-0.0183269	0.0100201	0.00916596	-0.0131193	-0.0434975	0.0212173	0.0286733	-0.000939336	-0.0376929	-0.0641161	-0.0897887	0.050907	-0.00398591	0.0225928	-2.16698	0.00788039	-1.54805	0	0	0	0	-0	0	0	0	-0.1265	0	-0	0	0	0	0	0	-0	0	0.105	-0.015	0	0	-0	0	0	-0.098	0.1	0	-0	0	0	0	0	0	-0	0	0.05595	0	0	0	-0	0	0	0	0	0	-0	0	551.712	554.708	330.738	219.664	0.0701918	0.0419435	-0.00170345	-0.0149152	-0.71471
69	0.0533748	-0.0183277	0.0100187	0.00916492	-0.0131195	-0.0434958	0.0212168	0.0286733	-0.00093939	-0.0436641	-0.0684827	-0.08846	0.0510373	-0.00398577	0.0222987	-2.17289	0.00798428	-1.54813	0	0	0	0	-0	0	0	0	-0.1265	0	-0	0	0	0	0	0	-0	0	0.105	-0.015	0	0	-0	0	0	-0.098	0.1	0	-0	0	0	0	0	0	-0	0	0.05595	0	0	0	-0	0	0	0	0	0	-0	0	551.725	554.727	330.765	219.729	0.0698988	0.0449142	-0.00167435	-0.0149007	-0.72359
70	0.0500428	-0.018329	0.0100169	0.00916287	-0.01312	-0.0434934	0.021218	0.0286745	-0.000939189	-0.0485348	-0.0661223	-0.0794847	0.0511099	-0.00398552	0.0221293	-2.1764	0.00801844	-1.54822	0	0	0	0	-0	0	0	0	-0.1265	0	-0	0	0	0	0	0	-0	0	0.105	-0.015	0	0	-0	0	0	-0.098	0.1	0	-0	0	0	0	0	0	-0	0	0.05595	0	0	0	-0	0	0	0	0	0	-0	0	551.746	554.756	330.805	219.824	0.0696312	0.0477875	-0.00163401	-0.0148787	-0.732716
71	0.055544	-0.0183305	0.0100144	0.00915968	-0.0131204	-0.0434899	0.0212177	0.0286746	-0.000939062	-0.0579674	-0.0628569	-0.081314	0.050987	-0.00398518	0.0224115	-2.17115	0.00783402	-1.54827	0	0	0	0	-0	0	0	0	-0.1265	0	-0	0	0	0	0	0	-0	0	0.105	-0.015	0	0	-0	0	0	-0.098	0.1	0	-0	0	0	0	0	0	-0	0	0.05595	0	0	0	-0	0	0	0	0	0	-0	0	551.774	554.796	330.863	219.959	0.0691582	0.052676	-0.00157338	-0.014846	-0.747925
72	0.0562836	-0.0183308	0.0100139	0.00915926	-0.0131205	-0.0434893	0.0212171	0.0286732	-0.000938687	-0.0590979	-0.0649788	-0.0769308	0.0509695	-0.00398509	0.0224491	-2.17045	0.00780957	-1.54827	0	0	0	0	-0	0	0	0	-0.1265	0	-0	0	0	0	0	0	-0	0	0.105	-0.015	0	0	-0	0	0	-0.098	0.1	0	-0	0	0	0	0	0	-0	0	0.05595	0	0	0	-0	0	0	0	0	0	-0	0	551.778	554.801	330.871	219.977	0.0690835	0.0534636	-0.00156201	-0.0148386	-0.750826
73	0.058607	-0.0183316	0.0100129	0.0091581	-0.0131209	-0.0434881	0.021217	0.0286731	-0.000938629	-0.0574846	-0.0635286	-0.0804872	0.050917	-0.00398497	0.022568	-2.16821	0.00773554	-1.54829	0	0	0	0	-0	0	0	0	-0.1265	0	-0	0	0	0	0	0	-0	0	0.105	-0.015	0	0	-0	0	0	-0.098	0.1	0	-0	0	0	0	0	0	-0	0	0.05595	0	0	0	-0	0	0	0	0	0	-0	0	551.788	554.815	330.892	220.026	0.0688816	0.0555574	-0.00153941	-0.0148272	-0.757238
74	0.0596055	-0.0183326	0.0100114	0.00915664	-0.0131212	-0.0434862	0.0212178	0.0286728	-0.00093871	-0.0580219	-0.0734318	-0.0808818	0.050894	-0.0039848	0.0226192	-2.16735	0.00768132	-1.54833	0	0	0	0	-0	0	0	0	-0.1265	0	-0	0	0	0	0	0	-0	0	0.105	-0.015	0	0	-0	0	0	-0.098	0.1	0	-0	0	0	0	0	0	-0	0	0.05595	0	0	0	-0	0	0	0	0	0	-0	0	551.803	554.835	330.924	220.097	0.0685779	0.0585828	-0.00150608	-0.0148096	-0.766424
75	0.0579819	-0.0183341	0.0100092	0.00915485	-0.0131216	-0.0434836	0.0212158	0.0286757	-0.000937811	-0.0742008	-0.0820082	-0.076776	0.0509302	-0.00398457	0.0225373	-2.16916	0.00767116	-1.54841	0	0	0	0	-0	0	0	0	-0.1265	0	-0	0	0	0	0	0	-0	0	0.105	-0.015	0	0	-0	0	0	-0.098	0.1	0	-0	0	0	0	0	0	-0	0	0.05595	0	0	0	-0	0	0	0	0	0	-0	0	551.825	554.865	330.969	220.2	0.0680771	0.0635337	-0.00145823	-0.0147838	-0.781245
76	0.060467	-0.0183347	0.0100088	0.00915227	-0.0131217	-0.0434822	0.0212174	0.028673	-0.000938157	-0.0719722	-0.0877393	-0.076626	0.0508738	-0.00398443	0.0226642	-2.16677	0.00759222	-1.54842	0	0	0	0	-0	0	0	0	-0.1265	0	-0	0	0	0	0	0	-0	0	0.105	-0.015	0	0	-0	0	0	-0.098	0.1	0	-0	0	0	0	0	0	-0	0	0.05595	0	0	0	-0	0	0	0	0	0	-0	0	551.836	554.881	330.992	220.25	0.0678669	0.0657229	-0.00143538	-0.0147685	-0.788312
77	0.0629329	-0.0183365	0.010006	0.00915163	-0.0131224	-0.0434795	0.0212172	0.0286749	-0.000936687	-0.0622238	-0.0828325	-0.0859565	0.0508172	-0.0039842	0.0227904	-2.16451	0.00748664	-1.54848	0	0	0	0	-0	0	0	0	-0.1265	0	-0	0	0	0	0	0	-0	0	0.105	-0.015	0	0	-0	0	0	-0.098	0.1	0	-0	0	0	0	0	0	-0	0	0.05595	0	0	0	-0	0	0	0	0	0	-0	0	551.859	554.913	331.041	220.358	0.0673857	0.0706557	-0.00138703	-0.0147418	-0.803218
78	0.0628944	-0.0183362	0.0100059	0.0091503	-0.0131221	-0.043479	0.021217	0.0286731	-0.000937977	-0.0637169	-0.0827375	-0.0895222	0.0508177	-0.00398411	0.0227886	-2.16458	0.00748048	-1.54849	0	0	0	0	-0	0	0	0	-0.1265	0	-0	0	0	0	0	0	-0	0	0.105	-0.015	0	0	-0	0	0	-0.098	0.1	0	-0	0	0	0	0	0	-0	0	0.05595	0	0	0	-0	0	0	0	0	0	-0	0	551.862	554.917	331.048	220.372	0.0673403	0.0711409	-0.00137777	-0.0147352	-0.805197
79	0.0613574	-0.0183372	0.010005	0.00915036	-0.0131227	-0.0434782	0.0212173	0.0286735	-0.000937761	-0.0651584	-0.0835269	-0.0828201	0.0508527	-0.00398406	0.0227106	-2.16617	0.00750103	-1.54852	0	0	0	0	-0	0	0	0	-0.1265	0	-0	0	0	0	0	0	-0	0	0.105	-0.015	0	0	-0	0	0	-0.098	0.1	0	-0	0	0	0	0	0	-0	0	0.05595	0	0	0	-0	0	0	0	0	0	-0	0	551.868	554.925	331.062	220.402	0.0671939	0.0725514	-0.00136307	-0.0147277	-0.809375
80	0.064094	-0.0183373	0.0100047	0.00915	-0.0131226	-0.0434778	0.021217	0.0286729	-0.000937959	-0.0653323	-0.0809835	-0.0809392	0.0507904	-0.00398401	0.0228499	-2.16346	0.007433	-1.54851	0	0	0	0	-0	0	0	0	-0.1265	0	-0	0	0	0	0	0	-0	0	0.105	-0.015	0	0	-0	0	0	-0.098	0.1	0	-0	0	0	0	0	0	-0	0	0.05595	0	0	0	-0	0	0	0	0	0	-0	0	551.871	554.93	331.069	220.417	0.0671335	0.0731644	-0.00135597	-0.0147233	-0.811331
81	0.0661608	-0.018338	0.0100039	0.00914944	-0.013123	-0.0434769	0.021217	0.0286729	-0.000937967	-0.0662237	-0.0853508	-0.0826745	0.0507427	-0.00398394	0.0229551	-2.16146	0.00737139	-1.54852	0	0	0	0	-0	0	0	0	-0.1265	0	-0	0	0	0	0	0	-0	0	0.105	-0.015	0	0	-0	0	0	-0.098	0.1	0	-0	0	0	0	0	0	-0	0	0.05595	0	0	0	-0	0	0	0	0	0	-0	0	551.878	554.94	331.084	220.45	0.067022	0.0743872	-0.00134244	-0.0147149	-0.815182
82	0.0663003	-0.0183382	0.0100036	0.00914904	-0.0131231	-0.0434765	0.0212171	0.0286729	-0.000937763	-0.0677166	-0.0820009	-0.0832095	0.0507393	-0.00398388	0.0229623	-2.16135	0.0073605	-1.54853	0	0	0	0	-0	0	0	0	-0.1265	0	-0	0	0	0	0	0	-0	0	0.105	-0.015	0	0	-0	0	0	-0.098	0.1	0	-0	0	0	0	0	0	-0	0	0.05595	0	0	0	-0	0	0	0	0	0	-0	0	551.881	554.945	331.092	220.466	0.0669645	0.0749495	-0.00133459	-0.0147101	-0.81698
83	0.0680563	-0.0183387	0.0100029	0.0091482	-0.0131232	-0.0434755	0.021217	0.0286732	-0.000937601	-0.071678	-0.0818982	-0.0799759	0.0506988	-0.00398379	0.0230517	-2.15966	0.00730419	-1.54854	0	0	0	0	-0	0	0	0	-0.1265	0	-0	0	0	0	0	0	-0	0	0.105	-0.015	0	0	-0	0	0	-0.098	0.1	0	-0	0	0	0	0	0	-0	0	0.05595	0	0	0	-0	0	0	0	0	0	-0	0	551.889	554.955	331.109	220.502	0.0668109	0.0765197	-0.00131763	-0.0147005	-0.821821
84	0.0651395	-0.018339	0.0100025	0.00914773	-0.0131233	-0.043475	0.0212169	0.0286729	-0.000937559	-0.073571	-0.083435	-0.0775816	0.0507658	-0.00398374	0.0229039	-2.16261	0.00736049	-1.54858	0	0	0	0	-0	0	0	0	-0.1265	0	-0	0	0	0	0	0	-0	0	0.105	-0.015	0	0	-0	0	0	-0.098	0.1	0	-0	0	0	0	0	0	-0	0	0.05595	0	0	0	-0	0	0	0	0	0	-0	0	551.893	554.961	331.117	220.52	0.0667229	0.0773597	-0.00130856	-0.0146951	-0.824412
85	0.070005	-0.0183396	0.0100017	0.00914688	-0.0131235	-0.043474	0.0212172	0.0286734	-0.000937659	-0.0747824	-0.0837575	-0.08345	0.0506539	-0.00398364	0.0231511	-2.15782	0.00723318	-1.54857	0	0	0	0	-0	0	0	0	-0.1265	0	-0	0	0	0	0	0	-0	0	0.105	-0.015	0	0	-0	0	0	-0.098	0.1	0	-0	0	0	0	0	0	-0	0	0.05595	0	0	0	-0	0	0	0	0	0	-0	0	551.901	554.973	331.136	220.559	0.0665517	0.0790763	-0.00129037	-0.0146846	-0.829634
86	0.0706979	-0.0183398	0.0100013	0.00914649	-0.0131236	-0.0434735	0.021217	0.028673	-0.000937552	-0.0747826	-0.0830765	-0.0797793	0.0506371	-0.00398359	0.0231862	-2.15716	0.00720842	-1.54858	0	0	0	0	-0	0	0	0	-0.1265	0	-0	0	0	0	0	0	-0	0	0.105	-0.015	0	0	-0	0	0	-0.098	0.1	0	-0	0	0	0	0	0	-0	0	0.05595	0	0	0	-0	0	0	0	0	0	-0	0	551.905	554.978	331.145	220.579	0.0664902	0.0797935	-0.00128107	-0.0146786	-0.832121
87	0.0710525	-0.0183406	0.0100003	0.00914569	-0.0131239	-0.0434724	0.021217	0.0286728	-0.000937403	-0.0750243	-0.0789103	-0.0803098	0.0506288	-0.0039835	0.0232043	-2.15689	0.00717966	-1.54861	0	0	0	0	-0	0	0	0	-0.1265	0	-0	0	0	0	0	0	-0	0	0.105	-0.015	0	0	-0	0	0	-0.098	0.1	0	-0	0	0	0	0	0	-0	0	0.05595	0	0	0	-0	0	0	0	0	0	-0	0	551.913	554.99	331.166	220.622	0.0663064	0.0817086	-0.00126219	-0.0146669	-0.837981
88	0.0724441	-0.018341	0.00999977	0.00914538	-0.013124	-0.0434718	0.0212169	0.028673	-0.000937392	-0.077414	-0.0773272	-0.0794143	0.0505964	-0.00398344	0.0232749	-2.15554	0.00713833	-1.54861	0	0	0	0	-0	0	0	0	-0.1265	0	-0	0	0	0	0	0	-0	0	0.105	-0.015	0	0	-0	0	0	-0.098	0.1	0	-0	0	0	0	0	0	-0	0	0.05595	0	0	0	-0	0	0	0	0	0	-0	0	551.917	554.996	331.176	220.643	0.0662322	0.0824771	-0.00125218	-0.0146604	-0.840476
89	0.0722579	-0.0183417	0.00999881	0.00914434	-0.0131243	-0.0434706	0.0212173	0.0286735	-0.000937082	-0.080046	-0.0777469	-0.072812	0.0506004	-0.00398332	0.0232658	-2.15581	0.00711905	-1.54865	0	0	0	0	-0	0	0	0	-0.1265	0	-0	0	0	0	0	0	-0	0	0.105	-0.015	0	0	-0	0	0	-0.098	0.1	0	-0	0	0	0	0	0	-0	0	0.05595	0	0	0	-0	0	0	0	0	0	-0	0	551.927	555.011	331.199	220.69	0.0660385	0.0844543	-0.00123242	-0.0146474	-0.8465
90	0.0700836	-0.0183419	0.00999843	0.00914363	-0.0131243	-0.04347	0.0212174	0.0286735	-0.00093719	-0.0843909	-0.0746381	-0.0767577	0.0506507	-0.00398325	0.0231561	-2.15803	0.00715547	-1.54868	0	0	0	0	-0	0	0	0	-0.1265	0	-0	0	0	0	0	0	-0	0	0.105	-0.015	0	0	-0	0	0	-0.098	0.1	0	-0	0	0	0	0	0	-0	0	0.05595	0	0	0	-0	0	0	0	0	0	-0	0	551.932	555.018	331.21	220.713	0.065986	0.085174	-0.00122189	-0.0146401	-0.849182
91	0.0702229	-0.0183422	0.00999802	0.00914325	-0.0131244	-0.0434694	0.0212171	0.0286732	-0.000937208	-0.0867043	-0.0738058	-0.0811016	0.0506472	-0.0039832	0.0231633	-2.15792	0.0071437	-1.5487	0	0	0	0	-0	0	0	0	-0.1265	0	-0	0	0	0	0	0	-0	0	0.105	-0.015	0	0	-0	0	0	-0.098	0.1	0	-0	0	0	0	0	0	-0	0	0.05595	0	0	0	-0	0	0	0	0	0	-0	0	551.936	555.023	331.219	220.73	0.0659172	0.0857973	-0.00121256	-0.0146348	-0.851125
92	0.0694145	-0.0183425	0.00999773	0.00914292	-0.0131246	-0.0434691	0.0212171	0.0286731	-0.000937167	-0.0887041	-0.0719114	-0.0775871	0.0506658	-0.00398316	0.0231225	-2.15876	0.00715506	-1.54871	0	0	0	0	-0	0	0	0	-0.1265	0	-0	0	0	0	0	0	-0	0	0.105	-0.015	0	0	-0	0	0	-0.098	0.1	0	-0	0	0	0	0	0	-0	0	0.05595	0	0	0	-0	0	0	0	0	0	-0	0	551.938	555.027	331.225	220.743	0.0658724	0.0862745	-0.00120657	-0.0146309	-0.852684
93	0.068561	-0.0183429	0.00999714	0.00914223	-0.0131247	-0.0434683	0.0212169	0.0286728	-0.000937046	-0.0877694	-0.0733902	-0.0765471	0.0506853	-0.00398306	0.0230796	-2.15966	0.0071592	-1.54874	0	0	0	0	-0	0	0	0	-0.1265	0	-0	0	0	0	0	0	-0	0	0.105	-0.015	0	0	-0	0	0	-0.098	0.1	0	-0	0	0	0	0	0	-0	0	0.05595	0	0	0	-0	0	0	0	0	0	-0	0	551.945	555.036	331.24	220.772	0.0658091	0.086941	-0.00119473	-0.014623	-0.85485
94	0.065686	-0.0183436	0.00999624	0.00914126	-0.013125	-0.0434672	0.0212169	0.0286728	-0.000936924	-0.0883609	-0.0709359	-0.0776669	0.0507513	-0.00398294	0.0229343	-2.16262	0.0072008	-1.54879	0	0	0	0	-0	0	0	0	-0.1265	0	-0	0	0	0	0	0	-0	0	0.105	-0.015	0	0	-0	0	0	-0.098	0.1	0	-0	0	0	0	0	0	-0	0	0.05595	0	0	0	-0	0	0	0	0	0	-0	0	551.953	555.049	331.261	220.813	0.0656793	0.0882883	-0.00117689	-0.0146108	-0.859109
95	0.0686175	-0.0183439	0.00999582	0.00914065	-0.0131251	-0.0434666	0.0212171	0.0286731	-0.000936909	-0.0846819	-0.0738342	-0.0782513	0.0506836	-0.00398286	0.0230833	-2.15972	0.0071254	-1.54879	0	0	0	0	-0	0	0	0	-0.1265	0	-0	0	0	0	0	0	-0	0	0.105	-0.015	0	0	-0	0	0	-0.098	0.1	0	-0	0	0	0	0	0	-0	0	0.05595	0	0	0	-0	0	0	0	0	0	-0	0	551.958	555.055	331.271	220.834	0.0656116	0.0889923	-0.00116582	-0.0146041	-0.861518
96	0.067768	-0.0183441	0.00999549	0.00914026	-0.0131252	-0.0434662	0.021217	0.0286729	-0.000936747	-0.0849257	-0.0762234	-0.0752678	0.0507029	-0.00398282	0.0230403	-2.1606	0.00713609	-1.5488	0	0	0	0	-0	0	0	0	-0.1265	0	-0	0	0	0	0	0	-0	0	0.105	-0.015	0	0	-0	0	0	-0.098	0.1	0	-0	0	0	0	0	0	-0	0	0.05595	0	0	0	-0	0	0	0	0	0	-0	0	551.961	555.06	331.279	220.849	0.0655351	0.0897437	-0.00115859	-0.0145992	-0.863827
97	0.070976	-0.0183447	0.00999477	0.00913952	-0.0131254	-0.0434653	0.0212171	0.0286734	-0.000936753	-0.0790365	-0.078258	-0.0774764	0.0506288	-0.00398273	0.0232032	-2.15746	0.00704764	-1.54881	0	0	0	0	-0	0	0	0	-0.1265	0	-0	0	0	0	0	0	-0	0	0.105	-0.015	0	0	-0	0	0	-0.098	0.1	0	-0	0	0	0	0	0	-0	0	0.05595	0	0	0	-0	0	0	0	0	0	-0	0	551.968	555.07	331.296	220.883	0.0653968	0.091138	-0.00114376	-0.0145894	-0.868075
98	0.0701953	-0.0183454	0.00999388	0.00913823	-0.0131257	-0.0434639	0.0212166	0.0286732	-0.000936671	-0.0857825	-0.0817941	-0.0768308	0.0506463	-0.00398261	0.0231639	-2.15833	0.00703873	-1.54885	0	0	0	0	-0	0	0	0	-0.1265	0	-0	0	0	0	0	0	-0	0	0.105	-0.015	0	0	-0	0	0	-0.098	0.1	0	-0	0	0	0	0	0	-0	0	0.05595	0	0	0	-0	0	0	0	0	0	-0	0	551.978	555.083	331.322	220.932	0.0651904	0.0932064	-0.00111852	-0.0145742	-0.874608
99	0.0726053	-0.0183469	0.00999226	0.00913692	-0.0131263	-0.0434621	0.0212168	0.0286732	-0.000936525	-0.0912224	-0.0817073	-0.0764552	0.0505903	-0.00398245	0.0232863	-2.15605	0.00694723	-1.54889	0	0	0	0	-0	0	0	0	-0.1265	0	-0	0	0	0	0	0	-0	0	0.105	-0.015	0	0	-0	0	0	-0.098	0.1	0	-0	0	0	0	0	0	-0	0	0.05595	0	0	0	-0	0	0	0	0	0	-0	0	551.992	555.104	331.36	221.002	0.064885	0.0964174	-0.00108903	-0.0145522	-0.884533
100	0.0710645	-0.0183475	0.00999138	0.00913627	-0.0131265	-0.0434611	0.0212171	0.0286731	-0.000936446	-0.0870505	-0.0844436	-0.0765548	0.0506258	-0.00398235	0.0232086	-2.15766	0.00696201	-1.54893	0	0	0	0	-0	0	0	0	-0.1265	0	-0	0	0	0	0	0	-0	0	0.105	-0.015	0	0	-0	0	0	-0.098	0.1	0	-0	0	0	0	0	0	-0	0	0.05595	0	0	0	-0	0	0	0	0	0	-0	0	551.999	555.114	331.378	221.037	0.0646987	0.0982928	-0.00107103	-0.0145401	-0.890449
