Stefan210/kinematic_calibration/src/kinematic_calibration/validation/experiments/experiments/impact_noise/outlier/larm_randomize_17_measurements_rk_true/optimization_intermediate_results.csv
iteration	HeadPitch_offset	HeadYaw_offset	LElbowRoll_offset	LElbowYaw_offset	LShoulderPitch_offset	LShoulderRoll_offset	marker_transform_larm_tx	marker_transform_larm_ty	marker_transform_larm_tz	marker_transform_larm_rr	marker_transform_larm_rp	marker_transform_larm_ry	camera_transform_tx	camera_transform_ty	camera_transform_tz	camera_transform_rr	camera_transform_rp	camera_transform_ry	HeadPitch_transform_tx	HeadPitch_transform_ty	HeadPitch_transform_tz	HeadPitch_transform_rr	HeadPitch_transform_rp	HeadPitch_transform_ry	HeadYaw_transform_tx	HeadYaw_transform_ty	HeadYaw_transform_tz	HeadYaw_transform_rr	HeadYaw_transform_rp	HeadYaw_transform_ry	LElbowRoll_transform_tx	LElbowRoll_transform_ty	LElbowRoll_transform_tz	LElbowRoll_transform_rr	LElbowRoll_transform_rp	LElbowRoll_transform_ry	LElbowYaw_transform_tx	LElbowYaw_transform_ty	LElbowYaw_transform_tz	LElbowYaw_transform_rr	LElbowYaw_transform_rp	LElbowYaw_transform_ry	LShoulderPitch_transform_tx	LShoulderPitch_transform_ty	LShoulderPitch_transform_tz	LShoulderPitch_transform_rr	LShoulderPitch_transform_rp	LShoulderPitch_transform_ry	LShoulderRoll_transform_tx	LShoulderRoll_transform_ty	LShoulderRoll_transform_tz	LShoulderRoll_transform_rr	LShoulderRoll_transform_rp	LShoulderRoll_transform_ry	LWristYaw_transform_tx	LWristYaw_transform_ty	LWristYaw_transform_tz	LWristYaw_transform_rr	LWristYaw_transform_rp	LWristYaw_transform_ry	l_wrist_joint_transform_tx	l_wrist_joint_transform_ty	l_wrist_joint_transform_tz	l_wrist_joint_transform_rr	l_wrist_joint_transform_rp	l_wrist_joint_transform_ry	camera_fx	camera_fy	camera_cx	camera_cy	camera_D0	camera_D1	camera_D2	camera_D3	camera_D4	
0	0.0249164	-0.0307543	0.000853157	4.65819e-06	-0.000318322	-0.00310766	0.05071	0	0.01774	-2.26369	1.66533e-16	-1.5708	545.901	551.038	324.928	201.58	0.0255298	2.61142	-0.0636736	-0.0350419	0.213964
1	-0.0236056	0.019671	0.0585799	0.0837269	0.0433239	0.0125943	0.0281166	-0.0321193	0.00687652	-0.000725664	-0.000906349	-0.00285043	0.0466528	-0.00333243	0.0109822	-2.16825	0.00777365	-1.59961	0	0	0	0	-0	0	0	0	-0.1265	0	-0	0	0	0	0	0	-0	0	0.105	0.015	0	0	-0	0	0	0.098	0.1	0	-0	0	0	0	0	0	-0	0	0.05595	0	0	0	-0	0	0	0	0	0	-0	0	545.901	551.038	324.928	201.58	0.0236348	2.61354	-0.0777798	0.0239095	0.21452
2	-0.0208838	0.0178563	0.0375673	0.0597079	0.00770576	0.0271472	0.0266255	-0.0307297	0.00462768	-0.000480512	-0.000695184	-0.00288932	0.0526151	-0.00273926	0.0132893	-2.17927	0.00455895	-1.55975	0	0	0	0	-0	0	0	0	-0.1265	0	-0	0	0	0	0	0	-0	0	0.105	0.015	0	0	-0	0	0	0.098	0.1	0	-0	0	0	0	0	0	-0	0	0.05595	0	0	0	-0	0	0	0	0	0	-0	0	545.91	551.038	324.923	201.594	-0.321706	2.37848	-0.0402317	-0.00331795	0.145306
3	-0.0191257	0.0236481	0.0308995	0.0529639	-0.00265355	0.0286954	0.0258745	-0.0303608	0.00402642	-0.000410888	-0.000632249	-0.00292655	0.0542869	-0.00177315	0.0140525	-2.18632	-0.000561374	-1.56139	0	0	0	0	-0	0	0	0	-0.1265	0	-0	0	0	0	0	0	-0	0	0.105	0.015	0	0	-0	0	0	0.098	0.1	0	-0	0	0	0	0	0	-0	0	0.05595	0	0	0	-0	0	0	0	0	0	-0	0	545.949	551.032	324.918	201.624	-0.393856	1.81809	-0.0120316	-0.0115417	-0.0506653
4	-0.0180555	0.0203969	0.0261149	0.0531244	-0.00131705	0.0319692	0.0255879	-0.0302028	0.00404215	-0.000355704	-0.000661189	-0.00296366	0.0541808	-0.0014835	0.0146874	-2.19052	0.00250883	-1.55441	0	0	0	0	-0	0	0	0	-0.1265	0	-0	0	0	0	0	0	-0	0	0.105	0.015	0	0	-0	0	0	0.098	0.1	0	-0	0	0	0	0	0	-0	0	0.05595	0	0	0	-0	0	0	0	0	0	-0	0	546.034	551.015	324.922	201.663	-0.175802	0.885808	-0.014654	-0.0114574	-0.384382
5	-0.0173373	0.0178124	0.0232418	0.0526741	0.000756755	0.0341397	0.0254675	-0.0301259	0.00405708	-0.000558271	-0.000730826	-0.00272528	0.0538099	-0.00129055	0.0153935	-2.19367	0.00468574	-1.55002	0	0	0	0	-0	0	0	0	-0.1265	0	-0	0	0	0	0	0	-0	0	0.105	0.015	0	0	-0	0	0	0.098	0.1	0	-0	0	0	0	0	0	-0	0	0.05595	0	0	0	-0	0	0	0	0	0	-0	0	546.214	550.974	324.941	201.689	0.0232156	0.136087	-0.0190919	-0.0113476	-0.588871
6	-0.0172687	0.0164364	0.0219445	0.0519697	0.00187357	0.034731	0.0254245	-0.0300887	0.00403908	-0.000474758	-0.00125446	-0.00264603	0.0536146	-0.00121002	0.0157547	-2.19567	0.00561437	-1.54795	0	0	0	0	-0	0	0	0	-0.1265	0	-0	0	0	0	0	0	-0	0	0.105	0.015	0	0	-0	0	0	0.098	0.1	0	-0	0	0	0	0	0	-0	0	0.05595	0	0	0	-0	0	0	0	0	0	-0	0	546.716	550.866	324.952	201.747	0.104608	-0.26377	-0.019429	-0.0118513	-0.383937
7	-0.0162842	0.0161476	0.0214756	0.0514233	0.00228203	0.0348199	0.025418	-0.0300701	0.00401559	-0.00158353	-0.000153111	-0.00226168	0.0533094	-0.00122009	0.0162233	-2.19624	0.00587597	-1.54714	0	0	0	0	-0	0	0	0	-0.1265	0	-0	0	0	0	0	0	-0	0	0.105	0.015	0	0	-0	0	0	0.098	0.1	0	-0	0	0	0	0	0	-0	0	0.05595	0	0	0	-0	0	0	0	0	0	-0	0	548.041	550.619	324.896	201.909	0.149675	-0.689825	-0.0165139	-0.0122539	0.511031
8	-0.013014	0.0163402	0.0212055	0.0512999	0.00237018	0.0348176	0.0254132	-0.0300573	0.00403187	-0.00582456	-0.00346509	0.00133576	0.0526124	-0.00127065	0.0172097	-2.19526	0.00611358	-1.54659	0	0	0	0	-0	0	0	0	-0.1265	0	-0	0	0	0	0	0	-0	0	0.105	0.015	0	0	-0	0	0	0.098	0.1	0	-0	0	0	0	0	0	-0	0	0.05595	0	0	0	-0	0	0	0	0	0	-0	0	551.015	550.33	324.654	202.309	0.204252	-1.44103	-0.00898137	-0.012723	2.56728
9	-0.0219875	0.0167106	0.0209794	0.0514685	0.00232025	0.0348126	0.0254047	-0.0300458	0.00407619	-0.0150554	0.00966157	-0.00261708	0.0517924	-0.00135066	0.0179248	-2.20812	0.00732747	-1.5455	0	0	0	0	-0	0	0	0	-0.1265	0	-0	0	0	0	0	0	-0	0	0.105	0.015	0	0	-0	0	0	0.098	0.1	0	-0	0	0	0	0	0	-0	0	0.05595	0	0	0	-0	0	0	0	0	0	-0	0	555.933	551.161	323.851	203.249	0.269636	-2.47856	0.00110616	-0.0134488	5.72301
10	-0.0185301	0.0173544	0.0207539	0.0521527	0.00210527	0.0347945	0.0253935	-0.0300533	0.004153	0.0115198	0.010404	0.00675646	0.0508551	-0.00145319	0.019183	-2.21163	0.0103151	-1.54255	0	0	0	0	-0	0	0	0	-0.1265	0	-0	0	0	0	0	0	-0	0	0.105	0.015	0	0	-0	0	0	0.098	0.1	0	-0	0	0	0	0	0	-0	0	0.05595	0	0	0	-0	0	0	0	0	0	-0	0	561.886	555.455	321.346	205.939	0.314869	-3.35918	0.00633945	-0.0147477	8.94718
11	-0.0213393	0.0175083	0.0207655	0.0521912	0.00208128	0.0348908	0.0253929	-0.0300523	0.00415973	-0.00234779	0.010467	-0.0112154	0.050739	-0.00147774	0.0192258	-2.21584	0.0110817	-1.54201	0	0	0	0	-0	0	0	0	-0.1265	0	-0	0	0	0	0	0	-0	0	0.105	0.015	0	0	-0	0	0	0.098	0.1	0	-0	0	0	0	0	0	-0	0	0.05595	0	0	0	-0	0	0	0	0	0	-0	0	563.161	556.779	320.824	206.598	0.326008	-3.5679	0.00600124	-0.0149304	9.93558
12	0.0008032	0.0178373	0.0206323	0.0524797	0.00198466	0.0349397	0.0254149	-0.0300242	0.00419116	-0.0451976	0.0892131	-0.0190323	0.0499797	-0.00150987	0.020706	-2.19998	0.0130562	-1.53918	0	0	0	0	-0	0	0	0	-0.1265	0	-0	0	0	0	0	0	-0	0	0.105	0.015	0	0	-0	0	0	0.098	0.1	0	-0	0	0	0	0	0	-0	0	0.05595	0	0	0	-0	0	0	0	0	0	-0	0	566.451	561.106	318.602	209.646	0.336412	-3.88796	0.00503874	-0.0159292	11.6139
13	0.000290068	0.0178386	0.0206585	0.0524805	0.00207897	0.035122	0.0254111	-0.0300608	0.00418275	-0.0426882	0.081082	0.0197475	0.0498924	-0.00151399	0.0207447	-2.20335	0.0143996	-1.53779	0	0	0	0	-0	0	0	0	-0.1265	0	-0	0	0	0	0	0	-0	0	0.105	0.015	0	0	-0	0	0	0.098	0.1	0	-0	0	0	0	0	0	-0	0	0.05595	0	0	0	-0	0	0	0	0	0	-0	0	567.598	563.267	317.522	211.129	0.347651	-4.01273	0.00259087	-0.016133	12.3958
14	-0.00966054	0.0178437	0.0206726	0.0525945	0.00216729	0.0352004	0.0254169	-0.0300672	0.00419657	-0.0631912	0.0518246	0.03898	0.050035	-0.00152082	0.0202958	-2.21537	0.0157969	-1.53682	0	0	0	0	-0	0	0	0	-0.1265	0	-0	0	0	0	0	0	-0	0	0.105	0.015	0	0	-0	0	0	0.098	0.1	0	-0	0	0	0	0	0	-0	0	0.05595	0	0	0	-0	0	0	0	0	0	-0	0	568.385	564.756	316.65	212.211	0.355026	-4.09392	0.000966779	-0.0163956	12.9237
15	0.00214588	0.0179256	0.0206291	0.0528234	0.00222002	0.0352606	0.0254069	-0.0300652	0.00422792	-0.0686836	0.0686526	0.0689149	0.0496897	-0.0015367	0.0209788	-2.20795	0.017645	-1.53431	0	0	0	0	-0	0	0	0	-0.1265	0	-0	0	0	0	0	0	-0	0	0.105	0.015	0	0	-0	0	0	0.098	0.1	0	-0	0	0	0	0	0	-0	0	0.05595	0	0	0	-0	0	0	0	0	0	-0	0	569.916	567.241	314.779	214.528	0.360587	-4.23704	-0.000752837	-0.0172001	13.9438
16	-0.000511966	0.0179813	0.0206155	0.0529669	0.00215053	0.0352542	0.0253929	-0.0300515	0.00422823	-0.0669292	0.0772505	0.0602743	0.0497232	-0.00154285	0.020866	-2.21113	0.0180127	-1.53411	0	0	0	0	-0	0	0	0	-0.1265	0	-0	0	0	0	0	0	-0	0	0.105	0.015	0	0	-0	0	0	0.098	0.1	0	-0	0	0	0	0	0	-0	0	0.05595	0	0	0	-0	0	0	0	0	0	-0	0	570.04	567.632	314.531	214.815	0.368039	-4.27633	-0.00167572	-0.0172517	14.1232
17	0.010955	0.0181848	0.0204737	0.0530755	0.00197781	0.0351406	0.0253785	-0.0300433	0.0042299	-0.070237	0.0836164	0.0554936	0.0494309	-0.0015394	0.0214819	-2.2018	0.0186725	-1.53285	0	0	0	0	-0	0	0	0	-0.1265	0	-0	0	0	0	0	0	-0	0	0.105	0.015	0	0	-0	0	0	0.098	0.1	0	-0	0	0	0	0	0	-0	0	0.05595	0	0	0	-0	0	0	0	0	0	-0	0	570.753	568.794	313.489	215.979	0.369794	-4.36855	-0.0021966	-0.0177742	14.7547
18	-0.0118212	0.0183612	0.0203806	0.0531077	0.00187435	0.0350796	0.0253726	-0.0300418	0.00423729	-0.0874643	0.110261	0.0647794	0.0498688	-0.00153552	0.0203953	-2.22654	0.0206083	-1.53228	0	0	0	0	-0	0	0	0	-0.1265	0	-0	0	0	0	0	0	-0	0	0.105	0.015	0	0	-0	0	0	0.098	0.1	0	-0	0	0	0	0	0	-0	0	0.05595	0	0	0	-0	0	0	0	0	0	-0	0	571.371	569.79	312.488	217.068	0.374006	-4.45957	-0.0028223	-0.0182314	15.3514
19	-0.0122422	0.0184332	0.0203484	0.0531396	0.00183741	0.035088	0.0253696	-0.0300473	0.00422979	-0.0688232	0.113348	0.0763401	0.0498461	-0.00153427	0.0203901	-2.22772	0.0211043	-1.53188	0	0	0	0	-0	0	0	0	-0.1265	0	-0	0	0	0	0	0	-0	0	0.105	0.015	0	0	-0	0	0	0.098	0.1	0	-0	0	0	0	0	0	-0	0	0.05595	0	0	0	-0	0	0	0	0	0	-0	0	571.572	570.196	312.074	217.49	0.379569	-4.50777	-0.00340173	-0.0183704	15.6078
20	-0.0165004	0.0184672	0.0203499	0.0531592	0.00183082	0.0350834	0.0253715	-0.0300453	0.00422848	-0.0690248	0.1017	0.09371	0.0499203	-0.00153471	0.0201899	-2.23268	0.0217336	-1.53154	0	0	0	0	-0	0	0	0	-0.1265	0	-0	0	0	0	0	0	-0	0	0.105	0.015	0	0	-0	0	0	0.098	0.1	0	-0	0	0	0	0	0	-0	0	0.05595	0	0	0	-0	0	0	0	0	0	-0	0	571.752	570.552	311.68	217.874	0.383363	-4.55002	-0.00383392	-0.0185404	15.8462
21	-0.0212093	0.0184818	0.0203432	0.0531625	0.0018356	0.0350973	0.0253689	-0.0300464	0.00423139	-0.0850118	0.0946867	0.087247	0.0500071	-0.00153333	0.0199611	-2.2379	0.0222799	-1.5313	0	0	0	0	-0	0	0	0	-0.1265	0	-0	0	0	0	0	0	-0	0	0.105	0.015	0	0	-0	0	0	0.098	0.1	0	-0	0	0	0	0	0	-0	0	0.05595	0	0	0	-0	0	0	0	0	0	-0	0	571.875	570.809	311.379	218.156	0.38643	-4.58121	-0.00418916	-0.0186503	16.0247
22	-0.0210634	0.018514	0.0203284	0.0531982	0.00181542	0.0350957	0.0253687	-0.0300464	0.00423217	-0.0919489	0.0962303	0.0683459	0.0499958	-0.00153366	0.0199768	-2.2382	0.0225897	-1.531	0	0	0	0	-0	0	0	0	-0.1265	0	-0	0	0	0	0	0	-0	0	0.105	0.015	0	0	-0	0	0	0.098	0.1	0	-0	0	0	0	0	0	-0	0	0.05595	0	0	0	-0	0	0	0	0	0	-0	0	571.986	571.03	311.107	218.405	0.389101	-4.61114	-0.00446332	-0.0187754	16.1887
23	-0.0236122	0.0185324	0.0203217	0.0532068	0.0018094	0.0350989	0.0253653	-0.0300422	0.00423364	-0.0949687	0.0979961	0.0588296	0.0500412	-0.00153321	0.0198545	-2.24107	0.0229333	-1.53083	0	0	0	0	-0	0	0	0	-0.1265	0	-0	0	0	0	0	0	-0	0	0.105	0.015	0	0	-0	0	0	0.098	0.1	0	-0	0	0	0	0	0	-0	0	0.05595	0	0	0	-0	0	0	0	0	0	-0	0	572.064	571.192	310.901	218.588	0.391281	-4.63353	-0.00468392	-0.018861	16.3103
24	-0.0238295	0.0186212	0.020267	0.0532645	0.00175207	0.0350671	0.025366	-0.0300519	0.00423871	-0.12151	0.0889846	0.0548254	0.0500214	-0.00153385	0.0198671	-2.24271	0.0239259	-1.5299	0	0	0	0	-0	0	0	0	-0.1265	0	-0	0	0	0	0	0	-0	0	0.105	0.015	0	0	-0	0	0	0.098	0.1	0	-0	0	0	0	0	0	-0	0	0.05595	0	0	0	-0	0	0	0	0	0	-0	0	572.448	571.748	310.046	219.383	0.395419	-4.72493	-0.00494394	-0.0193199	16.8607
25	-0.0182188	0.0186695	0.0202436	0.0533399	0.001757	0.0350917	0.0253633	-0.0300405	0.00423755	-0.152211	0.132013	0.039735	0.0498839	-0.00153797	0.0201749	-2.23902	0.0250776	-1.5284	0	0	0	0	-0	0	0	0	-0.1265	0	-0	0	0	0	0	0	-0	0	0.105	0.015	0	0	-0	0	0	0.098	0.1	0	-0	0	0	0	0	0	-0	0	0.05595	0	0	0	-0	0	0	0	0	0	-0	0	572.863	572.452	308.904	220.453	0.407414	-4.88197	-0.00569454	-0.0198944	17.6882
26	-0.0305044	0.0187735	0.0201828	0.0533164	0.00169342	0.0350703	0.0253628	-0.0300457	0.00423804	-0.155094	0.129837	0.0630478	0.0501145	-0.00153001	0.0195733	-2.25219	0.0262996	-1.52809	0	0	0	0	-0	0	0	0	-0.1265	0	-0	0	0	0	0	0	-0	0	0.105	0.015	0	0	-0	0	0	0.098	0.1	0	-0	0	0	0	0	0	-0	0	0.05595	0	0	0	-0	0	0	0	0	0	-0	0	573.032	572.802	308.26	220.98	0.415016	-4.96606	-0.0061877	-0.0201788	18.1234
27	-0.0372167	0.0187742	0.020192	0.0533307	0.00170894	0.0351147	0.0253569	-0.0300391	0.00424091	-0.153858	0.128707	0.0620192	0.0502359	-0.0015297	0.0192443	-2.25908	0.0267773	-1.5281	0	0	0	0	-0	0	0	0	-0.1265	0	-0	0	0	0	0	0	-0	0	0.105	0.015	0	0	-0	0	0	0.098	0.1	0	-0	0	0	0	0	0	-0	0	0.05595	0	0	0	-0	0	0	0	0	0	-0	0	573.046	572.885	308.119	221.083	0.419896	-4.99136	-0.00654671	-0.0202035	18.2134
28	-0.0324295	0.0188647	0.0201327	0.0533851	0.00162773	0.0350733	0.025354	-0.030035	0.00424632	-0.165259	0.150654	0.0637193	0.0501326	-0.00152725	0.0194943	-2.255	0.0271859	-1.52743	0	0	0	0	-0	0	0	0	-0.1265	0	-0	0	0	0	0	0	-0	0	0.105	0.015	0	0	-0	0	0	0.098	0.1	0	-0	0	0	0	0	0	-0	0	0.05595	0	0	0	-0	0	0	0	0	0	-0	0	573.189	573.127	307.566	221.496	0.424582	-5.06347	-0.0067564	-0.0205179	18.5944
29	-0.0351692	0.0188891	0.0201028	0.053426	0.00160476	0.0350738	0.0253509	-0.0300358	0.00424847	-0.156844	0.147811	0.0587117	0.050179	-0.00152642	0.019366	-2.25793	0.0274777	-1.52736	0	0	0	0	-0	0	0	0	-0.1265	0	-0	0	0	0	0	0	-0	0	0.105	0.015	0	0	-0	0	0	0.098	0.1	0	-0	0	0	0	0	0	-0	0	0.05595	0	0	0	-0	0	0	0	0	0	-0	0	573.208	573.198	307.418	221.602	0.42914	-5.0947	-0.00704606	-0.0205869	18.7016
30	-0.043537	0.0189462	0.0200716	0.0534546	0.00156585	0.0350557	0.0253538	-0.0300354	0.00424812	-0.162655	0.131061	0.0643728	0.0503331	-0.00152633	0.0189544	-2.26703	0.0285267	-1.52695	0	0	0	0	-0	0	0	0	-0.1265	0	-0	0	0	0	0	0	-0	0	0.105	0.015	0	0	-0	0	0	0.098	0.1	0	-0	0	0	0	0	0	-0	0	0.05595	0	0	0	-0	0	0	0	0	0	-0	0	573.338	573.421	306.833	222.03	0.435746	-5.18604	-0.00729666	-0.0209195	19.151
31	-0.0221202	0.0189902	0.0200524	0.0534605	0.00155639	0.0350714	0.0253473	-0.0300356	0.00425258	-0.182553	0.150149	0.066145	0.0499168	-0.00152536	0.0200406	-2.24664	0.0285613	-1.52542	0	0	0	0	-0	0	0	0	-0.1265	0	-0	0	0	0	0	0	-0	0	0.105	0.015	0	0	-0	0	0	0.098	0.1	0	-0	0	0	0	0	0	-0	0	0.05595	0	0	0	-0	0	0	0	0	0	-0	0	573.477	573.702	306.019	222.621	0.447089	-5.32215	-0.00777095	-0.0213443	19.8033
32	-0.00533445	0.0191301	0.0199955	0.0534728	0.00145924	0.0350376	0.025356	-0.0300367	0.00425007	-0.173362	0.177187	0.0745222	0.0495496	-0.00152204	0.0208915	-2.2312	0.0291087	-1.52367	0	0	0	0	-0	0	0	0	-0.1265	0	-0	0	0	0	0	0	-0	0	0.105	0.015	0	0	-0	0	0	0.098	0.1	0	-0	0	0	0	0	0	-0	0	0.05595	0	0	0	-0	0	0	0	0	0	-0	0	573.701	574.007	304.845	223.42	0.460447	-5.51259	-0.00800776	-0.0220053	20.745
33	0.0113615	0.0191625	0.0200109	0.0534767	0.00149588	0.0351246	0.0253483	-0.0300339	0.00424824	-0.170849	0.170276	0.081165	0.0491865	-0.00151918	0.0217271	-2.21511	0.0289705	-1.52253	0	0	0	0	-0	0	0	0	-0.1265	0	-0	0	0	0	0	0	-0	0	0.105	0.015	0	0	-0	0	0	0.098	0.1	0	-0	0	0	0	0	0	-0	0	0.05595	0	0	0	-0	0	0	0	0	0	-0	0	573.666	574.208	304.288	223.761	0.477184	-5.63535	-0.00904646	-0.0222455	21.2201
34	0.00672323	0.0192569	0.0199584	0.0534836	0.00140345	0.035082	0.0253431	-0.0300332	0.00424597	-0.163399	0.177437	0.0772236	0.0492723	-0.00151269	0.0215004	-2.22011	0.0296676	-1.52221	0	0	0	0	-0	0	0	0	-0.1265	0	-0	0	0	0	0	0	-0	0	0.105	0.015	0	0	-0	0	0	0.098	0.1	0	-0	0	0	0	0	0	-0	0	0.05595	0	0	0	-0	0	0	0	0	0	-0	0	573.702	574.301	303.815	224	0.483645	-5.71342	-0.00922798	-0.0225126	21.5788
35	0.00814306	0.0192865	0.019933	0.053522	0.00137627	0.0350753	0.0253422	-0.0300338	0.00425086	-0.165873	0.169618	0.0638136	0.0492344	-0.00151117	0.0215798	-2.21885	0.0298031	-1.52197	0	0	0	0	-0	0	0	0	-0.1265	0	-0	0	0	0	0	0	-0	0	0.105	0.015	0	0	-0	0	0	0.098	0.1	0	-0	0	0	0	0	0	-0	0	0.05595	0	0	0	-0	0	0	0	0	0	-0	0	573.698	574.347	303.628	224.09	0.489628	-5.75727	-0.00954152	-0.022621	21.7256
36	-0.00821047	0.0193185	0.0199138	0.0535605	0.00135594	0.035078	0.0253421	-0.0300314	0.00425767	-0.172215	0.187792	0.0726686	0.0495851	-0.00151148	0.0207801	-2.2355	0.0310195	-1.52204	0	0	0	0	-0	0	0	0	-0.1265	0	-0	0	0	0	0	0	-0	0	0.105	0.015	0	0	-0	0	0	0.098	0.1	0	-0	0	0	0	0	0	-0	0	0.05595	0	0	0	-0	0	0	0	0	0	-0	0	573.701	574.414	303.262	224.271	0.497418	-5.83478	-0.00987363	-0.0228414	22.0373
37	-0.0101215	0.0193523	0.0198959	0.0535662	0.00133182	0.0350841	0.0253393	-0.0300314	0.00425355	-0.174933	0.185796	0.0621208	0.0496152	-0.00151029	0.0206868	-2.23754	0.0313299	-1.52191	0	0	0	0	-0	0	0	0	-0.1265	0	-0	0	0	0	0	0	-0	0	0.105	0.015	0	0	-0	0	0	0.098	0.1	0	-0	0	0	0	0	0	-0	0	0.05595	0	0	0	-0	0	0	0	0	0	-0	0	573.696	574.446	303.069	224.357	0.502034	-5.87593	-0.0100625	-0.0229473	22.1943
38	-0.015946	0.0193857	0.0198746	0.0535726	0.00130534	0.0350688	0.0253357	-0.0300301	0.00425251	-0.165365	0.17968	0.0686466	0.0497332	-0.00150843	0.0204005	-2.24357	0.031923	-1.5218	0	0	0	0	-0	0	0	0	-0.1265	0	-0	0	0	0	0	0	-0	0	0.105	0.015	0	0	-0	0	0	0.098	0.1	0	-0	0	0	0	0	0	-0	0	0.05595	0	0	0	-0	0	0	0	0	0	-0	0	573.698	574.484	302.792	224.482	0.507309	-5.93247	-0.0102474	-0.0231172	22.4265
39	-0.0281968	0.0194619	0.0198254	0.0535911	0.00124174	0.0350353	0.0253325	-0.0300281	0.00425093	-0.178671	0.196138	0.058748	0.0499748	-0.0015068	0.0197991	-2.2567	0.0337081	-1.52103	0	0	0	0	-0	0	0	0	-0.1265	0	-0	0	0	0	0	0	-0	0	0.105	0.015	0	0	-0	0	0	0.098	0.1	0	-0	0	0	0	0	0	-0	0	0.05595	0	0	0	-0	0	0	0	0	0	-0	0	573.769	574.542	301.766	225.027	0.523366	-6.15519	-0.0103763	-0.0237524	23.4324
40	-0.0302003	0.0195121	0.0198066	0.0535593	0.00121462	0.0350348	0.0253306	-0.0300279	0.00424883	-0.179793	0.196873	0.0511005	0.050002	-0.00150208	0.0197069	-2.2588	0.0339682	-1.52099	0	0	0	0	-0	0	0	0	-0.1265	0	-0	0	0	0	0	0	-0	0	0.105	0.015	0	0	-0	0	0	0.098	0.1	0	-0	0	0	0	0	0	-0	0	0.05595	0	0	0	-0	0	0	0	0	0	-0	0	573.746	574.57	301.609	225.089	0.530011	-6.19865	-0.0106888	-0.023822	23.567
41	-0.0266274	0.0195484	0.019793	0.0535824	0.00119359	0.0350389	0.0253301	-0.0300283	0.00425155	-0.170914	0.200669	0.0556616	0.0499286	-0.00150094	0.0198912	-2.25536	0.0340324	-1.52066	0	0	0	0	-0	0	0	0	-0.1265	0	-0	0	0	0	0	0	-0	0	0.105	0.015	0	0	-0	0	0	0.098	0.1	0	-0	0	0	0	0	0	-0	0	0.05595	0	0	0	-0	0	0	0	0	0	-0	0	573.723	574.597	301.397	225.172	0.536105	-6.2504	-0.0109635	-0.0239498	23.7546
42	-0.0266576	0.0195873	0.0197798	0.0536006	0.00117197	0.0350398	0.0253304	-0.0300278	0.00425315	-0.178459	0.193383	0.0573663	0.0499281	-0.00150019	0.0198924	-2.25558	0.0343872	-1.52033	0	0	0	0	-0	0	0	0	-0.1265	0	-0	0	0	0	0	0	-0	0	0.105	0.015	0	0	-0	0	0	0.098	0.1	0	-0	0	0	0	0	0	-0	0	0.05595	0	0	0	-0	0	0	0	0	0	-0	0	573.699	574.62	301.09	225.292	0.543265	-6.32221	-0.0112211	-0.0241369	24.0358
43	-0.0291683	0.0196328	0.0197631	0.0536151	0.00115	0.035042	0.0253319	-0.0300245	0.00425455	-0.184873	0.215887	0.0541263	0.0499765	-0.0014992	0.0197711	-2.25837	0.0350095	-1.51996	0	0	0	0	-0	0	0	0	-0.1265	0	-0	0	0	0	0	0	-0	0	0.105	0.015	0	0	-0	0	0	0.098	0.1	0	-0	0	0	0	0	0	-0	0	0.05595	0	0	0	-0	0	0	0	0	0	-0	0	573.672	574.634	300.664	225.465	0.552991	-6.42624	-0.0115023	-0.0243982	24.4542
44	-0.0342368	0.019674	0.0197471	0.0536137	0.00113388	0.035052	0.025328	-0.0300276	0.00425127	-0.200184	0.228399	0.040128	0.0500737	-0.00149737	0.0195231	-2.26363	0.0356251	-1.51981	0	0	0	0	-0	0	0	0	-0.1265	0	-0	0	0	0	0	0	-0	0	0.105	0.015	0	0	-0	0	0	0.098	0.1	0	-0	0	0	0	0	0	-0	0	0.05595	0	0	0	-0	0	0	0	0	0	-0	0	573.634	574.642	300.354	225.586	0.561823	-6.50902	-0.0118087	-0.0245871	24.7634
45	-0.0396548	0.0197146	0.0197332	0.0535902	0.00109951	0.0350363	0.025328	-0.0300273	0.0042525	-0.200063	0.218869	0.0295004	0.0501764	-0.00149453	0.0192533	-2.26916	0.0361742	-1.51976	0	0	0	0	-0	0	0	0	-0.1265	0	-0	0	0	0	0	0	-0	0	0.105	0.015	0	0	-0	0	0	0.098	0.1	0	-0	0	0	0	0	0	-0	0	0.05595	0	0	0	-0	0	0	0	0	0	-0	0	573.615	574.64	300.103	225.67	0.567024	-6.56586	-0.0119146	-0.0247452	24.991
46	-0.0387081	0.0197341	0.0197331	0.0536104	0.00109927	0.0350517	0.0253266	-0.0300261	0.00425409	-0.194788	0.219838	0.027489	0.050154	-0.00149529	0.0193077	-2.26826	0.0362049	-1.51967	0	0	0	0	-0	0	0	0	-0.1265	0	-0	0	0	0	0	0	-0	0	0.105	0.015	0	0	-0	0	0	0.098	0.1	0	-0	0	0	0	0	0	-0	0	0.05595	0	0	0	-0	0	0	0	0	0	-0	0	573.604	574.645	300.04	225.691	0.570381	-6.58691	-0.0120731	-0.0247851	25.0473
47	-0.0358837	0.0197649	0.0197087	0.0536285	0.00106844	0.0350398	0.0253267	-0.0300262	0.00425405	-0.192058	0.226101	0.0174324	0.0500991	-0.00149367	0.0194498	-2.26556	0.036343	-1.51931	0	0	0	0	-0	0	0	0	-0.1265	0	-0	0	0	0	0	0	-0	0	0.105	0.015	0	0	-0	0	0	0.098	0.1	0	-0	0	0	0	0	0	-0	0	0.05595	0	0	0	-0	0	0	0	0	0	-0	0	573.583	574.637	299.791	225.775	0.575549	-6.64609	-0.012189	-0.0249434	25.2853
48	-0.036062	0.0197993	0.019703	0.0536157	0.00105404	0.0350401	0.0253249	-0.0300253	0.00425316	-0.191208	0.224503	0.0247662	0.0501013	-0.00149282	0.0194438	-2.26593	0.0367558	-1.51894	0	0	0	0	-0	0	0	0	-0.1265	0	-0	0	0	0	0	0	-0	0	0.105	0.015	0	0	-0	0	0	0.098	0.1	0	-0	0	0	0	0	0	-0	0	0.05595	0	0	0	-0	0	0	0	0	0	-0	0	573.552	574.625	299.446	225.897	0.583721	-6.73466	-0.0123801	-0.0251643	25.6361
49	-0.0346981	0.0198235	0.019686	0.0536184	0.00103465	0.0350363	0.0253232	-0.0300245	0.00425322	-0.192643	0.224183	0.0185371	0.0500709	-0.00149105	0.0195169	-2.26461	0.0367899	-1.5188	0	0	0	0	-0	0	0	0	-0.1265	0	-0	0	0	0	0	0	-0	0	0.105	0.015	0	0	-0	0	0	0.098	0.1	0	-0	0	0	0	0	0	-0	0	0.05595	0	0	0	-0	0	0	0	0	0	-0	0	573.538	574.624	299.346	225.928	0.587291	-6.76368	-0.0124997	-0.0252273	25.7302
50	-0.0283839	0.0198467	0.0196735	0.053623	0.00101596	0.0350314	0.0253219	-0.0300242	0.00425347	-0.199638	0.224009	0.0169072	0.0499463	-0.00148999	0.0198351	-2.25836	0.0366117	-1.51844	0	0	0	0	-0	0	0	0	-0.1265	0	-0	0	0	0	0	0	-0	0	0.105	0.015	0	0	-0	0	0	0.098	0.1	0	-0	0	0	0	0	0	-0	0	0.05595	0	0	0	-0	0	0	0	0	0	-0	0	573.521	574.619	299.21	225.97	0.590806	-6.79873	-0.0125955	-0.025315	25.8605
51	-0.0383042	0.0198715	0.0196619	0.0536211	0.000995416	0.0350249	0.0253217	-0.030023	0.00425256	-0.197054	0.21433	0.0198097	0.0501411	-0.00148893	0.0193407	-2.26836	0.0373545	-1.51859	0	0	0	0	-0	0	0	0	-0.1265	0	-0	0	0	0	0	0	-0	0	0.105	0.015	0	0	-0	0	0	0.098	0.1	0	-0	0	0	0	0	0	-0	0	0.05595	0	0	0	-0	0	0	0	0	0	-0	0	573.503	574.603	299.011	226.031	0.595247	-6.84809	-0.0126775	-0.0254436	26.055
52	-0.0404732	0.0198897	0.019658	0.0535965	0.000981748	0.0350212	0.0253212	-0.0300231	0.00425054	-0.196908	0.221637	0.0218743	0.0501786	-0.00148803	0.0192332	-2.27059	0.0376398	-1.51852	0	0	0	0	-0	0	0	0	-0.1265	0	-0	0	0	0	0	0	-0	0	0.105	0.015	0	0	-0	0	0	0.098	0.1	0	-0	0	0	0	0	0	-0	0	0.05595	0	0	0	-0	0	0	0	0	0	-0	0	573.485	574.595	298.861	226.075	0.599099	-6.88628	-0.0127676	-0.0255441	26.1979
53	-0.0320782	0.0199146	0.0196453	0.0536122	0.00096923	0.0350228	0.0253196	-0.0300239	0.004252	-0.207147	0.223419	0.0194285	0.0500157	-0.0014871	0.0196577	-2.26231	0.037444	-1.51798	0	0	0	0	-0	0	0	0	-0.1265	0	-0	0	0	0	0	0	-0	0	0.105	0.015	0	0	-0	0	0	0.098	0.1	0	-0	0	0	0	0	0	-0	0	0.05595	0	0	0	-0	0	0	0	0	0	-0	0	573.461	574.578	298.65	226.142	0.604522	-6.94234	-0.0129004	-0.0256785	26.4115
54	-0.028171	0.0199421	0.0196346	0.0536098	0.000948412	0.035016	0.0253206	-0.030023	0.00425132	-0.20968	0.213007	0.0192141	0.0499357	-0.0014864	0.0198544	-2.25851	0.037515	-1.51757	0	0	0	0	-0	0	0	0	-0.1265	0	-0	0	0	0	0	0	-0	0	0.105	0.015	0	0	-0	0	0	0.098	0.1	0	-0	0	0	0	0	0	-0	0	0.05595	0	0	0	-0	0	0	0	0	0	-0	0	573.436	574.554	298.408	226.216	0.610249	-7.00562	-0.0129995	-0.0258388	26.6588
55	-0.0278449	0.0199588	0.0196337	0.0536056	0.000947918	0.0350241	0.0253207	-0.030023	0.00425122	-0.206861	0.221674	0.0176505	0.049926	-0.00148615	0.0198755	-2.25824	0.0376127	-1.51746	0	0	0	0	-0	0	0	0	-0.1265	0	-0	0	0	0	0	0	-0	0	0.105	0.015	0	0	-0	0	0	0.098	0.1	0	-0	0	0	0	0	0	-0	0	0.05595	0	0	0	-0	0	0	0	0	0	-0	0	573.417	574.55	298.309	226.246	0.614223	-7.03678	-0.013145	-0.0259064	26.7572
56	-0.021632	0.0199735	0.019628	0.0536077	0.000941327	0.0350267	0.0253194	-0.0300228	0.00425129	-0.204499	0.219977	0.0232201	0.0498012	-0.00148566	0.020188	-2.25206	0.0373581	-1.51716	0	0	0	0	-0	0	0	0	-0.1265	0	-0	0	0	0	0	0	-0	0	0.105	0.015	0	0	-0	0	0	0.098	0.1	0	-0	0	0	0	0	0	-0	0	0.05595	0	0	0	-0	0	0	0	0	0	-0	0	573.403	574.546	298.239	226.266	0.616651	-7.0574	-0.0132279	-0.0259546	26.8253
57	-0.0228561	0.019992	0.0196167	0.0536041	0.000922549	0.0350184	0.02532	-0.0300237	0.00425095	-0.212044	0.211467	0.0203305	0.0498247	-0.0014847	0.0201265	-2.25334	0.0375952	-1.51704	0	0	0	0	-0	0	0	0	-0.1265	0	-0	0	0	0	0	0	-0	0	0.105	0.015	0	0	-0	0	0	0.098	0.1	0	-0	0	0	0	0	0	-0	0	0.05595	0	0	0	-0	0	0	0	0	0	-0	0	573.384	574.53	298.086	226.31	0.620039	-7.09619	-0.0132837	-0.0260572	26.9781
58	-0.0189667	0.0200136	0.0196152	0.0536072	0.000919101	0.0350244	0.0253187	-0.0300226	0.00425123	-0.21366	0.212473	0.0153218	0.0497464	-0.00148476	0.0203223	-2.24956	0.0376352	-1.51666	0	0	0	0	-0	0	0	0	-0.1265	0	-0	0	0	0	0	0	-0	0	0.105	0.015	0	0	-0	0	0	0.098	0.1	0	-0	0	0	0	0	0	-0	0	0.05595	0	0	0	-0	0	0	0	0	0	-0	0	573.35	574.508	297.874	226.377	0.625859	-7.15542	-0.0134309	-0.0261979	27.2009
59	-0.0153218	0.0200288	0.0196021	0.0536074	0.000903408	0.0350188	0.0253174	-0.0300222	0.00425082	-0.209941	0.212874	0.0192294	0.0496695	-0.00148351	0.0205058	-2.24594	0.0374996	-1.51647	0	0	0	0	-0	0	0	0	-0.1265	0	-0	0	0	0	0	0	-0	0	0.105	0.015	0	0	-0	0	0	0.098	0.1	0	-0	0	0	0	0	0	-0	0	0.05595	0	0	0	-0	0	0	0	0	0	-0	0	573.339	574.502	297.812	226.394	0.628059	-7.17414	-0.0134913	-0.0262401	27.2611
60	-0.0151902	0.0200482	0.0195912	0.0536094	0.000886829	0.0350127	0.0253168	-0.0300219	0.00425082	-0.214651	0.210501	0.0202547	0.049666	-0.00148266	0.0205129	-2.24587	0.0376739	-1.51629	0	0	0	0	-0	0	0	0	-0.1265	0	-0	0	0	0	0	0	-0	0	0.105	0.015	0	0	-0	0	0	0.098	0.1	0	-0	0	0	0	0	0	-0	0	0.05595	0	0	0	-0	0	0	0	0	0	-0	0	573.317	574.482	297.65	226.441	0.631973	-7.21768	-0.0135604	-0.0263481	27.4299
61	-0.0189687	0.0200657	0.0195835	0.0536128	0.000876943	0.035012	0.0253182	-0.0300221	0.00425167	-0.210667	0.220866	0.0248327	0.0497424	-0.00148206	0.0203273	-2.24971	0.0380312	-1.51629	0	0	0	0	-0	0	0	0	-0.1265	0	-0	0	0	0	0	0	-0	0	0.105	0.015	0	0	-0	0	0	0.098	0.1	0	-0	0	0	0	0	0	-0	0	0.05595	0	0	0	-0	0	0	0	0	0	-0	0	573.295	574.462	297.516	226.48	0.635823	-7.25596	-0.0136478	-0.0264374	27.5693
62	-0.0160614	0.0200893	0.0195813	0.0536099	0.000871383	0.0350183	0.0253203	-0.03002	0.00425466	-0.222408	0.246313	0.0256061	0.0496833	-0.00148216	0.0204733	-2.24694	0.0381918	-1.51587	0	0	0	0	-0	0	0	0	-0.1265	0	-0	0	0	0	0	0	-0	0	0.105	0.015	0	0	-0	0	0	0.098	0.1	0	-0	0	0	0	0	0	-0	0	0.05595	0	0	0	-0	0	0	0	0	0	-0	0	573.247	574.415	297.244	226.57	0.643333	-7.33745	-0.0137837	-0.0266227	27.8819
63	-0.0225445	0.0201124	0.0195696	0.0536287	0.000869406	0.0350358	0.0253183	-0.0300245	0.00425571	-0.236345	0.245443	0.0299767	0.0498133	-0.00148192	0.020157	-2.25349	0.0387003	-1.51598	0	0	0	0	-0	0	0	0	-0.1265	0	-0	0	0	0	0	0	-0	0	0.105	0.015	0	0	-0	0	0	0.098	0.1	0	-0	0	0	0	0	0	-0	0	0.05595	0	0	0	-0	0	0	0	0	0	-0	0	573.212	574.397	297.114	226.614	0.649031	-7.38476	-0.013974	-0.0267132	28.033
64	-0.0181102	0.0201348	0.0195679	0.0536261	0.000856975	0.0350319	0.0253184	-0.0300239	0.00425364	-0.235813	0.246813	0.0421493	0.0497233	-0.00148187	0.0203771	-2.24912	0.038616	-1.51566	0	0	0	0	-0	0	0	0	-0.1265	0	-0	0	0	0	0	0	-0	0	0.105	0.015	0	0	-0	0	0	0.098	0.1	0	-0	0	0	0	0	0	-0	0	0.05595	0	0	0	-0	0	0	0	0	0	-0	0	573.181	574.373	296.973	226.656	0.652829	-7.42535	-0.0140438	-0.0268118	28.1854
65	-0.0168814	0.0201477	0.0195664	0.0536069	0.000847907	0.0350269	0.0253168	-0.0300243	0.00425088	-0.247772	0.245679	0.0338035	0.0496968	-0.00148111	0.0204384	-2.24793	0.0386668	-1.5155	0	0	0	0	-0	0	0	0	-0.1265	0	-0	0	0	0	0	0	-0	0	0.105	0.015	0	0	-0	0	0	0.098	0.1	0	-0	0	0	0	0	0	-0	0	0.05595	0	0	0	-0	0	0	0	0	0	-0	0	573.158	574.356	296.867	226.686	0.655969	-7.45655	-0.0141089	-0.0268885	28.2988
66	-0.0184063	0.0201602	0.0195597	0.0536007	0.000834388	0.0350187	0.0253156	-0.0300223	0.00425066	-0.253947	0.246823	0.0374934	0.049727	-0.00148009	0.0203629	-2.24948	0.038838	-1.51548	0	0	0	0	-0	0	0	0	-0.1265	0	-0	0	0	0	0	0	-0	0	0.105	0.015	0	0	-0	0	0	0.098	0.1	0	-0	0	0	0	0	0	-0	0	0.05595	0	0	0	-0	0	0	0	0	0	-0	0	573.142	574.343	296.785	226.708	0.658149	-7.47911	-0.0141464	-0.0269445	28.3825
67	-0.0206478	0.0201698	0.0195484	0.0536078	0.000821992	0.0350144	0.0253148	-0.030021	0.00425057	-0.257732	0.244343	0.0386562	0.0497712	-0.00147913	0.0202529	-2.25173	0.0389941	-1.51555	0	0	0	0	-0	0	0	0	-0.1265	0	-0	0	0	0	0	0	-0	0	0.105	0.015	0	0	-0	0	0	0.098	0.1	0	-0	0	0	0	0	0	-0	0	0.05595	0	0	0	-0	0	0	0	0	0	-0	0	573.135	574.337	296.752	226.717	0.659357	-7.48955	-0.0141773	-0.0269659	28.4159
68	-0.0167928	0.0201789	0.0195408	0.0536056	0.000811388	0.0350094	0.0253139	-0.0300205	0.00425002	-0.252404	0.243596	0.0398321	0.0496926	-0.00147835	0.020445	-2.2479	0.0388546	-1.51533	0	0	0	0	-0	0	0	0	-0.1265	0	-0	0	0	0	0	0	-0	0	0.105	0.015	0	0	-0	0	0	0.098	0.1	0	-0	0	0	0	0	0	-0	0	0.05595	0	0	0	-0	0	0	0	0	0	-0	0	573.124	574.323	296.684	226.735	0.661105	-7.50849	-0.0142033	-0.027012	28.4865
69	-0.0119504	0.0201897	0.0195336	0.0536032	0.000800517	0.0350043	0.0253137	-0.0300211	0.00424881	-0.25948	0.245053	0.0313236	0.0495929	-0.00147767	0.0206857	-2.2431	0.0386963	-1.51503	0	0	0	0	-0	0	0	0	-0.1265	0	-0	0	0	0	0	0	-0	0	0.105	0.015	0	0	-0	0	0	0.098	0.1	0	-0	0	0	0	0	0	-0	0	0.05595	0	0	0	-0	0	0	0	0	0	-0	0	573.109	574.303	296.584	226.762	0.66352	-7.53563	-0.0142315	-0.0270795	28.5905
70	-0.010944	0.020196	0.0195372	0.0535887	0.000798591	0.0350031	0.0253137	-0.0300206	0.00424804	-0.263254	0.242271	0.0288612	0.0495705	-0.00147766	0.0207364	-2.24211	0.0386978	-1.51494	0	0	0	0	-0	0	0	0	-0.1265	0	-0	0	0	0	0	0	-0	0	0.105	0.015	0	0	-0	0	0	0.098	0.1	0	-0	0	0	0	0	0	-0	0	0.05595	0	0	0	-0	0	0	0	0	0	-0	0	573.099	574.294	296.534	226.776	0.665096	-7.5504	-0.0142613	-0.0271175	28.6424
71	-0.0117203	0.0202121	0.0195263	0.0535962	0.000786725	0.0350013	0.0253132	-0.0300204	0.00424874	-0.269342	0.240242	0.028563	0.049587	-0.00147691	0.0206982	-2.24297	0.0389765	-1.51473	0	0	0	0	-0	0	0	0	-0.1265	0	-0	0	0	0	0	0	-0	0	0.105	0.015	0	0	-0	0	0	0.098	0.1	0	-0	0	0	0	0	0	-0	0	0.05595	0	0	0	-0	0	0	0	0	0	-0	0	573.067	574.246	296.328	226.839	0.67013	-7.60947	-0.0143065	-0.0272571	28.8743
72	-0.0099205	0.0202313	0.0195165	0.0536001	0.000776058	0.0350011	0.0253128	-0.0300201	0.00424902	-0.265868	0.243726	0.0333596	0.0495489	-0.0014761	0.0207891	-2.24126	0.0390764	-1.51446	0	0	0	0	-0	0	0	0	-0.1265	0	-0	0	0	0	0	0	-0	0	0.105	0.015	0	0	-0	0	0	0.098	0.1	0	-0	0	0	0	0	0	-0	0	0.05595	0	0	0	-0	0	0	0	0	0	-0	0	573.033	574.204	296.151	226.894	0.675328	-7.66405	-0.0143901	-0.0273784	29.0765
73	-0.00221699	0.0202459	0.0195115	0.0535976	0.000769367	0.0350025	0.025312	-0.0300203	0.00424866	-0.273805	0.244616	0.0295055	0.0493866	-0.0014756	0.0211736	-2.23359	0.0387236	-1.51409	0	0	0	0	-0	0	0	0	-0.1265	0	-0	0	0	0	0	0	-0	0	0.105	0.015	0	0	-0	0	0	0.098	0.1	0	-0	0	0	0	0	0	-0	0	0.05595	0	0	0	-0	0	0	0	0	0	-0	0	573.015	574.191	296.076	226.916	0.678248	-7.68927	-0.0144662	-0.0274329	29.1584
74	-0.00303433	0.0202561	0.01951	0.0535837	0.00075908	0.0349977	0.0253125	-0.0300202	0.00424694	-0.274233	0.242729	0.0364821	0.0494014	-0.00147531	0.021133	-2.23442	0.0388276	-1.51407	0	0	0	0	-0	0	0	0	-0.1265	0	-0	0	0	0	0	0	-0	0	0.105	0.015	0	0	-0	0	0	0.098	0.1	0	-0	0	0	0	0	0	-0	0	0.05595	0	0	0	-0	0	0	0	0	0	-0	0	573.004	574.181	296.022	226.931	0.679851	-7.70529	-0.01449	-0.0274751	29.216
75	0.000693385	0.020268	0.0195071	0.0535846	0.000755279	0.0349998	0.0253118	-0.0300194	0.00424732	-0.275091	0.24494	0.0356405	0.0493227	-0.00147491	0.0213179	-2.23075	0.0387458	-1.5138	0	0	0	0	-0	0	0	0	-0.1265	0	-0	0	0	0	0	0	-0	0	0.105	0.015	0	0	-0	0	0	0.098	0.1	0	-0	0	0	0	0	0	-0	0	0.05595	0	0	0	-0	0	0	0	0	0	-0	0	572.978	574.157	295.907	226.964	0.683206	-7.73958	-0.0145579	-0.0275547	29.3419
76	-7.76279e-05	0.0202803	0.0194973	0.0535871	0.000744577	0.0349975	0.025312	-0.0300201	0.00424725	-0.273061	0.245634	0.0443421	0.0493379	-0.00147403	0.0212807	-2.23155	0.0388721	-1.51375	0	0	0	0	-0	0	0	0	-0.1265	0	-0	0	0	0	0	0	-0	0	0.105	0.015	0	0	-0	0	0	0.098	0.1	0	-0	0	0	0	0	0	-0	0	0.05595	0	0	0	-0	0	0	0	0	0	-0	0	572.961	574.141	295.83	226.986	0.685624	-7.76326	-0.014608	-0.0276082	29.4251
77	-5.78513e-05	0.0202895	0.0194992	0.0535852	0.000744949	0.0350015	0.0253123	-0.0300196	0.00424794	-0.272209	0.25271	0.0483558	0.0493368	-0.00147416	0.0212833	-2.23155	0.0389373	-1.51369	0	0	0	0	-0	0	0	0	-0.1265	0	-0	0	0	0	0	0	-0	0	0.105	0.015	0	0	-0	0	0	0.098	0.1	0	-0	0	0	0	0	0	-0	0	0.05595	0	0	0	-0	0	0	0	0	0	-0	0	572.947	574.13	295.773	227.003	0.687701	-7.7817	-0.0146628	-0.0276507	29.4866
78	0.00635156	0.0203028	0.0194916	0.0535918	0.000737772	0.0350034	0.0253126	-0.0300211	0.00424939	-0.265	0.250897	0.0400381	0.0492009	-0.00147367	0.0215997	-2.2252	0.0387082	-1.5133	0	0	0	0	-0	0	0	0	-0.1265	0	-0	0	0	0	0	0	-0	0	0.105	0.015	0	0	-0	0	0	0.098	0.1	0	-0	0	0	0	0	0	-0	0	0.05595	0	0	0	-0	0	0	0	0	0	-0	0	572.919	574.099	295.651	227.04	0.691184	-7.81881	-0.0147202	-0.0277358	29.6242
79	0.00537649	0.0203199	0.0194913	0.0535919	0.000733286	0.0350075	0.0253141	-0.030019	0.0042478	-0.262516	0.235177	0.0450358	0.0492219	-0.00147391	0.0215514	-2.22626	0.0389626	-1.51313	0	0	0	0	-0	0	0	0	-0.1265	0	-0	0	0	0	0	0	-0	0	0.105	0.015	0	0	-0	0	0	0.098	0.1	0	-0	0	0	0	0	0	-0	0	0.05595	0	0	0	-0	0	0	0	0	0	-0	0	572.878	574.054	295.478	227.097	0.69626	-7.87351	-0.0147951	-0.0278591	29.8294
80	0.00712048	0.0203303	0.0194888	0.0535705	0.000730908	0.0350097	0.0253129	-0.0300198	0.00424633	-0.267048	0.228503	0.0482579	0.0491826	-0.00147294	0.0216389	-2.22456	0.0389583	-1.51297	0	0	0	0	-0	0	0	0	-0.1265	0	-0	0	0	0	0	0	-0	0	0.105	0.015	0	0	-0	0	0	0.098	0.1	0	-0	0	0	0	0	0	-0	0	0.05595	0	0	0	-0	0	0	0	0	0	-0	0	572.852	574.035	295.39	227.124	0.699691	-7.90374	-0.0148824	-0.0279263	29.9292
81	0.015344	0.0203496	0.0194777	0.0535733	0.000716421	0.0350064	0.0253131	-0.0300203	0.00424791	-0.266638	0.237595	0.0578563	0.0490052	-0.00147197	0.0220427	-2.21643	0.0386864	-1.51244	0	0	0	0	-0	0	0	0	-0.1265	0	-0	0	0	0	0	0	-0	0	0.105	0.015	0	0	-0	0	0	0.098	0.1	0	-0	0	0	0	0	0	-0	0	0.05595	0	0	0	-0	0	0	0	0	0	-0	0	572.812	573.985	295.205	227.187	0.704769	-7.96209	-0.0149323	-0.0280567	30.1546
82	0.0174902	0.0203656	0.0194773	0.0535708	0.000712235	0.035012	0.0253114	-0.0300198	0.00424569	-0.273434	0.243795	0.0500611	0.0489549	-0.00147215	0.0221495	-2.21433	0.0386669	-1.51226	0	0	0	0	-0	0	0	0	-0.1265	0	-0	0	0	0	0	0	-0	0	0.105	0.015	0	0	-0	0	0	0.098	0.1	0	-0	0	0	0	0	0	-0	0	0.05595	0	0	0	-0	0	0	0	0	0	-0	0	572.784	573.963	295.111	227.217	0.70842	-7.9949	-0.0150181	-0.0281277	30.2644
83	0.0160401	0.0203816	0.019463	0.053568	0.000692344	0.035	0.0253104	-0.0300189	0.00424514	-0.271931	0.248365	0.0456302	0.0489868	-0.00147037	0.0220774	-2.21583	0.0388986	-1.51216	0	0	0	0	-0	0	0	0	-0.1265	0	-0	0	0	0	0	0	-0	0	0.105	0.015	0	0	-0	0	0	0.098	0.1	0	-0	0	0	0	0	0	-0	0	0.05595	0	0	0	-0	0	0	0	0	0	-0	0	572.755	573.923	294.971	227.261	0.711998	-8.03685	-0.0150407	-0.0282258	30.4266
84	0.0139372	0.0203938	0.0194559	0.0535696	0.000684119	0.0349986	0.0253097	-0.0300187	0.00424556	-0.268343	0.252558	0.0492393	0.0490313	-0.00146962	0.0219766	-2.21796	0.039082	-1.51219	0	0	0	0	-0	0	0	0	-0.1265	0	-0	0	0	0	0	0	-0	0	0.105	0.015	0	0	-0	0	0	0.098	0.1	0	-0	0	0	0	0	0	-0	0	0.05595	0	0	0	-0	0	0	0	0	0	-0	0	572.741	573.909	294.913	227.279	0.714285	-8.05706	-0.015092	-0.0282672	30.4923
85	0.0101799	0.0204037	0.019451	0.0535746	0.000677692	0.0349986	0.0253094	-0.030018	0.00424634	-0.270003	0.259582	0.0514296	0.0491129	-0.00146927	0.0217937	-2.22173	0.0393443	-1.5123	0	0	0	0	-0	0	0	0	-0.1265	0	-0	0	0	0	0	0	-0	0	0.105	0.015	0	0	-0	0	0	0.098	0.1	0	-0	0	0	0	0	0	-0	0	0.05595	0	0	0	-0	0	0	0	0	0	-0	0	572.731	573.898	294.872	227.291	0.715812	-8.07078	-0.0151254	-0.0282965	30.5369
86	0.0118895	0.0204142	0.0194441	0.0535788	0.000669545	0.0349976	0.0253087	-0.0300183	0.00424611	-0.263982	0.260074	0.0553563	0.0490755	-0.00146879	0.0218777	-2.22006	0.0393402	-1.51213	0	0	0	0	-0	0	0	0	-0.1265	0	-0	0	0	0	0	0	-0	0	0.105	0.015	0	0	-0	0	0	0.098	0.1	0	-0	0	0	0	0	0	-0	0	0.05595	0	0	0	-0	0	0	0	0	0	-0	0	572.711	573.872	294.785	227.318	0.718296	-8.09774	-0.0151559	-0.0283584	30.6365
87	0.00573396	0.0204265	0.0194382	0.0535793	0.00066087	0.0349946	0.0253074	-0.0300197	0.00424684	-0.278119	0.265965	0.0531802	0.0492108	-0.00146815	0.0215749	-2.22626	0.0398388	-1.51224	0	0	0	0	-0	0	0	0	-0.1265	0	-0	0	0	0	0	0	-0	0	0.105	0.015	0	0	-0	0	0	0.098	0.1	0	-0	0	0	0	0	0	-0	0	0.05595	0	0	0	-0	0	0	0	0	0	-0	0	572.682	573.833	294.66	227.36	0.721757	-8.13709	-0.015185	-0.0284467	30.7863
88	0.00294213	0.0204424	0.0194318	0.0535863	0.000649414	0.0349916	0.0253065	-0.0300224	0.00424527	-0.297718	0.27291	0.0418077	0.049271	-0.00146782	0.0214363	-2.22914	0.0402024	-1.51214	0	0	0	0	-0	0	0	0	-0.1265	0	-0	0	0	0	0	0	-0	0	0.105	0.015	0	0	-0	0	0	0.098	0.1	0	-0	0	0	0	0	0	-0	0	0.05595	0	0	0	-0	0	0	0	0	0	-0	0	572.642	573.769	294.483	227.421	0.726554	-8.19366	-0.0151995	-0.0285719	31.0053
89	0.00440857	0.0204547	0.0194369	0.0535743	0.000644956	0.0349871	0.0253084	-0.0300191	0.00424498	-0.301365	0.266211	0.0428879	0.0492386	-0.0014677	0.021509	-2.22771	0.0402199	-1.51199	0	0	0	0	-0	0	0	0	-0.1265	0	-0	0	0	0	0	0	-0	0	0.105	0.015	0	0	-0	0	0	0.098	0.1	0	-0	0	0	0	0	0	-0	0	0.05595	0	0	0	-0	0	0	0	0	0	-0	0	572.62	573.744	294.39	227.449	0.729445	-8.22325	-0.0152372	-0.0286411	31.1135
90	0.00156173	0.0204618	0.0194331	0.0535695	0.000644192	0.0349938	0.0253078	-0.0300182	0.00424493	-0.305281	0.265982	0.0404099	0.0492974	-0.00146717	0.0213721	-2.23058	0.040429	-1.51206	0	0	0	0	-0	0	0	0	-0.1265	0	-0	0	0	0	0	0	-0	0	0.105	0.015	0	0	-0	0	0	0.098	0.1	0	-0	0	0	0	0	0	-0	0	0.05595	0	0	0	-0	0	0	0	0	0	-0	0	572.608	573.735	294.352	227.461	0.731571	-8.23889	-0.0153007	-0.028673	31.1569
91	0.00342019	0.0204698	0.0194238	0.0535713	0.00063546	0.0349927	0.0253075	-0.0300177	0.00424523	-0.305706	0.269259	0.0447431	0.0492565	-0.00146634	0.0214646	-2.22873	0.0403459	-1.51197	0	0	0	0	-0	0	0	0	-0.1265	0	-0	0	0	0	0	0	-0	0	0.105	0.015	0	0	-0	0	0	0.098	0.1	0	-0	0	0	0	0	0	-0	0	0.05595	0	0	0	-0	0	0	0	0	0	-0	0	572.6	573.727	294.325	227.47	0.732685	-8.24869	-0.0153256	-0.0286937	31.1873
92	0.000406565	0.0204783	0.0194187	0.0535746	0.000631012	0.034994	0.025307	-0.0300173	0.00424535	-0.303441	0.269176	0.044713	0.0493213	-0.00146596	0.0213163	-2.23177	0.0405881	-1.51202	0	0	0	0	-0	0	0	0	-0.1265	0	-0	0	0	0	0	0	-0	0	0.105	0.015	0	0	-0	0	0	0.098	0.1	0	-0	0	0	0	0	0	-0	0	0.05595	0	0	0	-0	0	0	0	0	0	-0	0	572.583	573.709	294.267	227.489	0.734588	-8.2679	-0.0153607	-0.0287361	31.2551
93	-0.00130368	0.0204846	0.0194135	0.0535734	0.000625346	0.0349923	0.025307	-0.030017	0.00424501	-0.303201	0.274661	0.0435967	0.049357	-0.00146544	0.0212323	-2.23349	0.0407194	-1.51207	0	0	0	0	-0	0	0	0	-0.1265	0	-0	0	0	0	0	0	-0	0	0.105	0.015	0	0	-0	0	0	0.098	0.1	0	-0	0	0	0	0	0	-0	0	0.05595	0	0	0	-0	0	0	0	0	0	-0	0	572.575	573.701	294.237	227.498	0.735679	-8.27819	-0.0153812	-0.0287584	31.2892
94	-0.00232806	0.0204915	0.019411	0.0535712	0.000622238	0.0349926	0.0253072	-0.0300168	0.0042449	-0.303732	0.282081	0.0430448	0.0493791	-0.00146511	0.0211815	-2.23454	0.0408527	-1.51204	0	0	0	0	-0	0	0	0	-0.1265	0	-0	0	0	0	0	0	-0	0	0.105	0.015	0	0	-0	0	0	0.098	0.1	0	-0	0	0	0	0	0	-0	0	0.05595	0	0	0	-0	0	0	0	0	0	-0	0	572.557	573.68	294.172	227.52	0.737632	-8.29882	-0.0154086	-0.0288059	31.3644
95	-0.00283179	0.0204971	0.0194092	0.0535698	0.000620897	0.0349945	0.0253073	-0.0300168	0.00424452	-0.302542	0.27436	0.0464866	0.0493892	-0.00146489	0.0211575	-2.23506	0.0409188	-1.51202	0	0	0	0	-0	0	0	0	-0.1265	0	-0	0	0	0	0	0	-0	0	0.105	0.015	0	0	-0	0	0	0.098	0.1	0	-0	0	0	0	0	0	-0	0	0.05595	0	0	0	-0	0	0	0	0	0	-0	0	572.547	573.671	294.14	227.531	0.738938	-8.31044	-0.0154377	-0.028831	31.4022
96	-0.00309266	0.0205041	0.0194072	0.0535654	0.000617436	0.0349945	0.0253066	-0.0300169	0.00424442	-0.303449	0.275679	0.0488244	0.0493953	-0.00146452	0.021144	-2.23535	0.0410143	-1.51195	0	0	0	0	-0	0	0	0	-0.1265	0	-0	0	0	0	0	0	-0	0	0.105	0.015	0	0	-0	0	0	0.098	0.1	0	-0	0	0	0	0	0	-0	0	0.05595	0	0	0	-0	0	0	0	0	0	-0	0	572.527	573.649	294.069	227.555	0.741041	-8.33311	-0.0154654	-0.0288835	31.4862
97	-0.0124382	0.020514	0.0194001	0.0535703	0.000609633	0.0349928	0.0253062	-0.0300168	0.0042458	-0.295334	0.265394	0.0477662	0.0495935	-0.00146393	0.0206817	-2.24474	0.041677	-1.51222	0	0	0	0	-0	0	0	0	-0.1265	0	-0	0	0	0	0	0	-0	0	0.105	0.015	0	0	-0	0	0	0.098	0.1	0	-0	0	0	0	0	0	-0	0	0.05595	0	0	0	-0	0	0	0	0	0	-0	0	572.502	573.613	293.967	227.591	0.743887	-8.36582	-0.0154828	-0.0289559	31.611
98	-0.0097141	0.0205216	0.0193991	0.053563	0.000603172	0.0349917	0.0253064	-0.0300172	0.00424323	-0.290987	0.260278	0.0547115	0.0495343	-0.00146397	0.0208165	-2.24204	0.041578	-1.51206	0	0	0	0	-0	0	0	0	-0.1265	0	-0	0	0	0	0	0	-0	0	0.105	0.015	0	0	-0	0	0	0.098	0.1	0	-0	0	0	0	0	0	-0	0	0.05595	0	0	0	-0	0	0	0	0	0	-0	0	572.489	573.596	293.914	227.609	0.745638	-8.38352	-0.0154985	-0.0289974	31.6739
99	-0.010702	0.0205267	0.0194001	0.0535549	0.000602261	0.0349908	0.0253062	-0.030017	0.00424268	-0.288264	0.256237	0.0593504	0.049554	-0.00146354	0.020768	-2.24304	0.0416799	-1.51206	0	0	0	0	-0	0	0	0	-0.1265	0	-0	0	0	0	0	0	-0	0	0.105	0.015	0	0	-0	0	0	0.098	0.1	0	-0	0	0	0	0	0	-0	0	0.05595	0	0	0	-0	0	0	0	0	0	-0	0	572.477	573.585	293.874	227.622	0.74706	-8.39682	-0.0155257	-0.0290286	31.7197
100	-0.0121535	0.0205321	0.0193967	0.0535575	0.000598961	0.0349909	0.0253062	-0.0300167	0.00424336	-0.287526	0.261521	0.0604272	0.0495838	-0.00146314	0.0206967	-2.24451	0.0417975	-1.51209	0	0	0	0	-0	0	0	0	-0.1265	0	-0	0	0	0	0	0	-0	0	0.105	0.015	0	0	-0	0	0	0.098	0.1	0	-0	0	0	0	0	0	-0	0	0.05595	0	0	0	-0	0	0	0	0	0	-0	0	572.469	573.576	293.844	227.632	0.748137	-8.40695	-0.0155468	-0.0290505	31.754
