Stefan210/kinematic_calibration/src/kinematic_calibration/validation/experiments/experiments/impact_noise/bad_precision/larm_noise_6_pixel_rk_true/optimization_intermediate_results.csv
iteration	HeadPitch_offset	HeadYaw_offset	LElbowRoll_offset	LElbowYaw_offset	LShoulderPitch_offset	LShoulderRoll_offset	marker_transform_larm_tx	marker_transform_larm_ty	marker_transform_larm_tz	marker_transform_larm_rr	marker_transform_larm_rp	marker_transform_larm_ry	camera_transform_tx	camera_transform_ty	camera_transform_tz	camera_transform_rr	camera_transform_rp	camera_transform_ry	HeadPitch_transform_tx	HeadPitch_transform_ty	HeadPitch_transform_tz	HeadPitch_transform_rr	HeadPitch_transform_rp	HeadPitch_transform_ry	HeadYaw_transform_tx	HeadYaw_transform_ty	HeadYaw_transform_tz	HeadYaw_transform_rr	HeadYaw_transform_rp	HeadYaw_transform_ry	LElbowRoll_transform_tx	LElbowRoll_transform_ty	LElbowRoll_transform_tz	LElbowRoll_transform_rr	LElbowRoll_transform_rp	LElbowRoll_transform_ry	LElbowYaw_transform_tx	LElbowYaw_transform_ty	LElbowYaw_transform_tz	LElbowYaw_transform_rr	LElbowYaw_transform_rp	LElbowYaw_transform_ry	LShoulderPitch_transform_tx	LShoulderPitch_transform_ty	LShoulderPitch_transform_tz	LShoulderPitch_transform_rr	LShoulderPitch_transform_rp	LShoulderPitch_transform_ry	LShoulderRoll_transform_tx	LShoulderRoll_transform_ty	LShoulderRoll_transform_tz	LShoulderRoll_transform_rr	LShoulderRoll_transform_rp	LShoulderRoll_transform_ry	LWristYaw_transform_tx	LWristYaw_transform_ty	LWristYaw_transform_tz	LWristYaw_transform_rr	LWristYaw_transform_rp	LWristYaw_transform_ry	l_wrist_joint_transform_tx	l_wrist_joint_transform_ty	l_wrist_joint_transform_tz	l_wrist_joint_transform_rr	l_wrist_joint_transform_rp	l_wrist_joint_transform_ry	camera_fx	camera_fy	camera_cx	camera_cy	camera_D0	camera_D1	camera_D2	camera_D3	camera_D4	
0	0.0249164	-0.0307543	0.000853157	4.65819e-06	-0.000318322	-0.00310766	0.05071	0	0.01774	-2.26369	1.66533e-16	-1.5708	545.901	551.038	324.928	201.58	0.0255298	2.61142	-0.0636736	-0.0350419	0.213964
1	-0.0163725	-0.00254147	0.0404117	0.0205621	0.0180381	0.0251897	0.0266987	-0.0306753	0.00143506	-6.66979e-05	-0.000370205	-0.00288178	0.0554614	-0.00235667	0.0135575	-2.19686	0.00733045	-1.53366	0	0	0	0	-0	0	0	0	-0.1265	0	-0	0	0	0	0	0	-0	0	0.105	0.015	0	0	-0	0	0	0.098	0.1	0	-0	0	0	0	0	0	-0	0	0.05595	0	0	0	-0	0	0	0	0	0	-0	0	545.901	551.039	324.928	201.581	-0.00374586	2.60221	-0.0878853	0.022798	0.212094
2	-0.0156263	0.0117624	0.0404085	0.0147163	0.00799628	0.0222476	0.0262797	-0.030868	0.000904713	1.15694e-05	-0.00030948	-0.00296134	0.055302	-0.00239764	0.014905	-2.2003	0.00363998	-1.55058	0	0	0	0	-0	0	0	0	-0.1265	0	-0	0	0	0	0	0	-0	0	0.105	0.015	0	0	-0	0	0	0.098	0.1	0	-0	0	0	0	0	0	-0	0	0.05595	0	0	0	-0	0	0	0	0	0	-0	0	545.911	551.039	324.925	201.596	-0.314226	2.33982	-0.0286194	-0.00647258	0.13001
3	-0.0153034	0.0171164	0.0388993	0.0140676	0.00405825	0.0197345	0.0260262	-0.0308611	0.000871944	2.89543e-05	-0.000314695	-0.00297766	0.0558188	-0.00242639	0.0146636	-2.20148	0.00275541	-1.55659	0	0	0	0	-0	0	0	0	-0.1265	0	-0	0	0	0	0	0	-0	0	0.105	0.015	0	0	-0	0	0	0.098	0.1	0	-0	0	0	0	0	0	-0	0	0.05595	0	0	0	-0	0	0	0	0	0	-0	0	545.934	551.037	324.923	201.618	-0.493622	1.89275	0.00524275	-0.0209682	-0.0233692
4	-0.0150377	0.0174766	0.0362401	0.0152712	0.00353541	0.0186028	0.0258494	-0.0307919	0.00094277	-7.67284e-06	-0.000352447	-0.00296058	0.0555271	-0.00236164	0.0147502	-2.20223	0.00356298	-1.55717	0	0	0	0	-0	0	0	0	-0.1265	0	-0	0	0	0	0	0	-0	0	0.105	0.015	0	0	-0	0	0	0.098	0.1	0	-0	0	0	0	0	0	-0	0	0.05595	0	0	0	-0	0	0	0	0	0	-0	0	545.978	551.03	324.921	201.638	-0.45731	1.29934	0.0180765	-0.0246428	-0.245773
5	-0.0149325	0.0182266	0.0348817	0.0164471	0.0027716	0.0176763	0.0257506	-0.0307448	0.00100776	7.13101e-05	-7.61526e-05	-0.00289658	0.0549455	-0.00237086	0.0152641	-2.20293	0.00360987	-1.5582	0	0	0	0	-0	0	0	0	-0.1265	0	-0	0	0	0	0	0	-0	0	0.105	0.015	0	0	-0	0	0	0.098	0.1	0	-0	0	0	0	0	0	-0	0	0.05595	0	0	0	-0	0	0	0	0	0	-0	0	546.058	551.012	324.925	201.649	-0.328869	0.674044	0.0202065	-0.0253318	-0.49593
6	-0.014861	0.0189757	0.0341982	0.0174527	0.00215223	0.0172085	0.0257062	-0.0307102	0.00107095	-0.00018201	-0.000584919	-0.00320671	0.0545498	-0.00237394	0.0156816	-2.20339	0.00311017	-1.559	0	0	0	0	-0	0	0	0	-0.1265	0	-0	0	0	0	0	0	-0	0	0.105	0.015	0	0	-0	0	0	0.098	0.1	0	-0	0	0	0	0	0	-0	0	0.05595	0	0	0	-0	0	0	0	0	0	-0	0	546.215	550.972	324.944	201.657	-0.230895	0.26415	0.0193652	-0.0255564	-0.658787
7	-0.0149207	0.0190608	0.0339506	0.0180342	0.00198914	0.0171209	0.0256966	-0.0306999	0.00110526	-0.001431	-0.00341032	-0.00325643	0.0543839	-0.00233649	0.0158765	-2.20389	0.00270708	-1.5593	0	0	0	0	-0	0	0	0	-0.1265	0	-0	0	0	0	0	0	-0	0	0.105	0.015	0	0	-0	0	0	0.098	0.1	0	-0	0	0	0	0	0	-0	0	0.05595	0	0	0	-0	0	0	0	0	0	-0	0	546.628	550.893	325.003	201.696	-0.200952	0.098679	0.0197616	-0.0258048	-0.530696
8	-0.00774714	0.0193135	0.0338099	0.0182731	0.00181443	0.0171349	0.025692	-0.0306958	0.00112343	-0.00446143	-0.00850023	-0.00652124	0.0540469	-0.002307	0.0165441	-2.19734	0.0020564	-1.55978	0	0	0	0	-0	0	0	0	-0.1265	0	-0	0	0	0	0	0	-0	0	0.105	0.015	0	0	-0	0	0	0.098	0.1	0	-0	0	0	0	0	0	-0	0	0.05595	0	0	0	-0	0	0	0	0	0	-0	0	547.683	550.758	325.141	201.808	-0.187214	-0.0942144	0.0224868	-0.0260094	-0.0672959
9	-0.019807	0.0196659	0.0336725	0.0184195	0.00162827	0.0171349	0.0256881	-0.0307024	0.00115587	0.0196498	-0.0142267	-0.0266984	0.053868	-0.00228353	0.0163563	-2.21065	0.00148786	-1.56044	0	0	0	0	-0	0	0	0	-0.1265	0	-0	0	0	0	0	0	-0	0	0.105	0.015	0	0	-0	0	0	0.098	0.1	0	-0	0	0	0	0	0	-0	0	0.05595	0	0	0	-0	0	0	0	0	0	-0	0	549.867	550.784	325.345	202.077	-0.185329	-0.341623	0.028325	-0.0262716	0.657777
10	-0.0171847	0.0199067	0.0335074	0.0186635	0.0014711	0.0171343	0.0257051	-0.0307059	0.00118957	0.01174	-0.00711336	0.0115239	0.0535803	-0.00227109	0.0168208	-2.20897	0.00116776	-1.5607	0	0	0	0	-0	0	0	0	-0.1265	0	-0	0	0	0	0	0	-0	0	0.105	0.015	0	0	-0	0	0	0.098	0.1	0	-0	0	0	0	0	0	-0	0	0.05595	0	0	0	-0	0	0	0	0	0	-0	0	551.609	550.986	325.356	202.272	-0.193319	-0.47138	0.0328898	-0.026583	1.08907
11	-0.0239562	0.020093	0.0333673	0.0188689	0.00140381	0.0170723	0.0257035	-0.0306819	0.00121315	0.0126519	-0.0397366	0.016622	0.0534062	-0.00228337	0.016813	-2.21713	0.00164225	-1.56028	0	0	0	0	-0	0	0	0	-0.1265	0	-0	0	0	0	0	0	-0	0	0.105	0.015	0	0	-0	0	0	0.098	0.1	0	-0	0	0	0	0	0	-0	0	0.05595	0	0	0	-0	0	0	0	0	0	-0	0	554.067	551.938	324.956	202.636	-0.218672	-0.490545	0.0375948	-0.0270586	1.31323
12	-0.0257406	0.0202249	0.033277	0.0189364	0.00136147	0.0170639	0.0256917	-0.0306872	0.00122585	-0.0130537	-0.0423957	0.0124618	0.0532705	-0.00227842	0.0169285	-2.21988	0.00210986	-1.55981	0	0	0	0	-0	0	0	0	-0.1265	0	-0	0	0	0	0	0	-0	0	0.105	0.015	0	0	-0	0	0	0.098	0.1	0	-0	0	0	0	0	0	-0	0	0.05595	0	0	0	-0	0	0	0	0	0	-0	0	555.744	552.806	324.478	202.917	-0.238454	-0.466478	0.0402037	-0.0273443	1.37235
13	-0.0107071	0.0202525	0.0332267	0.018997	0.00132883	0.0171093	0.025696	-0.030679	0.00123075	-0.0186167	-0.0626927	0.0188942	0.0529521	-0.00226294	0.0178129	-2.20522	0.00205056	-1.5596	0	0	0	0	-0	0	0	0	-0.1265	0	-0	0	0	0	0	0	-0	0	0.105	0.015	0	0	-0	0	0	0.098	0.1	0	-0	0	0	0	0	0	-0	0	0.05595	0	0	0	-0	0	0	0	0	0	-0	0	556.423	553.16	324.277	203.026	-0.244528	-0.464396	0.0411528	-0.0274227	1.40034
14	-0.00867462	0.020231	0.0331925	0.0190099	0.00132477	0.0171289	0.0256921	-0.0306744	0.00123507	-0.0165515	-0.0816219	0.0198427	0.0528075	-0.00225244	0.0180353	-2.20386	0.00248313	-1.55901	0	0	0	0	-0	0	0	0	-0.1265	0	-0	0	0	0	0	0	-0	0	0.105	0.015	0	0	-0	0	0	0.098	0.1	0	-0	0	0	0	0	0	-0	0	0.05595	0	0	0	-0	0	0	0	0	0	-0	0	557.502	553.95	323.826	203.256	-0.25493	-0.437934	0.0420085	-0.0275526	1.40267
15	-0.0179675	0.0203025	0.0330519	0.0191093	0.00134041	0.0171755	0.0257015	-0.0307002	0.00126141	-0.0435912	-0.0848958	0.0557237	0.0528254	-0.00223522	0.0177185	-2.21507	0.00415338	-1.5574	0	0	0	0	-0	0	0	0	-0.1265	0	-0	0	0	0	0	0	-0	0	0.105	0.015	0	0	-0	0	0	0.098	0.1	0	-0	0	0	0	0	0	-0	0	0.05595	0	0	0	-0	0	0	0	0	0	-0	0	559.592	556.003	322.455	204.023	-0.280758	-0.317915	0.0427162	-0.0278645	1.24452
16	-0.0220707	0.0203015	0.0329948	0.0192541	0.00133204	0.0171772	0.0256944	-0.0306796	0.00127209	-0.0524621	-0.0872872	0.0649168	0.0528769	-0.0022476	0.0175388	-2.21951	0.00456593	-1.55719	0	0	0	0	-0	0	0	0	-0.1265	0	-0	0	0	0	0	0	-0	0	0.105	0.015	0	0	-0	0	0	0.098	0.1	0	-0	0	0	0	0	0	-0	0	0.05595	0	0	0	-0	0	0	0	0	0	-0	0	559.901	556.33	322.263	204.121	-0.280534	-0.32753	0.0428364	-0.0280283	1.27515
17	-0.0245669	0.0203191	0.032946	0.0192428	0.00131473	0.0172413	0.0256908	-0.0306735	0.00127267	-0.0583228	-0.074782	0.0758029	0.052883	-0.00222901	0.0174569	-2.22239	0.00480529	-1.55696	0	0	0	0	-0	0	0	0	-0.1265	0	-0	0	0	0	0	0	-0	0	0.105	0.015	0	0	-0	0	0	0.098	0.1	0	-0	0	0	0	0	0	-0	0	0.05595	0	0	0	-0	0	0	0	0	0	-0	0	560.311	556.768	322.011	204.26	-0.279356	-0.342198	0.0427682	-0.0280522	1.31836
18	-0.0225671	0.0203011	0.0329078	0.019244	0.00128509	0.0173055	0.0256903	-0.0306721	0.00126843	-0.0571741	-0.0686173	0.0638164	0.0528313	-0.00221096	0.0175873	-2.22055	0.00481247	-1.55686	0	0	0	0	-0	0	0	0	-0.1265	0	-0	0	0	0	0	0	-0	0	0.105	0.015	0	0	-0	0	0	0.098	0.1	0	-0	0	0	0	0	0	-0	0	0.05595	0	0	0	-0	0	0	0	0	0	-0	0	560.48	556.952	321.908	204.316	-0.276375	-0.36071	0.0426375	-0.0280553	1.35478
19	-0.0209355	0.0202479	0.0328871	0.0192577	0.00128465	0.0173475	0.0256904	-0.0306703	0.00126894	-0.0596548	-0.0801057	0.0597736	0.0527786	-0.00220119	0.0176984	-2.21912	0.00492928	-1.55664	0	0	0	0	-0	0	0	0	-0.1265	0	-0	0	0	0	0	0	-0	0	0.105	0.015	0	0	-0	0	0	0.098	0.1	0	-0	0	0	0	0	0	-0	0	0.05595	0	0	0	-0	0	0	0	0	0	-0	0	560.703	557.206	321.765	204.396	-0.273719	-0.379149	0.0424339	-0.0280691	1.40324
20	-0.0494386	0.0202439	0.0328243	0.0193148	0.00129794	0.0173775	0.025687	-0.0306757	0.00129624	-0.0213571	-0.124623	0.0393744	0.0532194	-0.00219337	0.0162661	-2.24852	0.00610877	-1.55601	0	0	0	0	-0	0	0	0	-0.1265	0	-0	0	0	0	0	0	-0	0	0.105	0.015	0	0	-0	0	0	0.098	0.1	0	-0	0	0	0	0	0	-0	0	0.05595	0	0	0	-0	0	0	0	0	0	-0	0	561.53	558.219	321.114	204.769	-0.276295	-0.380834	0.0421296	-0.0281701	1.4665
21	-0.049504	0.0202176	0.0328127	0.0193141	0.00125699	0.0174324	0.0256878	-0.030668	0.00128231	-0.0209554	-0.128868	0.0364222	0.053202	-0.00218108	0.0162781	-2.24864	0.00609995	-1.55599	0	0	0	0	-0	0	0	0	-0.1265	0	-0	0	0	0	0	0	-0	0	0.105	0.015	0	0	-0	0	0	0.098	0.1	0	-0	0	0	0	0	0	-0	0	0.05595	0	0	0	-0	0	0	0	0	0	-0	0	561.567	558.266	321.087	204.783	-0.272018	-0.395572	0.0418869	-0.0281618	1.47629
22	-0.047502	0.0201815	0.0327961	0.0193247	0.00125943	0.0174593	0.0256881	-0.0306669	0.00127843	-0.0231356	-0.124004	0.0405073	0.0531531	-0.00217498	0.0163978	-2.24677	0.0061751	-1.55585	0	0	0	0	-0	0	0	0	-0.1265	0	-0	0	0	0	0	0	-0	0	0.105	0.015	0	0	-0	0	0	0.098	0.1	0	-0	0	0	0	0	0	-0	0	0.05595	0	0	0	-0	0	0	0	0	0	-0	0	561.688	558.429	320.994	204.835	-0.269169	-0.413078	0.041679	-0.0281795	1.51814
23	-0.0376495	0.0201647	0.0327652	0.019363	0.00127155	0.0174756	0.0256904	-0.0306664	0.00128366	-0.0156252	-0.140675	0.0305807	0.0529608	-0.00217139	0.0169542	-2.23731	0.00637666	-1.55544	0	0	0	0	-0	0	0	0	-0.1265	0	-0	0	0	0	0	0	-0	0	0.105	0.015	0	0	-0	0	0	0.098	0.1	0	-0	0	0	0	0	0	-0	0	0.05595	0	0	0	-0	0	0	0	0	0	-0	0	562.027	558.886	320.709	204.994	-0.26698	-0.438048	0.0414137	-0.0282225	1.60574
24	-0.0358666	0.0201414	0.0327552	0.0193827	0.00126963	0.0174849	0.0256903	-0.0306658	0.00128289	-0.0166856	-0.148709	0.0297456	0.0529193	-0.00216975	0.0170592	-2.23563	0.00645192	-1.55531	0	0	0	0	-0	0	0	0	-0.1265	0	-0	0	0	0	0	0	-0	0	0.105	0.015	0	0	-0	0	0	0.098	0.1	0	-0	0	0	0	0	0	-0	0	0.05595	0	0	0	-0	0	0	0	0	0	-0	0	562.118	559.017	320.628	205.036	-0.264823	-0.451153	0.0412568	-0.0282508	1.63645
25	-0.0462614	0.0201378	0.0327267	0.0194203	0.00128152	0.0174936	0.0256888	-0.030665	0.00128655	-0.00667569	-0.158672	0.0264659	0.0530682	-0.00216805	0.01654	-2.24645	0.0070283	-1.55498	0	0	0	0	-0	0	0	0	-0.1265	0	-0	0	0	0	0	0	-0	0	0.105	0.015	0	0	-0	0	0	0.098	0.1	0	-0	0	0	0	0	0	-0	0	0.05595	0	0	0	-0	0	0	0	0	0	-0	0	562.468	559.508	320.294	205.214	-0.263348	-0.470751	0.0409581	-0.0282987	1.71454
26	-0.0498667	0.0201237	0.0327213	0.0194278	0.00128294	0.0175088	0.0256895	-0.0306647	0.00128611	-0.00860826	-0.153467	0.0218768	0.0531167	-0.00216486	0.0163601	-2.25018	0.00719086	-1.55489	0	0	0	0	-0	0	0	0	-0.1265	0	-0	0	0	0	0	0	-0	0	0.105	0.015	0	0	-0	0	0	0.098	0.1	0	-0	0	0	0	0	0	-0	0	0.05595	0	0	0	-0	0	0	0	0	0	-0	0	562.56	559.649	320.2	205.262	-0.261026	-0.483789	0.0407503	-0.0283068	1.74545
27	-0.0476397	0.0201127	0.0327108	0.0194458	0.00128578	0.0175174	0.0256942	-0.0306699	0.00128655	-0.00464326	-0.155283	0.0405542	0.0530689	-0.00216322	0.0164913	-2.24811	0.00731662	-1.55471	0	0	0	0	-0	0	0	0	-0.1265	0	-0	0	0	0	0	0	-0	0	0.105	0.015	0	0	-0	0	0	0.098	0.1	0	-0	0	0	0	0	0	-0	0	0.05595	0	0	0	-0	0	0	0	0	0	-0	0	562.687	559.838	320.071	205.329	-0.259232	-0.497313	0.0405655	-0.0283277	1.78608
28	-0.042919	0.0200895	0.0327027	0.0194932	0.0013098	0.0174968	0.0256927	-0.0306665	0.00129311	-0.00772869	-0.155445	0.0503145	0.0529723	-0.00216998	0.0167593	-2.24374	0.00766637	-1.55428	0	0	0	0	-0	0	0	0	-0.1265	0	-0	0	0	0	0	0	-0	0	0.105	0.015	0	0	-0	0	0	0.098	0.1	0	-0	0	0	0	0	0	-0	0	0.05595	0	0	0	-0	0	0	0	0	0	-0	0	562.949	560.235	319.773	205.477	-0.258585	-0.508911	0.0402865	-0.0283938	1.84399
29	-0.049178	0.020111	0.0326795	0.0195137	0.00130977	0.0175025	0.0256913	-0.0306647	0.00129922	0.00209541	-0.166232	0.040047	0.0530591	-0.00216796	0.0164515	-2.25035	0.00813155	-1.554	0	0	0	0	-0	0	0	0	-0.1265	0	-0	0	0	0	0	0	-0	0	0.105	0.015	0	0	-0	0	0	0.098	0.1	0	-0	0	0	0	0	0	-0	0	0.05595	0	0	0	-0	0	0	0	0	0	-0	0	563.206	560.617	319.473	205.626	-0.257116	-0.525174	0.0400191	-0.0284284	1.90661
30	-0.0470201	0.02013	0.0326588	0.0195261	0.00129378	0.0175199	0.025691	-0.0306632	0.0013002	-0.00167723	-0.165727	0.0486243	0.0530154	-0.00216382	0.0165811	-2.24835	0.00823084	-1.55387	0	0	0	0	-0	0	0	0	-0.1265	0	-0	0	0	0	0	0	-0	0	0.105	0.015	0	0	-0	0	0	0.098	0.1	0	-0	0	0	0	0	0	-0	0	0.05595	0	0	0	-0	0	0	0	0	0	-0	0	563.311	560.779	319.349	205.687	-0.255182	-0.538849	0.039872	-0.0284432	1.94281
31	-0.0572368	0.0201415	0.0326291	0.0195602	0.00130419	0.0175309	0.025693	-0.0306626	0.00130516	-0.00508223	-0.176538	0.0395615	0.0531574	-0.00216284	0.0160716	-2.25913	0.00904904	-1.55336	0	0	0	0	-0	0	0	0	-0.1265	0	-0	0	0	0	0	0	-0	0	0.105	0.015	0	0	-0	0	0	0.098	0.1	0	-0	0	0	0	0	0	-0	0	0.05595	0	0	0	-0	0	0	0	0	0	-0	0	563.724	561.37	318.837	205.94	-0.253986	-0.558417	0.0394897	-0.028508	2.03356
32	-0.0405103	0.0201415	0.032612	0.0195918	0.00131628	0.0175294	0.0256997	-0.0306696	0.00132242	-0.0207059	-0.155746	0.0677072	0.0528636	-0.00216499	0.0169888	-2.24291	0.00938535	-1.55263	0	0	0	0	-0	0	0	0	-0.1265	0	-0	0	0	0	0	0	-0	0	0.105	0.015	0	0	-0	0	0	0.098	0.1	0	-0	0	0	0	0	0	-0	0	0.05595	0	0	0	-0	0	0	0	0	0	-0	0	564.078	561.891	318.354	206.172	-0.25172	-0.582875	0.0390778	-0.0285796	2.13211
33	-0.0403918	0.0201375	0.0326044	0.0196316	0.00129887	0.0175095	0.0256948	-0.0306613	0.00131921	-0.0254997	-0.161298	0.0647751	0.0528515	-0.00217073	0.0170062	-2.24293	0.00955933	-1.55249	0	0	0	0	-0	0	0	0	-0.1265	0	-0	0	0	0	0	0	-0	0	0.105	0.015	0	0	-0	0	0	0.098	0.1	0	-0	0	0	0	0	0	-0	0	0.05595	0	0	0	-0	0	0	0	0	0	-0	0	564.148	562.01	318.249	206.216	-0.249928	-0.595512	0.0389867	-0.0286448	2.16607
34	-0.0582035	0.0201542	0.0325824	0.0196409	0.00131096	0.0175244	0.0256964	-0.0306571	0.00131799	-0.0229878	-0.183592	0.065641	0.0531332	-0.00216726	0.0160874	-2.26116	0.0103972	-1.55219	0	0	0	0	-0	0	0	0	-0.1265	0	-0	0	0	0	0	0	-0	0	0.105	0.015	0	0	-0	0	0	0.098	0.1	0	-0	0	0	0	0	0	-0	0	0.05595	0	0	0	-0	0	0	0	0	0	-0	0	564.434	562.442	317.825	206.404	-0.247273	-0.621924	0.0386125	-0.028678	2.26328
35	-0.0565792	0.0201201	0.032611	0.0196153	0.00133292	0.0175226	0.0256945	-0.0306579	0.0013156	-0.0249417	-0.196411	0.0651064	0.0530877	-0.00216986	0.0161836	-2.25972	0.0106598	-1.55186	0	0	0	0	-0	0	0	0	-0.1265	0	-0	0	0	0	0	0	-0	0	0.105	0.015	0	0	-0	0	0	0.098	0.1	0	-0	0	0	0	0	0	-0	0	0.05595	0	0	0	-0	0	0	0	0	0	-0	0	564.565	562.661	317.608	206.499	-0.243805	-0.643933	0.0382116	-0.0286936	2.33199
36	-0.0596927	0.0201387	0.0325879	0.0196455	0.00133154	0.0175305	0.0256953	-0.0306552	0.00131949	-0.0197248	-0.218768	0.0635812	0.0531251	-0.00216685	0.0160353	-2.26315	0.0111164	-1.55155	0	0	0	0	-0	0	0	0	-0.1265	0	-0	0	0	0	0	0	-0	0	0.105	0.015	0	0	-0	0	0	0.098	0.1	0	-0	0	0	0	0	0	-0	0	0.05595	0	0	0	-0	0	0	0	0	0	-0	0	564.759	562.969	317.281	206.641	-0.240914	-0.671577	0.0379267	-0.0287257	2.42582
37	-0.0608143	0.020148	0.0325719	0.0196623	0.00132181	0.017539	0.0256919	-0.0306572	0.00132174	-0.030594	-0.219183	0.0673048	0.0531371	-0.00216516	0.015986	-2.26441	0.0113078	-1.55142	0	0	0	0	-0	0	0	0	-0.1265	0	-0	0	0	0	0	0	-0	0	0.105	0.015	0	0	-0	0	0	0.098	0.1	0	-0	0	0	0	0	0	-0	0	0.05595	0	0	0	-0	0	0	0	0	0	-0	0	564.836	563.098	317.144	206.697	-0.238521	-0.689979	0.0377785	-0.0287496	2.47705
38	-0.0684089	0.0201603	0.0325409	0.0197057	0.0013299	0.017557	0.0256959	-0.0306546	0.00132952	-0.0272275	-0.24095	0.0585474	0.0532378	-0.00216246	0.0156082	-2.27251	0.0121653	-1.55086	0	0	0	0	-0	0	0	0	-0.1265	0	-0	0	0	0	0	0	-0	0	0.105	0.015	0	0	-0	0	0	0.098	0.1	0	-0	0	0	0	0	0	-0	0	0.05595	0	0	0	-0	0	0	0	0	0	-0	0	565.154	563.563	316.578	206.933	-0.234579	-0.732699	0.0374061	-0.0288054	2.62958
39	-0.0633289	0.0201671	0.032519	0.0197362	0.00131975	0.0175599	0.0256932	-0.0306532	0.00133076	-0.0276449	-0.249056	0.0634082	0.0531471	-0.00216289	0.0158951	-2.26769	0.0124536	-1.55047	0	0	0	0	-0	0	0	0	-0.1265	0	-0	0	0	0	0	0	-0	0	0.105	0.015	0	0	-0	0	0	0.098	0.1	0	-0	0	0	0	0	0	-0	0	0.05595	0	0	0	-0	0	0	0	0	0	-0	0	565.302	563.804	316.282	207.045	-0.23064	-0.767288	0.0371584	-0.028858	2.7365
40	-0.0695354	0.0201582	0.032517	0.0197389	0.00132141	0.0175728	0.0256917	-0.0306531	0.00133093	-0.022774	-0.247745	0.0626191	0.0532386	-0.00216056	0.0155741	-2.27399	0.0127269	-1.5504	0	0	0	0	-0	0	0	0	-0.1265	0	-0	0	0	0	0	0	-0	0	0.105	0.015	0	0	-0	0	0	0.098	0.1	0	-0	0	0	0	0	0	-0	0	0.05595	0	0	0	-0	0	0	0	0	0	-0	0	565.362	563.902	316.159	207.092	-0.227746	-0.786323	0.0369646	-0.0288682	2.78588
41	-0.0517348	0.0201571	0.0325003	0.0197659	0.00133057	0.0175883	0.0256905	-0.0306589	0.00133525	-0.0462816	-0.243466	0.0717044	0.052943	-0.00215825	0.0165429	-2.2566	0.0129996	-1.54958	0	0	0	0	-0	0	0	0	-0.1265	0	-0	0	0	0	0	0	-0	0	0.105	0.015	0	0	-0	0	0	0.098	0.1	0	-0	0	0	0	0	0	-0	0	0.05595	0	0	0	-0	0	0	0	0	0	-0	0	565.607	564.261	315.65	207.283	-0.222744	-0.835552	0.0366044	-0.0289145	2.95167
42	-0.0365578	0.0201243	0.0325104	0.0197951	0.00136156	0.0175919	0.025696	-0.0306667	0.00135492	-0.0185057	-0.266143	0.0400801	0.0526613	-0.00216115	0.0173691	-2.24199	0.0136725	-1.54839	0	0	0	0	-0	0	0	0	-0.1265	0	-0	0	0	0	0	0	-0	0	0.105	0.015	0	0	-0	0	0	0.098	0.1	0	-0	0	0	0	0	0	-0	0	0.05595	0	0	0	-0	0	0	0	0	0	-0	0	565.949	564.748	314.866	207.565	-0.216108	-0.89909	0.0360361	-0.0289924	3.17518
43	-0.0379777	0.0201507	0.0324684	0.0198636	0.00132081	0.0175864	0.0256946	-0.0306527	0.00135186	-0.0168474	-0.266764	0.0318031	0.0526799	-0.00216081	0.0173069	-2.24353	0.0138554	-1.54831	0	0	0	0	-0	0	0	0	-0.1265	0	-0	0	0	0	0	0	-0	0	0.105	0.015	0	0	-0	0	0	0.098	0.1	0	-0	0	0	0	0	0	-0	0	0.05595	0	0	0	-0	0	0	0	0	0	-0	0	565.993	564.825	314.751	207.599	-0.213701	-0.919643	0.036042	-0.029054	3.22773
44	-0.0493002	0.020159	0.0324467	0.0198724	0.00132502	0.017601	0.0256946	-0.0306523	0.00135057	-0.00369455	-0.26299	0.0205902	0.0528581	-0.00215874	0.0167276	-2.25516	0.0146918	-1.54792	0	0	0	0	-0	0	0	0	-0.1265	0	-0	0	0	0	0	0	-0	0	0.105	0.015	0	0	-0	0	0	0.098	0.1	0	-0	0	0	0	0	0	-0	0	0.05595	0	0	0	-0	0	0	0	0	0	-0	0	566.174	565.099	314.277	207.743	-0.207269	-0.980898	0.0357212	-0.0290997	3.42209
45	-0.0398747	0.0201431	0.0324442	0.0198909	0.00133864	0.0176055	0.0256944	-0.0306491	0.00135048	-0.00631409	-0.263046	0.0118472	0.0526831	-0.00215971	0.0172396	-2.24599	0.0150417	-1.54723	0	0	0	0	-0	0	0	0	-0.1265	0	-0	0	0	0	0	0	-0	0	0.105	0.015	0	0	-0	0	0	0.098	0.1	0	-0	0	0	0	0	0	-0	0	0.05595	0	0	0	-0	0	0	0	0	0	-0	0	566.328	565.343	313.833	207.871	-0.200705	-1.03997	0.0353463	-0.0291446	3.60938
46	-0.041572	0.0201334	0.0324481	0.0198905	0.00134116	0.0176115	0.0256954	-0.0306482	0.00135053	-0.012756	-0.273073	0.0133841	0.0527027	-0.00215845	0.0171582	-2.2478	0.015305	-1.54701	0	0	0	0	-0	0	0	0	-0.1265	0	-0	0	0	0	0	0	-0	0	0.105	0.015	0	0	-0	0	0	0.098	0.1	0	-0	0	0	0	0	0	-0	0	0.05595	0	0	0	-0	0	0	0	0	0	-0	0	566.387	565.442	313.645	207.923	-0.196625	-1.07134	0.035117	-0.0291617	3.6996
47	-0.045336	0.0201335	0.0324348	0.0199141	0.00133822	0.0176158	0.025695	-0.0306478	0.00135335	-0.00441688	-0.268848	0.00497455	0.0527596	-0.00215758	0.0169694	-2.25171	0.0157221	-1.54676	0	0	0	0	-0	0	0	0	-0.1265	0	-0	0	0	0	0	0	-0	0	0.105	0.015	0	0	-0	0	0	0.098	0.1	0	-0	0	0	0	0	0	-0	0	0.05595	0	0	0	-0	0	0	0	0	0	-0	0	566.467	565.575	313.382	207.991	-0.19216	-1.11208	0.0349216	-0.0291941	3.82492
48	-0.0348586	0.0201342	0.0324011	0.0199795	0.00135365	0.0176267	0.0257023	-0.0306567	0.00136283	-0.0244439	-0.27687	0.0298324	0.0525585	-0.00215753	0.0175483	-2.24183	0.0169694	-1.54517	0	0	0	0	-0	0	0	0	-0.1265	0	-0	0	0	0	0	0	-0	0	0.105	0.015	0	0	-0	0	0	0.098	0.1	0	-0	0	0	0	0	0	-0	0	0.05595	0	0	0	-0	0	0	0	0	0	-0	0	566.816	566.023	312.186	208.285	-0.180507	-1.23888	0.034471	-0.0293195	4.25427
49	-0.043521	0.0201012	0.0324097	0.0200307	0.00136202	0.0175879	0.0256977	-0.0306467	0.00136597	-0.0168725	-0.282725	0.0345161	0.0527034	-0.00216871	0.0170972	-2.25057	0.0174825	-1.54502	0	0	0	0	-0	0	0	0	-0.1265	0	-0	0	0	0	0	0	-0	0	0.105	0.015	0	0	-0	0	0	0.098	0.1	0	-0	0	0	0	0	0	-0	0	0.05595	0	0	0	-0	0	0	0	0	0	-0	0	566.854	566.098	312.005	208.32	-0.177033	-1.2686	0.0343133	-0.0293915	4.3478
50	-0.0265272	0.0201167	0.0323944	0.0200374	0.00136533	0.0176063	0.025704	-0.0306434	0.00137558	-0.00974735	-0.310288	0.018755	0.052395	-0.00216425	0.018013	-2.23388	0.0179246	-1.54387	0	0	0	0	-0	0	0	0	-0.1265	0	-0	0	0	0	0	0	-0	0	0.105	0.015	0	0	-0	0	0	0.098	0.1	0	-0	0	0	0	0	0	-0	0	0.05595	0	0	0	-0	0	0	0	0	0	-0	0	567.023	566.347	311.267	208.464	-0.166055	-1.37496	0.0338955	-0.0294359	4.68661
51	-0.0148088	0.020115	0.0323903	0.0200525	0.00134675	0.0175985	0.0256977	-0.0306409	0.00137193	0.000605285	-0.320698	0.0225551	0.0521686	-0.00216689	0.0186404	-2.2223	0.0181007	-1.54316	0	0	0	0	-0	0	0	0	-0.1265	0	-0	0	0	0	0	0	-0	0	0.105	0.015	0	0	-0	0	0	0.098	0.1	0	-0	0	0	0	0	0	-0	0	0.05595	0	0	0	-0	0	0	0	0	0	-0	0	567.098	566.48	310.874	208.527	-0.158184	-1.44538	0.0336081	-0.0294952	4.9023
52	-0.0169402	0.0201091	0.0323895	0.0200605	0.00135396	0.0176171	0.0257002	-0.0306511	0.00137383	0.0270274	-0.3125	0.0102768	0.0521894	-0.00216359	0.0185442	-2.22463	0.0188625	-1.54245	0	0	0	0	-0	0	0	0	-0.1265	0	-0	0	0	0	0	0	-0	0	0.105	0.015	0	0	-0	0	0	0.098	0.1	0	-0	0	0	0	0	0	-0	0	0.05595	0	0	0	-0	0	0	0	0	0	-0	0	567.208	566.655	310.272	208.623	-0.147116	-1.54691	0.0331735	-0.0295235	5.21851
53	-0.00750379	0.0200964	0.0323701	0.0201351	0.00135816	0.017605	0.0256995	-0.0306417	0.00138161	0.0309137	-0.315315	-0.00289752	0.0520062	-0.00216757	0.0190449	-2.21534	0.0192038	-1.54167	0	0	0	0	-0	0	0	0	-0.1265	0	-0	0	0	0	0	0	-0	0	0.105	0.015	0	0	-0	0	0	0.098	0.1	0	-0	0	0	0	0	0	-0	0	0.05595	0	0	0	-0	0	0	0	0	0	-0	0	567.279	566.781	309.794	208.686	-0.139171	-1.62484	0.0329186	-0.0295884	5.46774
54	-0.0162868	0.0201078	0.032347	0.020158	0.00134995	0.0176209	0.0257028	-0.0306447	0.00138426	0.0103768	-0.327912	0.0058376	0.0521574	-0.00216424	0.0186057	-2.22431	0.0203249	-1.54095	0	0	0	0	-0	0	0	0	-0.1265	0	-0	0	0	0	0	0	-0	0	0.105	0.015	0	0	-0	0	0	0.098	0.1	0	-0	0	0	0	0	0	-0	0	0.05595	0	0	0	-0	0	0	0	0	0	-0	0	567.391	566.947	309.06	208.775	-0.126493	-1.74755	0.0325414	-0.0296451	5.85395
55	-0.0224938	0.0200889	0.0323378	0.0202066	0.00135289	0.0176093	0.0257054	-0.0306439	0.00138312	4.30721e-05	-0.319453	-0.0141195	0.0522608	-0.00216873	0.0182925	-2.23063	0.0212524	-1.54033	0	0	0	0	-0	0	0	0	-0.1265	0	-0	0	0	0	0	0	-0	0	0.105	0.015	0	0	-0	0	0	0.098	0.1	0	-0	0	0	0	0	0	-0	0	0.05595	0	0	0	-0	0	0	0	0	0	-0	0	567.462	567.065	308.478	208.832	-0.115988	-1.84867	0.0322147	-0.0297199	6.1754
56	-0.0162806	0.0200587	0.0323538	0.020229	0.00137127	0.0175853	0.0257022	-0.0306392	0.00139001	-0.0133546	-0.325058	-0.00372202	0.052138	-0.00217571	0.0186217	-2.22449	0.0216544	-1.53959	0	0	0	0	-0	0	0	0	-0.1265	0	-0	0	0	0	0	0	-0	0	0.105	0.015	0	0	-0	0	0	0.098	0.1	0	-0	0	0	0	0	0	-0	0	0.05595	0	0	0	-0	0	0	0	0	0	-0	0	567.503	567.152	308.024	208.87	-0.107455	-1.92804	0.0318727	-0.0297771	6.43003
57	-0.0145597	0.0200819	0.0323259	0.0202515	0.00135634	0.0176046	0.025701	-0.0306349	0.00139426	-0.0224745	-0.331273	0.00818015	0.0520957	-0.0021698	0.0187277	-2.22288	0.0224065	-1.53874	0	0	0	0	-0	0	0	0	-0.1265	0	-0	0	0	0	0	0	-0	0	0.105	0.015	0	0	-0	0	0	0.098	0.1	0	-0	0	0	0	0	0	-0	0	0.05595	0	0	0	-0	0	0	0	0	0	-0	0	567.57	567.256	307.329	208.92	-0.0946793	-2.05238	0.0315429	-0.0298216	6.82015
58	-0.0141727	0.0200887	0.0322888	0.0202978	0.00134476	0.0176277	0.0256978	-0.0306361	0.00139659	0.00169588	-0.337535	0.00964448	0.0520736	-0.00216558	0.0187681	-2.22263	0.0236808	-1.53742	0	0	0	0	-0	0	0	0	-0.1265	0	-0	0	0	0	0	0	-0	0	0.105	0.015	0	0	-0	0	0	0.098	0.1	0	-0	0	0	0	0	0	-0	0	0.05595	0	0	0	-0	0	0	0	0	0	-0	0	567.662	567.382	306.252	208.985	-0.0751532	-2.24509	0.0310637	-0.0299117	7.43175
59	-0.0166673	0.0200684	0.032284	0.0203211	0.00134459	0.017645	0.0256995	-0.0306326	0.00140236	0.0175812	-0.33548	-0.0013495	0.0521107	-0.00216304	0.0186504	-2.22517	0.024314	-1.53688	0	0	0	0	-0	0	0	0	-0.1265	0	-0	0	0	0	0	0	-0	0	0.105	0.015	0	0	-0	0	0	0.098	0.1	0	-0	0	0	0	0	0	-0	0	0.05595	0	0	0	-0	0	0	0	0	0	-0	0	567.692	567.438	305.784	209.004	-0.0642421	-2.34195	0.0307142	-0.0299512	7.72588
60	-0.0194689	0.0200629	0.0322567	0.0203563	0.00133061	0.0176626	0.0257097	-0.0306358	0.00140294	0.0142385	-0.347193	0.0253863	0.0521525	-0.0021592	0.0185205	-2.22802	0.025195	-1.53615	0	0	0	0	-0	0	0	0	-0.1265	0	-0	0	0	0	0	0	-0	0	0.105	0.015	0	0	-0	0	0	0.098	0.1	0	-0	0	0	0	0	0	-0	0	0.05595	0	0	0	-0	0	0	0	0	0	-0	0	567.732	567.504	305.126	209.024	-0.0499858	-2.47738	0.0303599	-0.0300176	8.14695
61	-0.0429831	0.0200028	0.0322481	0.0204447	0.00135574	0.0176184	0.0257119	-0.0306311	0.00142706	-0.000731002	-0.32392	0.0526971	0.0525743	-0.00217313	0.0173027	-2.25156	0.027992	-1.53477	0	0	0	0	-0	0	0	0	-0.1265	0	-0	0	0	0	0	0	-0	0	0.105	0.015	0	0	-0	0	0	0.098	0.1	0	-0	0	0	0	0	0	-0	0	0.05595	0	0	0	-0	0	0	0	0	0	-0	0	567.78	567.588	303.59	209.052	-0.0226794	-2.75223	0.0296413	-0.0302222	9.04575
62	-0.0270867	0.0199892	0.0322557	0.0204374	0.00133194	0.0176087	0.0257053	-0.0306226	0.0014219	-0.00221617	-0.331208	0.0482112	0.0522809	-0.00217368	0.0181544	-2.23568	0.0279268	-1.53384	0	0	0	0	-0	0	0	0	-0.1265	0	-0	0	0	0	0	0	-0	0	0.105	0.015	0	0	-0	0	0	0.098	0.1	0	-0	0	0	0	0	0	-0	0	0.05595	0	0	0	-0	0	0	0	0	0	-0	0	567.79	567.623	303.189	209.044	-0.0116957	-2.84663	0.0293186	-0.0302899	9.3288
63	-0.028252	0.0199813	0.032264	0.0204099	0.00132599	0.0176358	0.025704	-0.0306226	0.00141882	0.00530198	-0.331454	0.0329375	0.0522835	-0.00216689	0.0181079	-2.23683	0.0286019	-1.5332	0	0	0	0	-0	0	0	0	-0.1265	0	-0	0	0	0	0	0	-0	0	0.105	0.015	0	0	-0	0	0	0.098	0.1	0	-0	0	0	0	0	0	-0	0	0.05595	0	0	0	-0	0	0	0	0	0	-0	0	567.8	567.657	302.634	209.035	0.00274494	-2.97548	0.0288589	-0.0303198	9.72308
64	-0.0161054	0.0199811	0.0322238	0.0204581	0.00131699	0.0176554	0.0257035	-0.0306251	0.00142533	-0.0163493	-0.33142	0.0505167	0.0520523	-0.0021617	0.0187574	-2.22467	0.0291573	-1.53183	0	0	0	0	-0	0	0	0	-0.1265	0	-0	0	0	0	0	0	-0	0	0.105	0.015	0	0	-0	0	0	0.098	0.1	0	-0	0	0	0	0	0	-0	0	0.05595	0	0	0	-0	0	0	0	0	0	-0	0	567.804	567.693	301.785	209.018	0.0222465	-3.16465	0.0283874	-0.030403	10.3197
65	-0.0352454	0.0199528	0.0321931	0.020517	0.00132097	0.0176649	0.0257098	-0.030618	0.00144311	-0.0361458	-0.298453	0.0746571	0.0523935	-0.0021611	0.0177769	-2.24374	0.0314928	-1.53076	0	0	0	0	-0	0	0	0	-0.1265	0	-0	0	0	0	0	0	-0	0	0.105	0.015	0	0	-0	0	0	0.098	0.1	0	-0	0	0	0	0	0	-0	0	0.05595	0	0	0	-0	0	0	0	0	0	-0	0	567.793	567.71	300.481	208.984	0.0512558	-3.44809	0.0276764	-0.030551	11.2236
66	-0.0422006	0.0199391	0.0321642	0.020545	0.00129143	0.0176648	0.0257081	-0.030616	0.00143989	-0.0397437	-0.292782	0.0926336	0.0525019	-0.00215985	0.0174283	-2.25066	0.0324811	-1.53031	0	0	0	0	-0	0	0	0	-0.1265	0	-0	0	0	0	0	0	-0	0	0.105	0.015	0	0	-0	0	0	0.098	0.1	0	-0	0	0	0	0	0	-0	0	0.05595	0	0	0	-0	0	0	0	0	0	-0	0	567.781	567.729	299.919	208.951	0.0667743	-3.58862	0.0273041	-0.0306617	11.6502
67	-0.0392872	0.0199112	0.0321412	0.0205805	0.00129652	0.017669	0.0257112	-0.0306192	0.00143802	-0.0514465	-0.297382	0.075055	0.0524381	-0.00215899	0.0175929	-2.24767	0.0333406	-1.52924	0	0	0	0	-0	0	0	0	-0.1265	0	-0	0	0	0	0	0	-0	0	0.105	0.015	0	0	-0	0	0	0.098	0.1	0	-0	0	0	0	0	0	-0	0	0.05595	0	0	0	-0	0	0	0	0	0	-0	0	567.757	567.743	299.136	208.907	0.0867046	-3.77593	0.0267657	-0.0307718	12.2366
68	-0.0719518	0.0198644	0.032109	0.0206493	0.001324	0.0176439	0.02571	-0.0306155	0.00144622	-0.0681088	-0.30001	0.0951519	0.0529998	-0.00216541	0.0158882	-2.28014	0.0369191	-1.5282	0	0	0	0	-0	0	0	0	-0.1265	0	-0	0	0	0	0	0	-0	0	0.105	0.015	0	0	-0	0	0	0.098	0.1	0	-0	0	0	0	0	0	-0	0	0.05595	0	0	0	-0	0	0	0	0	0	-0	0	567.66	567.701	297.393	208.822	0.126619	-4.16814	0.0257332	-0.0310219	13.4994
69	-0.0980421	0.019754	0.032171	0.0205834	0.00136731	0.0176294	0.0257223	-0.0306292	0.00146297	-0.0462161	-0.322404	0.0505534	0.0533703	-0.00217124	0.0145225	-2.30589	0.0412606	-1.52612	0	0	0	0	-0	0	0	0	-0.1265	0	-0	0	0	0	0	0	-0	0	0.105	0.015	0	0	-0	0	0	0.098	0.1	0	-0	0	0	0	0	0	-0	0	0.05595	0	0	0	-0	0	0	0	0	0	-0	0	567.449	567.488	294.908	208.709	0.189775	-4.77583	0.0240722	-0.0313811	15.4404
70	-0.0961041	0.0196979	0.0321602	0.0206412	0.00135059	0.0175379	0.025716	-0.0306093	0.00145799	-0.0334147	-0.310656	0.0506637	0.0533284	-0.00218516	0.0146327	-2.3039	0.0420174	-1.52539	0	0	0	0	-0	0	0	0	-0.1265	0	-0	0	0	0	0	0	-0	0	0.105	0.015	0	0	-0	0	0	0.098	0.1	0	-0	0	0	0	0	0	-0	0	0.05595	0	0	0	-0	0	0	0	0	0	-0	0	567.367	567.466	294.369	208.646	0.206888	-4.92803	0.0236232	-0.0316278	15.9089
71	-0.118572	0.019717	0.0320614	0.0206668	0.00135546	0.0175501	0.0257078	-0.0305969	0.00145738	-0.0262859	-0.305965	0.047992	0.0536467	-0.00217601	0.0134469	-2.32606	0.0456055	-1.52414	0	0	0	0	-0	0	0	0	-0.1265	0	-0	0	0	0	0	0	-0	0	0.105	0.015	0	0	-0	0	0	0.098	0.1	0	-0	0	0	0	0	0	-0	0	0.05595	0	0	0	-0	0	0	0	0	0	-0	0	567.034	567.237	292.382	208.494	0.265677	-5.48643	0.0222406	-0.0319695	17.6427
72	-0.101851	0.0196542	0.0320459	0.0206104	0.00138082	0.0175838	0.0256995	-0.0306058	0.00143739	0.0174222	-0.337238	0.0498393	0.0533966	-0.0021675	0.0143632	-2.30906	0.0470761	-1.52135	0	0	0	0	-0	0	0	0	-0.1265	0	-0	0	0	0	0	0	-0	0	0.105	0.015	0	0	-0	0	0	0.098	0.1	0	-0	0	0	0	0	0	-0	0	0.05595	0	0	0	-0	0	0	0	0	0	-0	0	566.644	566.911	290.644	208.381	0.327644	-6.05796	0.0207515	-0.0323279	19.3877
73	-0.131866	0.0195213	0.032101	0.020567	0.00144788	0.0175813	0.0257158	-0.0306014	0.00144267	0.0344224	-0.316587	0.0486212	0.0538102	-0.00216899	0.0127643	-2.33892	0.050082	-1.52126	0	0	0	0	-0	0	0	0	-0.1265	0	-0	0	0	0	0	0	-0	0	0.105	0.015	0	0	-0	0	0	0.098	0.1	0	-0	0	0	0	0	0	-0	0	0.05595	0	0	0	-0	0	0	0	0	0	-0	0	566.296	566.591	289.479	208.328	0.374229	-6.48069	0.0195646	-0.0326328	20.6737
74	-0.149704	0.0194037	0.0321616	0.0205246	0.00146368	0.0175297	0.0257204	-0.0305967	0.00145026	0.0350014	-0.339452	0.0312086	0.0540107	-0.00218063	0.011814	-2.35664	0.0521159	-1.52111	0	0	0	0	-0	0	0	0	-0.1265	0	-0	0	0	0	0	0	-0	0	0.105	0.015	0	0	-0	0	0	0.098	0.1	0	-0	0	0	0	0	0	-0	0	0.05595	0	0	0	-0	0	0	0	0	0	-0	0	566.008	566.335	288.691	208.288	0.410965	-6.8036	0.0186433	-0.0329597	21.6406
75	-0.145162	0.0194088	0.0320698	0.0205822	0.00146849	0.017513	0.02573	-0.0305821	0.00146039	0.0239101	-0.29364	0.038929	0.0539545	-0.00217948	0.0120565	-2.35209	0.0533087	-1.5198	0	0	0	0	-0	0	0	0	-0.1265	0	-0	0	0	0	0	0	-0	0	0.105	0.015	0	0	-0	0	0	0.098	0.1	0	-0	0	0	0	0	0	-0	0	0.05595	0	0	0	-0	0	0	0	0	0	-0	0	565.535	565.922	287.673	208.291	0.457295	-7.24026	0.0179064	-0.0332987	22.9608
76	-0.11386	0.019405	0.0319406	0.0207011	0.0014999	0.017499	0.0257232	-0.0306058	0.00151095	0.0685741	-0.333537	-0.00930747	0.053601	-0.00218491	0.0137064	-2.32112	0.0538669	-1.51642	0	0	0	0	-0	0	0	0	-0.1265	0	-0	0	0	0	0	0	-0	0	0.105	0.015	0	0	-0	0	0	0.098	0.1	0	-0	0	0	0	0	0	-0	0	0.05595	0	0	0	-0	0	0	0	0	0	-0	0	564.492	564.959	286.124	208.562	0.539457	-8.02705	0.0167803	-0.0338872	25.3605
77	-0.112078	0.0193942	0.0318708	0.0207895	0.00151696	0.0175067	0.0257179	-0.0305881	0.0014966	0.0858874	-0.337374	-0.0264165	0.0535598	-0.00218591	0.0138085	-2.31947	0.0541112	-1.51603	0	0	0	0	-0	0	0	0	-0.1265	0	-0	0	0	0	0	0	-0	0	0.105	0.015	0	0	-0	0	0	0.098	0.1	0	-0	0	0	0	0	0	-0	0	0.05595	0	0	0	-0	0	0	0	0	0	-0	0	564.349	564.828	285.884	208.595	0.552142	-8.14854	0.0168754	-0.0340148	25.7117
78	-0.0988709	0.0194024	0.0318079	0.0208255	0.0015515	0.0175682	0.0257178	-0.0305894	0.00148679	0.107615	-0.32761	-0.0258481	0.0533686	-0.00217478	0.0145137	-2.30637	0.0536921	-1.51501	0	0	0	0	-0	0	0	0	-0.1265	0	-0	0	0	0	0	0	-0	0	0.105	0.015	0	0	-0	0	0	0.098	0.1	0	-0	0	0	0	0	0	-0	0	0.05595	0	0	0	-0	0	0	0	0	0	-0	0	564.146	564.626	285.606	208.668	0.569265	-8.304	0.0166669	-0.0340917	26.1656
79	-0.0983584	0.0193278	0.0318146	0.0208552	0.00160781	0.0175966	0.0257071	-0.0305931	0.00148792	0.152592	-0.351982	-0.0436533	0.053365	-0.00217526	0.0145156	-2.30618	0.0543473	-1.51427	0	0	0	0	-0	0	0	0	-0.1265	0	-0	0	0	0	0	0	-0	0	0.105	0.015	0	0	-0	0	0	0.098	0.1	0	-0	0	0	0	0	0	-0	0	0.05595	0	0	0	-0	0	0	0	0	0	-0	0	563.674	564.109	285.105	208.92	0.602969	-8.62577	0.0162217	-0.0343265	27.1579
80	-0.119886	0.0193009	0.031766	0.0209038	0.00166675	0.0176856	0.0257208	-0.0305897	0.00148532	0.143476	-0.362447	-0.0190155	0.0536921	-0.00215934	0.0133401	-2.32815	0.0560062	-1.515	0	0	0	0	-0	0	0	0	-0.1265	0	-0	0	0	0	0	0	-0	0	0.105	0.015	0	0	-0	0	0	0.098	0.1	0	-0	0	0	0	0	0	-0	0	0.05595	0	0	0	-0	0	0	0	0	0	-0	0	563.222	563.554	284.721	209.224	0.631427	-8.91883	0.0161864	-0.0344363	28.077
81	-0.12215	0.019223	0.03183	0.0208856	0.00167944	0.0176628	0.0257191	-0.030583	0.00148306	0.147922	-0.351969	-0.0158588	0.0537037	-0.00217078	0.0132211	-2.33048	0.0562899	-1.51488	0	0	0	0	-0	0	0	0	-0.1265	0	-0	0	0	0	0	0	-0	0	0.105	0.015	0	0	-0	0	0	0.098	0.1	0	-0	0	0	0	0	0	-0	0	0.05595	0	0	0	-0	0	0	0	0	0	-0	0	563.122	563.432	284.651	209.289	0.640398	-8.98549	0.0159492	-0.0345748	28.2656
82	-0.117499	0.019242	0.0317938	0.0209043	0.00169132	0.0176871	0.0257176	-0.0305826	0.00148497	0.160311	-0.344464	-0.0232004	0.0536457	-0.00216442	0.0134638	-2.32598	0.0561252	-1.51455	0	0	0	0	-0	0	0	0	-0.1265	0	-0	0	0	0	0	0	-0	0	0.105	0.015	0	0	-0	0	0	0.098	0.1	0	-0	0	0	0	0	0	-0	0	0.05595	0	0	0	-0	0	0	0	0	0	-0	0	562.977	563.269	284.56	209.385	0.648795	-9.06875	0.0159513	-0.0346194	28.5201
83	-0.131178	0.0192375	0.0317686	0.0209407	0.00171035	0.0177188	0.0257169	-0.0305788	0.00148868	0.16727	-0.357492	-0.0295212	0.0538377	-0.00216087	0.0127156	-2.33989	0.0570605	-1.51518	0	0	0	0	-0	0	0	0	-0.1265	0	-0	0	0	0	0	0	-0	0	0.105	0.015	0	0	-0	0	0	0.098	0.1	0	-0	0	0	0	0	0	-0	0	0.05595	0	0	0	-0	0	0	0	0	0	-0	0	562.768	563.025	284.435	209.534	0.660411	-9.18703	0.0159562	-0.034688	28.8896
84	-0.128627	0.0192407	0.0317586	0.0209422	0.00171555	0.0177524	0.0257164	-0.0305795	0.00148651	0.168115	-0.361717	-0.020067	0.053801	-0.0021561	0.0128511	-2.33743	0.0569556	-1.51498	0	0	0	0	-0	0	0	0	-0.1265	0	-0	0	0	0	0	0	-0	0	0.105	0.015	0	0	-0	0	0	0.098	0.1	0	-0	0	0	0	0	0	-0	0	0.05595	0	0	0	-0	0	0	0	0	0	-0	0	562.685	562.921	284.388	209.598	0.665599	-9.23758	0.0159699	-0.0346973	29.0413
85	-0.11645	0.0192355	0.0317404	0.020969	0.00172848	0.0177742	0.0257186	-0.0305817	0.00149008	0.166201	-0.356897	-0.00382119	0.0536474	-0.00215352	0.0134982	-2.32539	0.0563543	-1.51421	0	0	0	0	-0	0	0	0	-0.1265	0	-0	0	0	0	0	0	-0	0	0.105	0.015	0	0	-0	0	0	0.098	0.1	0	-0	0	0	0	0	0	-0	0	0.05595	0	0	0	-0	0	0	0	0	0	-0	0	562.571	562.78	284.326	209.689	0.672005	-9.30364	0.0159929	-0.034736	29.2488
86	-0.127266	0.0191988	0.0317464	0.0210007	0.00174955	0.0177856	0.025718	-0.0305789	0.00149091	0.169177	-0.364208	-0.00211205	0.0538022	-0.0021554	0.0128975	-2.3365	0.0571712	-1.51463	0	0	0	0	-0	0	0	0	-0.1265	0	-0	0	0	0	0	0	-0	0	0.105	0.015	0	0	-0	0	0	0.098	0.1	0	-0	0	0	0	0	0	-0	0	0.05595	0	0	0	-0	0	0	0	0	0	-0	0	562.325	562.478	284.201	209.893	0.685239	-9.44269	0.0159986	-0.0348381	29.6986
87	-0.125027	0.0191873	0.0317448	0.0210097	0.00176273	0.0178127	0.025718	-0.0305808	0.00149388	0.181043	-0.372446	-0.0165115	0.0537752	-0.00215173	0.0130083	-2.33446	0.0571309	-1.5144	0	0	0	0	-0	0	0	0	-0.1265	0	-0	0	0	0	0	0	-0	0	0.105	0.015	0	0	-0	0	0	0.098	0.1	0	-0	0	0	0	0	0	-0	0	0.05595	0	0	0	-0	0	0	0	0	0	-0	0	562.169	562.276	284.13	210.029	0.693868	-9.53279	0.0160346	-0.0348758	29.9855
88	-0.120522	0.0191765	0.0317202	0.0210581	0.00178158	0.0178418	0.0257203	-0.0305829	0.00149594	0.165801	-0.379287	-0.0113098	0.0537287	-0.00214871	0.0132307	-2.33027	0.0570314	-1.51402	0	0	0	0	-0	0	0	0	-0.1265	0	-0	0	0	0	0	0	-0	0	0.105	0.015	0	0	-0	0	0	0.098	0.1	0	-0	0	0	0	0	0	-0	0	0.05595	0	0	0	-0	0	0	0	0	0	-0	0	561.936	561.988	284.025	210.236	0.705625	-9.6613	0.0161276	-0.0349485	30.4031
89	-0.114351	0.0191284	0.0317244	0.0211104	0.00181307	0.0178628	0.0257284	-0.0305773	0.00150415	0.148235	-0.345195	0.0011357	0.0536636	-0.00215026	0.0135335	-2.32456	0.0569216	-1.51344	0	0	0	0	-0	0	0	0	-0.1265	0	-0	0	0	0	0	0	-0	0	0.105	0.015	0	0	-0	0	0	0.098	0.1	0	-0	0	0	0	0	0	-0	0	0.05595	0	0	0	-0	0	0	0	0	0	-0	0	561.604	561.578	283.883	210.547	0.722829	-9.84547	0.0161743	-0.0350809	31.0065
90	-0.110794	0.0191191	0.0317053	0.0211609	0.00182214	0.0178729	0.025729	-0.030584	0.00150539	0.142517	-0.349733	0.021137	0.0536273	-0.00215242	0.0137074	-2.32137	0.0569015	-1.5131	0	0	0	0	-0	0	0	0	-0.1265	0	-0	0	0	0	0	0	-0	0	0.105	0.015	0	0	-0	0	0	0.098	0.1	0	-0	0	0	0	0	0	-0	0	0.05595	0	0	0	-0	0	0	0	0	0	-0	0	561.353	561.291	283.776	210.781	0.736227	-9.98422	0.0162176	-0.0352096	31.4522
91	-0.118122	0.0190778	0.0317181	0.0212012	0.00184492	0.0178742	0.025727	-0.0305805	0.00150712	0.14343	-0.359922	0.0236071	0.0537347	-0.00215673	0.0133018	-2.32898	0.0574852	-1.51335	0	0	0	0	-0	0	0	0	-0.1265	0	-0	0	0	0	0	0	-0	0	0.105	0.015	0	0	-0	0	0	0.098	0.1	0	-0	0	0	0	0	0	-0	0	0.05595	0	0	0	-0	0	0	0	0	0	-0	0	561.17	561.077	283.69	210.963	0.746438	-10.0859	0.0161717	-0.0353203	31.7813
92	-0.123451	0.0190525	0.0317281	0.0212143	0.00187044	0.0179127	0.0257284	-0.0305842	0.00150396	0.135734	-0.352057	0.010734	0.0538173	-0.00215229	0.0129947	-2.33472	0.0579242	-1.51351	0	0	0	0	-0	0	0	0	-0.1265	0	-0	0	0	0	0	0	-0	0	0.105	0.015	0	0	-0	0	0	0.098	0.1	0	-0	0	0	0	0	0	-0	0	0.05595	0	0	0	-0	0	0	0	0	0	-0	0	560.917	560.755	283.589	211.237	0.759596	-10.2303	0.0162213	-0.0353882	32.2631
93	-0.119654	0.0190137	0.0317501	0.0212325	0.00189203	0.0179284	0.0257327	-0.0305936	0.00150736	0.110788	-0.363048	0.0176673	0.0537752	-0.00215343	0.0131838	-2.33124	0.0578251	-1.51314	0	0	0	0	-0	0	0	0	-0.1265	0	-0	0	0	0	0	0	-0	0	0.105	0.015	0	0	-0	0	0	0.098	0.1	0	-0	0	0	0	0	0	-0	0	0.05595	0	0	0	-0	0	0	0	0	0	-0	0	560.723	560.514	283.52	211.447	0.769965	-10.3383	0.0161983	-0.0354744	32.621
94	-0.137756	0.0189729	0.0317635	0.0212741	0.00191009	0.0179146	0.0257348	-0.03059	0.00151213	0.1012	-0.368856	0.0371685	0.0540223	-0.00216005	0.0121974	-2.34959	0.0590118	-1.51406	0	0	0	0	-0	0	0	0	-0.1265	0	-0	0	0	0	0	0	-0	0	0.105	0.015	0	0	-0	0	0	0.098	0.1	0	-0	0	0	0	0	0	-0	0	0.05595	0	0	0	-0	0	0	0	0	0	-0	0	560.572	560.342	283.454	211.606	0.777935	-10.4186	0.0161531	-0.0355899	32.8875
95	-0.132177	0.0189472	0.0318034	0.0212523	0.00191303	0.017916	0.0257327	-0.0305851	0.00151082	0.0982589	-0.379669	0.0336359	0.0539505	-0.00216223	0.0124935	-2.34418	0.0587625	-1.51363	0	0	0	0	-0	0	0	0	-0.1265	0	-0	0	0	0	0	0	-0	0	0.105	0.015	0	0	-0	0	0	0.098	0.1	0	-0	0	0	0	0	0	-0	0	0.05595	0	0	0	-0	0	0	0	0	0	-0	0	560.465	560.209	283.414	211.724	0.784051	-10.4786	0.0160988	-0.0356421	33.0853
96	-0.126956	0.0189626	0.0317854	0.0212645	0.00192203	0.0179482	0.025735	-0.030589	0.00151177	0.096413	-0.380449	0.0543829	0.053894	-0.00215638	0.0127609	-2.33924	0.058518	-1.51329	0	0	0	0	-0	0	0	0	-0.1265	0	-0	0	0	0	0	0	-0	0	0.105	0.015	0	0	-0	0	0	0.098	0.1	0	-0	0	0	0	0	0	-0	0	0.05595	0	0	0	-0	0	0	0	0	0	-0	0	560.304	560.013	283.36	211.901	0.791706	-10.5666	0.016177	-0.0356711	33.3816
97	-0.147488	0.0189201	0.0317928	0.0213189	0.001953	0.0179661	0.0257338	-0.0305976	0.00152156	0.126256	-0.386091	0.0303003	0.0541778	-0.00215923	0.0116178	-2.36036	0.059916	-1.51432	0	0	0	0	-0	0	0	0	-0.1265	0	-0	0	0	0	0	0	-0	0	0.105	0.015	0	0	-0	0	0	0.098	0.1	0	-0	0	0	0	0	0	-0	0	0.05595	0	0	0	-0	0	0	0	0	0	-0	0	559.969	559.626	283.241	212.284	0.808268	-10.7526	0.0162009	-0.0358154	34.0197
98	-0.136725	0.0188825	0.0318222	0.0213258	0.00196778	0.0179915	0.0257336	-0.0305875	0.00151834	0.134733	-0.394292	0.0229211	0.0540494	-0.00215849	0.0121898	-2.34989	0.0593981	-1.51355	0	0	0	0	-0	0	0	0	-0.1265	0	-0	0	0	0	0	0	-0	0	0.105	0.015	0	0	-0	0	0	0.098	0.1	0	-0	0	0	0	0	0	-0	0	0.05595	0	0	0	-0	0	0	0	0	0	-0	0	559.818	559.416	283.182	212.478	0.816725	-10.8479	0.0162599	-0.0358654	34.3464
99	-0.141264	0.0189119	0.0317971	0.0213279	0.0019668	0.0180298	0.025733	-0.0305848	0.00151622	0.132005	-0.401929	0.0262868	0.0541015	-0.00215076	0.0119429	-2.35457	0.0596332	-1.51384	0	0	0	0	-0	0	0	0	-0.1265	0	-0	0	0	0	0	0	-0	0	0.105	0.015	0	0	-0	0	0	0.098	0.1	0	-0	0	0	0	0	0	-0	0	0.05595	0	0	0	-0	0	0	0	0	0	-0	0	559.753	559.327	283.164	212.561	0.820493	-10.889	0.0163304	-0.0358598	34.4766
100	-0.159896	0.0188961	0.0317841	0.021371	0.00199374	0.0180717	0.0257343	-0.0305905	0.00152557	0.153607	-0.415994	0.00307938	0.0543398	-0.002147	0.0109045	-2.37371	0.0607933	-1.51487	0	0	0	0	-0	0	0	0	-0.1265	0	-0	0	0	0	0	0	-0	0	0.105	0.015	0	0	-0	0	0	0.098	0.1	0	-0	0	0	0	0	0	-0	0	0.05595	0	0	0	-0	0	0	0	0	0	-0	0	559.487	558.995	283.097	212.891	0.833303	-11.0422	0.0164601	-0.035935	35.0102
