Stefan210/kinematic_calibration/src/kinematic_calibration/validation/experiments/experiments/impact_noise/outlier/larm_randomize_0_measurements_rk_true/optimization_intermediate_results.csv
iteration	HeadPitch_offset	HeadYaw_offset	LElbowRoll_offset	LElbowYaw_offset	LShoulderPitch_offset	LShoulderRoll_offset	marker_transform_larm_tx	marker_transform_larm_ty	marker_transform_larm_tz	marker_transform_larm_rr	marker_transform_larm_rp	marker_transform_larm_ry	camera_transform_tx	camera_transform_ty	camera_transform_tz	camera_transform_rr	camera_transform_rp	camera_transform_ry	HeadPitch_transform_tx	HeadPitch_transform_ty	HeadPitch_transform_tz	HeadPitch_transform_rr	HeadPitch_transform_rp	HeadPitch_transform_ry	HeadYaw_transform_tx	HeadYaw_transform_ty	HeadYaw_transform_tz	HeadYaw_transform_rr	HeadYaw_transform_rp	HeadYaw_transform_ry	LElbowRoll_transform_tx	LElbowRoll_transform_ty	LElbowRoll_transform_tz	LElbowRoll_transform_rr	LElbowRoll_transform_rp	LElbowRoll_transform_ry	LElbowYaw_transform_tx	LElbowYaw_transform_ty	LElbowYaw_transform_tz	LElbowYaw_transform_rr	LElbowYaw_transform_rp	LElbowYaw_transform_ry	LShoulderPitch_transform_tx	LShoulderPitch_transform_ty	LShoulderPitch_transform_tz	LShoulderPitch_transform_rr	LShoulderPitch_transform_rp	LShoulderPitch_transform_ry	LShoulderRoll_transform_tx	LShoulderRoll_transform_ty	LShoulderRoll_transform_tz	LShoulderRoll_transform_rr	LShoulderRoll_transform_rp	LShoulderRoll_transform_ry	LWristYaw_transform_tx	LWristYaw_transform_ty	LWristYaw_transform_tz	LWristYaw_transform_rr	LWristYaw_transform_rp	LWristYaw_transform_ry	l_wrist_joint_transform_tx	l_wrist_joint_transform_ty	l_wrist_joint_transform_tz	l_wrist_joint_transform_rr	l_wrist_joint_transform_rp	l_wrist_joint_transform_ry	camera_fx	camera_fy	camera_cx	camera_cy	camera_D0	camera_D1	camera_D2	camera_D3	camera_D4	
0	0.0249164	-0.0307543	0.000853157	4.65819e-06	-0.000318322	-0.00310766	0.05071	0	0.01774	-2.26369	1.66533e-16	-1.5708	545.901	551.038	324.928	201.58	0.0255298	2.61142	-0.0636736	-0.0350419	0.213964
1	-0.0171231	0.00287921	0.0279371	0.0313082	0.0108484	0.0321087	0.0258936	-0.0302155	0.00228279	-0.000171476	-0.000456753	-0.00293487	0.0551717	-0.00115607	0.014122	-2.19407	0.00310319	-1.53385	0	0	0	0	-0	0	0	0	-0.1265	0	-0	0	0	0	0	0	-0	0	0.105	0.015	0	0	-0	0	0	0.098	0.1	0	-0	0	0	0	0	0	-0	0	0.05595	0	0	0	-0	0	0	0	0	0	-0	0	545.901	551.039	324.928	201.581	0.00104925	2.60275	-0.0848843	0.0283496	0.212153
2	-0.0171147	0.0198273	0.0219906	0.0387589	0.00109805	0.0343071	0.0255131	-0.0302317	0.00297353	-0.00024566	-0.00053295	-0.0029759	0.055376	-0.00123595	0.0145554	-2.19426	0.000483248	-1.54907	0	0	0	0	-0	0	0	0	-0.1265	0	-0	0	0	0	0	0	-0	0	0.105	0.015	0	0	-0	0	0	0.098	0.1	0	-0	0	0	0	0	0	-0	0	0.05595	0	0	0	-0	0	0	0	0	0	-0	0	545.915	551.039	324.922	201.599	-0.358895	2.28823	-0.0220508	-0.00556568	0.116573
3	-0.0170068	0.0191951	0.0209606	0.043481	0.000231289	0.0338105	0.0253998	-0.0302273	0.0033635	-0.000291899	-0.00053736	-0.00300867	0.0556638	-0.00115926	0.014204	-2.19463	0.00155073	-1.54867	0	0	0	0	-0	0	0	0	-0.1265	0	-0	0	0	0	0	0	-0	0	0.105	0.015	0	0	-0	0	0	0.098	0.1	0	-0	0	0	0	0	0	-0	0	0.05595	0	0	0	-0	0	0	0	0	0	-0	0	545.955	551.033	324.918	201.628	-0.377212	1.71136	-0.00886084	-0.0106845	-0.0813173
4	-0.0166924	0.0179245	0.0197318	0.0452737	0.000504971	0.0337676	0.0253133	-0.0301614	0.00350805	-0.000379271	-0.000561367	-0.00305693	0.0551868	-0.00110008	0.0147518	-2.19613	0.002964	-1.54748	0	0	0	0	-0	0	0	0	-0.1265	0	-0	0	0	0	0	0	-0	0	0.105	0.015	0	0	-0	0	0	0.098	0.1	0	-0	0	0	0	0	0	-0	0	0.05595	0	0	0	-0	0	0	0	0	0	-0	0	546.038	551.015	324.919	201.659	-0.1866	0.802147	-0.0112248	-0.0115586	-0.405503
5	-0.0163607	0.0173129	0.0187119	0.0455729	0.000710435	0.0340532	0.0252542	-0.0300932	0.00353873	-0.00038612	-0.000737649	-0.00284925	0.0545474	-0.00101398	0.0155279	-2.19738	0.00375916	-1.54726	0	0	0	0	-0	0	0	0	-0.1265	0	-0	0	0	0	0	0	-0	0	0.105	0.015	0	0	-0	0	0	0.098	0.1	0	-0	0	0	0	0	0	-0	0	0.05595	0	0	0	-0	0	0	0	0	0	-0	0	546.215	550.966	324.937	201.666	0.00596181	0.0795134	-0.0163061	-0.0114683	-0.617707
6	-0.0170829	0.0169096	0.018356	0.0454488	0.00100503	0.0341536	0.0252379	-0.0300617	0.00353887	0.000213444	-0.000460964	-0.00298718	0.0542009	-0.000967622	0.0159749	-2.19929	0.0041812	-1.54724	0	0	0	0	-0	0	0	0	-0.1265	0	-0	0	0	0	0	0	-0	0	0.105	0.015	0	0	-0	0	0	0.098	0.1	0	-0	0	0	0	0	0	-0	0	0.05595	0	0	0	-0	0	0	0	0	0	-0	0	546.695	550.829	324.948	201.67	0.108242	-0.342732	-0.0187095	-0.0114297	-0.492395
7	-0.0163009	0.0171489	0.0182095	0.0452126	0.000936434	0.0340631	0.0252298	-0.030046	0.00353153	0.00316382	0.000384822	-0.00121686	0.0538316	-0.000970391	0.0165134	-2.19951	0.00418878	-1.54759	0	0	0	0	-0	0	0	0	-0.1265	0	-0	0	0	0	0	0	-0	0	0.105	0.015	0	0	-0	0	0	0.098	0.1	0	-0	0	0	0	0	0	-0	0	0.05595	0	0	0	-0	0	0	0	0	0	-0	0	547.977	550.497	324.906	201.688	0.159432	-0.738333	-0.0163991	-0.0115718	0.228704
8	-0.018853	0.0175907	0.0181197	0.0450631	0.000734163	0.0339452	0.0252211	-0.0300367	0.00353881	0.00264068	0.00496824	-0.000361697	0.0532316	-0.00100325	0.0171989	-2.20346	0.00424457	-1.54778	0	0	0	0	-0	0	0	0	-0.1265	0	-0	0	0	0	0	0	-0	0	0.105	0.015	0	0	-0	0	0	0.098	0.1	0	-0	0	0	0	0	0	-0	0	0.05595	0	0	0	-0	0	0	0	0	0	-0	0	550.875	549.976	324.762	201.714	0.202876	-1.37274	-0.0085735	-0.0119049	1.91633
9	-0.0275837	0.0180367	0.0180891	0.0449977	0.00049745	0.0338312	0.0252125	-0.0300329	0.00355901	0.00349816	0.0109633	0.00199232	0.0524352	-0.0010581	0.0179182	-2.21412	0.00456764	-1.54771	0	0	0	0	-0	0	0	0	-0.1265	0	-0	0	0	0	0	0	-0	0	0.105	0.015	0	0	-0	0	0	0.098	0.1	0	-0	0	0	0	0	0	-0	0	0.05595	0	0	0	-0	0	0	0	0	0	-0	0	555.662	550.274	324.511	201.7	0.246687	-2.22356	0.00240744	-0.0123455	4.48213
10	-0.00331248	0.0184782	0.0181387	0.0449118	0.000282221	0.0337389	0.0251799	-0.0300875	0.00357594	-0.0727051	0.0465025	-0.00857562	0.0511195	-0.00113659	0.0203001	-2.1922	0.00450645	-1.54714	0	0	0	0	-0	0	0	0	-0.1265	0	-0	0	0	0	0	0	-0	0	0.105	0.015	0	0	-0	0	0	0.098	0.1	0	-0	0	0	0	0	0	-0	0	0.05595	0	0	0	-0	0	0	0	0	0	-0	0	561.306	553.592	324.066	201.846	0.265364	-2.82896	0.00879753	-0.01285	6.68025
11	0.00173336	0.0187653	0.0179961	0.0443963	5.22319e-05	0.0334804	0.0251802	-0.0300555	0.00353216	-0.0765956	0.0385402	-0.0308411	0.0507147	-0.00114452	0.0208831	-2.18838	0.00427325	-1.54732	0	0	0	0	-0	0	0	0	-0.1265	0	-0	0	0	0	0	0	-0	0	0.105	0.015	0	0	-0	0	0	0.098	0.1	0	-0	0	0	0	0	0	-0	0	0.05595	0	0	0	-0	0	0	0	0	0	-0	0	563.467	555.247	324.035	202.051	0.250535	-2.89468	0.0111983	-0.0131621	7.13483
12	-0.0316868	0.0187781	0.0181187	0.0443763	9.9379e-05	0.0335261	0.0251873	-0.0300487	0.00353136	-0.0862525	0.0546378	-0.0428589	0.0511592	-0.00118054	0.0194429	-2.22315	0.00502187	-1.54747	0	0	0	0	-0	0	0	0	-0.1265	0	-0	0	0	0	0	0	-0	0	0.105	0.015	0	0	-0	0	0	0.098	0.1	0	-0	0	0	0	0	0	-0	0	0.05595	0	0	0	-0	0	0	0	0	0	-0	0	565.531	557.562	324.142	202.487	0.242825	-2.91139	0.0108361	-0.0131283	7.43701
13	-0.0147976	0.0188427	0.018125	0.0442754	8.75175e-05	0.0335174	0.0252048	-0.0300653	0.00353564	-0.0794727	0.0785372	-0.0102475	0.0506886	-0.00119335	0.0204403	-2.2074	0.00456772	-1.54748	0	0	0	0	-0	0	0	0	-0.1265	0	-0	0	0	0	0	0	-0	0	0.105	0.015	0	0	-0	0	0	0.098	0.1	0	-0	0	0	0	0	0	-0	0	0.05595	0	0	0	-0	0	0	0	0	0	-0	0	566.789	559.089	324.209	202.944	0.230767	-2.85239	0.0106342	-0.0131328	7.42536
14	-0.00914662	0.0187135	0.0182125	0.0442985	0.000152552	0.0336064	0.0251962	-0.0300547	0.00353365	-0.0856797	0.0716582	-0.00682245	0.0505342	-0.00119892	0.0207373	-2.20187	0.00448448	-1.54734	0	0	0	0	-0	0	0	0	-0.1265	0	-0	0	0	0	0	0	-0	0	0.105	0.015	0	0	-0	0	0	0.098	0.1	0	-0	0	0	0	0	0	-0	0	0.05595	0	0	0	-0	0	0	0	0	0	-0	0	567.034	559.405	324.236	203.035	0.22889	-2.83789	0.0103029	-0.01303	7.44656
15	-0.0169555	0.0188569	0.0182258	0.0444099	0.000102897	0.0336361	0.0251928	-0.030051	0.00353994	-0.0906031	0.0654251	-0.00609595	0.0506	-0.00121308	0.0204396	-2.21067	0.00457316	-1.54752	0	0	0	0	-0	0	0	0	-0.1265	0	-0	0	0	0	0	0	-0	0	0.105	0.015	0	0	-0	0	0	0.098	0.1	0	-0	0	0	0	0	0	-0	0	0.05595	0	0	0	-0	0	0	0	0	0	-0	0	567.942	560.522	324.3	203.472	0.219683	-2.79896	0.010303	-0.013126	7.44852
16	-0.00548743	0.0189662	0.0182395	0.0444634	6.13582e-05	0.0336424	0.025199	-0.0300582	0.00354237	-0.100297	0.054022	0.0130013	0.0502932	-0.00122261	0.0210963	-2.20022	0.00421479	-1.54762	0	0	0	0	-0	0	0	0	-0.1265	0	-0	0	0	0	0	0	-0	0	0.105	0.015	0	0	-0	0	0	0.098	0.1	0	-0	0	0	0	0	0	-0	0	0.05595	0	0	0	-0	0	0	0	0	0	-0	0	568.727	561.516	324.36	203.936	0.209933	-2.75003	0.0102771	-0.0131886	7.41585
17	-0.00719174	0.0189664	0.0182402	0.0444245	6.77632e-05	0.0336322	0.0251979	-0.0300605	0.00353919	-0.0993062	0.0578697	-0.0105043	0.0502852	-0.00122605	0.0210487	-2.20268	0.00420541	-1.5477	0	0	0	0	-0	0	0	0	-0.1265	0	-0	0	0	0	0	0	-0	0	0.105	0.015	0	0	-0	0	0	0.098	0.1	0	-0	0	0	0	0	0	-0	0	0.05595	0	0	0	-0	0	0	0	0	0	-0	0	569.24	562.191	324.416	204.296	0.202519	-2.70314	0.0101624	-0.0131488	7.35814
18	-0.0277208	0.0190061	0.0182304	0.0444592	6.63428e-05	0.0336438	0.0251951	-0.0300607	0.00354321	-0.112393	0.048986	0.00263876	0.050649	-0.00123179	0.0200827	-2.22486	0.00452721	-1.54796	0	0	0	0	-0	0	0	0	-0.1265	0	-0	0	0	0	0	0	-0	0	0.105	0.015	0	0	-0	0	0	0.098	0.1	0	-0	0	0	0	0	0	-0	0	0.05595	0	0	0	-0	0	0	0	0	0	-0	0	570.165	563.404	324.541	205.119	0.187803	-2.61181	0.0101047	-0.0131525	7.23347
19	-0.0139076	0.0190474	0.0182126	0.0444141	3.98069e-05	0.033621	0.02519	-0.0300538	0.00353471	-0.106067	0.0302973	0.0128592	0.0503346	-0.00123194	0.0208095	-2.21189	0.00411308	-1.54802	0	0	0	0	-0	0	0	0	-0.1265	0	-0	0	0	0	0	0	-0	0	0.105	0.015	0	0	-0	0	0	0.098	0.1	0	-0	0	0	0	0	0	-0	0	0.05595	0	0	0	-0	0	0	0	0	0	-0	0	570.592	563.948	324.606	205.544	0.179415	-2.55755	0.010205	-0.0131498	7.14123
20	-0.00301688	0.0190837	0.0181941	0.0443994	1.83449e-05	0.033607	0.0251861	-0.0300543	0.00353287	-0.10517	0.0215296	0.0266361	0.0500816	-0.0012309	0.0213737	-2.20162	0.0037827	-1.54809	0	0	0	0	-0	0	0	0	-0.1265	0	-0	0	0	0	0	0	-0	0	0.105	0.015	0	0	-0	0	0	0.098	0.1	0	-0	0	0	0	0	0	-0	0	0.05595	0	0	0	-0	0	0	0	0	0	-0	0	570.889	564.332	324.659	205.868	0.173103	-2.517	0.0102927	-0.0131575	7.07196
21	0.00347032	0.0191061	0.0181989	0.0444186	8.16376e-06	0.0336082	0.0251828	-0.0300533	0.00353541	-0.0995244	0.0202579	0.0327414	0.049924	-0.00123237	0.0217107	-2.19559	0.00357199	-1.54814	0	0	0	0	-0	0	0	0	-0.1265	0	-0	0	0	0	0	0	-0	0	0.105	0.015	0	0	-0	0	0	0.098	0.1	0	-0	0	0	0	0	0	-0	0	0.05595	0	0	0	-0	0	0	0	0	0	-0	0	571.106	564.603	324.704	206.108	0.168631	-2.48896	0.0103535	-0.0131644	7.02826
22	-0.000201826	0.0191448	0.0182052	0.0444725	-8.5556e-06	0.0336164	0.0251853	-0.0300552	0.00353939	-0.107417	0.0112847	0.0414633	0.0499796	-0.00123568	0.0215474	-2.19993	0.00355489	-1.54826	0	0	0	0	-0	0	0	0	-0.1265	0	-0	0	0	0	0	0	-0	0	0.105	0.015	0	0	-0	0	0	0.098	0.1	0	-0	0	0	0	0	0	-0	0	0.05595	0	0	0	-0	0	0	0	0	0	-0	0	571.413	564.979	324.777	206.461	0.162721	-2.45487	0.0104633	-0.0131923	6.98163
23	0.000165505	0.0191497	0.0182223	0.0445006	-2.96456e-06	0.0336309	0.0251857	-0.0300638	0.00354642	-0.131299	0.0124624	0.0513505	0.0499553	-0.00123882	0.02158	-2.20005	0.00347633	-1.54833	0	0	0	0	-0	0	0	0	-0.1265	0	-0	0	0	0	0	0	-0	0	0.105	0.015	0	0	-0	0	0	0.098	0.1	0	-0	0	0	0	0	0	-0	0	0.05595	0	0	0	-0	0	0	0	0	0	-0	0	571.63	565.247	324.841	206.72	0.15905	-2.43291	0.0104876	-0.0131764	6.9583
24	-0.00789645	0.0191722	0.0182371	0.0445543	-3.07151e-06	0.0336478	0.025187	-0.0300577	0.00354487	-0.137448	0.0235139	0.0413469	0.0500988	-0.00124436	0.0212071	-2.20917	0.00348131	-1.54854	0	0	0	0	-0	0	0	0	-0.1265	0	-0	0	0	0	0	0	-0	0	0.105	0.015	0	0	-0	0	0	0.098	0.1	0	-0	0	0	0	0	0	-0	0	0.05595	0	0	0	-0	0	0	0	0	0	-0	0	572.058	565.773	324.988	207.276	0.151829	-2.39326	0.0106299	-0.0131723	6.91765
25	-0.00940661	0.0191856	0.0182203	0.0445224	-1.26899e-05	0.0336351	0.0251842	-0.0300561	0.00354409	-0.140852	0.0268908	0.0508964	0.0501218	-0.00124196	0.0211366	-2.21095	0.0034565	-1.54862	0	0	0	0	-0	0	0	0	-0.1265	0	-0	0	0	0	0	0	-0	0	0.105	0.015	0	0	-0	0	0	0.098	0.1	0	-0	0	0	0	0	0	-0	0	0.05595	0	0	0	-0	0	0	0	0	0	-0	0	572.161	565.904	325.029	207.424	0.149527	-2.3799	0.0107015	-0.0131534	6.89873
26	-0.00240903	0.0192002	0.0182244	0.0445416	-1.81024e-05	0.0336406	0.0251862	-0.030058	0.00354524	-0.132435	0.0352035	0.0611711	0.049963	-0.0012433	0.0214965	-2.20433	0.00322526	-1.54868	0	0	0	0	-0	0	0	0	-0.1265	0	-0	0	0	0	0	0	-0	0	0.105	0.015	0	0	-0	0	0	0.098	0.1	0	-0	0	0	0	0	0	-0	0	0.05595	0	0	0	-0	0	0	0	0	0	-0	0	572.304	566.075	325.089	207.624	0.146755	-2.36414	0.0107724	-0.0131529	6.87962
27	-0.00295447	0.0191959	0.0182261	0.0445319	-1.26697e-05	0.0336416	0.0251841	-0.0300564	0.00354297	-0.126109	0.0298429	0.0697732	0.0499672	-0.00124369	0.0214742	-2.20515	0.00318553	-1.54874	0	0	0	0	-0	0	0	0	-0.1265	0	-0	0	0	0	0	0	-0	0	0.105	0.015	0	0	-0	0	0	0.098	0.1	0	-0	0	0	0	0	0	-0	0	0.05595	0	0	0	-0	0	0	0	0	0	-0	0	572.405	566.199	325.136	207.774	0.144818	-2.35166	0.0108021	-0.0131298	6.86246
28	-0.00248095	0.0192144	0.018217	0.0445374	-2.13163e-05	0.0336375	0.0251839	-0.0300563	0.00354253	-0.127894	0.0357831	0.0583711	0.0499477	-0.00124363	0.0215059	-2.2051	0.00308311	-1.54884	0	0	0	0	-0	0	0	0	-0.1265	0	-0	0	0	0	0	0	-0	0	0.105	0.015	0	0	-0	0	0	0.098	0.1	0	-0	0	0	0	0	0	-0	0	0.05595	0	0	0	-0	0	0	0	0	0	-0	0	572.546	566.376	325.205	207.996	0.141669	-2.33316	0.0109025	-0.0131279	6.83358
29	-0.000377316	0.019219	0.0182164	0.0445355	-2.0578e-05	0.0336369	0.0251826	-0.030056	0.00354102	-0.117024	0.022302	0.0676564	0.0498962	-0.00124388	0.0216163	-2.2033	0.00297057	-1.54891	0	0	0	0	-0	0	0	0	-0.1265	0	-0	0	0	0	0	0	-0	0	0.105	0.015	0	0	-0	0	0	0.098	0.1	0	-0	0	0	0	0	0	-0	0	0.05595	0	0	0	-0	0	0	0	0	0	-0	0	572.648	566.505	325.26	208.162	0.13952	-2.31994	0.0109533	-0.0131126	6.81451
30	0.00356099	0.0192293	0.0182076	0.0445301	-2.71236e-05	0.0336302	0.0251814	-0.030055	0.00354248	-0.119886	0.0191815	0.0723303	0.0498064	-0.00124321	0.0218168	-2.19959	0.00282897	-1.54896	0	0	0	0	-0	0	0	0	-0.1265	0	-0	0	0	0	0	0	-0	0	0.105	0.015	0	0	-0	0	0	0.098	0.1	0	-0	0	0	0	0	0	-0	0	0.05595	0	0	0	-0	0	0	0	0	0	-0	0	572.721	566.599	325.302	208.286	0.137715	-2.30928	0.0110203	-0.0131063	6.79687
31	0.00493051	0.0192356	0.0182117	0.0445436	-3.17682e-05	0.0336343	0.0251816	-0.0300547	0.00354345	-0.119808	0.0143232	0.0769099	0.0497735	-0.00124399	0.0218869	-2.19831	0.00277609	-1.54898	0	0	0	0	-0	0	0	0	-0.1265	0	-0	0	0	0	0	0	-0	0	0.105	0.015	0	0	-0	0	0	0.098	0.1	0	-0	0	0	0	0	0	-0	0	0.05595	0	0	0	-0	0	0	0	0	0	-0	0	572.753	566.636	325.319	208.336	0.13696	-2.30499	0.0110445	-0.0131093	6.79125
32	0.0021305	0.0192412	0.0182142	0.0445531	-3.32518e-05	0.0336377	0.0251812	-0.0300546	0.00354448	-0.118782	0.0152469	0.0783482	0.04983	-0.00124483	0.0217516	-2.20131	0.00279035	-1.54904	0	0	0	0	-0	0	0	0	-0.1265	0	-0	0	0	0	0	0	-0	0	0.105	0.015	0	0	-0	0	0	0.098	0.1	0	-0	0	0	0	0	0	-0	0	0.05595	0	0	0	-0	0	0	0	0	0	-0	0	572.82	566.714	325.358	208.444	0.135599	-2.2972	0.0110886	-0.0131066	6.78108
33	0.00647462	0.0192526	0.0182131	0.0445633	-3.5892e-05	0.0336399	0.0251811	-0.030055	0.00354528	-0.114853	0.0152127	0.0752565	0.049726	-0.00124602	0.0219765	-2.19744	0.0025826	-1.54915	0	0	0	0	-0	0	0	0	-0.1265	0	-0	0	0	0	0	0	-0	0	0.105	0.015	0	0	-0	0	0	0.098	0.1	0	-0	0	0	0	0	0	-0	0	0.05595	0	0	0	-0	0	0	0	0	0	-0	0	572.966	566.893	325.452	208.698	0.13257	-2.27969	0.0111884	-0.0130965	6.75658
34	0.0204087	0.0192698	0.018208	0.0445731	-3.28902e-05	0.0336413	0.0251832	-0.0300566	0.00354506	-0.109642	0.0250413	0.0684701	0.0494014	-0.00124814	0.0226839	-2.18481	0.00195231	-1.54947	0	0	0	0	-0	0	0	0	-0.1265	0	-0	0	0	0	0	0	-0	0	0.105	0.015	0	0	-0	0	0	0.098	0.1	0	-0	0	0	0	0	0	-0	0	0.05595	0	0	0	-0	0	0	0	0	0	-0	0	573.313	567.33	325.729	209.404	0.124627	-2.23118	0.0114437	-0.0130481	6.6803
35	0.0304235	0.0192679	0.0181902	0.0445267	-2.88738e-05	0.0336257	0.0251788	-0.0300566	0.00354246	-0.120883	0.0313772	0.0701583	0.0491639	-0.0012458	0.0231804	-2.17544	0.00156254	-1.54966	0	0	0	0	-0	0	0	0	-0.1265	0	-0	0	0	0	0	0	-0	0	0.105	0.015	0	0	-0	0	0	0.098	0.1	0	-0	0	0	0	0	0	-0	0	0.05595	0	0	0	-0	0	0	0	0	0	-0	0	573.468	567.525	325.881	209.756	0.120167	-2.20253	0.0116182	-0.0129887	6.62853
36	0.0325108	0.019284	0.0181905	0.0445404	-4.05098e-05	0.0336251	0.0251787	-0.0300562	0.00354303	-0.128061	0.0337017	0.0736884	0.049107	-0.00124619	0.0232866	-2.17361	0.00143299	-1.54976	0	0	0	0	-0	0	0	0	-0.1265	0	-0	0	0	0	0	0	-0	0	0.105	0.015	0	0	-0	0	0	0.098	0.1	0	-0	0	0	0	0	0	-0	0	0.05595	0	0	0	-0	0	0	0	0	0	-0	0	573.541	567.601	325.947	209.898	0.118129	-2.1916	0.0117394	-0.0129832	6.61228
37	0.0270391	0.0192911	0.0182033	0.0445656	-3.90129e-05	0.0336348	0.0251821	-0.0300566	0.00354495	-0.132948	0.0219829	0.0730211	0.0492266	-0.0012481	0.0230231	-2.17942	0.00143585	-1.54989	0	0	0	0	-0	0	0	0	-0.1265	0	-0	0	0	0	0	0	-0	0	0.105	0.015	0	0	-0	0	0	0.098	0.1	0	-0	0	0	0	0	0	-0	0	0.05595	0	0	0	-0	0	0	0	0	0	-0	0	573.637	567.701	326.044	210.089	0.115955	-2.17993	0.0118411	-0.0129663	6.59985
38	0.0188782	0.0192878	0.0182114	0.0445697	-2.44824e-05	0.0336427	0.025183	-0.0300607	0.00354593	-0.118404	0.0274242	0.0697943	0.0494034	-0.00124972	0.0226282	-2.18832	0.00135528	-1.55017	0	0	0	0	-0	0	0	0	-0.1265	0	-0	0	0	0	0	0	-0	0	0.105	0.015	0	0	-0	0	0	0.098	0.1	0	-0	0	0	0	0	0	-0	0	0.05595	0	0	0	-0	0	0	0	0	0	-0	0	573.817	567.912	326.266	210.498	0.112072	-2.15765	0.0119998	-0.0128996	6.57266
39	0.0307939	0.0192894	0.0182125	0.0445622	-2.13803e-05	0.0336414	0.0251818	-0.030058	0.0035452	-0.120735	0.0221606	0.0644097	0.0491271	-0.00124978	0.0232204	-2.17677	0.000971234	-1.55031	0	0	0	0	-0	0	0	0	-0.1265	0	-0	0	0	0	0	0	-0	0	0.105	0.015	0	0	-0	0	0	0.098	0.1	0	-0	0	0	0	0	0	-0	0	0.05595	0	0	0	-0	0	0	0	0	0	-0	0	573.906	568.008	326.384	210.701	0.109727	-2.14469	0.0121311	-0.01286	6.55471
40	0.031728	0.0193016	0.018198	0.0445504	-3.28246e-05	0.033633	0.0251805	-0.0300575	0.00354332	-0.124275	0.0192141	0.0723757	0.049098	-0.00124861	0.0232683	-2.17611	0.000842974	-1.55044	0	0	0	0	-0	0	0	0	-0.1265	0	-0	0	0	0	0	0	-0	0	0.105	0.015	0	0	-0	0	0	0.098	0.1	0	-0	0	0	0	0	0	-0	0	0.05595	0	0	0	-0	0	0	0	0	0	-0	0	573.968	568.076	326.472	210.853	0.107752	-2.13365	0.0122699	-0.0128424	6.53371
41	0.0354973	0.0193051	0.0182074	0.044565	-3.15048e-05	0.0336383	0.0251802	-0.0300569	0.00354464	-0.126036	0.016405	0.0690701	0.0490076	-0.00124947	0.0234544	-2.17245	0.000721032	-1.55049	0	0	0	0	-0	0	0	0	-0.1265	0	-0	0	0	0	0	0	-0	0	0.105	0.015	0	0	-0	0	0	0.098	0.1	0	-0	0	0	0	0	0	-0	0	0.05595	0	0	0	-0	0	0	0	0	0	-0	0	573.996	568.103	326.51	210.914	0.106947	-2.12935	0.0123053	-0.0128342	6.52991
42	0.0382012	0.0193161	0.018209	0.0445792	-3.4556e-05	0.0336417	0.0251799	-0.0300583	0.00354733	-0.137149	0.0234211	0.0752128	0.0489363	-0.00125069	0.0235927	-2.17019	0.000484761	-1.55069	0	0	0	0	-0	0	0	0	-0.1265	0	-0	0	0	0	0	0	-0	0	0.105	0.015	0	0	-0	0	0	0.098	0.1	0	-0	0	0	0	0	0	-0	0	0.05595	0	0	0	-0	0	0	0	0	0	-0	0	574.101	568.219	326.667	211.159	0.104466	-2.11607	0.0124502	-0.0128037	6.51151
43	0.0500299	0.0193277	0.0182171	0.0445985	-3.49959e-05	0.0336483	0.0251836	-0.0300588	0.003553	-0.147267	0.0431035	0.0863102	0.0486472	-0.00125283	0.0241793	-2.15899	-2.74838e-05	-1.551	0	0	0	0	-0	0	0	0	-0.1265	0	-0	0	0	0	0	0	-0	0	0.105	0.015	0	0	-0	0	0	0.098	0.1	0	-0	0	0	0	0	0	-0	0	0.05595	0	0	0	-0	0	0	0	0	0	-0	0	574.244	568.376	326.908	211.508	0.100971	-2.0976	0.0126564	-0.0127512	6.48696
44	0.0500403	0.0193216	0.018228	0.0446001	-2.67542e-05	0.0336578	0.0251825	-0.0300582	0.00354798	-0.1438	0.0382625	0.0916804	0.0486383	-0.00125409	0.0241821	-2.15928	-0.000167083	-1.55116	0	0	0	0	-0	0	0	0	-0.1265	0	-0	0	0	0	0	0	-0	0	0.105	0.015	0	0	-0	0	0	0.098	0.1	0	-0	0	0	0	0	0	-0	0	0.05595	0	0	0	-0	0	0	0	0	0	-0	0	574.321	568.445	327.038	211.681	0.0991666	-2.08881	0.0127729	-0.0127082	6.48031
45	0.0480493	0.0193333	0.0182192	0.0445923	-3.42238e-05	0.0336502	0.025182	-0.0300584	0.00354689	-0.137099	0.04416	0.0882616	0.0486831	-0.00125293	0.0240873	-2.1614	-0.000195328	-1.55125	0	0	0	0	-0	0	0	0	-0.1265	0	-0	0	0	0	0	0	-0	0	0.105	0.015	0	0	-0	0	0	0.098	0.1	0	-0	0	0	0	0	0	-0	0	0.05595	0	0	0	-0	0	0	0	0	0	-0	0	574.35	568.474	327.091	211.752	0.0981498	-2.08432	0.0128644	-0.0126941	6.47402
46	0.0492998	0.0193353	0.0182197	0.0445881	-3.18399e-05	0.0336482	0.0251808	-0.0300575	0.00354662	-0.136983	0.0417496	0.0855029	0.0486495	-0.00125298	0.0241506	-2.16042	-0.000346853	-1.5514	0	0	0	0	-0	0	0	0	-0.1265	0	-0	0	0	0	0	0	-0	0	0.105	0.015	0	0	-0	0	0	0.098	0.1	0	-0	0	0	0	0	0	-0	0	0.05595	0	0	0	-0	0	0	0	0	0	-0	0	574.405	568.533	327.203	211.896	0.096639	-2.07563	0.0129582	-0.0126605	6.45969
47	0.0393892	0.0193455	0.0182176	0.0445931	-3.75213e-05	0.0336468	0.0251805	-0.0300576	0.00354673	-0.134344	0.0428998	0.0810364	0.0488847	-0.00125322	0.0236717	-2.17058	-0.00028699	-1.55155	0	0	0	0	-0	0	0	0	-0.1265	0	-0	0	0	0	0	0	-0	0	0.105	0.015	0	0	-0	0	0	0.098	0.1	0	-0	0	0	0	0	0	-0	0	0.05595	0	0	0	-0	0	0	0	0	0	-0	0	574.459	568.59	327.316	212.039	0.0950874	-2.06772	0.0130711	-0.0126371	6.44734
48	0.0409538	0.0193516	0.0182075	0.0445757	-4.33503e-05	0.0336373	0.0251812	-0.030057	0.00354647	-0.135737	0.0568859	0.0854065	0.0488438	-0.00125221	0.023749	-2.16921	-0.000419202	-1.55167	0	0	0	0	-0	0	0	0	-0.1265	0	-0	0	0	0	0	0	-0	0	0.105	0.015	0	0	-0	0	0	0.098	0.1	0	-0	0	0	0	0	0	-0	0	0.05595	0	0	0	-0	0	0	0	0	0	-0	0	574.495	568.631	327.402	212.145	0.0937569	-2.06012	0.0131716	-0.0126145	6.43095
49	0.0341817	0.0193469	0.018222	0.0445897	-3.08562e-05	0.0336479	0.0251807	-0.0300575	0.00354682	-0.13777	0.0602386	0.0854356	0.0489994	-0.00125401	0.0234207	-2.17639	-0.000509487	-1.55191	0	0	0	0	-0	0	0	0	-0.1265	0	-0	0	0	0	0	0	-0	0	0.105	0.015	0	0	-0	0	0	0.098	0.1	0	-0	0	0	0	0	0	-0	0	0.05595	0	0	0	-0	0	0	0	0	0	-0	0	574.579	568.723	327.599	212.375	0.0915438	-2.04649	0.0132746	-0.0125546	6.40989
50	0.0297261	0.0193591	0.0182152	0.044587	-4.08537e-05	0.0336427	0.0251798	-0.0300574	0.00354602	-0.137953	0.0614883	0.0819234	0.0491005	-0.00125341	0.0232042	-2.18096	-0.000496324	-1.55199	0	0	0	0	-0	0	0	0	-0.1265	0	-0	0	0	0	0	0	-0	0	0.105	0.015	0	0	-0	0	0	0.098	0.1	0	-0	0	0	0	0	0	-0	0	0.05595	0	0	0	-0	0	0	0	0	0	-0	0	574.604	568.744	327.654	212.438	0.0904754	-2.04169	0.0133747	-0.0125463	6.40135
51	0.0263297	0.0193639	0.0182148	0.0445865	-4.39953e-05	0.0336405	0.0251799	-0.0300577	0.00354613	-0.13564	0.0651894	0.0862901	0.0491774	-0.00125332	0.0230384	-2.18443	-0.000480171	-1.55204	0	0	0	0	-0	0	0	0	-0.1265	0	-0	0	0	0	0	0	-0	0	0.105	0.015	0	0	-0	0	0	0.098	0.1	0	-0	0	0	0	0	0	-0	0	0.05595	0	0	0	-0	0	0	0	0	0	-0	0	574.621	568.759	327.692	212.482	0.0898372	-2.03844	0.0134256	-0.0125391	6.39562
52	0.0252759	0.0193649	0.0182178	0.0445887	-4.21472e-05	0.0336417	0.0251796	-0.0300576	0.00354606	-0.139485	0.0686884	0.0836444	0.0491989	-0.00125378	0.0229883	-2.18566	-0.000560948	-1.55215	0	0	0	0	-0	0	0	0	-0.1265	0	-0	0	0	0	0	0	-0	0	0.105	0.015	0	0	-0	0	0	0.098	0.1	0	-0	0	0	0	0	0	-0	0	0.05595	0	0	0	-0	0	0	0	0	0	-0	0	574.657	568.794	327.779	212.578	0.0887982	-2.03243	0.0134936	-0.0125154	6.38519
53	0.0243373	0.0193694	0.0182178	0.0445912	-4.46831e-05	0.0336413	0.0251797	-0.0300573	0.00354649	-0.1404	0.0743062	0.0844747	0.049219	-0.00125387	0.0229434	-2.18668	-0.000598153	-1.55221	0	0	0	0	-0	0	0	0	-0.1265	0	-0	0	0	0	0	0	-0	0	0.105	0.015	0	0	-0	0	0	0.098	0.1	0	-0	0	0	0	0	0	-0	0	0.05595	0	0	0	-0	0	0	0	0	0	-0	0	574.676	568.81	327.824	212.627	0.0881448	-2.02921	0.0135456	-0.012506	6.38003
54	0.0212891	0.0193716	0.0182202	0.0445944	-4.36557e-05	0.033643	0.0251796	-0.030058	0.00354719	-0.133619	0.0699912	0.0821503	0.0492863	-0.00125435	0.0227953	-2.18992	-0.000659599	-1.55234	0	0	0	0	-0	0	0	0	-0.1265	0	-0	0	0	0	0	0	-0	0	0.105	0.015	0	0	-0	0	0	0.098	0.1	0	-0	0	0	0	0	0	-0	0	0.05595	0	0	0	-0	0	0	0	0	0	-0	0	574.714	568.85	327.926	212.735	0.0870195	-2.0227	0.0136187	-0.0124787	6.36857
55	0.024307	0.0193758	0.0182213	0.0445971	-4.59527e-05	0.0336432	0.0251799	-0.0300577	0.00354668	-0.135221	0.075204	0.0791405	0.0492156	-0.00125461	0.0229455	-2.187	-0.000778262	-1.55241	0	0	0	0	-0	0	0	0	-0.1265	0	-0	0	0	0	0	0	-0	0	0.105	0.015	0	0	-0	0	0	0.098	0.1	0	-0	0	0	0	0	0	-0	0	0.05595	0	0	0	-0	0	0	0	0	0	-0	0	574.736	568.869	327.978	212.789	0.0862836	-2.01901	0.0136756	-0.0124676	6.36255
56	0.0215508	0.0193776	0.0182202	0.0445924	-4.47579e-05	0.0336416	0.0251796	-0.0300581	0.0035467	-0.13002	0.0743312	0.0771425	0.0492762	-0.00125459	0.0228116	-2.18997	-0.00086425	-1.55256	0	0	0	0	-0	0	0	0	-0.1265	0	-0	0	0	0	0	0	-0	0	0.105	0.015	0	0	-0	0	0	0.098	0.1	0	-0	0	0	0	0	0	-0	0	0.05595	0	0	0	-0	0	0	0	0	0	-0	0	574.778	568.913	328.095	212.91	0.0849716	-2.01098	0.0137608	-0.0124329	6.34634
57	0.02256	0.0193809	0.0182213	0.0445934	-4.57859e-05	0.0336414	0.0251799	-0.0300585	0.00354658	-0.135702	0.0724031	0.0737719	0.0492513	-0.00125476	0.0228626	-2.18909	-0.0009649	-1.55265	0	0	0	0	-0	0	0	0	-0.1265	0	-0	0	0	0	0	0	-0	0	0.105	0.015	0	0	-0	0	0	0.098	0.1	0	-0	0	0	0	0	0	-0	0	0.05595	0	0	0	-0	0	0	0	0	0	-0	0	574.802	568.936	328.164	212.979	0.0840692	-2.00593	0.013825	-0.0124151	6.33691
58	0.0276227	0.0193825	0.0182231	0.0445922	-4.32165e-05	0.0336416	0.0251799	-0.0300578	0.00354671	-0.130958	0.0632715	0.0743555	0.0491324	-0.00125512	0.0231143	-2.1843	-0.00123687	-1.55285	0	0	0	0	-0	0	0	0	-0.1265	0	-0	0	0	0	0	0	-0	0	0.105	0.015	0	0	-0	0	0	0.098	0.1	0	-0	0	0	0	0	0	-0	0	0.05595	0	0	0	-0	0	0	0	0	0	-0	0	574.854	568.987	328.32	213.131	0.0823732	-1.99533	0.0139346	-0.0123698	6.31504
59	0.0369546	0.0193886	0.0182221	0.0445903	-4.28707e-05	0.0336408	0.0251816	-0.0300581	0.00354549	-0.130885	0.0507928	0.080151	0.0489117	-0.00125548	0.0235756	-2.17542	-0.00171551	-1.55322	0	0	0	0	-0	0	0	0	-0.1265	0	-0	0	0	0	0	0	-0	0	0.105	0.015	0	0	-0	0	0	0.098	0.1	0	-0	0	0	0	0	0	-0	0	0.05595	0	0	0	-0	0	0	0	0	0	-0	0	574.934	569.077	328.59	213.384	0.079541	-1.97712	0.0141078	-0.0122933	6.27511
60	0.039934	0.0193841	0.0182157	0.0445623	-3.93733e-05	0.0336323	0.0251799	-0.0300583	0.00354431	-0.127325	0.0569272	0.0797622	0.0488397	-0.00125382	0.0237199	-2.17251	-0.00181135	-1.55328	0	0	0	0	-0	0	0	0	-0.1265	0	-0	0	0	0	0	0	-0	0	0.105	0.015	0	0	-0	0	0	0.098	0.1	0	-0	0	0	0	0	0	-0	0	0.05595	0	0	0	-0	0	0	0	0	0	-0	0	574.946	569.087	328.628	213.42	0.0788282	-1.97329	0.0141663	-0.0122673	6.26827
61	0.0480199	0.0193887	0.0182223	0.0445749	-3.88822e-05	0.0336366	0.0251802	-0.0300588	0.00354558	-0.124052	0.0618559	0.0842248	0.0486438	-0.00125488	0.0241173	-2.16467	-0.00213398	-1.5535	0	0	0	0	-0	0	0	0	-0.1265	0	-0	0	0	0	0	0	-0	0	0.105	0.015	0	0	-0	0	0	0.098	0.1	0	-0	0	0	0	0	0	-0	0	0.05595	0	0	0	-0	0	0	0	0	0	-0	0	574.994	569.129	328.787	213.562	0.0771702	-1.96292	0.0142792	-0.0122271	6.24643
62	0.0535741	0.0193942	0.0182206	0.0445721	-4.2809e-05	0.0336342	0.0251799	-0.030059	0.0035452	-0.118306	0.0657209	0.0822351	0.0485068	-0.00125476	0.0243882	-2.15925	-0.00232364	-1.55362	0	0	0	0	-0	0	0	0	-0.1265	0	-0	0	0	0	0	0	-0	0	0.105	0.015	0	0	-0	0	0	0.098	0.1	0	-0	0	0	0	0	0	-0	0	0.05595	0	0	0	-0	0	0	0	0	0	-0	0	575.018	569.149	328.867	213.633	0.0760686	-1.95669	0.0143673	-0.0122075	6.23288
63	0.055533	0.0193972	0.0182232	0.044575	-4.37092e-05	0.0336346	0.0251797	-0.0300584	0.00354519	-0.11841	0.0603964	0.084773	0.0484567	-0.00125502	0.0244839	-2.15738	-0.00242767	-1.55371	0	0	0	0	-0	0	0	0	-0.1265	0	-0	0	0	0	0	0	-0	0	0.105	0.015	0	0	-0	0	0	0.098	0.1	0	-0	0	0	0	0	0	-0	0	0.05595	0	0	0	-0	0	0	0	0	0	-0	0	575.038	569.162	328.929	213.686	0.0752889	-1.95229	0.0144265	-0.0121926	6.2242
64	0.0526959	0.0194024	0.0182267	0.0445821	-4.34404e-05	0.0336369	0.0251796	-0.0300615	0.00354675	-0.132472	0.0613288	0.0868261	0.0485223	-0.00125577	0.0243489	-2.1605	-0.00259132	-1.55395	0	0	0	0	-0	0	0	0	-0.1265	0	-0	0	0	0	0	0	-0	0	0.105	0.015	0	0	-0	0	0	0.098	0.1	0	-0	0	0	0	0	0	-0	0	0.05595	0	0	0	-0	0	0	0	0	0	-0	0	575.088	569.212	329.118	213.843	0.0735399	-1.94124	0.0145436	-0.0121412	6.19998
65	0.0429523	0.0194083	0.018234	0.0445878	-4.1761e-05	0.0336391	0.0251814	-0.0300627	0.00354851	-0.143262	0.0635202	0.0968347	0.0487544	-0.001257	0.0238801	-2.17064	-0.00275033	-1.55429	0	0	0	0	-0	0	0	0	-0.1265	0	-0	0	0	0	0	0	-0	0	0.105	0.015	0	0	-0	0	0	0.098	0.1	0	-0	0	0	0	0	0	-0	0	0.05595	0	0	0	-0	0	0	0	0	0	-0	0	575.16	569.282	329.403	214.068	0.0710163	-1.92591	0.0147228	-0.012061	6.1669
66	0.0431009	0.0194087	0.0182354	0.0445765	-4.02711e-05	0.033637	0.0251826	-0.0300608	0.0035472	-0.146834	0.0525331	0.090818	0.0487464	-0.0012569	0.0238885	-2.17069	-0.0029226	-1.55448	0	0	0	0	-0	0	0	0	-0.1265	0	-0	0	0	0	0	0	-0	0	0.105	0.015	0	0	-0	0	0	0.098	0.1	0	-0	0	0	0	0	0	-0	0	0.05595	0	0	0	-0	0	0	0	0	0	-0	0	575.2	569.309	329.55	214.181	0.0693445	-1.91634	0.0148586	-0.0120148	6.14672
67	0.0505405	0.0194049	0.0182444	0.0445825	-3.24757e-05	0.0336437	0.0251814	-0.0300599	0.00354694	-0.143699	0.0549355	0.0914892	0.0485657	-0.00125751	0.0242523	-2.1634	-0.00317025	-1.55465	0	0	0	0	-0	0	0	0	-0.1265	0	-0	0	0	0	0	0	-0	0	0.105	0.015	0	0	-0	0	0	0.098	0.1	0	-0	0	0	0	0	0	-0	0	0.05595	0	0	0	-0	0	0	0	0	0	-0	0	575.231	569.33	329.664	214.266	0.0683088	-1.91041	0.0149285	-0.0119744	6.13802
68	0.0511644	0.0194185	0.0182339	0.0445769	-4.53807e-05	0.0336365	0.0251802	-0.0300596	0.00354589	-0.142659	0.055953	0.0978074	0.0485474	-0.00125663	0.0242841	-2.16284	-0.00324012	-1.55473	0	0	0	0	-0	0	0	0	-0.1265	0	-0	0	0	0	0	0	-0	0	0.105	0.015	0	0	-0	0	0	0.098	0.1	0	-0	0	0	0	0	0	-0	0	0.05595	0	0	0	-0	0	0	0	0	0	-0	0	575.244	569.341	329.71	214.301	0.0676232	-1.90754	0.0150123	-0.0119711	6.13055
69	0.0508985	0.0194232	0.0182366	0.0445806	-4.68184e-05	0.0336363	0.0251805	-0.0300599	0.00354633	-0.14645	0.0517977	0.091949	0.0485516	-0.00125702	0.0242729	-2.16323	-0.00334672	-1.55485	0	0	0	0	-0	0	0	0	-0.1265	0	-0	0	0	0	0	0	-0	0	0.105	0.015	0	0	-0	0	0	0.098	0.1	0	-0	0	0	0	0	0	-0	0	0.05595	0	0	0	-0	0	0	0	0	0	-0	0	575.268	569.36	329.807	214.371	0.066705	-1.90208	0.015083	-0.0119473	6.11847
70	0.0522216	0.0194244	0.0182401	0.044583	-4.61157e-05	0.0336375	0.0251804	-0.0300596	0.00354654	-0.149749	0.0478861	0.0902025	0.0485184	-0.00125731	0.0243379	-2.16197	-0.00342353	-1.55492	0	0	0	0	-0	0	0	0	-0.1265	0	-0	0	0	0	0	0	-0	0	0.105	0.015	0	0	-0	0	0	0.098	0.1	0	-0	0	0	0	0	0	-0	0	0.05595	0	0	0	-0	0	0	0	0	0	-0	0	575.282	569.369	329.856	214.406	0.0661579	-1.89913	0.0151228	-0.0119336	6.11333
71	0.0514382	0.0194281	0.0182401	0.0445851	-4.86693e-05	0.0336374	0.0251803	-0.0300591	0.00354641	-0.149973	0.0418688	0.0924375	0.0485363	-0.0012574	0.0243008	-2.1628	-0.00345434	-1.55497	0	0	0	0	-0	0	0	0	-0.1265	0	-0	0	0	0	0	0	-0	0	0.105	0.015	0	0	-0	0	0	0.098	0.1	0	-0	0	0	0	0	0	-0	0	0.05595	0	0	0	-0	0	0	0	0	0	-0	0	575.292	569.377	329.893	214.433	0.0657486	-1.89705	0.0151596	-0.0119262	6.10909
72	0.0548986	0.0194309	0.0182399	0.0445843	-4.95388e-05	0.0336368	0.0251801	-0.0300593	0.00354651	-0.146738	0.045008	0.0943748	0.0484502	-0.0012575	0.0244704	-2.15944	-0.00360342	-1.55509	0	0	0	0	-0	0	0	0	-0.1265	0	-0	0	0	0	0	0	-0	0	0.105	0.015	0	0	-0	0	0	0.098	0.1	0	-0	0	0	0	0	0	-0	0	0.05595	0	0	0	-0	0	0	0	0	0	-0	0	575.313	569.396	329.977	214.492	0.0650271	-1.89262	0.0152156	-0.0119028	6.09881
73	0.0587939	0.0194349	0.0182397	0.0445826	-5.09377e-05	0.0336356	0.0251807	-0.0300615	0.00354725	-0.156289	0.044501	0.101529	0.0483522	-0.00125767	0.024661	-2.1557	-0.0038056	-1.55527	0	0	0	0	-0	0	0	0	-0.1265	0	-0	0	0	0	0	0	-0	0	0.105	0.015	0	0	-0	0	0	0.098	0.1	0	-0	0	0	0	0	0	-0	0	0.05595	0	0	0	-0	0	0	0	0	0	-0	0	575.342	569.423	330.101	214.579	0.0639649	-1.88606	0.0152977	-0.0118679	6.08316
74	0.0579518	0.0194326	0.0182452	0.0445816	-4.71258e-05	0.033637	0.0251812	-0.03006	0.00354653	-0.158628	0.0368879	0.103736	0.0483718	-0.00125807	0.0246209	-2.15662	-0.00386272	-1.55535	0	0	0	0	-0	0	0	0	-0.1265	0	-0	0	0	0	0	0	-0	0	0.105	0.015	0	0	-0	0	0	0.098	0.1	0	-0	0	0	0	0	0	-0	0	0.05595	0	0	0	-0	0	0	0	0	0	-0	0	575.358	569.433	330.165	214.622	0.063347	-1.8825	0.015342	-0.0118463	6.07654
75	0.0523639	0.0194344	0.0182454	0.04458	-4.59176e-05	0.0336373	0.0251804	-0.0300605	0.00354666	-0.166376	0.0365172	0.105094	0.0485067	-0.00125815	0.0243523	-2.16238	-0.00393628	-1.55552	0	0	0	0	-0	0	0	0	-0.1265	0	-0	0	0	0	0	0	-0	0	0.105	0.015	0	0	-0	0	0	0.098	0.1	0	-0	0	0	0	0	0	-0	0	0.05595	0	0	0	-0	0	0	0	0	0	-0	0	575.389	569.46	330.308	214.718	0.0622029	-1.87496	0.0154261	-0.0118018	6.05838
76	0.0507467	0.019442	0.0182422	0.0445769	-5.20052e-05	0.0336334	0.0251809	-0.0300597	0.00354644	-0.164374	0.045581	0.106956	0.0485439	-0.00125795	0.0242753	-2.16408	-0.00399738	-1.55561	0	0	0	0	-0	0	0	0	-0.1265	0	-0	0	0	0	0	0	-0	0	0.105	0.015	0	0	-0	0	0	0.098	0.1	0	-0	0	0	0	0	0	-0	0	0.05595	0	0	0	-0	0	0	0	0	0	-0	0	575.406	569.473	330.38	214.766	0.0614108	-1.87086	0.0155019	-0.0117867	6.04855
77	0.0439927	0.0194415	0.0182475	0.0445787	-4.77149e-05	0.0336364	0.0251812	-0.0300603	0.00354725	-0.164834	0.0519523	0.113792	0.0487051	-0.00125851	0.023949	-2.17102	-0.00407765	-1.55579	0	0	0	0	-0	0	0	0	-0.1265	0	-0	0	0	0	0	0	-0	0	0.105	0.015	0	0	-0	0	0	0.098	0.1	0	-0	0	0	0	0	0	-0	0	0.05595	0	0	0	-0	0	0	0	0	0	-0	0	575.44	569.505	330.543	214.872	0.0601124	-1.86188	0.0155819	-0.0117353	6.0273
78	0.0447918	0.0194451	0.0182472	0.0445754	-4.98987e-05	0.033635	0.0251809	-0.0300601	0.00354593	-0.166438	0.04609	0.118619	0.0486836	-0.00125847	0.0239887	-2.17032	-0.00418583	-1.55591	0	0	0	0	-0	0	0	0	-0.1265	0	-0	0	0	0	0	0	-0	0	0.105	0.015	0	0	-0	0	0	0.098	0.1	0	-0	0	0	0	0	0	-0	0	0.05595	0	0	0	-0	0	0	0	0	0	-0	0	575.459	569.519	330.626	214.925	0.0592551	-1.85698	0.0156527	-0.0117125	6.01608
79	0.0481606	0.0194479	0.0182474	0.0445738	-5.06709e-05	0.0336336	0.0251799	-0.0300599	0.00354597	-0.162228	0.0451013	0.119787	0.0486014	-0.00125835	0.0241537	-2.16702	-0.0043086	-1.55601	0	0	0	0	-0	0	0	0	-0.1265	0	-0	0	0	0	0	0	-0	0	0.105	0.015	0	0	-0	0	0	0.098	0.1	0	-0	0	0	0	0	0	-0	0	0.05595	0	0	0	-0	0	0	0	0	0	-0	0	575.473	569.529	330.688	214.965	0.0586212	-1.85334	0.0157047	-0.0116946	6.00803
80	0.0529658	0.0194553	0.0182458	0.044576	-5.63489e-05	0.0336316	0.0251795	-0.0300595	0.00354601	-0.162795	0.0459663	0.119482	0.0484835	-0.00125842	0.0243887	-2.16229	-0.00446082	-1.55612	0	0	0	0	-0	0	0	0	-0.1265	0	-0	0	0	0	0	0	-0	0	0.105	0.015	0	0	-0	0	0	0.098	0.1	0	-0	0	0	0	0	0	-0	0	0.05595	0	0	0	-0	0	0	0	0	0	-0	0	575.488	569.541	330.757	215.008	0.0579527	-1.84959	0.0157646	-0.0116818	5.99845
81	0.0441795	0.0194608	0.0182449	0.044574	-5.89709e-05	0.0336296	0.02518	-0.0300603	0.00354588	-0.167036	0.0435028	0.125276	0.0486948	-0.00125856	0.0239646	-2.17125	-0.00450794	-1.55629	0	0	0	0	-0	0	0	0	-0.1265	0	-0	0	0	0	0	0	-0	0	0.105	0.015	0	0	-0	0	0	0.098	0.1	0	-0	0	0	0	0	0	-0	0	0.05595	0	0	0	-0	0	0	0	0	0	-0	0	575.517	569.569	330.911	215.104	0.0567316	-1.84151	0.0158573	-0.0116392	5.9772
82	0.0404234	0.0194611	0.0182416	0.0445585	-5.89909e-05	0.033624	0.0251793	-0.0300599	0.00354476	-0.16557	0.0454999	0.129559	0.0487823	-0.00125798	0.0237817	-2.17509	-0.00454467	-1.55638	0	0	0	0	-0	0	0	0	-0.1265	0	-0	0	0	0	0	0	-0	0	0.105	0.015	0	0	-0	0	0	0.098	0.1	0	-0	0	0	0	0	0	-0	0	0.05595	0	0	0	-0	0	0	0	0	0	-0	0	575.532	569.581	330.989	215.153	0.0559492	-1.83664	0.0159262	-0.0116134	5.96452
83	0.0417229	0.0194631	0.0182455	0.0445651	-5.91182e-05	0.0336261	0.0251794	-0.0300597	0.00354515	-0.165814	0.0428958	0.132212	0.0487503	-0.00125833	0.0238452	-2.17383	-0.0046016	-1.55642	0	0	0	0	-0	0	0	0	-0.1265	0	-0	0	0	0	0	0	-0	0	0.105	0.015	0	0	-0	0	0	0.098	0.1	0	-0	0	0	0	0	0	-0	0	0.05595	0	0	0	-0	0	0	0	0	0	-0	0	575.54	569.585	331.022	215.173	0.055528	-1.83421	0.0159515	-0.0116066	5.95998
84	0.0423408	0.0194658	0.0182485	0.0445713	-5.96487e-05	0.0336282	0.0251796	-0.0300599	0.0035458	-0.168901	0.0399288	0.130134	0.0487341	-0.00125873	0.0238763	-2.17328	-0.00468725	-1.55651	0	0	0	0	-0	0	0	0	-0.1265	0	-0	0	0	0	0	0	-0	0	0.105	0.015	0	0	-0	0	0	0.098	0.1	0	-0	0	0	0	0	0	-0	0	0.05595	0	0	0	-0	0	0	0	0	0	-0	0	575.554	569.595	331.089	215.213	0.0549341	-1.8304	0.0159919	-0.011589	5.95109
85	0.0449957	0.0194672	0.0182513	0.0445749	-5.97238e-05	0.0336298	0.0251796	-0.03006	0.00354608	-0.172085	0.0390047	0.128231	0.04867	-0.001259	0.0240061	-2.17066	-0.00476381	-1.55657	0	0	0	0	-0	0	0	0	-0.1265	0	-0	0	0	0	0	0	-0	0	0.105	0.015	0	0	-0	0	0	0.098	0.1	0	-0	0	0	0	0	0	-0	0	0.05595	0	0	0	-0	0	0	0	0	0	-0	0	575.562	569.6	331.123	215.233	0.0545825	-1.82844	0.0160162	-0.0115802	5.94737
86	0.0439421	0.0194699	0.0182515	0.0445749	-6.09056e-05	0.0336296	0.0251799	-0.0300604	0.00354668	-0.175193	0.0427108	0.134032	0.0486937	-0.00125913	0.0239561	-2.17179	-0.00483573	-1.55666	0	0	0	0	-0	0	0	0	-0.1265	0	-0	0	0	0	0	0	-0	0	0.105	0.015	0	0	-0	0	0	0.098	0.1	0	-0	0	0	0	0	0	-0	0	0.05595	0	0	0	-0	0	0	0	0	0	-0	0	575.577	569.613	331.198	215.278	0.0539978	-1.8247	0.0160637	-0.0115589	5.93774
87	0.043847	0.0194699	0.0182555	0.0445787	-5.96583e-05	0.033632	0.0251802	-0.0300601	0.00354657	-0.17701	0.0382944	0.13493	0.0486953	-0.00125955	0.0239519	-2.17192	-0.00487757	-1.55671	0	0	0	0	-0	0	0	0	-0.1265	0	-0	0	0	0	0	0	-0	0	0.105	0.015	0	0	-0	0	0	0.098	0.1	0	-0	0	0	0	0	0	-0	0	0.05595	0	0	0	-0	0	0	0	0	0	-0	0	575.586	569.619	331.237	215.3	0.0536213	-1.82248	0.0160871	-0.0115481	5.93354
88	0.0440956	0.0194717	0.0182555	0.0445771	-5.97039e-05	0.0336317	0.0251801	-0.0300603	0.00354644	-0.180657	0.0357236	0.136771	0.0486876	-0.0012596	0.0239654	-2.17176	-0.00497917	-1.55682	0	0	0	0	-0	0	0	0	-0.1265	0	-0	0	0	0	0	0	-0	0	0.105	0.015	0	0	-0	0	0	0.098	0.1	0	-0	0	0	0	0	0	-0	0	0.05595	0	0	0	-0	0	0	0	0	0	-0	0	575.604	569.633	331.323	215.35	0.0529872	-1.81836	0.0161381	-0.0115217	5.92313
89	0.0379302	0.0194747	0.0182563	0.0445754	-5.99736e-05	0.0336311	0.0251801	-0.0300604	0.00354636	-0.180334	0.0364823	0.141985	0.0488332	-0.00125977	0.0236671	-2.17806	-0.00504106	-1.55696	0	0	0	0	-0	0	0	0	-0.1265	0	-0	0	0	0	0	0	-0	0	0.105	0.015	0	0	-0	0	0	0.098	0.1	0	-0	0	0	0	0	0	-0	0	0.05595	0	0	0	-0	0	0	0	0	0	-0	0	575.629	569.654	331.452	215.424	0.0519883	-1.81166	0.0162117	-0.0114831	5.9058
90	0.0384701	0.0194781	0.018253	0.0445668	-6.27461e-05	0.0336269	0.0251798	-0.0300601	0.00354572	-0.178876	0.0409536	0.14349	0.0488185	-0.00125938	0.0236943	-2.17759	-0.00512613	-1.55705	0	0	0	0	-0	0	0	0	-0.1265	0	-0	0	0	0	0	0	-0	0	0.105	0.015	0	0	-0	0	0	0.098	0.1	0	-0	0	0	0	0	0	-0	0	0.05595	0	0	0	-0	0	0	0	0	0	-0	0	575.641	569.663	331.517	215.462	0.0513403	-1.80798	0.0162749	-0.0114654	5.89623
91	0.0411968	0.0194807	0.0182568	0.0445696	-6.13494e-05	0.0336285	0.0251817	-0.0300616	0.003547	-0.181607	0.0327019	0.134565	0.0487513	-0.0012599	0.0238291	-2.17504	-0.00537392	-1.5573	0	0	0	0	-0	0	0	0	-0.1265	0	-0	0	0	0	0	0	-0	0	0.105	0.015	0	0	-0	0	0	0.098	0.1	0	-0	0	0	0	0	0	-0	0	0.05595	0	0	0	-0	0	0	0	0	0	-0	0	575.672	569.692	331.702	215.564	0.0500495	-1.79867	0.016357	-0.0114095	5.87167
92	0.0441216	0.0194741	0.0182658	0.0445713	-5.31818e-05	0.0336329	0.0251818	-0.030061	0.00354695	-0.17937	0.0404333	0.136689	0.0486804	-0.0012605	0.023972	-2.17221	-0.00551711	-1.55743	0	0	0	0	-0	0	0	0	-0.1265	0	-0	0	0	0	0	0	-0	0	0.105	0.015	0	0	-0	0	0	0.098	0.1	0	-0	0	0	0	0	0	-0	0	0.05595	0	0	0	-0	0	0	0	0	0	-0	0	575.692	569.704	331.796	215.616	0.0491883	-1.79306	0.0164046	-0.0113724	5.86079
93	0.0489848	0.0194793	0.0182653	0.0445708	-5.60244e-05	0.0336331	0.0251805	-0.0300605	0.00354645	-0.179376	0.0411888	0.136484	0.0485616	-0.00126046	0.0242105	-2.16742	-0.00567407	-1.55757	0	0	0	0	-0	0	0	0	-0.1265	0	-0	0	0	0	0	0	-0	0	0.105	0.015	0	0	-0	0	0	0.098	0.1	0	-0	0	0	0	0	0	-0	0	0.05595	0	0	0	-0	0	0	0	0	0	-0	0	575.709	569.715	331.876	215.659	0.0485246	-1.7892	0.0164673	-0.0113512	5.8511
94	0.0481198	0.0194886	0.0182596	0.0445671	-6.46197e-05	0.0336279	0.0251798	-0.0300604	0.003546	-0.176736	0.0394851	0.133802	0.0485807	-0.00126007	0.0241698	-2.16832	-0.00570499	-1.55762	0	0	0	0	-0	0	0	0	-0.1265	0	-0	0	0	0	0	0	-0	0	0.105	0.015	0	0	-0	0	0	0.098	0.1	0	-0	0	0	0	0	0	-0	0	0.05595	0	0	0	-0	0	0	0	0	0	-0	0	575.716	569.719	331.908	215.677	0.0480961	-1.78747	0.0165251	-0.0113515	5.84594
95	0.0465217	0.0194924	0.0182611	0.0445692	-6.65067e-05	0.0336274	0.0251804	-0.0300609	0.00354605	-0.171441	0.0438334	0.132266	0.0486179	-0.00126035	0.0240934	-2.16998	-0.00576198	-1.5577	0	0	0	0	-0	0	0	0	-0.1265	0	-0	0	0	0	0	0	-0	0	0.105	0.015	0	0	-0	0	0	0.098	0.1	0	-0	0	0	0	0	0	-0	0	0.05595	0	0	0	-0	0	0	0	0	0	-0	0	575.729	569.729	331.976	215.714	0.0475396	-1.78402	0.01657	-0.0113357	5.83714
96	0.0383434	0.0194917	0.0182637	0.0445662	-6.3732e-05	0.0336276	0.02518	-0.0300608	0.00354624	-0.167571	0.04124	0.128998	0.0488135	-0.00126053	0.0236969	-2.17825	-0.00576972	-1.55778	0	0	0	0	-0	0	0	0	-0.1265	0	-0	0	0	0	0	0	-0	0	0.105	0.015	0	0	-0	0	0	0.098	0.1	0	-0	0	0	0	0	0	-0	0	0.05595	0	0	0	-0	0	0	0	0	0	-0	0	575.747	569.744	332.078	215.768	0.0468054	-1.77877	0.0166178	-0.0113016	5.82355
97	0.0363112	0.0194982	0.0182578	0.0445555	-6.87059e-05	0.0336222	0.0251798	-0.0300615	0.00354476	-0.16074	0.0424554	0.134049	0.048858	-0.00126016	0.0235991	-2.18043	-0.005921	-1.55797	0	0	0	0	-0	0	0	0	-0.1265	0	-0	0	0	0	0	0	-0	0	0.105	0.015	0	0	-0	0	0	0.098	0.1	0	-0	0	0	0	0	0	-0	0	0.05595	0	0	0	-0	0	0	0	0	0	-0	0	575.773	569.769	332.229	215.848	0.0455552	-1.76982	0.0167154	-0.0112596	5.797
98	0.0365176	0.019499	0.0182617	0.044555	-6.68135e-05	0.033622	0.0251799	-0.0300607	0.00354514	-0.159318	0.0473022	0.135749	0.0488519	-0.00126033	0.0236098	-2.1803	-0.00601337	-1.55807	0	0	0	0	-0	0	0	0	-0.1265	0	-0	0	0	0	0	0	-0	0	0.105	0.015	0	0	-0	0	0	0.098	0.1	0	-0	0	0	0	0	0	-0	0	0.05595	0	0	0	-0	0	0	0	0	0	-0	0	575.788	569.779	332.307	215.888	0.04477	-1.76472	0.0167664	-0.0112359	5.78506
99	0.0369979	0.0195015	0.0182653	0.0445609	-6.70855e-05	0.0336245	0.0251801	-0.0300609	0.00354562	-0.160929	0.0452736	0.131253	0.048839	-0.00126074	0.0236344	-2.17989	-0.00611142	-1.55818	0	0	0	0	-0	0	0	0	-0.1265	0	-0	0	0	0	0	0	-0	0	0.105	0.015	0	0	-0	0	0	0.098	0.1	0	-0	0	0	0	0	0	-0	0	0.05595	0	0	0	-0	0	0	0	0	0	-0	0	575.804	569.791	332.386	215.929	0.0440605	-1.76007	0.0168119	-0.0112139	5.77406
100	0.0320523	0.0195054	0.0182679	0.0445622	-6.72635e-05	0.0336255	0.0251797	-0.0300609	0.00354596	-0.155151	0.0390659	0.130598	0.0489532	-0.00126117	0.0233952	-2.18499	-0.00625719	-1.55838	0	0	0	0	-0	0	0	0	-0.1265	0	-0	0	0	0	0	0	-0	0	0.105	0.015	0	0	-0	0	0	0.098	0.1	0	-0	0	0	0	0	0	-0	0	0.05595	0	0	0	-0	0	0	0	0	0	-0	0	575.833	569.815	332.568	216.02	0.042822	-1.75125	0.0168996	-0.0111592	5.74998
