Stefan210/kinematic_calibration/src/kinematic_calibration/validation/experiments/experiments/impact_noise/bad_precision/larm_noise_4_pixel_rk_true/optimization_intermediate_results.csv
iteration	HeadPitch_offset	HeadYaw_offset	LElbowRoll_offset	LElbowYaw_offset	LShoulderPitch_offset	LShoulderRoll_offset	marker_transform_larm_tx	marker_transform_larm_ty	marker_transform_larm_tz	marker_transform_larm_rr	marker_transform_larm_rp	marker_transform_larm_ry	camera_transform_tx	camera_transform_ty	camera_transform_tz	camera_transform_rr	camera_transform_rp	camera_transform_ry	HeadPitch_transform_tx	HeadPitch_transform_ty	HeadPitch_transform_tz	HeadPitch_transform_rr	HeadPitch_transform_rp	HeadPitch_transform_ry	HeadYaw_transform_tx	HeadYaw_transform_ty	HeadYaw_transform_tz	HeadYaw_transform_rr	HeadYaw_transform_rp	HeadYaw_transform_ry	LElbowRoll_transform_tx	LElbowRoll_transform_ty	LElbowRoll_transform_tz	LElbowRoll_transform_rr	LElbowRoll_transform_rp	LElbowRoll_transform_ry	LElbowYaw_transform_tx	LElbowYaw_transform_ty	LElbowYaw_transform_tz	LElbowYaw_transform_rr	LElbowYaw_transform_rp	LElbowYaw_transform_ry	LShoulderPitch_transform_tx	LShoulderPitch_transform_ty	LShoulderPitch_transform_tz	LShoulderPitch_transform_rr	LShoulderPitch_transform_rp	LShoulderPitch_transform_ry	LShoulderRoll_transform_tx	LShoulderRoll_transform_ty	LShoulderRoll_transform_tz	LShoulderRoll_transform_rr	LShoulderRoll_transform_rp	LShoulderRoll_transform_ry	LWristYaw_transform_tx	LWristYaw_transform_ty	LWristYaw_transform_tz	LWristYaw_transform_rr	LWristYaw_transform_rp	LWristYaw_transform_ry	l_wrist_joint_transform_tx	l_wrist_joint_transform_ty	l_wrist_joint_transform_tz	l_wrist_joint_transform_rr	l_wrist_joint_transform_rp	l_wrist_joint_transform_ry	camera_fx	camera_fy	camera_cx	camera_cy	camera_D0	camera_D1	camera_D2	camera_D3	camera_D4	
0	0.0249164	-0.0307543	0.000853157	4.65819e-06	-0.000318322	-0.00310766	0.05071	0	0.01774	-2.26369	1.66533e-16	-1.5708	545.901	551.038	324.928	201.58	0.0255298	2.61142	-0.0636736	-0.0350419	0.213964
1	-0.0166219	-0.000610272	0.0363607	0.0241025	0.0156564	0.0274324	0.0264322	-0.0305242	0.00171397	-0.000101168	-0.00039868	-0.00289947	0.0553646	-0.00198797	0.0137588	-2.19593	0.00596711	-1.5337	0	0	0	0	-0	0	0	0	-0.1265	0	-0	0	0	0	0	0	-0	0	0.105	0.015	0	0	-0	0	0	0.098	0.1	0	-0	0	0	0	0	0	-0	0	0.05595	0	0	0	-0	0	0	0	0	0	-0	0	545.901	551.039	324.928	201.581	-0.00203164	2.6024	-0.086844	0.0245841	0.212114
2	-0.0158287	0.0143532	0.0332435	0.0201566	0.00493712	0.0253371	0.0258874	-0.0306188	0.00137504	-6.23733e-05	-0.000365838	-0.00297577	0.0552977	-0.00196527	0.0150398	-2.19948	0.00305227	-1.55023	0	0	0	0	-0	0	0	0	-0.1265	0	-0	0	0	0	0	0	-0	0	0.105	0.015	0	0	-0	0	0	0.098	0.1	0	-0	0	0	0	0	0	-0	0	0.05595	0	0	0	-0	0	0	0	0	0	-0	0	545.913	551.038	324.924	201.597	-0.332717	2.31697	-0.0233877	-0.00581083	0.123442
3	-0.0155958	0.0198274	0.0308616	0.0208234	0.000801592	0.0227022	0.0256229	-0.0305888	0.00142757	-7.37101e-05	-0.000387056	-0.00299389	0.0557224	-0.00191381	0.0148573	-2.20029	0.00129794	-1.55676	0	0	0	0	-0	0	0	0	-0.1265	0	-0	0	0	0	0	0	-0	0	0.105	0.015	0	0	-0	0	0	0.098	0.1	0	-0	0	0	0	0	0	-0	0	0.05595	0	0	0	-0	0	0	0	0	0	-0	0	545.942	551.035	324.922	201.623	-0.460799	1.8122	0.00343242	-0.0179035	-0.050399
4	-0.015452	0.0211874	0.0291585	0.0231394	3.19931e-05	0.0218934	0.0255009	-0.0305543	0.00160882	-0.000118137	-0.000378128	-0.00301846	0.0553217	-0.00197026	0.0152276	-2.20128	0.0017729	-1.55812	0	0	0	0	-0	0	0	0	-0.1265	0	-0	0	0	0	0	0	-0	0	0.105	0.015	0	0	-0	0	0	0.098	0.1	0	-0	0	0	0	0	0	-0	0	0.05595	0	0	0	-0	0	0	0	0	0	-0	0	546.001	551.023	324.922	201.649	-0.354914	1.08608	0.00970191	-0.0201046	-0.320084
5	-0.0152914	0.0212605	0.0281341	0.0238877	-9.67712e-05	0.0213727	0.0254224	-0.0305339	0.00165398	-0.00019264	-0.000717035	-0.00296213	0.0546284	-0.00196998	0.0159042	-2.20231	0.00227397	-1.55851	0	0	0	0	-0	0	0	0	-0.1265	0	-0	0	0	0	0	0	-0	0	0.105	0.015	0	0	-0	0	0	0.098	0.1	0	-0	0	0	0	0	0	-0	0	0.05595	0	0	0	-0	0	0	0	0	0	-0	0	546.117	550.991	324.934	201.66	-0.184535	0.403518	0.00815833	-0.0197089	-0.58109
6	-0.0149905	0.0207564	0.028022	0.0240571	2.46546e-06	0.0210398	0.0254022	-0.030528	0.00165795	0.000394235	-0.00133573	-0.00314477	0.0541945	-0.00199271	0.0164069	-2.20307	0.0025881	-1.55802	0	0	0	0	-0	0	0	0	-0.1265	0	-0	0	0	0	0	0	-0	0	0.105	0.015	0	0	-0	0	0	0.098	0.1	0	-0	0	0	0	0	0	-0	0	0.05595	0	0	0	-0	0	0	0	0	0	-0	0	546.389	550.914	324.967	201.665	-0.0740285	-0.0245245	0.00642492	-0.0193311	-0.699223
7	-0.015696	0.0198742	0.0282285	0.0240421	0.000362016	0.0208949	0.0254111	-0.0305362	0.0016508	0.0012146	-0.00145912	-0.00387698	0.0539741	-0.00199633	0.0166678	-2.20473	0.00286406	-1.55727	0	0	0	0	-0	0	0	0	-0.1265	0	-0	0	0	0	0	0	-0	0	0.105	0.015	0	0	-0	0	0	0.098	0.1	0	-0	0	0	0	0	0	-0	0	0.05595	0	0	0	-0	0	0	0	0	0	-0	0	547.126	550.747	325.042	201.7	-0.037829	-0.237772	0.00733745	-0.0191714	-0.424606
8	-0.0134681	0.0196275	0.0283775	0.023945	0.000471061	0.0207947	0.0254199	-0.0305429	0.00165157	-7.17087e-05	-0.00354431	0.000304649	0.0535803	-0.00201527	0.0172515	-2.20358	0.0026298	-1.55711	0	0	0	0	-0	0	0	0	-0.1265	0	-0	0	0	0	0	0	-0	0	0.105	0.015	0	0	-0	0	0	0.098	0.1	0	-0	0	0	0	0	0	-0	0	0.05595	0	0	0	-0	0	0	0	0	0	-0	0	548.939	550.451	325.206	201.783	-0.021534	-0.526467	0.0120868	-0.0191962	0.348502
9	-0.00820631	0.0197597	0.0284007	0.0240841	0.000490626	0.0207125	0.0254243	-0.0305461	0.00168872	0.00244484	-0.0141707	0.00694333	0.0529079	-0.00202787	0.0182598	-2.19982	0.00195673	-1.55744	0	0	0	0	-0	0	0	0	-0.1265	0	-0	0	0	0	0	0	-0	0	0.105	0.015	0	0	-0	0	0	0.098	0.1	0	-0	0	0	0	0	0	-0	0	0.05595	0	0	0	-0	0	0	0	0	0	-0	0	552.439	550.401	325.475	201.91	-0.0272458	-0.869801	0.0214324	-0.0193305	1.46627
10	0.00989175	0.0200994	0.0282661	0.0243175	0.000472251	0.0205942	0.0254488	-0.0305848	0.00174334	-0.0256885	-0.037305	-0.0262386	0.0518901	-0.00203969	0.0200429	-2.18342	0.00126786	-1.55766	0	0	0	0	-0	0	0	0	-0.1265	0	-0	0	0	0	0	0	-0	0	0.105	0.015	0	0	-0	0	0	0.098	0.1	0	-0	0	0	0	0	0	-0	0	0.05595	0	0	0	-0	0	0	0	0	0	-0	0	557.504	552.007	325.536	201.979	-0.0731734	-0.966075	0.0313215	-0.0196159	2.1187
11	0.038943	0.0201965	0.0283766	0.0245437	0.000567719	0.0204141	0.0254518	-0.0305786	0.00177736	-0.00441594	-0.0244067	-0.0116765	0.0510191	-0.00210926	0.0218493	-2.15491	0.000995368	-1.55744	0	0	0	0	-0	0	0	0	-0.1265	0	-0	0	0	0	0	0	-0	0	0.105	0.015	0	0	-0	0	0	0.098	0.1	0	-0	0	0	0	0	0	-0	0	0.05595	0	0	0	-0	0	0	0	0	0	-0	0	559.82	552.769	325.539	201.936	-0.108195	-0.906898	0.0356649	-0.0200122	2.20617
12	0.0179053	0.0202485	0.0283843	0.0245713	0.000600762	0.0203568	0.0254545	-0.0305744	0.00178641	-0.0218226	-0.0471376	-0.0016685	0.051288	-0.00211851	0.0209392	-2.17623	0.00113348	-1.55748	0	0	0	0	-0	0	0	0	-0.1265	0	-0	0	0	0	0	0	-0	0	0.105	0.015	0	0	-0	0	0	0.098	0.1	0	-0	0	0	0	0	0	-0	0	0.05595	0	0	0	-0	0	0	0	0	0	-0	0	561.26	553.383	325.58	201.876	-0.131419	-0.835474	0.0379628	-0.0201234	2.14478
13	0.0253542	0.0204975	0.0282361	0.0246779	0.000562183	0.0203301	0.0254446	-0.0305684	0.00180785	-0.034999	-0.0594289	0.000255744	0.05093	-0.00211519	0.021541	-2.16925	0.000834613	-1.5578	0	0	0	0	-0	0	0	0	-0.1265	0	-0	0	0	0	0	0	-0	0	0.105	0.015	0	0	-0	0	0	0.098	0.1	0	-0	0	0	0	0	0	-0	0	0.05595	0	0	0	-0	0	0	0	0	0	-0	0	562.97	554.344	325.617	201.864	-0.158646	-0.719611	0.0402424	-0.0202062	1.96969
14	0.0283618	0.0206377	0.0281096	0.0247729	0.000510701	0.0203808	0.0254422	-0.0305662	0.00182118	-0.033664	-0.0611978	-0.0153816	0.0507843	-0.00209797	0.0217878	-2.16647	0.000600277	-1.55808	0	0	0	0	-0	0	0	0	-0.1265	0	-0	0	0	0	0	0	-0	0	0.105	0.015	0	0	-0	0	0	0.098	0.1	0	-0	0	0	0	0	0	-0	0	0.05595	0	0	0	-0	0	0	0	0	0	-0	0	563.681	554.748	325.657	201.863	-0.167762	-0.679087	0.0411637	-0.0202166	1.89182
15	0.0213372	0.0207284	0.0279684	0.0248573	0.000470502	0.0204516	0.0254395	-0.0305642	0.00183117	-0.0450884	-0.0695822	-0.0139768	0.0508431	-0.00207839	0.0215377	-2.17379	0.000510505	-1.55831	0	0	0	0	-0	0	0	0	-0.1265	0	-0	0	0	0	0	0	-0	0	0.105	0.015	0	0	-0	0	0	0.098	0.1	0	-0	0	0	0	0	0	-0	0	0.05595	0	0	0	-0	0	0	0	0	0	-0	0	564.532	555.362	325.704	201.876	-0.178486	-0.624828	0.0419828	-0.0202582	1.78326
16	0.0114055	0.0207827	0.027845	0.0249018	0.000450736	0.020509	0.0254394	-0.0305777	0.00184827	-0.0737683	-0.0656813	0.00960002	0.0509506	-0.00206025	0.0211508	-2.18414	0.000446952	-1.5585	0	0	0	0	-0	0	0	0	-0.1265	0	-0	0	0	0	0	0	-0	0	0.105	0.015	0	0	-0	0	0	0.098	0.1	0	-0	0	0	0	0	0	-0	0	0.05595	0	0	0	-0	0	0	0	0	0	-0	0	565.582	556.306	325.775	201.94	-0.192392	-0.540128	0.0424668	-0.020285	1.61127
17	0.00110271	0.0208227	0.0277435	0.0249706	0.00045418	0.0205416	0.0254345	-0.0305646	0.00184784	-0.090851	-0.052118	-0.000429176	0.0511001	-0.00205152	0.0207068	-2.19482	0.000475832	-1.55864	0	0	0	0	-0	0	0	0	-0.1265	0	-0	0	0	0	0	0	-0	0	0.105	0.015	0	0	-0	0	0	0.098	0.1	0	-0	0	0	0	0	0	-0	0	0.05595	0	0	0	-0	0	0	0	0	0	-0	0	566.316	557.039	325.829	202.018	-0.201531	-0.475455	0.0426006	-0.0203282	1.47032
18	0.0045671	0.020876	0.0276275	0.0249806	0.000476848	0.0205656	0.0254403	-0.0305685	0.0018549	-0.0746011	-0.0282917	0.00718929	0.0508704	-0.00203879	0.0210517	-2.19308	-5.38928e-05	-1.55914	0	0	0	0	-0	0	0	0	-0.1265	0	-0	0	0	0	0	0	-0	0	0.105	0.015	0	0	-0	0	0	0.098	0.1	0	-0	0	0	0	0	0	-0	0	0.05595	0	0	0	-0	0	0	0	0	0	-0	0	568.373	559.67	326.173	202.67	-0.23538	-0.218673	0.0419361	-0.0203176	0.920499
19	0.0189185	0.0208918	0.027636	0.0249505	0.00049691	0.0205455	0.0254303	-0.0305621	0.00185902	-0.0616063	-0.0346277	0.00232596	0.0505491	-0.00204553	0.0218113	-2.17902	-0.000254055	-1.55926	0	0	0	0	-0	0	0	0	-0.1265	0	-0	0	0	0	0	0	-0	0	0.105	0.015	0	0	-0	0	0	0.098	0.1	0	-0	0	0	0	0	0	-0	0	0.05595	0	0	0	-0	0	0	0	0	0	-0	0	568.67	560.103	326.248	202.773	-0.23717	-0.180673	0.0414293	-0.0203519	0.817903
20	0.0321087	0.0209053	0.0275957	0.0249582	0.000504158	0.0205708	0.0254304	-0.0305639	0.00185353	-0.0703146	-0.0221823	-0.017259	0.0501885	-0.00203283	0.0225523	-2.16698	-0.000895803	-1.55977	0	0	0	0	-0	0	0	0	-0.1265	0	-0	0	0	0	0	0	-0	0	0.105	0.015	0	0	-0	0	0	0.098	0.1	0	-0	0	0	0	0	0	-0	0	0.05595	0	0	0	-0	0	0	0	0	0	-0	0	569.698	561.669	326.607	203.247	-0.252361	-0.034957	0.0404342	-0.0202745	0.471875
21	0.0246243	0.0208567	0.0276306	0.0249327	0.00053978	0.0205665	0.0254335	-0.0305682	0.00186284	-0.0610663	-0.0363376	-0.0396824	0.0503252	-0.00203426	0.0222014	-2.17507	-0.00105426	-1.56001	0	0	0	0	-0	0	0	0	-0.1265	0	-0	0	0	0	0	0	-0	0	0.105	0.015	0	0	-0	0	0	0.098	0.1	0	-0	0	0	0	0	0	-0	0	0.05595	0	0	0	-0	0	0	0	0	0	-0	0	570.169	562.507	326.832	203.507	-0.257719	0.0410007	0.0394514	-0.0202431	0.278658
22	0.032117	0.020882	0.0275915	0.0249578	0.000530698	0.0205738	0.0254272	-0.0305606	0.00186482	-0.0556233	-0.0405255	-0.0382475	0.0501443	-0.00202768	0.0226009	-2.16788	-0.00125677	-1.56021	0	0	0	0	-0	0	0	0	-0.1265	0	-0	0	0	0	0	0	-0	0	0.105	0.015	0	0	-0	0	0	0.098	0.1	0	-0	0	0	0	0	0	-0	0	0.05595	0	0	0	-0	0	0	0	0	0	-0	0	570.373	562.869	326.924	203.623	-0.258179	0.0676512	0.0390339	-0.0202293	0.196493
23	0.040316	0.0208973	0.0275441	0.0249692	0.000531074	0.0206131	0.0254239	-0.0305851	0.00188093	-0.0979568	-0.0309566	-0.017686	0.0499077	-0.0020162	0.0230631	-2.1608	-0.00186325	-1.5608	0	0	0	0	-0	0	0	0	-0.1265	0	-0	0	0	0	0	0	-0	0	0.105	0.015	0	0	-0	0	0	0.098	0.1	0	-0	0	0	0	0	0	-0	0	0.05595	0	0	0	-0	0	0	0	0	0	-0	0	571.144	564.152	327.332	204.127	-0.26931	0.183582	0.0381218	-0.0201248	-0.0866248
24	0.0368052	0.0209321	0.0274723	0.025056	0.000539233	0.0206448	0.0254265	-0.0305659	0.00188205	-0.0958949	-0.0225893	-0.00425857	0.0499634	-0.00200904	0.0229182	-2.16496	-0.00207806	-1.56115	0	0	0	0	-0	0	0	0	-0.1265	0	-0	0	0	0	0	0	-0	0	0.105	0.015	0	0	-0	0	0	0.098	0.1	0	-0	0	0	0	0	0	-0	0	0.05595	0	0	0	-0	0	0	0	0	0	-0	0	571.545	564.833	327.545	204.411	-0.274602	0.251751	0.0375705	-0.0200883	-0.267849
25	0.0322729	0.0209046	0.0274809	0.0250044	0.000543005	0.0206566	0.0254247	-0.0305612	0.00187458	-0.0911553	-0.0218137	-0.0131508	0.050056	-0.00200487	0.0227032	-2.16975	-0.00215246	-1.56125	0	0	0	0	-0	0	0	0	-0.1265	0	-0	0	0	0	0	0	-0	0	0.105	0.015	0	0	-0	0	0	0.098	0.1	0	-0	0	0	0	0	0	-0	0	0.05595	0	0	0	-0	0	0	0	0	0	-0	0	571.702	565.131	327.641	204.528	-0.274776	0.274823	0.037117	-0.0200709	-0.339298
26	0.0303482	0.0208665	0.0274905	0.0249801	0.000551149	0.020675	0.025424	-0.0305655	0.00186934	-0.0722935	-0.0195735	-0.00896886	0.0500867	-0.00199939	0.022619	-2.17202	-0.00231245	-1.5614	0	0	0	0	-0	0	0	0	-0.1265	0	-0	0	0	0	0	0	-0	0	0.105	0.015	0	0	-0	0	0	0.098	0.1	0	-0	0	0	0	0	0	-0	0	0.05595	0	0	0	-0	0	0	0	0	0	-0	0	571.915	565.532	327.78	204.69	-0.276391	0.3083	0.0366126	-0.0200312	-0.433004
27	0.0158521	0.0208386	0.0274897	0.0249882	0.000571026	0.0206873	0.025424	-0.0305633	0.00186968	-0.0611173	-0.0159295	-0.0122429	0.0503968	-0.00199705	0.0219085	-2.18704	-0.00242654	-1.56162	0	0	0	0	-0	0	0	0	-0.1265	0	-0	0	0	0	0	0	-0	0	0.105	0.015	0	0	-0	0	0	0.098	0.1	0	-0	0	0	0	0	0	-0	0	0.05595	0	0	0	-0	0	0	0	0	0	-0	0	572.223	566.107	327.993	204.94	-0.280569	0.362255	0.0360298	-0.0199888	-0.571611
28	0.00118986	0.0208195	0.0274953	0.0249866	0.000588831	0.0206951	0.025427	-0.0305878	0.00188266	-0.0995701	-0.0110782	0.00951077	0.0506915	-0.00199584	0.0211901	-2.2025	-0.00269973	-1.562	0	0	0	0	-0	0	0	0	-0.1265	0	-0	0	0	0	0	0	-0	0	0.105	0.015	0	0	-0	0	0	0.098	0.1	0	-0	0	0	0	0	0	-0	0	0.05595	0	0	0	-0	0	0	0	0	0	-0	0	572.662	566.928	328.334	205.324	-0.287639	0.444528	0.0352628	-0.0199126	-0.77835
29	-0.00573978	0.0208625	0.0274512	0.0250626	0.000606525	0.0206852	0.0254281	-0.0305693	0.00188468	-0.094191	-0.0011647	0.0232295	0.0508178	-0.00199992	0.0208584	-2.2101	-0.00290879	-1.56233	0	0	0	0	-0	0	0	0	-0.1265	0	-0	0	0	0	0	0	-0	0	0.105	0.015	0	0	-0	0	0	0.098	0.1	0	-0	0	0	0	0	0	-0	0	0.05595	0	0	0	-0	0	0	0	0	0	-0	0	572.996	567.535	328.587	205.642	-0.29456	0.519597	0.0348301	-0.0199109	-0.969553
30	0.0102828	0.0209688	0.0273779	0.0250956	0.000625947	0.0206953	0.0254127	-0.0305735	0.00188151	-0.135518	0.0284881	0.0146622	0.0504276	-0.00200022	0.0217259	-2.19693	-0.00444695	-1.56392	0	0	0	0	-0	0	0	0	-0.1265	0	-0	0	0	0	0	0	-0	0	0.105	0.015	0	0	-0	0	0	0.098	0.1	0	-0	0	0	0	0	0	-0	0	0.05595	0	0	0	-0	0	0	0	0	0	-0	0	574.174	569.564	329.743	207.1	-0.323506	0.786426	0.033918	-0.019733	-1.62459
31	0.0123151	0.0209016	0.0274284	0.02508	0.000673766	0.0207435	0.0254197	-0.0305654	0.00187941	-0.135944	0.0190066	0.0191996	0.0503807	-0.00199418	0.0218233	-2.19529	-0.00471998	-1.56415	0	0	0	0	-0	0	0	0	-0.1265	0	-0	0	0	0	0	0	-0	0	0.105	0.015	0	0	-0	0	0	0.098	0.1	0	-0	0	0	0	0	0	-0	0	0.05595	0	0	0	-0	0	0	0	0	0	-0	0	574.315	569.922	329.957	207.305	-0.325776	0.842043	0.0331381	-0.0196109	-1.78755
32	0.0118063	0.020906	0.0274402	0.0250556	0.000657723	0.0207483	0.0254207	-0.0305647	0.00187889	-0.131034	0.0176436	0.0267368	0.0503903	-0.00199024	0.021804	-2.19597	-0.00482965	-1.56429	0	0	0	0	-0	0	0	0	-0.1265	0	-0	0	0	0	0	0	-0	0	0.105	0.015	0	0	-0	0	0	0.098	0.1	0	-0	0	0	0	0	0	-0	0	0.05595	0	0	0	-0	0	0	0	0	0	-0	0	574.37	570.06	330.038	207.385	-0.325344	0.859467	0.0328165	-0.0195673	-1.84741
33	0.017551	0.0209173	0.0274208	0.0250629	0.000656054	0.0207655	0.0254237	-0.0305639	0.00188573	-0.140302	0.0387854	0.0363205	0.0502577	-0.00198656	0.0221019	-2.19087	-0.00527316	-1.56477	0	0	0	0	-0	0	0	0	-0.1265	0	-0	0	0	0	0	0	-0	0	0.105	0.015	0	0	-0	0	0	0.098	0.1	0	-0	0	0	0	0	0	-0	0	0.05595	0	0	0	-0	0	0	0	0	0	-0	0	574.622	570.577	330.375	207.719	-0.331653	0.935546	0.0323585	-0.019495	-2.05433
34	0.0171459	0.0209414	0.0273889	0.0250724	0.000648189	0.0207764	0.0254209	-0.0305654	0.00188877	-0.152682	0.0470449	0.0455485	0.0502599	-0.00198337	0.0220912	-2.19175	-0.00555181	-1.56511	0	0	0	0	-0	0	0	0	-0.1265	0	-0	0	0	0	0	0	-0	0	0.105	0.015	0	0	-0	0	0	0.098	0.1	0	-0	0	0	0	0	0	-0	0	0.05595	0	0	0	-0	0	0	0	0	0	-0	0	574.802	570.94	330.611	207.958	-0.335797	0.988985	0.0320477	-0.0194507	-2.20206
35	0.0075461	0.0210157	0.02732	0.0251362	0.000660718	0.0208135	0.025424	-0.0305868	0.00189738	-0.188894	0.0410582	0.0525829	0.0504407	-0.00198006	0.0216386	-2.2034	-0.00674585	-1.56643	0	0	0	0	-0	0	0	0	-0.1265	0	-0	0	0	0	0	0	-0	0	0.105	0.015	0	0	-0	0	0	0.098	0.1	0	-0	0	0	0	0	0	-0	0	0.05595	0	0	0	-0	0	0	0	0	0	-0	0	575.544	572.257	331.646	209.034	-0.357376	1.1971	0.0315066	-0.0192608	-2.73739
36	0.00690686	0.0210316	0.0273284	0.0251764	0.000701749	0.020799	0.0254218	-0.0305692	0.00189918	-0.191752	0.0465254	0.0452357	0.0504536	-0.00199201	0.0216073	-2.20436	-0.00685979	-1.5666	0	0	0	0	-0	0	0	0	-0.1265	0	-0	0	0	0	0	0	-0	0	0.105	0.015	0	0	-0	0	0	0.098	0.1	0	-0	0	0	0	0	0	-0	0	0.05595	0	0	0	-0	0	0	0	0	0	-0	0	575.637	572.468	331.804	209.195	-0.361546	1.24777	0.0312334	-0.0192789	-2.87
37	0.00223386	0.0210394	0.0273365	0.0251477	0.000711965	0.020813	0.0254208	-0.0305669	0.00189777	-0.192211	0.0542639	0.0545999	0.050556	-0.0019889	0.021372	-2.20945	-0.00713176	-1.56687	0	0	0	0	-0	0	0	0	-0.1265	0	-0	0	0	0	0	0	-0	0	0.105	0.015	0	0	-0	0	0	0.098	0.1	0	-0	0	0	0	0	0	-0	0	0.05595	0	0	0	-0	0	0	0	0	0	-0	0	575.767	572.754	332.033	209.415	-0.366413	1.3077	0.0309158	-0.0192005	-3.0358
38	-0.00155483	0.0210518	0.0273288	0.0251472	0.000716109	0.0208351	0.0254198	-0.0305683	0.0018968	-0.180271	0.0589494	0.0574238	0.0506359	-0.00198554	0.0211821	-2.21386	-0.00755632	-1.5673	0	0	0	0	-0	0	0	0	-0.1265	0	-0	0	0	0	0	0	-0	0	0.105	0.015	0	0	-0	0	0	0.098	0.1	0	-0	0	0	0	0	0	-0	0	0.05595	0	0	0	-0	0	0	0	0	0	-0	0	575.967	573.166	332.384	209.75	-0.373909	1.39136	0.0305814	-0.0191049	-3.262
39	0.00633381	0.0210731	0.0273136	0.0251688	0.000728724	0.0208606	0.0254224	-0.0305677	0.00189577	-0.180406	0.0751894	0.0468022	0.0504641	-0.00198406	0.021585	-2.20692	-0.00824196	-1.56805	0	0	0	0	-0	0	0	0	-0.1265	0	-0	0	0	0	0	0	-0	0	0.105	0.015	0	0	-0	0	0	0.098	0.1	0	-0	0	0	0	0	0	-0	0	0.05595	0	0	0	-0	0	0	0	0	0	-0	0	576.263	573.751	332.926	210.262	-0.385249	1.50997	0.0302116	-0.0189837	-3.57711
40	0.00795671	0.0210628	0.0273304	0.0251587	0.000750027	0.0208629	0.0254214	-0.0305725	0.00189543	-0.193287	0.0746895	0.0328132	0.0504286	-0.0019875	0.0216645	-2.20567	-0.00849068	-1.56832	0	0	0	0	-0	0	0	0	-0.1265	0	-0	0	0	0	0	0	-0	0	0.105	0.015	0	0	-0	0	0	0.098	0.1	0	-0	0	0	0	0	0	-0	0	0.05595	0	0	0	-0	0	0	0	0	0	-0	0	576.369	573.991	333.151	210.469	-0.389731	1.56374	0.0299233	-0.0189399	-3.72046
41	-0.0107039	0.021087	0.0273143	0.025195	0.000769404	0.0208823	0.0254216	-0.0305677	0.00189927	-0.184161	0.0522238	0.0374979	0.0508309	-0.00198788	0.020724	-2.22519	-0.0090439	-1.56879	0	0	0	0	-0	0	0	0	-0.1265	0	-0	0	0	0	0	0	-0	0	0.105	0.015	0	0	-0	0	0	0.098	0.1	0	-0	0	0	0	0	0	-0	0	0.05595	0	0	0	-0	0	0	0	0	0	-0	0	576.611	574.484	333.651	210.933	-0.400415	1.67374	0.0296429	-0.0188365	-4.0132
42	-0.00303222	0.0210698	0.0272963	0.0252099	0.000809983	0.0209255	0.0254186	-0.0305729	0.00190167	-0.19964	0.0495445	0.0351891	0.0506619	-0.00198607	0.0211066	-2.21877	-0.00999365	-1.56976	0	0	0	0	-0	0	0	0	-0.1265	0	-0	0	0	0	0	0	-0	0	0.105	0.015	0	0	-0	0	0	0.098	0.1	0	-0	0	0	0	0	0	-0	0	0.05595	0	0	0	-0	0	0	0	0	0	-0	0	576.942	575.179	334.424	211.633	-0.414821	1.82274	0.0292021	-0.0186651	-4.40682
43	-0.0058407	0.0211058	0.0272755	0.0252439	0.000807711	0.020949	0.0254197	-0.0305726	0.00190575	-0.202863	0.0453454	0.0478186	0.0507209	-0.00198217	0.0209663	-2.22196	-0.0102861	-1.57007	0	0	0	0	-0	0	0	0	-0.1265	0	-0	0	0	0	0	0	-0	0	0.105	0.015	0	0	-0	0	0	0.098	0.1	0	-0	0	0	0	0	0	-0	0	0.05595	0	0	0	-0	0	0	0	0	0	-0	0	577.033	575.383	334.65	211.833	-0.418933	1.87489	0.0290068	-0.0185795	-4.55189
44	-0.0089108	0.0211463	0.0272615	0.0252645	0.000802819	0.0209635	0.0254204	-0.0305732	0.00190941	-0.196521	0.0518048	0.0595009	0.0507857	-0.00198206	0.0208127	-2.22555	-0.0106723	-1.57047	0	0	0	0	-0	0	0	0	-0.1265	0	-0	0	0	0	0	0	-0	0	0.105	0.015	0	0	-0	0	0	0.098	0.1	0	-0	0	0	0	0	0	-0	0	0.05595	0	0	0	-0	0	0	0	0	0	-0	0	577.164	575.655	334.964	212.113	-0.425324	1.94539	0.0288494	-0.0185023	-4.74521
45	-0.0127651	0.0211926	0.0272444	0.0252942	0.0008026	0.0209825	0.0254227	-0.030577	0.00191038	-0.190532	0.0483004	0.07971	0.0508662	-0.00198292	0.0206185	-2.23018	-0.0112547	-1.57105	0	0	0	0	-0	0	0	0	-0.1265	0	-0	0	0	0	0	0	-0	0	0.105	0.015	0	0	-0	0	0	0.098	0.1	0	-0	0	0	0	0	0	-0	0	0.05595	0	0	0	-0	0	0	0	0	0	-0	0	577.361	576.048	335.438	212.539	-0.435251	2.04772	0.0286902	-0.0183965	-5.02077
46	-0.0140134	0.0212565	0.0272217	0.0253621	0.000824665	0.0210141	0.0254207	-0.0305739	0.00191126	-0.167985	0.0139783	0.0916629	0.0508892	-0.00198889	0.0205541	-2.23315	-0.0125149	-1.57232	0	0	0	0	-0	0	0	0	-0.1265	0	-0	0	0	0	0	0	-0	0	0.105	0.015	0	0	-0	0	0	0.098	0.1	0	-0	0	0	0	0	0	-0	0	0.05595	0	0	0	-0	0	0	0	0	0	-0	0	577.761	576.813	336.474	213.498	-0.456295	2.25167	0.0285468	-0.0181969	-5.55977
47	-0.0120294	0.0212402	0.0272132	0.0253629	0.000852925	0.0210532	0.0254192	-0.0305738	0.00191773	-0.174048	0.00650959	0.0914042	0.0508524	-0.00198531	0.0206489	-2.2314	-0.0127143	-1.57251	0	0	0	0	-0	0	0	0	-0.1265	0	-0	0	0	0	0	0	-0	0	0.105	0.015	0	0	-0	0	0	0.098	0.1	0	-0	0	0	0	0	0	-0	0	0.05595	0	0	0	-0	0	0	0	0	0	-0	0	577.808	576.935	336.638	213.638	-0.459908	2.29375	0.0283793	-0.0181262	-5.66974
48	-0.00380268	0.0213031	0.027175	0.0254173	0.000843954	0.0210887	0.0254196	-0.0305768	0.00192662	-0.182156	0.009627	0.105973	0.0506873	-0.00198162	0.0210649	-2.22421	-0.0135373	-1.57349	0	0	0	0	-0	0	0	0	-0.1265	0	-0	0	0	0	0	0	-0	0	0.105	0.015	0	0	-0	0	0	0.098	0.1	0	-0	0	0	0	0	0	-0	0	0.05595	0	0	0	-0	0	0	0	0	0	-0	0	578.027	577.395	337.294	214.219	-0.473004	2.42972	0.0282395	-0.0179505	-6.04124
49	-0.0220227	0.0214351	0.0271229	0.0255654	0.000837828	0.0211491	0.0254208	-0.0305729	0.00193874	-0.197834	0.0396722	0.103975	0.0510718	-0.00198677	0.0201383	-2.24537	-0.0158329	-1.57552	0	0	0	0	-0	0	0	0	-0.1265	0	-0	0	0	0	0	0	-0	0	0.105	0.015	0	0	-0	0	0	0.098	0.1	0	-0	0	0	0	0	0	-0	0	0.05595	0	0	0	-0	0	0	0	0	0	-0	0	578.58	578.514	339.097	215.875	-0.504554	2.74297	0.0281348	-0.0175456	-6.88353
50	-0.00475073	0.0214396	0.0271143	0.0255935	0.000860885	0.0212214	0.025423	-0.0305776	0.00193844	-0.199881	0.0530387	0.0898278	0.0507324	-0.00198451	0.0210009	-2.22892	-0.0164791	-1.57645	0	0	0	0	-0	0	0	0	-0.1265	0	-0	0	0	0	0	0	-0	0	0.105	0.015	0	0	-0	0	0	0.098	0.1	0	-0	0	0	0	0	0	-0	0	0.05595	0	0	0	-0	0	0	0	0	0	-0	0	578.719	578.886	339.67	216.364	-0.517127	2.88182	0.027798	-0.0173374	-7.25426
51	-0.00418769	0.0214248	0.0271108	0.0256217	0.000894516	0.0212654	0.0254245	-0.0305818	0.0019486	-0.206875	0.0652776	0.106926	0.0507232	-0.00198547	0.0210132	-2.22894	-0.0169597	-1.57691	0	0	0	0	-0	0	0	0	-0.1265	0	-0	0	0	0	0	0	-0	0	0.105	0.015	0	0	-0	0	0	0.098	0.1	0	-0	0	0	0	0	0	-0	0	0.05595	0	0	0	-0	0	0	0	0	0	-0	0	578.809	579.142	340.081	216.711	-0.526199	2.98129	0.0275668	-0.0172166	-7.52086
52	0.00162108	0.021545	0.0270946	0.0257173	0.00085189	0.0212626	0.0254214	-0.0305867	0.00194925	-0.232456	0.0826726	0.0911523	0.0506124	-0.00199193	0.021306	-2.22409	-0.0176757	-1.57788	0	0	0	0	-0	0	0	0	-0.1265	0	-0	0	0	0	0	0	-0	0	0.105	0.015	0	0	-0	0	0	0.098	0.1	0	-0	0	0	0	0	0	-0	0	0.05595	0	0	0	-0	0	0	0	0	0	-0	0	578.964	579.501	340.679	217.242	-0.539304	3.11941	0.0275071	-0.0170534	-7.89964
53	0.00281467	0.0215372	0.0270768	0.0257665	0.000888621	0.0213242	0.025425	-0.0305834	0.00195555	-0.235215	0.075227	0.104357	0.0505968	-0.0019902	0.0213493	-2.22358	-0.0182315	-1.57844	0	0	0	0	-0	0	0	0	-0.1265	0	-0	0	0	0	0	0	-0	0	0.105	0.015	0	0	-0	0	0	0.098	0.1	0	-0	0	0	0	0	0	-0	0	0.05595	0	0	0	-0	0	0	0	0	0	-0	0	579.067	579.772	341.147	217.648	-0.549916	3.22974	0.0273569	-0.0169171	-8.19589
54	0.0073404	0.0216042	0.0270596	0.0258327	0.000877549	0.021351	0.0254316	-0.0305957	0.00197018	-0.21594	0.0732465	0.081145	0.0505131	-0.0019936	0.0215666	-2.22012	-0.0190424	-1.57941	0	0	0	0	-0	0	0	0	-0.1265	0	-0	0	0	0	0	0	-0	0	0.105	0.015	0	0	-0	0	0	0.098	0.1	0	-0	0	0	0	0	0	-0	0	0.05595	0	0	0	-0	0	0	0	0	0	-0	0	579.222	580.146	341.83	218.264	-0.564526	3.3804	0.0272986	-0.0167314	-8.60428
55	-0.00401086	0.0217226	0.0270761	0.0259212	0.000845212	0.021339	0.0254319	-0.0305879	0.00197766	-0.223063	0.0704292	0.094911	0.0507706	-0.00200914	0.0209929	-2.23232	-0.0197463	-1.57992	0	0	0	0	-0	0	0	0	-0.1265	0	-0	0	0	0	0	0	-0	0	0.105	0.015	0	0	-0	0	0	0.098	0.1	0	-0	0	0	0	0	0	-0	0	0.05595	0	0	0	-0	0	0	0	0	0	-0	0	579.345	580.432	342.346	218.741	-0.577	3.50758	0.0273079	-0.0166082	-8.94537
56	-0.00546635	0.0217282	0.0270727	0.0259195	0.0008569	0.0213783	0.0254289	-0.0305839	0.00197693	-0.224925	0.0711937	0.0854072	0.050807	-0.00200734	0.0209109	-2.23411	-0.0200433	-1.58015	0	0	0	0	-0	0	0	0	-0.1265	0	-0	0	0	0	0	0	-0	0	0.105	0.015	0	0	-0	0	0	0.098	0.1	0	-0	0	0	0	0	0	-0	0	0.05595	0	0	0	-0	0	0	0	0	0	-0	0	579.388	580.559	342.571	218.939	-0.582242	3.56488	0.0272046	-0.0165049	-9.098
57	-0.00436423	0.0217383	0.0270511	0.0259483	0.000855893	0.0214117	0.0254294	-0.0305847	0.00198088	-0.22014	0.0661325	0.071873	0.0507927	-0.00200305	0.0209563	-2.23347	-0.0204375	-1.58056	0	0	0	0	-0	0	0	0	-0.1265	0	-0	0	0	0	0	0	-0	0	0.105	0.015	0	0	-0	0	0	0.098	0.1	0	-0	0	0	0	0	0	-0	0	0.05595	0	0	0	-0	0	0	0	0	0	-0	0	579.449	580.732	342.877	219.213	-0.588924	3.63766	0.0271085	-0.0163867	-9.29796
58	0.00816097	0.0218268	0.0270192	0.0260894	0.000841073	0.0214623	0.0254275	-0.0305936	0.00199352	-0.192367	0.0582566	0.0682394	0.0505468	-0.00200803	0.021573	-2.22297	-0.0218342	-1.58235	0	0	0	0	-0	0	0	0	-0.1265	0	-0	0	0	0	0	0	-0	0	0.105	0.015	0	0	-0	0	0	0.098	0.1	0	-0	0	0	0	0	0	-0	0	0.05595	0	0	0	-0	0	0	0	0	0	-0	0	579.72	581.369	344.091	220.391	-0.612525	3.87913	0.0271286	-0.0160686	-9.95868
59	-0.00193522	0.0218396	0.0270093	0.0261736	0.000845658	0.0215172	0.025432	-0.0305898	0.00200199	-0.206693	0.0668889	0.0802142	0.0507772	-0.00200806	0.0210479	-2.23363	-0.02241	-1.58258	0	0	0	0	-0	0	0	0	-0.1265	0	-0	0	0	0	0	0	-0	0	0.105	0.015	0	0	-0	0	0	0.098	0.1	0	-0	0	0	0	0	0	-0	0	0.05595	0	0	0	-0	0	0	0	0	0	-0	0	579.778	581.572	344.46	220.726	-0.620794	3.9719	0.026937	-0.0159073	-10.2071
60	0.0017909	0.0218785	0.0269996	0.0262316	0.00083455	0.02155	0.0254395	-0.0305892	0.00200314	-0.195415	0.0832695	0.0755022	0.0507103	-0.00201006	0.0212234	-2.23069	-0.0229928	-1.58329	0	0	0	0	-0	0	0	0	-0.1265	0	-0	0	0	0	0	0	-0	0	0.105	0.015	0	0	-0	0	0	0.098	0.1	0	-0	0	0	0	0	0	-0	0	0.05595	0	0	0	-0	0	0	0	0	0	-0	0	579.869	581.846	344.956	221.193	-0.631484	4.08931	0.0268077	-0.0157357	-10.5286
61	0.00468208	0.0219215	0.0270099	0.0262631	0.000833156	0.021562	0.0254387	-0.0305899	0.00200686	-0.202031	0.0794659	0.0885623	0.0506583	-0.00201814	0.0213608	-2.22841	-0.0233975	-1.58383	0	0	0	0	-0	0	0	0	-0.1265	0	-0	0	0	0	0	0	-0	0	0.105	0.015	0	0	-0	0	0	0.098	0.1	0	-0	0	0	0	0	0	-0	0	0.05595	0	0	0	-0	0	0	0	0	0	-0	0	579.932	582.043	345.331	221.551	-0.64031	4.18289	0.0267497	-0.0156299	-10.7795
62	-0.0047621	0.0219781	0.0269958	0.0263422	0.000828345	0.0215934	0.0254454	-0.0305934	0.00201616	-0.213332	0.0615456	0.0744955	0.0508749	-0.00202158	0.0208676	-2.23877	-0.0242047	-1.5843	0	0	0	0	-0	0	0	0	-0.1265	0	-0	0	0	0	0	0	-0	0	0.105	0.015	0	0	-0	0	0	0.098	0.1	0	-0	0	0	0	0	0	-0	0	0.05595	0	0	0	-0	0	0	0	0	0	-0	0	580.031	582.315	345.874	222.085	-0.65314	4.31244	0.0267782	-0.0154645	-11.1296
63	0.00320888	0.0220474	0.0270108	0.0263966	0.000817258	0.0216013	0.025448	-0.0305967	0.00202054	-0.228977	0.0476391	0.0863683	0.0507191	-0.00203269	0.0212643	-2.2315	-0.0245863	-1.58502	0	0	0	0	-0	0	0	0	-0.1265	0	-0	0	0	0	0	0	-0	0	0.105	0.015	0	0	-0	0	0	0.098	0.1	0	-0	0	0	0	0	0	-0	0	0.05595	0	0	0	-0	0	0	0	0	0	-0	0	580.102	582.518	346.283	222.494	-0.663624	4.41822	0.0268066	-0.0153474	-11.4104
64	0.0114624	0.022131	0.0270104	0.0265124	0.000815851	0.0216395	0.0254476	-0.0305939	0.00202394	-0.236763	0.0665256	0.06864	0.0505645	-0.00204379	0.0216595	-2.22477	-0.0254925	-1.58626	0	0	0	0	-0	0	0	0	-0.1265	0	-0	0	0	0	0	0	-0	0	0.105	0.015	0	0	-0	0	0	0.098	0.1	0	-0	0	0	0	0	0	-0	0	0.05595	0	0	0	-0	0	0	0	0	0	-0	0	580.245	582.915	347.118	223.394	-0.683416	4.61984	0.0269032	-0.0151153	-11.9598
65	0.0222426	0.0221568	0.0269959	0.0265744	0.000830323	0.0216994	0.0254474	-0.0306045	0.0020372	-0.212812	0.0704568	0.0548199	0.0503479	-0.00204427	0.0221819	-2.21474	-0.0258786	-1.58707	0	0	0	0	-0	0	0	0	-0.1265	0	-0	0	0	0	0	0	-0	0	0.105	0.015	0	0	-0	0	0	0.098	0.1	0	-0	0	0	0	0	0	-0	0	0.05595	0	0	0	-0	0	0	0	0	0	-0	0	580.298	583.117	347.562	223.853	-0.695369	4.73889	0.026908	-0.0149448	-12.2732
66	0.0355889	0.0222378	0.0269928	0.0266751	0.000802052	0.02171	0.0254481	-0.030599	0.00204501	-0.201013	0.0763553	0.0699726	0.0500657	-0.0020516	0.0228449	-2.20198	-0.0260654	-1.5879	0	0	0	0	-0	0	0	0	-0.1265	0	-0	0	0	0	0	0	-0	0	0.105	0.015	0	0	-0	0	0	0.098	0.1	0	-0	0	0	0	0	0	-0	0	0.05595	0	0	0	-0	0	0	0	0	0	-0	0	580.338	583.27	347.893	224.201	-0.704438	4.83144	0.0269438	-0.0148199	-12.5216
67	0.0277485	0.0222615	0.0269808	0.0267033	0.000797105	0.0217421	0.0254449	-0.030593	0.00204672	-0.199788	0.081337	0.0605773	0.0502539	-0.0020509	0.0224376	-2.21025	-0.026522	-1.58802	0	0	0	0	-0	0	0	0	-0.1265	0	-0	0	0	0	0	0	-0	0	0.105	0.015	0	0	-0	0	0	0.098	0.1	0	-0	0	0	0	0	0	-0	0	0.05595	0	0	0	-0	0	0	0	0	0	-0	0	580.367	583.383	348.147	224.464	-0.711646	4.90286	0.0269549	-0.0147086	-12.7099
68	0.0259338	0.0223025	0.0269529	0.0267589	0.000775526	0.0217713	0.0254449	-0.0305925	0.00205111	-0.189257	0.0901242	0.0626219	0.0503086	-0.00204818	0.0223282	-2.21271	-0.0270469	-1.58847	0	0	0	0	-0	0	0	0	-0.1265	0	-0	0	0	0	0	0	-0	0	0.105	0.015	0	0	-0	0	0	0.098	0.1	0	-0	0	0	0	0	0	-0	0	0.05595	0	0	0	-0	0	0	0	0	0	-0	0	580.414	583.538	348.516	224.857	-0.721328	4.99894	0.0270297	-0.0145649	-12.9697
69	0.0275018	0.0223496	0.0269383	0.0268028	0.000745127	0.0217787	0.0254442	-0.0305897	0.00205551	-0.190401	0.082188	0.0581175	0.0502811	-0.00204909	0.022402	-2.2114	-0.0272336	-1.58876	0	0	0	0	-0	0	0	0	-0.1265	0	-0	0	0	0	0	0	-0	0	0.105	0.015	0	0	-0	0	0	0.098	0.1	0	-0	0	0	0	0	0	-0	0	0.05595	0	0	0	-0	0	0	0	0	0	-0	0	580.434	583.603	348.671	225.019	-0.725835	5.04237	0.0270891	-0.0144954	-13.0841
70	0.0297789	0.0224164	0.0269155	0.0269033	0.000712931	0.0218086	0.025448	-0.0305962	0.00206768	-0.176815	0.0748321	0.0405967	0.0502491	-0.00205183	0.0224973	-2.21021	-0.0279252	-1.58957	0	0	0	0	-0	0	0	0	-0.1265	0	-0	0	0	0	0	0	-0	0	0.105	0.015	0	0	-0	0	0	0.098	0.1	0	-0	0	0	0	0	0	-0	0	0.05595	0	0	0	-0	0	0	0	0	0	-0	0	580.517	583.836	349.241	225.67	-0.739581	5.18176	0.0272559	-0.0143185	-13.4701
71	0.0158759	0.0225437	0.0269113	0.0270768	0.000659378	0.0218301	0.0254512	-0.0305906	0.00207736	-0.168503	0.0575507	0.0445245	0.0505876	-0.00206577	0.0217801	-2.22571	-0.0291258	-1.59019	0	0	0	0	-0	0	0	0	-0.1265	0	-0	0	0	0	0	0	-0	0	0.105	0.015	0	0	-0	0	0	0.098	0.1	0	-0	0	0	0	0	0	-0	0	0.05595	0	0	0	-0	0	0	0	0	0	-0	0	580.625	584.147	349.987	226.612	-0.758089	5.37427	0.0275099	-0.014099	-14.0086
72	0.00294466	0.0225817	0.0269045	0.0271709	0.000656095	0.0218985	0.0254605	-0.0305924	0.00208919	-0.16673	0.0297775	0.0328213	0.0508963	-0.00206986	0.0210852	-2.24013	-0.0303306	-1.59066	0	0	0	0	-0	0	0	0	-0.1265	0	-0	0	0	0	0	0	-0	0	0.105	0.015	0	0	-0	0	0	0.098	0.1	0	-0	0	0	0	0	0	-0	0	0.05595	0	0	0	-0	0	0	0	0	0	-0	0	580.704	584.436	350.72	227.525	-0.77737	5.57115	0.0276487	-0.0138419	-14.5457
73	-0.00104468	0.0226986	0.0269223	0.0272815	0.000606488	0.0218986	0.025461	-0.0305954	0.00209955	-0.169396	0.0425392	0.0489403	0.0510007	-0.0020863	0.020863	-2.24529	-0.0310892	-1.59123	0	0	0	0	-0	0	0	0	-0.1265	0	-0	0	0	0	0	0	-0	0	0.105	0.015	0	0	-0	0	0	0.098	0.1	0	-0	0	0	0	0	0	-0	0	0.05595	0	0	0	-0	0	0	0	0	0	-0	0	580.756	584.651	351.248	228.219	-0.792537	5.73013	0.0278096	-0.0136586	-14.9829
74	-0.00642097	0.0227784	0.0269207	0.0273493	0.000571097	0.021898	0.0254577	-0.0305926	0.00210326	-0.170135	0.0416062	0.0409829	0.051123	-0.00209253	0.0205859	-2.25097	-0.0313983	-1.5913	0	0	0	0	-0	0	0	0	-0.1265	0	-0	0	0	0	0	0	-0	0	0.105	0.015	0	0	-0	0	0	0.098	0.1	0	-0	0	0	0	0	0	-0	0	0.05595	0	0	0	-0	0	0	0	0	0	-0	0	580.761	584.71	351.392	228.395	-0.797394	5.77987	0.0278528	-0.0135667	-15.1137
75	-0.00743193	0.0227932	0.0269049	0.0273837	0.000566853	0.0219291	0.0254575	-0.0305946	0.00210628	-0.162301	0.0391325	0.027264	0.0511569	-0.00209031	0.0205166	-2.25236	-0.0316957	-1.59151	0	0	0	0	-0	0	0	0	-0.1265	0	-0	0	0	0	0	0	-0	0	0.105	0.015	0	0	-0	0	0	0.098	0.1	0	-0	0	0	0	0	0	-0	0	0.05595	0	0	0	-0	0	0	0	0	0	-0	0	580.767	584.787	351.589	228.636	-0.803804	5.84475	0.0278602	-0.0134662	-15.2881
76	-0.0092783	0.0228453	0.0268993	0.0274726	0.000545586	0.0219504	0.0254566	-0.0306003	0.00211128	-0.138272	0.0374683	0.0290831	0.0512162	-0.0020958	0.0203987	-2.25509	-0.0322606	-1.59194	0	0	0	0	-0	0	0	0	-0.1265	0	-0	0	0	0	0	0	-0	0	0.105	0.015	0	0	-0	0	0	0.098	0.1	0	-0	0	0	0	0	0	-0	0	0.05595	0	0	0	-0	0	0	0	0	0	-0	0	580.792	584.943	351.984	229.174	-0.815524	5.96935	0.0279487	-0.0133294	-15.6378
77	-0.00272783	0.022882	0.0268967	0.027568	0.000537559	0.0219844	0.0254639	-0.0305956	0.00211666	-0.145034	0.0203341	0.0344005	0.0511053	-0.00210075	0.0207076	-2.24941	-0.0326237	-1.5926	0	0	0	0	-0	0	0	0	-0.1265	0	-0	0	0	0	0	0	-0	0	0.105	0.015	0	0	-0	0	0	0.098	0.1	0	-0	0	0	0	0	0	-0	0	0.05595	0	0	0	-0	0	0	0	0	0	-0	0	580.806	585.085	352.362	229.704	-0.827165	6.09293	0.0280135	-0.0131889	-15.9819
78	-0.0270326	0.0229618	0.0269119	0.0276909	0.000511173	0.0220125	0.0254605	-0.0306137	0.00213213	-0.107415	0.0120733	0.0264082	0.051643	-0.00211519	0.0194261	-2.27557	-0.0340246	-1.59258	0	0	0	0	-0	0	0	0	-0.1265	0	-0	0	0	0	0	0	-0	0	0.105	0.015	0	0	-0	0	0	0.098	0.1	0	-0	0	0	0	0	0	-0	0	0.05595	0	0	0	-0	0	0	0	0	0	-0	0	580.845	585.339	353.028	230.822	-0.847261	6.31573	0.0282564	-0.0129776	-16.6268
79	-0.040194	0.0229391	0.0269311	0.0277846	0.00054623	0.0220858	0.0254625	-0.0305982	0.00213364	-0.108855	0.0152819	0.0284114	0.0519171	-0.00211939	0.0186993	-2.28961	-0.0348118	-1.59245	0	0	0	0	-0	0	0	0	-0.1265	0	-0	0	0	0	0	0	-0	0	0.105	0.015	0	0	-0	0	0	0.098	0.1	0	-0	0	0	0	0	0	-0	0	0.05595	0	0	0	-0	0	0	0	0	0	-0	0	580.845	585.489	353.407	231.374	-0.861156	6.46046	0.0281956	-0.0127989	-17.0163
80	-0.0557383	0.0230072	0.0269145	0.027877	0.000511974	0.0221125	0.0254713	-0.0306041	0.00213795	-0.105576	0.0156355	0.0541945	0.0522323	-0.0021226	0.0178515	-2.30647	-0.0358577	-1.59247	0	0	0	0	-0	0	0	0	-0.1265	0	-0	0	0	0	0	0	-0	0	0.105	0.015	0	0	-0	0	0	0.098	0.1	0	-0	0	0	0	0	0	-0	0	0.05595	0	0	0	-0	0	0	0	0	0	-0	0	580.85	585.647	353.891	232.179	-0.877012	6.63508	0.0283769	-0.0125831	-17.5172
81	-0.0652491	0.0230444	0.0269491	0.0278946	0.000504362	0.0221008	0.0254671	-0.0305965	0.00214163	-0.106481	0.00859132	0.0579975	0.0524031	-0.00213584	0.0173467	-2.31627	-0.0361853	-1.59224	0	0	0	0	-0	0	0	0	-0.1265	0	-0	0	0	0	0	0	-0	0	0.105	0.015	0	0	-0	0	0	0.098	0.1	0	-0	0	0	0	0	0	-0	0	0.05595	0	0	0	-0	0	0	0	0	0	-0	0	580.84	585.688	354.007	232.351	-0.881748	6.68557	0.0283798	-0.0125329	-17.6473
82	-0.0732684	0.0231234	0.0269352	0.0279973	0.000465965	0.0221151	0.0254666	-0.0305936	0.00214982	-0.107242	0.0132888	0.0571053	0.0525679	-0.00213987	0.0168933	-2.32541	-0.0369223	-1.59241	0	0	0	0	-0	0	0	0	-0.1265	0	-0	0	0	0	0	0	-0	0	0.105	0.015	0	0	-0	0	0	0.098	0.1	0	-0	0	0	0	0	0	-0	0	0.05595	0	0	0	-0	0	0	0	0	0	-0	0	580.831	585.814	354.378	233.024	-0.89499	6.8353	0.0285374	-0.0123642	-18.0874
83	-0.0710899	0.0231772	0.0269199	0.0280495	0.000430445	0.0221269	0.0254682	-0.0305929	0.00215519	-0.104176	0.02256	0.061374	0.0525415	-0.00214054	0.0169964	-2.32353	-0.0370744	-1.59266	0	0	0	0	-0	0	0	0	-0.1265	0	-0	0	0	0	0	0	-0	0	0.105	0.015	0	0	-0	0	0	0.098	0.1	0	-0	0	0	0	0	0	-0	0	0.05595	0	0	0	-0	0	0	0	0	0	-0	0	580.821	585.853	354.491	233.211	-0.899559	6.88387	0.0285851	-0.0122725	-18.2215
84	-0.0789433	0.0232615	0.0269192	0.0281631	0.000381043	0.0221359	0.0254774	-0.0305904	0.00215767	-0.0892824	-0.0133996	0.0713837	0.0527021	-0.00215026	0.0165535	-2.3326	-0.0377536	-1.59279	0	0	0	0	-0	0	0	0	-0.1265	0	-0	0	0	0	0	0	-0	0	0.105	0.015	0	0	-0	0	0	0.098	0.1	0	-0	0	0	0	0	0	-0	0	0.05595	0	0	0	-0	0	0	0	0	0	-0	0	580.802	585.968	354.829	233.943	-0.91234	7.03383	0.0287743	-0.0121442	-18.6746
85	-0.0844695	0.0232838	0.0269422	0.0281823	0.00037651	0.0221493	0.0254757	-0.0306006	0.00216365	-0.0693971	-0.00741767	0.0713677	0.0528071	-0.00215955	0.0162407	-2.33872	-0.0381209	-1.59274	0	0	0	0	-0	0	0	0	-0.1265	0	-0	0	0	0	0	0	-0	0	0.105	0.015	0	0	-0	0	0	0.098	0.1	0	-0	0	0	0	0	0	-0	0	0.05595	0	0	0	-0	0	0	0	0	0	-0	0	580.784	586.032	355.016	234.312	-0.920479	7.12339	0.0288359	-0.0120753	-18.9277
86	-0.0862047	0.023365	0.0269588	0.0283373	0.000345311	0.02216	0.0254818	-0.0305965	0.00216885	-0.0823163	0.0191115	0.0574147	0.0528694	-0.00217364	0.0161088	-2.34204	-0.038651	-1.59304	0	0	0	0	-0	0	0	0	-0.1265	0	-0	0	0	0	0	0	-0	0	0.105	0.015	0	0	-0	0	0	0.098	0.1	0	-0	0	0	0	0	0	-0	0	0.05595	0	0	0	-0	0	0	0	0	0	-0	0	580.75	586.156	355.342	235.25	-0.936128	7.31571	0.0290266	-0.01194	-19.5223
87	-0.0695276	0.0233922	0.0269726	0.0283856	0.000341637	0.0221836	0.0254788	-0.030599	0.00218641	-0.104244	0.0423781	0.0682701	0.0526221	-0.00218077	0.0169606	-2.32611	-0.0385493	-1.59386	0	0	0	0	-0	0	0	0	-0.1265	0	-0	0	0	0	0	0	-0	0	0.105	0.015	0	0	-0	0	0	0.098	0.1	0	-0	0	0	0	0	0	-0	0	0.05595	0	0	0	-0	0	0	0	0	0	-0	0	580.716	586.217	355.534	235.721	-0.946059	7.42986	0.0290912	-0.0118384	-19.8554
88	-0.0748638	0.0234612	0.0269583	0.0284668	0.000296563	0.0221864	0.0254785	-0.0305947	0.00218937	-0.0972986	0.0420316	0.0687112	0.052723	-0.00218231	0.01667	-2.33178	-0.0388361	-1.59382	0	0	0	0	-0	0	0	0	-0.1265	0	-0	0	0	0	0	0	-0	0	0.105	0.015	0	0	-0	0	0	0.098	0.1	0	-0	0	0	0	0	0	-0	0	0.05595	0	0	0	-0	0	0	0	0	0	-0	0	580.699	586.253	355.617	235.914	-0.950214	7.4791	0.029116	-0.011736	-20.0002
89	-0.0904632	0.0235011	0.0269482	0.0285111	0.00026683	0.0222013	0.02548	-0.0305937	0.0021922	-0.0958973	0.0353603	0.0613367	0.0529955	-0.00218329	0.0158312	-2.34782	-0.0393742	-1.59336	0	0	0	0	-0	0	0	0	-0.1265	0	-0	0	0	0	0	0	-0	0	0.105	0.015	0	0	-0	0	0	0.098	0.1	0	-0	0	0	0	0	0	-0	0	0.05595	0	0	0	-0	0	0	0	0	0	-0	0	580.681	586.293	355.722	236.178	-0.955739	7.54295	0.0291724	-0.0116622	-20.1904
90	-0.0904016	0.0235115	0.0269518	0.0285603	0.000260721	0.0222302	0.0254784	-0.0306006	0.00218801	-0.120813	0.0507105	0.0486016	0.053011	-0.00218737	0.0157986	-2.34866	-0.039659	-1.59351	0	0	0	0	-0	0	0	0	-0.1265	0	-0	0	0	0	0	0	-0	0	0.105	0.015	0	0	-0	0	0	0.098	0.1	0	-0	0	0	0	0	0	-0	0	0.05595	0	0	0	-0	0	0	0	0	0	-0	0	580.655	586.37	355.909	236.74	-0.966391	7.66895	0.0292643	-0.0115794	-20.5732
91	-0.106464	0.0235162	0.0269514	0.0286164	0.000267109	0.0222506	0.0254803	-0.030595	0.00219485	-0.120308	0.0502801	0.0486051	0.0532761	-0.00218996	0.014926	-2.36518	-0.0401672	-1.59295	0	0	0	0	-0	0	0	0	-0.1265	0	-0	0	0	0	0	0	-0	0	0.105	0.015	0	0	-0	0	0	0.098	0.1	0	-0	0	0	0	0	0	-0	0	0.05595	0	0	0	-0	0	0	0	0	0	-0	0	580.632	586.406	356.008	237.022	-0.972381	7.73875	0.0292812	-0.0115251	-20.7793
92	-0.099464	0.0235189	0.0269498	0.0286278	0.000263786	0.0222674	0.0254798	-0.0305941	0.00219616	-0.112059	0.0471553	0.0497066	0.0531764	-0.00218984	0.0152807	-2.35851	-0.0401418	-1.59329	0	0	0	0	-0	0	0	0	-0.1265	0	-0	0	0	0	0	0	-0	0	0.105	0.015	0	0	-0	0	0	0.098	0.1	0	-0	0	0	0	0	0	-0	0	0.05595	0	0	0	-0	0	0	0	0	0	-0	0	580.616	586.433	356.087	237.231	-0.97704	7.79176	0.0292987	-0.0114644	-20.9332
93	-0.102731	0.0235743	0.0269498	0.0286877	0.000226255	0.0222621	0.0254835	-0.0305953	0.0022014	-0.121681	0.0411799	0.0436864	0.0532379	-0.00219445	0.0150941	-2.3623	-0.0403871	-1.5933	0	0	0	0	-0	0	0	0	-0.1265	0	-0	0	0	0	0	0	-0	0	0.105	0.015	0	0	-0	0	0	0.098	0.1	0	-0	0	0	0	0	0	-0	0	0.05595	0	0	0	-0	0	0	0	0	0	-0	0	580.596	586.463	356.182	237.542	-0.982451	7.86009	0.0293967	-0.0113999	-21.1484
94	-0.116806	0.0236371	0.026961	0.0287597	0.000190988	0.022253	0.0254854	-0.030594	0.00220681	-0.116633	0.037108	0.0491825	0.0534665	-0.00220437	0.0143282	-2.37715	-0.0408684	-1.59287	0	0	0	0	-0	0	0	0	-0.1265	0	-0	0	0	0	0	0	-0	0	0.105	0.015	0	0	-0	0	0	0.098	0.1	0	-0	0	0	0	0	0	-0	0	0.05595	0	0	0	-0	0	0	0	0	0	-0	0	580.57	586.506	356.283	237.993	-0.989871	7.95691	0.0295276	-0.011351	-21.46
95	-0.120081	0.0236427	0.0269661	0.0287879	0.000190862	0.0222756	0.0254905	-0.0305986	0.00221033	-0.118473	0.0303262	0.0310079	0.0535237	-0.00220701	0.0141291	-2.38096	-0.041075	-1.59278	0	0	0	0	-0	0	0	0	-0.1265	0	-0	0	0	0	0	0	-0	0	0.105	0.015	0	0	-0	0	0	0.098	0.1	0	-0	0	0	0	0	0	-0	0	0.05595	0	0	0	-0	0	0	0	0	0	-0	0	580.545	586.539	356.367	238.321	-0.996452	8.0356	0.0295737	-0.0112948	-21.6997
96	-0.11908	0.0237057	0.0269823	0.0288464	0.000161953	0.022246	0.0254905	-0.0305943	0.00221668	-0.113186	0.0167402	0.0277535	0.0535179	-0.00221866	0.0141778	-2.38039	-0.0411261	-1.59292	0	0	0	0	-0	0	0	0	-0.1265	0	-0	0	0	0	0	0	-0	0	0.105	0.015	0	0	-0	0	0	0.098	0.1	0	-0	0	0	0	0	0	-0	0	0.05595	0	0	0	-0	0	0	0	0	0	-0	0	580.523	586.563	356.417	238.569	-1.00053	8.09213	0.0296402	-0.011272	-21.8826
97	-0.110834	0.0237508	0.026981	0.0288741	0.000134748	0.0222447	0.0254899	-0.0305933	0.00221768	-0.107484	0.00822649	0.0332737	0.0534079	-0.00222047	0.0146167	-2.37232	-0.0410035	-1.59333	0	0	0	0	-0	0	0	0	-0.1265	0	-0	0	0	0	0	0	-0	0	0.105	0.015	0	0	-0	0	0	0.098	0.1	0	-0	0	0	0	0	0	-0	0	0.05595	0	0	0	-0	0	0	0	0	0	-0	0	580.513	586.574	356.44	238.671	-1.00245	8.11692	0.0296816	-0.0112266	-21.9609
98	-0.111466	0.0237522	0.0269801	0.0288887	0.000133083	0.0222633	0.0254906	-0.030594	0.00221698	-0.111221	0.0156259	0.023809	0.0534255	-0.00222059	0.0145669	-2.37328	-0.0410955	-1.59333	0	0	0	0	-0	0	0	0	-0.1265	0	-0	0	0	0	0	0	-0	0	0.105	0.015	0	0	-0	0	0	0.098	0.1	0	-0	0	0	0	0	0	-0	0	0.05595	0	0	0	-0	0	0	0	0	0	-0	0	580.494	586.594	356.485	238.875	-1.00666	8.16757	0.029709	-0.0111914	-22.117
99	-0.110816	0.0237614	0.0269805	0.0289041	0.000128428	0.0222661	0.0254905	-0.0305935	0.00221897	-0.112834	0.0102146	0.0288631	0.0534205	-0.0022221	0.0145948	-2.3728	-0.0411198	-1.59338	0	0	0	0	-0	0	0	0	-0.1265	0	-0	0	0	0	0	0	-0	0	0.105	0.015	0	0	-0	0	0	0.098	0.1	0	-0	0	0	0	0	0	-0	0	0.05595	0	0	0	-0	0	0	0	0	0	-0	0	580.484	586.605	356.508	238.978	-1.0088	8.19363	0.0297229	-0.011172	-22.1962
100	-0.105764	0.023782	0.0269809	0.0289296	0.000114984	0.0222674	0.0254929	-0.0305952	0.00222114	-0.118627	0.00330257	0.0390254	0.0533538	-0.00222394	0.014857	-2.368	-0.0410652	-1.59363	0	0	0	0	-0	0	0	0	-0.1265	0	-0	0	0	0	0	0	-0	0	0.105	0.015	0	0	-0	0	0	0.098	0.1	0	-0	0	0	0	0	0	-0	0	0.05595	0	0	0	-0	0	0	0	0	0	-0	0	580.472	586.62	356.539	239.13	-1.0116	8.22956	0.0297582	-0.011145	-22.3109
