Stefan210/kinematic_calibration/src/kinematic_calibration/validation/experiments/experiments/impact_noise/bad_precision/larm_noise_2_pixel_rk_true/optimization_intermediate_results.csv
iteration	HeadPitch_offset	HeadYaw_offset	LElbowRoll_offset	LElbowYaw_offset	LShoulderPitch_offset	LShoulderRoll_offset	marker_transform_larm_tx	marker_transform_larm_ty	marker_transform_larm_tz	marker_transform_larm_rr	marker_transform_larm_rp	marker_transform_larm_ry	camera_transform_tx	camera_transform_ty	camera_transform_tz	camera_transform_rr	camera_transform_rp	camera_transform_ry	HeadPitch_transform_tx	HeadPitch_transform_ty	HeadPitch_transform_tz	HeadPitch_transform_rr	HeadPitch_transform_rp	HeadPitch_transform_ry	HeadYaw_transform_tx	HeadYaw_transform_ty	HeadYaw_transform_tz	HeadYaw_transform_rr	HeadYaw_transform_rp	HeadYaw_transform_ry	LElbowRoll_transform_tx	LElbowRoll_transform_ty	LElbowRoll_transform_tz	LElbowRoll_transform_rr	LElbowRoll_transform_rp	LElbowRoll_transform_ry	LElbowYaw_transform_tx	LElbowYaw_transform_ty	LElbowYaw_transform_tz	LElbowYaw_transform_rr	LElbowYaw_transform_rp	LElbowYaw_transform_ry	LShoulderPitch_transform_tx	LShoulderPitch_transform_ty	LShoulderPitch_transform_tz	LShoulderPitch_transform_rr	LShoulderPitch_transform_rp	LShoulderPitch_transform_ry	LShoulderRoll_transform_tx	LShoulderRoll_transform_ty	LShoulderRoll_transform_tz	LShoulderRoll_transform_rr	LShoulderRoll_transform_rp	LShoulderRoll_transform_ry	LWristYaw_transform_tx	LWristYaw_transform_ty	LWristYaw_transform_tz	LWristYaw_transform_rr	LWristYaw_transform_rp	LWristYaw_transform_ry	l_wrist_joint_transform_tx	l_wrist_joint_transform_ty	l_wrist_joint_transform_tz	l_wrist_joint_transform_rr	l_wrist_joint_transform_rp	l_wrist_joint_transform_ry	camera_fx	camera_fy	camera_cx	camera_cy	camera_D0	camera_D1	camera_D2	camera_D3	camera_D4	
0	0.0249164	-0.0307543	0.000853157	4.65819e-06	-0.000318322	-0.00310766	0.05071	0	0.01774	-2.26369	1.66533e-16	-1.5708	545.901	551.038	324.928	201.58	0.0255298	2.61142	-0.0636736	-0.0350419	0.213964
1	-0.0168716	0.00119818	0.0322054	0.0276877	0.0132584	0.0297384	0.0261641	-0.030371	0.00199679	-0.000136123	-0.000427552	-0.00291715	0.0552683	-0.00158843	0.0139474	-2.195	0.00455885	-1.53376	0	0	0	0	-0	0	0	0	-0.1265	0	-0	0	0	0	0	0	-0	0	0.105	0.015	0	0	-0	0	0	0.098	0.1	0	-0	0	0	0	0	0	-0	0	0.05595	0	0	0	-0	0	0	0	0	0	-0	0	545.901	551.039	324.928	201.581	-0.00043165	2.60258	-0.0858436	0.026433	0.212133
2	-0.0162403	0.0173592	0.0284199	0.0288399	0.00284755	0.0292203	0.0257164	-0.0304319	0.00214362	-0.0001519	-0.000442213	-0.0029813	0.0554641	-0.00182554	0.0148507	-2.19778	0.00265352	-1.54901	0	0	0	0	-0	0	0	0	-0.1265	0	-0	0	0	0	0	0	-0	0	0.105	0.015	0	0	-0	0	0	0.098	0.1	0	-0	0	0	0	0	0	-0	0	0.05595	0	0	0	-0	0	0	0	0	0	-0	0	545.914	551.039	324.923	201.599	-0.364927	2.29546	-0.0187119	-0.00773928	0.118363
3	-0.0161162	0.020912	0.0261564	0.0322436	9.27429e-05	0.0280459	0.02552	-0.0304113	0.00237928	-0.000197427	-0.000482918	-0.0030005	0.0556894	-0.00177989	0.0146899	-2.1982	0.00215896	-1.55352	0	0	0	0	-0	0	0	0	-0.1265	0	-0	0	0	0	0	0	-0	0	0.105	0.015	0	0	-0	0	0	0.098	0.1	0	-0	0	0	0	0	0	-0	0	0.05595	0	0	0	-0	0	0	0	0	0	-0	0	545.949	551.034	324.921	201.626	-0.422075	1.75324	-0.000540492	-0.0148334	-0.0691066
4	-0.0159691	0.0212152	0.0251791	0.0340686	-0.000556306	0.0274255	0.0254296	-0.0303884	0.00251541	-0.000221099	-0.000425223	-0.00296018	0.0552425	-0.00180893	0.0152043	-2.19933	0.00291406	-1.55415	0	0	0	0	-0	0	0	0	-0.1265	0	-0	0	0	0	0	0	-0	0	0.105	0.015	0	0	-0	0	0	0.098	0.1	0	-0	0	0	0	0	0	-0	0	0.05595	0	0	0	-0	0	0	0	0	0	-0	0	546.025	551.018	324.925	201.655	-0.265132	0.932785	-0.000165424	-0.0156273	-0.370481
5	-0.0156522	0.0208427	0.0242511	0.0340004	-0.00045767	0.0274626	0.0253551	-0.0303425	0.0025116	-0.000253689	-0.000236574	-0.00296425	0.054599	-0.00174048	0.0159249	-2.2003	0.00358179	-1.55411	0	0	0	0	-0	0	0	0	-0.1265	0	-0	0	0	0	0	0	-0	0	0.105	0.015	0	0	-0	0	0	0.098	0.1	0	-0	0	0	0	0	0	-0	0	0.05595	0	0	0	-0	0	0	0	0	0	-0	0	546.19	550.975	324.946	201.661	-0.0865085	0.249696	-0.00387974	-0.0153313	-0.60874
6	-0.015633	0.0205427	0.0236906	0.0337824	-0.000382533	0.0274619	0.0253065	-0.0303167	0.00250252	0.000725903	-0.000626262	-0.00363067	0.0541773	-0.00167096	0.0164609	-2.20138	0.00379958	-1.55417	0	0	0	0	-0	0	0	0	-0.1265	0	-0	0	0	0	0	0	-0	0	0.105	0.015	0	0	-0	0	0	0.098	0.1	0	-0	0	0	0	0	0	-0	0	0.05595	0	0	0	-0	0	0	0	0	0	-0	0	546.613	550.869	324.974	201.652	0.0231481	-0.183853	-0.0059435	-0.0148876	-0.641764
7	-0.0159479	0.0204048	0.0235952	0.033633	-0.000332493	0.0274205	0.0252909	-0.0303141	0.00249856	0.00175854	-0.0030494	-0.00502457	0.0538613	-0.00164705	0.0168801	-2.20259	0.00387036	-1.55425	0	0	0	0	-0	0	0	0	-0.1265	0	-0	0	0	0	0	0	-0	0	0.105	0.015	0	0	-0	0	0	0.098	0.1	0	-0	0	0	0	0	0	-0	0	0.05595	0	0	0	-0	0	0	0	0	0	-0	0	547.742	550.651	324.983	201.642	0.0690186	-0.486299	-0.00430516	-0.0147315	-0.203141
8	-0.0168559	0.0206377	0.0236247	0.0335963	-0.000425907	0.0273851	0.0252873	-0.0303156	0.00251485	-0.00440375	-0.00784837	-0.0043125	0.0533487	-0.00166872	0.0175084	-2.20451	0.00379795	-1.55435	0	0	0	0	-0	0	0	0	-0.1265	0	-0	0	0	0	0	0	-0	0	0.105	0.015	0	0	-0	0	0	0.098	0.1	0	-0	0	0	0	0	0	-0	0	0.05595	0	0	0	-0	0	0	0	0	0	-0	0	550.371	550.404	324.95	201.58	0.0939662	-0.904957	0.00217204	-0.0148188	0.895738
9	-0.0248924	0.0211197	0.0236073	0.0337073	-0.000602872	0.0273353	0.0252912	-0.03032	0.00255529	-0.0143221	-0.0323466	0.0052618	0.0526575	-0.00170692	0.0181233	-2.21365	0.00383531	-1.55444	0	0	0	0	-0	0	0	0	-0.1265	0	-0	0	0	0	0	0	-0	0	0.105	0.015	0	0	-0	0	0	0.098	0.1	0	-0	0	0	0	0	0	-0	0	0.05595	0	0	0	-0	0	0	0	0	0	-0	0	555.125	551.043	324.811	201.22	0.100289	-1.40673	0.0127272	-0.0150593	2.48868
10	-0.00947844	0.0217521	0.0235052	0.0340249	-0.000805539	0.0272859	0.0253144	-0.0303606	0.00261575	-0.000733509	-0.0180468	-0.046167	0.0514719	-0.00175656	0.0200722	-2.19803	0.00394948	-1.55419	0	0	0	0	-0	0	0	0	-0.1265	0	-0	0	0	0	0	0	-0	0	0.105	0.015	0	0	-0	0	0	0.098	0.1	0	-0	0	0	0	0	0	-0	0	0.05595	0	0	0	-0	0	0	0	0	0	-0	0	561.509	554.63	324.328	199.908	0.0661284	-1.59277	0.0207886	-0.0152786	3.50442
11	-0.00799958	0.0219019	0.0234693	0.0338731	-0.000834912	0.0271959	0.0252828	-0.0303366	0.00262374	-0.0110917	-0.0375978	-0.0459535	0.0511194	-0.00175788	0.0205162	-2.19635	0.00372028	-1.55451	0	0	0	0	-0	0	0	0	-0.1265	0	-0	0	0	0	0	0	-0	0	0.105	0.015	0	0	-0	0	0	0.098	0.1	0	-0	0	0	0	0	0	-0	0	0.05595	0	0	0	-0	0	0	0	0	0	-0	0	564.057	556.487	324.436	199.302	0.0340412	-1.54569	0.0235455	-0.0153196	3.70758
12	0.00182294	0.0219641	0.0234032	0.034177	-0.000841827	0.0272031	0.0252728	-0.0303232	0.00265873	-0.0125702	-0.0411735	-0.0306735	0.0507682	-0.00176421	0.0211867	-2.18639	0.00340848	-1.55464	0	0	0	0	-0	0	0	0	-0.1265	0	-0	0	0	0	0	0	-0	0	0.105	0.015	0	0	-0	0	0	0.098	0.1	0	-0	0	0	0	0	0	-0	0	0.05595	0	0	0	-0	0	0	0	0	0	-0	0	565.078	557.22	324.539	199.038	0.0290379	-1.55008	0.0242871	-0.0151901	3.79335
13	0.017501	0.0220343	0.0233127	0.0343792	-0.000865357	0.0272417	0.0252643	-0.0303143	0.00268246	-0.0117053	-0.0374866	-0.023842	0.0502607	-0.00176458	0.0221768	-2.17056	0.00293892	-1.55477	0	0	0	0	-0	0	0	0	-0.1265	0	-0	0	0	0	0	0	-0	0	0.105	0.015	0	0	-0	0	0	0.098	0.1	0	-0	0	0	0	0	0	-0	0	0.05595	0	0	0	-0	0	0	0	0	0	-0	0	566.236	558.245	324.68	198.717	0.0250031	-1.54378	0.0246463	-0.015141	3.82907
14	0.021501	0.0220684	0.0232141	0.0344601	-0.000879533	0.027273	0.0252624	-0.0303108	0.00269076	-0.00944617	-0.0595535	-0.0120483	0.0499802	-0.00176171	0.0225793	-2.1664	0.00260817	-1.555	0	0	0	0	-0	0	0	0	-0.1265	0	-0	0	0	0	0	0	-0	0	0.105	0.015	0	0	-0	0	0	0.098	0.1	0	-0	0	0	0	0	0	-0	0	0.05595	0	0	0	-0	0	0	0	0	0	-0	0	567.603	559.745	324.885	198.338	0.0168736	-1.49119	0.0244357	-0.0150956	3.75248
15	0.0597654	0.0221711	0.0230641	0.0345778	-0.00087263	0.0272828	0.0252621	-0.0303034	0.00273672	-0.0532413	0.00517115	0.00193886	0.0487811	-0.00176867	0.0248411	-2.12831	0.00117579	-1.55598	0	0	0	0	-0	0	0	0	-0.1265	0	-0	0	0	0	0	0	-0	0	0.105	0.015	0	0	-0	0	0	0.098	0.1	0	-0	0	0	0	0	0	-0	0	0.05595	0	0	0	-0	0	0	0	0	0	-0	0	570.924	564.139	325.66	197.814	-0.0266342	-1.1461	0.0224933	-0.0148282	3.04217
16	0.0709827	0.0220581	0.0230263	0.0343773	-0.000861476	0.0272487	0.025243	-0.0303061	0.00270866	-0.0492428	-0.00795818	-0.00140906	0.0484072	-0.00174326	0.0254451	-2.11733	0.000772022	-1.55614	0	0	0	0	-0	0	0	0	-0.1265	0	-0	0	0	0	0	0	-0	0	0.105	0.015	0	0	-0	0	0	0.098	0.1	0	-0	0	0	0	0	0	-0	0	0.05595	0	0	0	-0	0	0	0	0	0	-0	0	571.481	564.892	325.823	197.78	-0.0307367	-1.10576	0.0221167	-0.0148532	2.95899
17	0.040514	0.0220639	0.022964	0.0345626	-0.000805223	0.0272544	0.0252396	-0.0303211	0.00271893	-0.0218565	-0.00398958	0.00652267	0.0490104	-0.00175096	0.0241052	-2.14845	0.000644226	-1.5569	0	0	0	0	-0	0	0	0	-0.1265	0	-0	0	0	0	0	0	-0	0	0.105	0.015	0	0	-0	0	0	0.098	0.1	0	-0	0	0	0	0	0	-0	0	0.05595	0	0	0	-0	0	0	0	0	0	-0	0	573.091	567.209	326.393	197.862	-0.0494601	-0.930711	0.0206458	-0.014637	2.57978
18	0.0370959	0.0219556	0.0229756	0.0345451	-0.000737494	0.0272483	0.0252372	-0.0303139	0.0027187	-0.0257875	-0.0138374	0.00187196	0.0490554	-0.00174187	0.0239529	-2.15204	0.000605464	-1.55693	0	0	0	0	-0	0	0	0	-0.1265	0	-0	0	0	0	0	0	-0	0	0.105	0.015	0	0	-0	0	0	0.098	0.1	0	-0	0	0	0	0	0	-0	0	0.05595	0	0	0	-0	0	0	0	0	0	-0	0	573.323	567.574	326.479	197.891	-0.0513588	-0.900549	0.0202411	-0.0146474	2.50618
19	0.0359424	0.0219598	0.0230108	0.0347023	-0.000696449	0.0272853	0.0252436	-0.0303132	0.00273303	-0.0286068	-0.0260795	0.00226013	0.0490523	-0.00175135	0.0239161	-2.15332	0.000535745	-1.55706	0	0	0	0	-0	0	0	0	-0.1265	0	-0	0	0	0	0	0	-0	0	0.105	0.015	0	0	-0	0	0	0.098	0.1	0	-0	0	0	0	0	0	-0	0	0.05595	0	0	0	-0	0	0	0	0	0	-0	0	573.621	568.059	326.587	197.927	-0.0522585	-0.873139	0.0195982	-0.0145537	2.44388
20	0.0427989	0.0220278	0.0229993	0.034854	-0.000676849	0.0273257	0.0252508	-0.0303158	0.00274815	-0.0243499	-0.00464449	0.00657781	0.0487954	-0.00176039	0.0243387	-2.14723	2.26053e-05	-1.55762	0	0	0	0	-0	0	0	0	-0.1265	0	-0	0	0	0	0	0	-0	0	0.105	0.015	0	0	-0	0	0	0.098	0.1	0	-0	0	0	0	0	0	-0	0	0.05595	0	0	0	-0	0	0	0	0	0	-0	0	574.717	569.743	326.991	198.188	-0.0663333	-0.745242	0.0185297	-0.01441	2.16791
21	0.0509695	0.0220008	0.0230591	0.0349184	-0.000642719	0.0273403	0.0252498	-0.0303178	0.00275418	-0.0218357	0.000387943	0.00354845	0.0485896	-0.00176438	0.024745	-2.13919	-0.000109411	-1.55769	0	0	0	0	-0	0	0	0	-0.1265	0	-0	0	0	0	0	0	-0	0	0.105	0.015	0	0	-0	0	0	0.098	0.1	0	-0	0	0	0	0	0	-0	0	0.05595	0	0	0	-0	0	0	0	0	0	-0	0	574.87	570.005	327.049	198.229	-0.0667908	-0.729586	0.0181118	-0.0143747	2.13505
22	0.0586495	0.0220159	0.0230384	0.0349847	-0.000623097	0.0273602	0.0252549	-0.0303174	0.00275964	-0.0220145	0.02618	0.00147325	0.0483454	-0.00176392	0.0251647	-2.13204	-0.000442227	-1.55799	0	0	0	0	-0	0	0	0	-0.1265	0	-0	0	0	0	0	0	-0	0	0.105	0.015	0	0	-0	0	0	0.098	0.1	0	-0	0	0	0	0	0	-0	0	0.05595	0	0	0	-0	0	0	0	0	0	-0	0	575.449	570.94	327.266	198.43	-0.0730142	-0.665405	0.0174618	-0.0143169	1.98938
23	0.0672269	0.0219866	0.0230685	0.034996	-0.000600378	0.0273609	0.0252505	-0.0303197	0.00276229	-0.0230671	0.0336209	0.00782127	0.0481124	-0.00176574	0.0255951	-2.12376	-0.000630988	-1.55813	0	0	0	0	-0	0	0	0	-0.1265	0	-0	0	0	0	0	0	-0	0	0.105	0.015	0	0	-0	0	0	0.098	0.1	0	-0	0	0	0	0	0	-0	0	0.05595	0	0	0	-0	0	0	0	0	0	-0	0	575.727	571.411	327.374	198.543	-0.0765017	-0.629687	0.0170409	-0.0142771	1.91537
24	0.0704089	0.0219912	0.0230505	0.0350538	-0.000580975	0.0273771	0.0252467	-0.0303251	0.00276465	-0.00356854	0.0294445	0.0165289	0.0479919	-0.00176453	0.0257794	-2.12103	-0.000836493	-1.55833	0	0	0	0	-0	0	0	0	-0.1265	0	-0	0	0	0	0	0	-0	0	0.105	0.015	0	0	-0	0	0	0.098	0.1	0	-0	0	0	0	0	0	-0	0	0.05595	0	0	0	-0	0	0	0	0	0	-0	0	576.127	572.068	327.528	198.729	-0.0804521	-0.584895	0.0165601	-0.0142335	1.81109
25	0.0583746	0.0219721	0.0230417	0.0350861	-0.000558314	0.0273817	0.0252453	-0.0303208	0.00276855	-0.00832166	0.0349341	0.0156124	0.0482849	-0.00176166	0.0252142	-2.13326	-0.000757648	-1.55839	0	0	0	0	-0	0	0	0	-0.1265	0	-0	0	0	0	0	0	-0	0	0.105	0.015	0	0	-0	0	0	0.098	0.1	0	-0	0	0	0	0	0	-0	0	0.05595	0	0	0	-0	0	0	0	0	0	-0	0	576.287	572.344	327.59	198.81	-0.0815856	-0.565428	0.0162836	-0.0142178	1.76261
26	0.0536287	0.0219596	0.0230324	0.0350869	-0.000553092	0.0273838	0.0252446	-0.0303202	0.00276906	-0.00829863	0.0356722	0.00831734	0.0483899	-0.0017586	0.0249949	-2.13815	-0.000753627	-1.55843	0	0	0	0	-0	0	0	0	-0.1265	0	-0	0	0	0	0	0	-0	0	0.105	0.015	0	0	-0	0	0	0.098	0.1	0	-0	0	0	0	0	0	-0	0	0.05595	0	0	0	-0	0	0	0	0	0	-0	0	576.393	572.538	327.632	198.868	-0.0818958	-0.554933	0.0160934	-0.0142102	1.73399
27	0.0482523	0.021959	0.0230381	0.0351192	-0.000544906	0.027391	0.0252469	-0.0303231	0.00277417	-0.00116737	0.0316981	-0.00461701	0.0485112	-0.00176054	0.0247452	-2.14373	-0.000741955	-1.5585	0	0	0	0	-0	0	0	0	-0.1265	0	-0	0	0	0	0	0	-0	0	0.105	0.015	0	0	-0	0	0	0.098	0.1	0	-0	0	0	0	0	0	-0	0	0.05595	0	0	0	-0	0	0	0	0	0	-0	0	576.551	572.818	327.692	198.955	-0.0831567	-0.537767	0.0158315	-0.0141852	1.69513
28	0.0635412	0.0219666	0.0230518	0.0351659	-0.000534526	0.0273989	0.0252491	-0.0303235	0.00277742	0.0045694	0.0393648	0.00245248	0.0481173	-0.00176445	0.0255008	-2.12874	-0.00100349	-1.55863	0	0	0	0	-0	0	0	0	-0.1265	0	-0	0	0	0	0	0	-0	0	0.105	0.015	0	0	-0	0	0	0.098	0.1	0	-0	0	0	0	0	0	-0	0	0.05595	0	0	0	-0	0	0	0	0	0	-0	0	576.786	573.209	327.776	199.09	-0.0859984	-0.509387	0.0155258	-0.0141491	1.63492
29	0.0684386	0.0219479	0.0230338	0.0351246	-0.000531239	0.0273883	0.0252463	-0.0303235	0.00277351	-0.00393999	0.0329681	0.0100587	0.0479744	-0.00175911	0.0257471	-2.1241	-0.00114099	-1.55872	0	0	0	0	-0	0	0	0	-0.1265	0	-0	0	0	0	0	0	-0	0	0.105	0.015	0	0	-0	0	0	0.098	0.1	0	-0	0	0	0	0	0	-0	0	0.05595	0	0	0	-0	0	0	0	0	0	-0	0	576.96	573.502	327.841	199.199	-0.0887598	-0.484815	0.0153771	-0.0141441	1.58086
30	0.0723103	0.0219352	0.0230468	0.0351471	-0.000517431	0.0273925	0.0252457	-0.0303217	0.00277525	-0.00634892	0.0374683	0.00806677	0.0478695	-0.00176091	0.0259354	-2.12033	-0.00119914	-1.55875	0	0	0	0	-0	0	0	0	-0.1265	0	-0	0	0	0	0	0	-0	0	0.105	0.015	0	0	-0	0	0	0.098	0.1	0	-0	0	0	0	0	0	-0	0	0.05595	0	0	0	-0	0	0	0	0	0	-0	0	577.029	573.623	327.867	199.244	-0.0893282	-0.475627	0.015228	-0.0141253	1.56062
31	0.0753854	0.0219504	0.0230363	0.0351907	-0.000510278	0.0274061	0.0252498	-0.0303269	0.00277985	-0.0135873	0.0283042	-0.00777898	0.0477661	-0.00176204	0.0261015	-2.11766	-0.00134095	-1.5589	0	0	0	0	-0	0	0	0	-0.1265	0	-0	0	0	0	0	0	-0	0	0.105	0.015	0	0	-0	0	0	0.098	0.1	0	-0	0	0	0	0	0	-0	0	0.05595	0	0	0	-0	0	0	0	0	0	-0	0	577.305	574.073	327.97	199.432	-0.0927409	-0.442132	0.0149631	-0.0140981	1.48504
32	0.0736454	0.0219556	0.0230499	0.0352293	-0.000494356	0.0274094	0.025254	-0.0303324	0.00278344	-0.0300692	0.0137238	-0.0159772	0.0477897	-0.00176627	0.0260375	-2.12003	-0.00144905	-1.5591	0	0	0	0	-0	0	0	0	-0.1265	0	-0	0	0	0	0	0	-0	0	0.105	0.015	0	0	-0	0	0	0.098	0.1	0	-0	0	0	0	0	0	-0	0	0.05595	0	0	0	-0	0	0	0	0	0	-0	0	577.694	574.674	328.117	199.729	-0.0999562	-0.382622	0.0146828	-0.0140544	1.36012
33	0.0804307	0.021939	0.0230773	0.0352506	-0.000471911	0.02741	0.0252512	-0.0303293	0.00278583	-0.0212135	0.0161827	-0.0239125	0.0476069	-0.00176897	0.0263684	-2.11357	-0.00158226	-1.55921	0	0	0	0	-0	0	0	0	-0.1265	0	-0	0	0	0	0	0	-0	0	0.105	0.015	0	0	-0	0	0	0.098	0.1	0	-0	0	0	0	0	0	-0	0	0.05595	0	0	0	-0	0	0	0	0	0	-0	0	577.886	574.97	328.196	199.886	-0.104015	-0.349021	0.0145127	-0.0140226	1.29196
34	0.0878632	0.0219474	0.0230571	0.0352825	-0.000461894	0.0274251	0.0252489	-0.0303335	0.00278565	-0.0406673	0.0150199	-0.035908	0.0473854	-0.00176664	0.0267426	-2.10664	-0.00180452	-1.55939	0	0	0	0	-0	0	0	0	-0.1265	0	-0	0	0	0	0	0	-0	0	0.105	0.015	0	0	-0	0	0	0.098	0.1	0	-0	0	0	0	0	0	-0	0	0.05595	0	0	0	-0	0	0	0	0	0	-0	0	578.159	575.39	328.317	200.125	-0.107753	-0.312289	0.0143375	-0.0140013	1.20458
35	0.0748993	0.0219317	0.023036	0.0352725	-0.000449943	0.0274208	0.0252492	-0.0303322	0.00278651	-0.0530258	0.00588821	-0.0238124	0.0477148	-0.00176218	0.0261401	-2.11999	-0.00176497	-1.55949	0	0	0	0	-0	0	0	0	-0.1265	0	-0	0	0	0	0	0	-0	0	0.105	0.015	0	0	-0	0	0	0.098	0.1	0	-0	0	0	0	0	0	-0	0	0.05595	0	0	0	-0	0	0	0	0	0	-0	0	578.357	575.701	328.412	200.314	-0.111579	-0.278664	0.0142389	-0.0139909	1.12853
36	0.0686478	0.0219141	0.0230358	0.0352532	-0.000443378	0.0274141	0.0252446	-0.0303264	0.00278476	-0.0511607	0.0016749	-0.0198241	0.0478671	-0.00176065	0.0258486	-2.12655	-0.00176912	-1.55957	0	0	0	0	-0	0	0	0	-0.1265	0	-0	0	0	0	0	0	-0	0	0.105	0.015	0	0	-0	0	0	0.098	0.1	0	-0	0	0	0	0	0	-0	0	0.05595	0	0	0	-0	0	0	0	0	0	-0	0	578.506	575.933	328.487	200.461	-0.114824	-0.251706	0.0141669	-0.0139729	1.07067
37	0.0664181	0.0219149	0.0230271	0.0352813	-0.000437987	0.0274277	0.0252438	-0.0303252	0.00278737	-0.0494833	5.65597e-05	-0.0132359	0.0479145	-0.00175952	0.0257489	-2.1289	-0.00178452	-1.5596	0	0	0	0	-0	0	0	0	-0.1265	0	-0	0	0	0	0	0	-0	0	0.105	0.015	0	0	-0	0	0	0.098	0.1	0	-0	0	0	0	0	0	-0	0	0.05595	0	0	0	-0	0	0	0	0	0	-0	0	578.564	576.031	328.519	200.521	-0.114553	-0.246624	0.0140694	-0.0139632	1.05198
38	0.065499	0.0219311	0.0230187	0.0353236	-0.000433625	0.0274409	0.0252462	-0.0303282	0.00279191	-0.0529397	0.000453317	0.00186759	0.0479196	-0.00176091	0.0257198	-2.1303	-0.00190629	-1.55976	0	0	0	0	-0	0	0	0	-0.1265	0	-0	0	0	0	0	0	-0	0	0.105	0.015	0	0	-0	0	0	0.098	0.1	0	-0	0	0	0	0	0	-0	0	0.05595	0	0	0	-0	0	0	0	0	0	-0	0	578.793	576.395	328.64	200.764	-0.117726	-0.215903	0.0139088	-0.0139356	0.980864
39	0.0751815	0.0219314	0.0230346	0.0353524	-0.000424087	0.0274457	0.0252471	-0.0303268	0.00279262	-0.0487532	-0.0110675	0.00982414	0.0476657	-0.00176338	0.0261886	-2.12086	-0.00206673	-1.55987	0	0	0	0	-0	0	0	0	-0.1265	0	-0	0	0	0	0	0	-0	0	0.105	0.015	0	0	-0	0	0	0.098	0.1	0	-0	0	0	0	0	0	-0	0	0.05595	0	0	0	-0	0	0	0	0	0	-0	0	578.907	576.578	328.702	200.888	-0.119654	-0.197904	0.0137919	-0.0139111	0.94301
40	0.0719183	0.0219355	0.0230125	0.0353408	-0.000421556	0.0274445	0.0252428	-0.0303268	0.00279255	-0.0581542	-0.0119996	0.00972589	0.0477322	-0.00176025	0.0260467	-2.12469	-0.00218751	-1.56005	0	0	0	0	-0	0	0	0	-0.1265	0	-0	0	0	0	0	0	-0	0	0.105	0.015	0	0	-0	0	0	0.098	0.1	0	-0	0	0	0	0	0	-0	0	0.05595	0	0	0	-0	0	0	0	0	0	-0	0	579.151	576.948	328.841	201.172	-0.12494	-0.156358	0.013772	-0.0138953	0.850487
41	0.06209	0.02196	0.0229994	0.0353871	-0.000415839	0.0274536	0.0252415	-0.0303267	0.00280018	-0.0783371	0.0095617	0.0133962	0.0479698	-0.00176094	0.025592	-2.13507	-0.00224204	-1.56024	0	0	0	0	-0	0	0	0	-0.1265	0	-0	0	0	0	0	0	-0	0	0.105	0.015	0	0	-0	0	0	0.098	0.1	0	-0	0	0	0	0	0	-0	0	0.05595	0	0	0	-0	0	0	0	0	0	-0	0	579.389	577.278	328.984	201.459	-0.129957	-0.116817	0.0137904	-0.0138668	0.762395
42	0.0580462	0.0219872	0.0229936	0.0354249	-0.000418843	0.0274587	0.0252423	-0.0303282	0.0028032	-0.0894805	0.0138607	0.0207866	0.0480621	-0.00176148	0.0254058	-2.13934	-0.00228197	-1.56034	0	0	0	0	-0	0	0	0	-0.1265	0	-0	0	0	0	0	0	-0	0	0.105	0.015	0	0	-0	0	0	0.098	0.1	0	-0	0	0	0	0	0	-0	0	0.05595	0	0	0	-0	0	0	0	0	0	-0	0	579.491	577.408	329.047	201.579	-0.132072	-0.101862	0.0138459	-0.0138574	0.730329
43	0.0483658	0.0220094	0.0229908	0.0354641	-0.000414479	0.0274653	0.0252425	-0.0303276	0.00280494	-0.0844614	0.0141987	0.0182259	0.0482905	-0.00176367	0.024955	-2.14964	-0.00236834	-1.56055	0	0	0	0	-0	0	0	0	-0.1265	0	-0	0	0	0	0	0	-0	0	0.105	0.015	0	0	-0	0	0	0.098	0.1	0	-0	0	0	0	0	0	-0	0	0.05595	0	0	0	-0	0	0	0	0	0	-0	0	579.74	577.732	329.216	201.904	-0.137695	-0.0597157	0.0139174	-0.013827	0.638255
44	0.0481536	0.0220094	0.0229798	0.0354581	-0.000412748	0.0274639	0.0252429	-0.030328	0.00280435	-0.0780394	0.0230408	0.0217168	0.0482887	-0.00176059	0.0249496	-2.15003	-0.00243287	-1.56063	0	0	0	0	-0	0	0	0	-0.1265	0	-0	0	0	0	0	0	-0	0	0.105	0.015	0	0	-0	0	0	0.098	0.1	0	-0	0	0	0	0	0	-0	0	0.05595	0	0	0	-0	0	0	0	0	0	-0	0	579.81	577.822	329.268	201.996	-0.139802	-0.0449629	0.013985	-0.0138176	0.607528
45	0.0515166	0.022008	0.022987	0.0354729	-0.00040407	0.0274672	0.0252467	-0.030327	0.00280573	-0.0791711	0.0430951	0.0213676	0.0481988	-0.00176226	0.0251173	-2.14703	-0.00257453	-1.56078	0	0	0	0	-0	0	0	0	-0.1265	0	-0	0	0	0	0	0	-0	0	0.105	0.015	0	0	-0	0	0	0.098	0.1	0	-0	0	0	0	0	0	-0	0	0.05595	0	0	0	-0	0	0	0	0	0	-0	0	579.943	577.997	329.377	202.186	-0.143506	-0.0168403	0.0140226	-0.0137893	0.546676
46	0.0543214	0.0220005	0.0230042	0.0354712	-0.000397275	0.0274687	0.0252444	-0.0303282	0.00280501	-0.0822142	0.0486331	0.0159635	0.0481287	-0.00176388	0.0252535	-2.14442	-0.00264666	-1.56086	0	0	0	0	-0	0	0	0	-0.1265	0	-0	0	0	0	0	0	-0	0	0.105	0.015	0	0	-0	0	0	0.098	0.1	0	-0	0	0	0	0	0	-0	0	0.05595	0	0	0	-0	0	0	0	0	0	-0	0	580.01	578.082	329.435	202.283	-0.145881	-0.000801077	0.0140571	-0.0137697	0.516243
47	0.0553368	0.0220013	0.022993	0.0354798	-0.000393002	0.0274738	0.0252426	-0.0303276	0.00280579	-0.0797732	0.0429493	0.0182351	0.0480984	-0.00176186	0.0253056	-2.14348	-0.00269025	-1.5609	0	0	0	0	-0	0	0	0	-0.1265	0	-0	0	0	0	0	0	-0	0	0.105	0.015	0	0	-0	0	0	0.098	0.1	0	-0	0	0	0	0	0	-0	0	0.05595	0	0	0	-0	0	0	0	0	0	-0	0	580.039	578.117	329.459	202.324	-0.146566	0.00449948	0.0140972	-0.0137684	0.502874
48	0.0548893	0.0220109	0.0229823	0.0354961	-0.000391066	0.0274792	0.0252414	-0.0303277	0.00280697	-0.0860221	0.048938	0.0155724	0.048101	-0.0017614	0.025291	-2.14423	-0.00280396	-1.56103	0	0	0	0	-0	0	0	0	-0.1265	0	-0	0	0	0	0	0	-0	0	0.105	0.015	0	0	-0	0	0	0.098	0.1	0	-0	0	0	0	0	0	-0	0	0.05595	0	0	0	-0	0	0	0	0	0	-0	0	580.147	578.255	329.56	202.488	-0.149355	0.0266872	0.014163	-0.0137537	0.449547
49	0.0560479	0.0220217	0.0229741	0.035509	-0.000390737	0.0274819	0.0252407	-0.030332	0.00280878	-0.103111	0.0493711	0.014717	0.0480633	-0.00176106	0.025354	-2.14338	-0.00293711	-1.56118	0	0	0	0	-0	0	0	0	-0.1265	0	-0	0	0	0	0	0	-0	0	0.105	0.015	0	0	-0	0	0	0.098	0.1	0	-0	0	0	0	0	0	-0	0	0.05595	0	0	0	-0	0	0	0	0	0	-0	0	580.254	578.388	329.664	202.653	-0.152171	0.0477331	0.0142466	-0.01374	0.401169
50	0.0393877	0.0220304	0.0229716	0.0355246	-0.000386476	0.0274814	0.0252436	-0.0303288	0.00281189	-0.10863	0.0677342	0.0189795	0.0484766	-0.00176188	0.0245609	-2.1605	-0.00295705	-1.56133	0	0	0	0	-0	0	0	0	-0.1265	0	-0	0	0	0	0	0	-0	0	0.105	0.015	0	0	-0	0	0	0.098	0.1	0	-0	0	0	0	0	0	-0	0	0.05595	0	0	0	-0	0	0	0	0	0	-0	0	580.405	578.576	329.822	202.9	-0.156502	0.0801315	0.0143494	-0.0137157	0.327533
51	0.0408748	0.02202	0.022961	0.0354711	-0.000394316	0.0274685	0.0252397	-0.0303277	0.00280615	-0.110049	0.0626474	0.0210066	0.0484345	-0.00175715	0.0246346	-2.15913	-0.00302441	-1.56139	0	0	0	0	-0	0	0	0	-0.1265	0	-0	0	0	0	0	0	-0	0	0.105	0.015	0	0	-0	0	0	0.098	0.1	0	-0	0	0	0	0	0	-0	0	0.05595	0	0	0	-0	0	0	0	0	0	-0	0	580.439	578.616	329.857	202.953	-0.15832	0.0904566	0.0144519	-0.0137082	0.308853
52	0.0376213	0.0220268	0.0229579	0.0354953	-0.000387759	0.0274755	0.0252401	-0.0303299	0.00280886	-0.101704	0.0624183	0.0136648	0.0485057	-0.00175867	0.0244828	-2.16277	-0.00315434	-1.56157	0	0	0	0	-0	0	0	0	-0.1265	0	-0	0	0	0	0	0	-0	0	0.105	0.015	0	0	-0	0	0	0.098	0.1	0	-0	0	0	0	0	0	-0	0	0.05595	0	0	0	-0	0	0	0	0	0	-0	0	580.565	578.769	330.004	203.166	-0.161922	0.119006	0.0145398	-0.013678	0.240856
53	0.027641	0.0220384	0.0229629	0.0355216	-0.000383925	0.0274809	0.0252415	-0.0303298	0.00281189	-0.0987789	0.053508	0.00644139	0.0487448	-0.00176054	0.0240029	-2.17302	-0.00317861	-1.56168	0	0	0	0	-0	0	0	0	-0.1265	0	-0	0	0	0	0	0	-0	0	0.105	0.015	0	0	-0	0	0	0.098	0.1	0	-0	0	0	0	0	0	-0	0	0.05595	0	0	0	-0	0	0	0	0	0	-0	0	580.654	578.87	330.108	203.313	-0.164654	0.138942	0.0146236	-0.0136585	0.196031
54	0.018285	0.0220564	0.022955	0.0355387	-0.000380203	0.0274888	0.0252451	-0.0303331	0.00281236	-0.0878089	0.0680485	0.00475259	0.0489561	-0.00176057	0.0235567	-2.18318	-0.0034641	-1.56206	0	0	0	0	-0	0	0	0	-0.1265	0	-0	0	0	0	0	0	-0	0	0.105	0.015	0	0	-0	0	0	0.098	0.1	0	-0	0	0	0	0	0	-0	0	0.05595	0	0	0	-0	0	0	0	0	0	-0	0	580.881	579.157	330.424	203.75	-0.171915	0.19534	0.0148177	-0.0135926	0.0620037
55	0.00949468	0.0220444	0.0229709	0.0355239	-0.000370989	0.0274852	0.025245	-0.0303347	0.00281178	-0.0932717	0.0603113	-0.00850925	0.0491614	-0.00176099	0.0231277	-2.1924	-0.00357729	-1.56225	0	0	0	0	-0	0	0	0	-0.1265	0	-0	0	0	0	0	0	-0	0	0.105	0.015	0	0	-0	0	0	0.098	0.1	0	-0	0	0	0	0	0	-0	0	0.05595	0	0	0	-0	0	0	0	0	0	-0	0	580.999	579.293	330.599	203.978	-0.177199	0.232879	0.0149662	-0.0135481	-0.0184448
56	0.0147642	0.0220414	0.0229734	0.0355283	-0.000363298	0.0274881	0.0252445	-0.0303345	0.00281243	-0.0977489	0.0532705	-0.0203911	0.0490344	-0.00176069	0.0233902	-2.18745	-0.00378183	-1.56245	0	0	0	0	-0	0	0	0	-0.1265	0	-0	0	0	0	0	0	-0	0	0.105	0.015	0	0	-0	0	0	0.098	0.1	0	-0	0	0	0	0	0	-0	0	0.05595	0	0	0	-0	0	0	0	0	0	-0	0	581.091	579.392	330.739	204.152	-0.18085	0.259227	0.0151028	-0.0135165	-0.0780953
57	0.0106048	0.0220476	0.0229742	0.035547	-0.000358923	0.0274946	0.0252449	-0.0303349	0.00281318	-0.0950207	0.0579119	-0.0336609	0.0491268	-0.00176119	0.0231899	-2.19185	-0.00387293	-1.56257	0	0	0	0	-0	0	0	0	-0.1265	0	-0	0	0	0	0	0	-0	0	0.105	0.015	0	0	-0	0	0	0.098	0.1	0	-0	0	0	0	0	0	-0	0	0.05595	0	0	0	-0	0	0	0	0	0	-0	0	581.161	579.462	330.847	204.284	-0.183447	0.278102	0.0152174	-0.0134934	-0.121968
58	0.0108079	0.0220484	0.0229739	0.0355542	-0.000355283	0.0274986	0.0252429	-0.030333	0.00281411	-0.0965627	0.0552513	-0.0407624	0.0491188	-0.00176093	0.0232026	-2.19183	-0.00397232	-1.56268	0	0	0	0	-0	0	0	0	-0.1265	0	-0	0	0	0	0	0	-0	0	0.105	0.015	0	0	-0	0	0	0.098	0.1	0	-0	0	0	0	0	0	-0	0	0.05595	0	0	0	-0	0	0	0	0	0	-0	0	581.213	579.514	330.931	204.383	-0.185486	0.292834	0.0153088	-0.0134769	-0.155946
59	0.0193274	0.0220642	0.0229648	0.0355741	-0.000356634	0.0275062	0.0252419	-0.0303323	0.00281575	-0.100594	0.0504622	-0.0402169	0.0489138	-0.00176081	0.0236275	-2.18358	-0.00419937	-1.56288	0	0	0	0	-0	0	0	0	-0.1265	0	-0	0	0	0	0	0	-0	0	0.105	0.015	0	0	-0	0	0	0.098	0.1	0	-0	0	0	0	0	0	-0	0	0.05595	0	0	0	-0	0	0	0	0	0	-0	0	581.289	579.591	331.059	204.531	-0.187865	0.310692	0.0154418	-0.01346	-0.201271
60	0.0181583	0.0220717	0.0229505	0.0355678	-0.000362566	0.0275053	0.0252404	-0.0303316	0.00281489	-0.100958	0.0537738	-0.0463947	0.0489356	-0.00175835	0.0235743	-2.18486	-0.00426863	-1.56295	0	0	0	0	-0	0	0	0	-0.1265	0	-0	0	0	0	0	0	-0	0	0.105	0.015	0	0	-0	0	0	0.098	0.1	0	-0	0	0	0	0	0	-0	0	0.05595	0	0	0	-0	0	0	0	0	0	-0	0	581.321	579.622	331.112	204.593	-0.189105	0.318989	0.0155408	-0.0134578	-0.221744
61	0.0166178	0.0220767	0.0229479	0.0355746	-0.000363612	0.0275061	0.0252401	-0.0303315	0.00281587	-0.102156	0.0501717	-0.0508569	0.0489684	-0.00175866	0.0235015	-2.18653	-0.00433258	-1.56302	0	0	0	0	-0	0	0	0	-0.1265	0	-0	0	0	0	0	0	-0	0	0.105	0.015	0	0	-0	0	0	0.098	0.1	0	-0	0	0	0	0	0	-0	0	0.05595	0	0	0	-0	0	0	0	0	0	-0	0	581.357	579.658	331.175	204.664	-0.190353	0.327999	0.0156076	-0.0134498	-0.243339
62	0.0116517	0.0220859	0.0229472	0.0355864	-0.000364463	0.0275088	0.025241	-0.0303321	0.00281697	-0.0980562	0.0578853	-0.0502918	0.0490814	-0.00175937	0.0232618	-2.19169	-0.00440795	-1.56312	0	0	0	0	-0	0	0	0	-0.1265	0	-0	0	0	0	0	0	-0	0	0.105	0.015	0	0	-0	0	0	0.098	0.1	0	-0	0	0	0	0	0	-0	0	0.05595	0	0	0	-0	0	0	0	0	0	-0	0	581.409	579.71	331.27	204.77	-0.192136	0.341079	0.0156935	-0.0134333	-0.274961
63	0.0112429	0.0220891	0.0229484	0.0355877	-0.000364461	0.0275093	0.0252409	-0.0303326	0.00281738	-0.0977549	0.0557279	-0.0579587	0.0490889	-0.00175941	0.0232437	-2.19224	-0.00449255	-1.56322	0	0	0	0	-0	0	0	0	-0.1265	0	-0	0	0	0	0	0	-0	0	0.105	0.015	0	0	-0	0	0	0.098	0.1	0	-0	0	0	0	0	0	-0	0	0.05595	0	0	0	-0	0	0	0	0	0	-0	0	581.449	579.75	331.344	204.851	-0.193765	0.35259	0.0157653	-0.0134166	-0.301042
64	0.0067726	0.022094	0.0229497	0.0355952	-0.000363755	0.0275111	0.025241	-0.0303328	0.00281792	-0.0963855	0.0568557	-0.0648322	0.0491906	-0.00175996	0.0230264	-2.19686	-0.0045443	-1.56329	0	0	0	0	-0	0	0	0	-0.1265	0	-0	0	0	0	0	0	-0	0	0.105	0.015	0	0	-0	0	0	0.098	0.1	0	-0	0	0	0	0	0	-0	0	0.05595	0	0	0	-0	0	0	0	0	0	-0	0	581.488	579.788	331.417	204.929	-0.195254	0.363241	0.0158344	-0.0134029	-0.326046
65	0.000991191	0.0220977	0.0229469	0.0355963	-0.000363685	0.0275122	0.0252404	-0.0303332	0.00281866	-0.103843	0.0575878	-0.0599339	0.0493207	-0.00175953	0.0227448	-2.20281	-0.00460903	-1.56338	0	0	0	0	-0	0	0	0	-0.1265	0	-0	0	0	0	0	0	-0	0	0.105	0.015	0	0	-0	0	0	0.098	0.1	0	-0	0	0	0	0	0	-0	0	0.05595	0	0	0	-0	0	0	0	0	0	-0	0	581.533	579.834	331.505	205.024	-0.196964	0.375732	0.0159162	-0.013386	-0.355956
66	0.00934393	0.0221052	0.0229432	0.0356007	-0.000364328	0.0275136	0.0252405	-0.0303332	0.00281849	-0.104421	0.0581097	-0.0675688	0.0491258	-0.00175942	0.0231608	-2.19471	-0.00483458	-1.56359	0	0	0	0	-0	0	0	0	-0.1265	0	-0	0	0	0	0	0	-0	0	0.105	0.015	0	0	-0	0	0	0.098	0.1	0	-0	0	0	0	0	0	-0	0	0.05595	0	0	0	-0	0	0	0	0	0	-0	0	581.599	579.902	331.639	205.166	-0.199413	0.393905	0.0160313	-0.0133611	-0.400277
67	0.00824326	0.0221048	0.0229365	0.0355881	-0.000365768	0.0275112	0.0252397	-0.0303327	0.00281757	-0.107945	0.0531859	-0.0707481	0.0491472	-0.0017577	0.0231095	-2.19601	-0.00495384	-1.56371	0	0	0	0	-0	0	0	0	-0.1265	0	-0	0	0	0	0	0	-0	0	0.105	0.015	0	0	-0	0	0	0.098	0.1	0	-0	0	0	0	0	0	-0	0	0.05595	0	0	0	-0	0	0	0	0	0	-0	0	581.646	579.953	331.742	205.273	-0.20153	0.409036	0.0161376	-0.0133407	-0.435766
68	0.000809508	0.0221111	0.0229387	0.0355987	-0.000364038	0.0275144	0.0252397	-0.0303339	0.00281958	-0.0987629	0.0507343	-0.0763969	0.0493154	-0.0017588	0.0227472	-2.20373	-0.00508312	-1.56387	0	0	0	0	-0	0	0	0	-0.1265	0	-0	0	0	0	0	0	-0	0	0.105	0.015	0	0	-0	0	0	0.098	0.1	0	-0	0	0	0	0	0	-0	0	0.05595	0	0	0	-0	0	0	0	0	0	-0	0	581.716	580.028	331.898	205.433	-0.204313	0.429896	0.0162532	-0.013308	-0.485893
69	-0.00351437	0.0221239	0.0229361	0.0356087	-0.000364388	0.0275179	0.0252389	-0.0303338	0.00281911	-0.085463	0.0407554	-0.072702	0.0494075	-0.00175901	0.022539	-2.20848	-0.00534137	-1.56415	0	0	0	0	-0	0	0	0	-0.1265	0	-0	0	0	0	0	0	-0	0	0.105	0.015	0	0	-0	0	0	0.098	0.1	0	-0	0	0	0	0	0	-0	0	0.05595	0	0	0	-0	0	0	0	0	0	-0	0	581.815	580.137	332.135	205.671	-0.208238	0.459371	0.016427	-0.0132588	-0.55788
70	-0.00222937	0.0221299	0.0229302	0.0356084	-0.000366657	0.0275178	0.0252395	-0.0303332	0.00281991	-0.0844988	0.033503	-0.0766004	0.0493745	-0.00175789	0.0226061	-2.20738	-0.0054791	-1.56428	0	0	0	0	-0	0	0	0	-0.1265	0	-0	0	0	0	0	0	-0	0	0.105	0.015	0	0	-0	0	0	0.098	0.1	0	-0	0	0	0	0	0	-0	0	0.05595	0	0	0	-0	0	0	0	0	0	-0	0	581.861	580.18	332.235	205.77	-0.210295	0.473191	0.0165532	-0.0132452	-0.589988
71	0.00677057	0.0221365	0.0229359	0.0356199	-0.000365802	0.0275213	0.0252411	-0.030334	0.00282031	-0.0831396	0.0413373	-0.0823706	0.049169	-0.00175923	0.023053	-2.19862	-0.00570081	-1.56451	0	0	0	0	-0	0	0	0	-0.1265	0	-0	0	0	0	0	0	-0	0	0.105	0.015	0	0	-0	0	0	0.098	0.1	0	-0	0	0	0	0	0	-0	0	0.05595	0	0	0	-0	0	0	0	0	0	-0	0	581.919	580.238	332.376	205.906	-0.212835	0.491679	0.0166664	-0.0132117	-0.633288
72	0.00633933	0.0221302	0.0229324	0.0356025	-0.000364856	0.0275195	0.0252403	-0.0303339	0.00282043	-0.0796493	0.0338731	-0.089412	0.0491763	-0.00175723	0.0230336	-2.19925	-0.00582753	-1.56465	0	0	0	0	-0	0	0	0	-0.1265	0	-0	0	0	0	0	0	-0	0	0.105	0.015	0	0	-0	0	0	0.098	0.1	0	-0	0	0	0	0	0	-0	0	0.05595	0	0	0	-0	0	0	0	0	0	-0	0	581.963	580.283	332.485	206.009	-0.215128	0.50807	0.0167739	-0.0131836	-0.670941
73	0.00692385	0.0221391	0.02294	0.0356219	-0.000362318	0.0275249	0.0252421	-0.0303341	0.00282101	-0.0809632	0.0447917	-0.0933326	0.0491604	-0.00175945	0.0230645	-2.19894	-0.00601943	-1.56486	0	0	0	0	-0	0	0	0	-0.1265	0	-0	0	0	0	0	0	-0	0	0.105	0.015	0	0	-0	0	0	0.098	0.1	0	-0	0	0	0	0	0	-0	0	0.05595	0	0	0	-0	0	0	0	0	0	-0	0	582.028	580.347	332.649	206.163	-0.217939	0.529067	0.0168926	-0.0131462	-0.721628
74	0.00215742	0.0221432	0.0229432	0.035628	-0.000359559	0.0275299	0.0252435	-0.0303374	0.00282209	-0.0835251	0.040876	-0.107052	0.0492683	-0.00175968	0.0228328	-2.20399	-0.00619275	-1.56505	0	0	0	0	-0	0	0	0	-0.1265	0	-0	0	0	0	0	0	-0	0	0.105	0.015	0	0	-0	0	0	0.098	0.1	0	-0	0	0	0	0	0	-0	0	0.05595	0	0	0	-0	0	0	0	0	0	-0	0	582.093	580.414	332.822	206.323	-0.220963	0.551643	0.0170227	-0.013104	-0.775552
75	-0.00442089	0.0221397	0.0229515	0.0356282	-0.000354721	0.0275304	0.0252418	-0.0303355	0.00282204	-0.0795921	0.0375376	-0.105519	0.0494182	-0.00176014	0.0225095	-2.21079	-0.00630807	-1.56517	0	0	0	0	-0	0	0	0	-0.1265	0	-0	0	0	0	0	0	-0	0	0.105	0.015	0	0	-0	0	0	0.098	0.1	0	-0	0	0	0	0	0	-0	0	0.05595	0	0	0	-0	0	0	0	0	0	-0	0	582.143	580.461	332.955	206.444	-0.223671	0.570967	0.017132	-0.0130697	-0.819258
76	0.000810067	0.02215	0.0229386	0.0356304	-0.000356921	0.0275347	0.0252414	-0.0303383	0.00282292	-0.0665209	0.042661	-0.108656	0.0492938	-0.00175841	0.0227734	-2.20588	-0.0065911	-1.56546	0	0	0	0	-0	0	0	0	-0.1265	0	-0	0	0	0	0	0	-0	0	0.105	0.015	0	0	-0	0	0	0.098	0.1	0	-0	0	0	0	0	0	-0	0	0.05595	0	0	0	-0	0	0	0	0	0	-0	0	582.215	580.535	333.157	206.625	-0.226776	0.594798	0.0173058	-0.0130329	-0.881216
77	-0.000826636	0.0221555	0.0229411	0.0356355	-0.000356661	0.027534	0.0252432	-0.0303365	0.00282329	-0.0652341	0.0551955	-0.108033	0.0493278	-0.00175901	0.0226953	-2.20781	-0.00680626	-1.56568	0	0	0	0	-0	0	0	0	-0.1265	0	-0	0	0	0	0	0	-0	0	0.105	0.015	0	0	-0	0	0	0.098	0.1	0	-0	0	0	0	0	0	-0	0	0.05595	0	0	0	-0	0	0	0	0	0	-0	0	582.281	580.599	333.344	206.789	-0.23001	0.618331	0.0174568	-0.0129949	-0.937345
78	0.0105952	0.0221687	0.0229481	0.0356526	-0.000353438	0.0275433	0.0252422	-0.0303413	0.00282323	-0.0478894	0.0558292	-0.0998944	0.0490657	-0.00176073	0.0232618	-2.19702	-0.00735434	-1.56629	0	0	0	0	-0	0	0	0	-0.1265	0	-0	0	0	0	0	0	-0	0	0.105	0.015	0	0	-0	0	0	0.098	0.1	0	-0	0	0	0	0	0	-0	0	0.05595	0	0	0	-0	0	0	0	0	0	-0	0	582.402	580.739	333.763	207.147	-0.235993	0.665492	0.0176884	-0.0128889	-1.05466
79	0.0128581	0.0221763	0.0229281	0.0356346	-0.000352611	0.0275438	0.0252399	-0.0303393	0.00282177	-0.0387167	0.0578965	-0.0922802	0.0490037	-0.00175644	0.023378	-2.19571	-0.00813409	-1.56711	0	0	0	0	-0	0	0	0	-0.1265	0	-0	0	0	0	0	0	-0	0	0.105	0.015	0	0	-0	0	0	0.098	0.1	0	-0	0	0	0	0	0	-0	0	0.05595	0	0	0	-0	0	0	0	0	0	-0	0	582.571	580.951	334.403	207.679	-0.245163	0.738494	0.0180692	-0.0127469	-1.24112
80	0.00786507	0.0221902	0.0229317	0.0356424	-0.000359708	0.0275427	0.0252404	-0.0303379	0.00282356	-0.0365857	0.0593241	-0.0984986	0.0491167	-0.00175692	0.023138	-2.20098	-0.00834403	-1.56732	0	0	0	0	-0	0	0	0	-0.1265	0	-0	0	0	0	0	0	-0	0	0.105	0.015	0	0	-0	0	0	0.098	0.1	0	-0	0	0	0	0	0	-0	0	0.05595	0	0	0	-0	0	0	0	0	0	-0	0	582.638	580.997	334.591	207.833	-0.249172	0.763656	0.0183323	-0.0127184	-1.29643
81	0.00116532	0.0222174	0.0229319	0.0356744	-0.000358939	0.0275575	0.0252423	-0.0303372	0.00282551	-0.028035	0.0435689	-0.0936876	0.049263	-0.00175866	0.0228167	-2.20872	-0.0092293	-1.56822	0	0	0	0	-0	0	0	0	-0.1265	0	-0	0	0	0	0	0	-0	0	0.105	0.015	0	0	-0	0	0	0.098	0.1	0	-0	0	0	0	0	0	-0	0	0.05595	0	0	0	-0	0	0	0	0	0	-0	0	582.823	581.209	335.357	208.426	-0.258201	0.835241	0.0187434	-0.012531	-1.47916
82	0.00173389	0.0222292	0.0229358	0.035673	-0.000366485	0.02756	0.0252418	-0.0303382	0.00282614	-0.0301069	0.0482024	-0.100305	0.0492476	-0.00175755	0.0228493	-2.20846	-0.0095108	-1.56853	0	0	0	0	-0	0	0	0	-0.1265	0	-0	0	0	0	0	0	-0	0	0.105	0.015	0	0	-0	0	0	0.098	0.1	0	-0	0	0	0	0	0	-0	0	0.05595	0	0	0	-0	0	0	0	0	0	-0	0	582.895	581.258	335.583	208.599	-0.262919	0.865586	0.0190416	-0.0124817	-1.54619
83	0.00354931	0.0222431	0.0229349	0.0356884	-0.000367959	0.0275653	0.0252437	-0.0303411	0.00282934	-0.0323103	0.051051	-0.0867957	0.0492012	-0.00175793	0.0229445	-2.20707	-0.00989975	-1.56895	0	0	0	0	-0	0	0	0	-0.1265	0	-0	0	0	0	0	0	-0	0	0.105	0.015	0	0	-0	0	0	0.098	0.1	0	-0	0	0	0	0	0	-0	0	0.05595	0	0	0	-0	0	0	0	0	0	-0	0	582.989	581.327	335.903	208.837	-0.268113	0.902281	0.0193514	-0.0124139	-1.63576
84	-0.00132482	0.0222688	0.0229446	0.0357067	-0.000374281	0.0275667	0.0252443	-0.0303412	0.00283095	-0.0263986	0.0578649	-0.0834609	0.0493118	-0.00176038	0.0227074	-2.21229	-0.0102149	-1.56926	0	0	0	0	-0	0	0	0	-0.1265	0	-0	0	0	0	0	0	-0	0	0.105	0.015	0	0	-0	0	0	0.098	0.1	0	-0	0	0	0	0	0	-0	0	0.05595	0	0	0	-0	0	0	0	0	0	-0	0	583.069	581.375	336.172	209.035	-0.273151	0.936279	0.0196331	-0.0123547	-1.7149
85	5.51018e-05	0.0222956	0.0229382	0.0357102	-0.000387319	0.0275657	0.0252433	-0.0303406	0.00283107	-0.0287833	0.0572543	-0.0913615	0.0492778	-0.00175998	0.0227789	-2.21105	-0.0103703	-1.56943	0	0	0	0	-0	0	0	0	-0.1265	0	-0	0	0	0	0	0	-0	0	0.105	0.015	0	0	-0	0	0	0.098	0.1	0	-0	0	0	0	0	0	-0	0	0.05595	0	0	0	-0	0	0	0	0	0	-0	0	583.108	581.39	336.286	209.117	-0.275855	0.952294	0.0198386	-0.012342	-1.75166
86	0.00234733	0.0223158	0.0229305	0.035716	-0.000395647	0.0275663	0.0252422	-0.030342	0.00283254	-0.0164406	0.058297	-0.0943112	0.0492216	-0.00175977	0.022896	-2.20896	-0.0105749	-1.56967	0	0	0	0	-0	0	0	0	-0.1265	0	-0	0	0	0	0	0	-0	0	0.105	0.015	0	0	-0	0	0	0.098	0.1	0	-0	0	0	0	0	0	-0	0	0.05595	0	0	0	-0	0	0	0	0	0	-0	0	583.157	581.413	336.445	209.231	-0.278768	0.971744	0.0200467	-0.0123167	-1.79991
87	-0.00314402	0.0223366	0.022926	0.0357284	-0.000401709	0.0275677	0.0252455	-0.030343	0.00283337	-0.00833747	0.0715786	-0.0951638	0.0493426	-0.00176031	0.0226306	-2.21474	-0.0108671	-1.56992	0	0	0	0	-0	0	0	0	-0.1265	0	-0	0	0	0	0	0	-0	0	0.105	0.015	0	0	-0	0	0	0.098	0.1	0	-0	0	0	0	0	0	-0	0	0.05595	0	0	0	-0	0	0	0	0	0	-0	0	583.225	581.448	336.685	209.4	-0.282646	0.999109	0.0202981	-0.0122727	-1.86885
88	-0.00748643	0.0223703	0.022932	0.0357318	-0.000410832	0.0275702	0.0252476	-0.0303486	0.00283497	-0.0245169	0.0613537	-0.0868822	0.0494406	-0.00176202	0.0224173	-2.21972	-0.0115129	-1.57055	0	0	0	0	-0	0	0	0	-0.1265	0	-0	0	0	0	0	0	-0	0	0.105	0.015	0	0	-0	0	0	0.098	0.1	0	-0	0	0	0	0	0	-0	0	0.05595	0	0	0	-0	0	0	0	0	0	-0	0	583.334	581.536	337.221	209.768	-0.290425	1.05813	0.0206658	-0.012136	-2.0165
89	0.00566074	0.0224209	0.0229453	0.035753	-0.000421642	0.0275743	0.0252473	-0.0303445	0.00283766	-0.0220149	0.0487691	-0.0935791	0.0491475	-0.00176551	0.0230662	-2.20749	-0.0124915	-1.57174	0	0	0	0	-0	0	0	0	-0.1265	0	-0	0	0	0	0	0	-0	0	0.105	0.015	0	0	-0	0	0	0.098	0.1	0	-0	0	0	0	0	0	-0	0	0.05595	0	0	0	-0	0	0	0	0	0	-0	0	583.477	581.658	338.03	210.306	-0.301539	1.14231	0.0211862	-0.011939	-2.22782
90	0.00629856	0.0224804	0.0229212	0.0357358	-0.000461234	0.0275678	0.0252439	-0.030344	0.0028375	-0.0297798	0.0542196	-0.0826229	0.049125	-0.0017621	0.0231044	-2.20712	-0.0128175	-1.5721	0	0	0	0	-0	0	0	0	-0.1265	0	-0	0	0	0	0	0	-0	0	0.105	0.015	0	0	-0	0	0	0.098	0.1	0	-0	0	0	0	0	0	-0	0	0.05595	0	0	0	-0	0	0	0	0	0	-0	0	583.539	581.68	338.267	210.462	-0.306619	1.17354	0.0215962	-0.0119156	-2.30335
91	0.0142092	0.0225275	0.0229201	0.035782	-0.000470497	0.0275802	0.0252449	-0.030347	0.00283856	-0.0411204	0.0509478	-0.0938843	0.0489351	-0.00176543	0.0234985	-2.20013	-0.0138346	-1.57329	0	0	0	0	-0	0	0	0	-0.1265	0	-0	0	0	0	0	0	-0	0	0.105	0.015	0	0	-0	0	0	0.098	0.1	0	-0	0	0	0	0	0	-0	0	0.05595	0	0	0	-0	0	0	0	0	0	-0	0	583.685	581.799	339.127	211.008	-0.316114	1.24642	0.0221326	-0.011714	-2.49247
92	0.0171689	0.0225867	0.0229008	0.0357667	-0.000507865	0.0275672	0.025242	-0.0303433	0.0028377	-0.0440463	0.0445858	-0.0952777	0.0488611	-0.00176311	0.0236482	-2.19739	-0.014107	-1.57365	0	0	0	0	-0	0	0	0	-0.1265	0	-0	0	0	0	0	0	-0	0	0.105	0.015	0	0	-0	0	0	0.098	0.1	0	-0	0	0	0	0	0	-0	0	0.05595	0	0	0	-0	0	0	0	0	0	-0	0	583.739	581.807	339.33	211.137	-0.321466	1.27633	0.0225571	-0.0117075	-2.55859
93	0.0178777	0.0226262	0.0228883	0.0357797	-0.000527474	0.0275668	0.0252427	-0.0303462	0.00283873	-0.0549131	0.0376157	-0.104815	0.0488385	-0.00176334	0.0236887	-2.19698	-0.0144596	-1.57404	0	0	0	0	-0	0	0	0	-0.1265	0	-0	0	0	0	0	0	-0	0	0.105	0.015	0	0	-0	0	0	0.098	0.1	0	-0	0	0	0	0	0	-0	0	0.05595	0	0	0	-0	0	0	0	0	0	-0	0	583.808	581.822	339.614	211.315	-0.326498	1.30906	0.0229407	-0.0116645	-2.63953
94	0.0345382	0.0226713	0.0228876	0.0357965	-0.000542271	0.027569	0.0252464	-0.0303443	0.00284026	-0.0546505	0.0571611	-0.107371	0.0484429	-0.0017651	0.0245037	-2.18097	-0.0151588	-1.57512	0	0	0	0	-0	0	0	0	-0.1265	0	-0	0	0	0	0	0	-0	0	0.105	0.015	0	0	-0	0	0	0.098	0.1	0	-0	0	0	0	0	0	-0	0	0.05595	0	0	0	-0	0	0	0	0	0	-0	0	583.909	581.868	340.25	211.703	-0.335204	1.3732	0.0234413	-0.0115177	-2.80192
95	0.0437731	0.0227493	0.0228655	0.0357589	-0.000588038	0.0275639	0.025239	-0.0303425	0.00283735	-0.0529194	0.0575398	-0.103168	0.0482171	-0.00176175	0.0249466	-2.17268	-0.0162487	-1.57654	0	0	0	0	-0	0	0	0	-0.1265	0	-0	0	0	0	0	0	-0	0	0.105	0.015	0	0	-0	0	0	0.098	0.1	0	-0	0	0	0	0	0	-0	0	0.05595	0	0	0	-0	0	0	0	0	0	-0	0	584.014	581.959	341.198	212.263	-0.347577	1.46933	0.0240599	-0.0112792	-3.0506
96	0.0526415	0.0228125	0.0228459	0.0357711	-0.000626216	0.0275558	0.0252383	-0.0303432	0.00283911	-0.0558261	0.0525321	-0.112304	0.0479873	-0.00176149	0.0253799	-2.16408	-0.0165479	-1.5771	0	0	0	0	-0	0	0	0	-0.1265	0	-0	0	0	0	0	0	-0	0	0.105	0.015	0	0	-0	0	0	0.098	0.1	0	-0	0	0	0	0	0	-0	0	0.05595	0	0	0	-0	0	0	0	0	0	-0	0	584.077	581.964	341.474	212.429	-0.353316	1.50174	0.0245553	-0.011271	-3.12547
97	0.0487343	0.0228623	0.0228373	0.0357906	-0.000650507	0.0275525	0.0252389	-0.0303446	0.00284096	-0.0613523	0.0471963	-0.102361	0.0480801	-0.00176277	0.0251963	-2.16837	-0.0170323	-1.57757	0	0	0	0	-0	0	0	0	-0.1265	0	-0	0	0	0	0	0	-0	0	0.105	0.015	0	0	-0	0	0	0.098	0.1	0	-0	0	0	0	0	0	-0	0	0.05595	0	0	0	-0	0	0	0	0	0	-0	0	584.155	581.975	341.86	212.657	-0.359617	1.54206	0.0250235	-0.0112073	-3.2227
98	0.0344375	0.0229138	0.0228412	0.0358254	-0.000668364	0.0275565	0.0252419	-0.0303442	0.00284384	-0.0602417	0.0630346	-0.104457	0.0484379	-0.001766	0.024511	-2.18323	-0.0178072	-1.5781	0	0	0	0	-0	0	0	0	-0.1265	0	-0	0	0	0	0	0	-0	0	0.105	0.015	0	0	-0	0	0	0.098	0.1	0	-0	0	0	0	0	0	-0	0	0.05595	0	0	0	-0	0	0	0	0	0	-0	0	584.247	582	342.441	212.994	-0.367356	1.59566	0.0255267	-0.0110788	-3.35434
99	0.0251129	0.0229989	0.0228289	0.0358312	-0.000709077	0.0275623	0.0252447	-0.0303481	0.00284551	-0.0695657	0.0437581	-0.1099	0.0486691	-0.00176563	0.0240526	-2.19371	-0.0193791	-1.57959	0	0	0	0	-0	0	0	0	-0.1265	0	-0	0	0	0	0	0	-0	0	0.105	0.015	0	0	-0	0	0	0.098	0.1	0	-0	0	0	0	0	0	-0	0	0.05595	0	0	0	-0	0	0	0	0	0	-0	0	584.347	582.105	343.699	213.696	-0.379877	1.69476	0.0261583	-0.0107499	-3.61206
100	0.0286161	0.0231105	0.0228573	0.0358894	-0.000752016	0.0275722	0.0252423	-0.0303494	0.0028514	-0.0815966	0.0448843	-0.101233	0.0485991	-0.00177343	0.0242072	-2.19182	-0.0214784	-1.58201	0	0	0	0	-0	0	0	0	-0.1265	0	-0	0	0	0	0	0	-0	0	0.105	0.015	0	0	-0	0	0	0.098	0.1	0	-0	0	0	0	0	0	-0	0	0.05595	0	0	0	-0	0	0	0	0	0	-0	0	584.47	582.24	345.502	214.678	-0.396807	1.82508	0.0269609	-0.0102684	-3.93804
