Stefan210/kinematic_calibration/src/kinematic_calibration/validation/experiments/experiments/single_point_vs_pose/marker_single_point/rarm_240/optimization_intermediate_results.csv
iteration	HeadPitch_offset	HeadYaw_offset	RElbowRoll_offset	RElbowYaw_offset	RShoulderPitch_offset	RShoulderRoll_offset	marker_transform_rarm_tx	marker_transform_rarm_ty	marker_transform_rarm_tz	marker_transform_rarm_rr	marker_transform_rarm_rp	marker_transform_rarm_ry	camera_transform_tx	camera_transform_ty	camera_transform_tz	camera_transform_rr	camera_transform_rp	camera_transform_ry	HeadPitch_transform_tx	HeadPitch_transform_ty	HeadPitch_transform_tz	HeadPitch_transform_rr	HeadPitch_transform_rp	HeadPitch_transform_ry	HeadYaw_transform_tx	HeadYaw_transform_ty	HeadYaw_transform_tz	HeadYaw_transform_rr	HeadYaw_transform_rp	HeadYaw_transform_ry	RElbowRoll_transform_tx	RElbowRoll_transform_ty	RElbowRoll_transform_tz	RElbowRoll_transform_rr	RElbowRoll_transform_rp	RElbowRoll_transform_ry	RElbowYaw_transform_tx	RElbowYaw_transform_ty	RElbowYaw_transform_tz	RElbowYaw_transform_rr	RElbowYaw_transform_rp	RElbowYaw_transform_ry	RShoulderPitch_transform_tx	RShoulderPitch_transform_ty	RShoulderPitch_transform_tz	RShoulderPitch_transform_rr	RShoulderPitch_transform_rp	RShoulderPitch_transform_ry	RShoulderRoll_transform_tx	RShoulderRoll_transform_ty	RShoulderRoll_transform_tz	RShoulderRoll_transform_rr	RShoulderRoll_transform_rp	RShoulderRoll_transform_ry	RWristYaw_transform_tx	RWristYaw_transform_ty	RWristYaw_transform_tz	RWristYaw_transform_rr	RWristYaw_transform_rp	RWristYaw_transform_ry	r_wrist_joint_transform_tx	r_wrist_joint_transform_ty	r_wrist_joint_transform_tz	r_wrist_joint_transform_rr	r_wrist_joint_transform_rp	r_wrist_joint_transform_ry	camera_fx	camera_fy	camera_cx	camera_cy	camera_D0	camera_D1	camera_D2	camera_D3	camera_D4	
0	0.0230449	0.0294606	-0.0013508	-0.00116347	0.000678263	0.00258603	0.05071	0	0.01774	-2.26369	1.66533e-16	-1.5708	545.901	551.038	324.928	201.58	0.0255298	2.61142	-0.0636736	-0.0350419	0.213964
1	-0.0147104	-0.0175484	0.00465963	0.0136325	-0.0152224	-0.0328645	0.0209219	0.0286096	-0.000793452	-0.00110253	0.000638543	0.00275692	0.0541268	-0.00277296	0.018558	-2.20454	0.0126605	-1.53628	0	0	0	0	-0	0	0	0	-0.1265	0	-0	0	0	0	0	0	-0	0	0.105	-0.015	0	0	-0	0	0	-0.098	0.1	0	-0	0	0	0	0	0	-0	0	0.05595	0	0	0	-0	0	0	0	0	0	-0	0	545.901	551.039	324.929	201.581	-0.0417436	2.58818	-0.0808392	-0.0665649	0.208565
2	-0.012731	-0.0347722	-0.000844124	0.0126074	-0.0286556	-0.0301804	0.0209173	0.0287204	-0.000606159	-0.00108212	0.000624181	0.00276804	0.0532079	-0.00154571	0.0222466	-2.21302	0.0208496	-1.52882	0	0	0	0	-0	0	0	0	-0.1265	0	-0	0	0	0	0	0	-0	0	0.105	-0.015	0	0	-0	0	0	-0.098	0.1	0	-0	0	0	0	0	0	-0	0	0.05595	0	0	0	-0	0	0	0	0	0	-0	0	545.903	551.04	324.934	201.587	-0.234498	2.45539	-0.0175577	-0.0337657	0.161803
3	-0.0141243	-0.028188	0.0017015	0.0141863	-0.0225003	-0.0333428	0.0209895	0.0287534	-0.000914945	-0.00111592	0.000649683	0.00276297	0.0548836	-0.00251516	0.0184706	-2.20651	0.0201197	-1.52985	0	0	0	0	-0	0	0	0	-0.1265	0	-0	0	0	0	0	0	-0	0	0.105	-0.015	0	0	-0	0	0	-0.098	0.1	0	-0	0	0	0	0	0	-0	0	0.05595	0	0	0	-0	0	0	0	0	0	-0	0	545.905	551.04	324.939	201.592	-0.453232	2.31693	-0.0127823	-0.0314198	0.115633
4	-0.0143587	-0.0253804	0.0029918	0.0124704	-0.0195911	-0.0360823	0.0211355	0.0287907	-0.00104955	-0.00113144	0.000660985	0.00275016	0.0558659	-0.00308048	0.0161369	-2.20498	0.0203419	-1.53277	0	0	0	0	-0	0	0	0	-0.1265	0	-0	0	0	0	0	0	-0	0	0.105	-0.015	0	0	-0	0	0	-0.098	0.1	0	-0	0	0	0	0	0	-0	0	0.05595	0	0	0	-0	0	0	0	0	0	-0	0	545.909	551.041	324.947	201.599	-0.69159	2.06985	0.021825	-0.00957222	0.0190615
5	-0.0145841	-0.0233121	0.00463439	0.0116933	-0.0175951	-0.0379254	0.0211935	0.0287883	-0.0011369	-0.00114243	0.000664927	0.00274515	0.0559081	-0.00349162	0.0153041	-2.20389	0.0201201	-1.53393	0	0	0	0	-0	0	0	0	-0.1265	0	-0	0	0	0	0	0	-0	0	0.105	-0.015	0	0	-0	0	0	-0.098	0.1	0	-0	0	0	0	0	0	-0	0	0.05595	0	0	0	-0	0	0	0	0	0	-0	0	545.918	551.04	324.96	201.609	-0.681474	1.73206	0.0287896	-0.00378218	-0.139343
6	-0.0146539	-0.0221902	0.00638943	0.0111356	-0.0167411	-0.0389392	0.0211905	0.0287468	-0.00112218	-0.00113159	0.000661297	0.00273859	0.0548743	-0.00369503	0.0161048	-2.20386	0.0193561	-1.53438	0	0	0	0	-0	0	0	0	-0.1265	0	-0	0	0	0	0	0	-0	0	0.105	-0.015	0	0	-0	0	0	-0.098	0.1	0	-0	0	0	0	0	0	-0	0	0.05595	0	0	0	-0	0	0	0	0	0	-0	0	545.934	551.037	324.976	201.619	-0.451248	1.228	0.0172189	-0.00756543	-0.394619
7	-0.0146539	-0.021439	0.00780143	0.0105336	-0.0163368	-0.0396087	0.0211795	0.0287064	-0.00107766	-0.00109846	0.000604509	0.00274331	0.0537763	-0.00381189	0.0171286	-2.20413	0.0186185	-1.53477	0	0	0	0	-0	0	0	0	-0.1265	0	-0	0	0	0	0	0	-0	0	0.105	-0.015	0	0	-0	0	0	-0.098	0.1	0	-0	0	0	0	0	0	-0	0	0.05595	0	0	0	-0	0	0	0	0	0	-0	0	545.953	551.035	324.99	201.626	-0.198138	0.694779	0.00391463	-0.0123599	-0.665889
8	-0.014662	-0.0212892	0.00842967	0.0101014	-0.0163592	-0.0398671	0.0211717	0.0286855	-0.00104081	-0.00114497	0.00057553	0.00271071	0.0531701	-0.00384171	0.0177612	-2.20454	0.0182949	-1.53493	0	0	0	0	-0	0	0	0	-0.1265	0	-0	0	0	0	0	0	-0	0	0.105	-0.015	0	0	-0	0	0	-0.098	0.1	0	-0	0	0	0	0	0	-0	0	0.05595	0	0	0	-0	0	0	0	0	0	-0	0	545.976	551.035	324.998	201.63	-0.0560695	0.378189	-0.00278492	-0.0147037	-0.825074
9	-0.0145269	-0.0213013	0.00857586	0.0099652	-0.0164125	-0.0399066	0.0211687	0.0286796	-0.00102875	-0.00123953	0.000691779	0.0030298	0.0530042	-0.00384324	0.0179537	-2.2046	0.0182096	-1.53497	0	0	0	0	-0	0	0	0	-0.1265	0	-0	0	0	0	0	0	-0	0	0.105	-0.015	0	0	-0	0	0	-0.098	0.1	0	-0	0	0	0	0	0	-0	0	0.05595	0	0	0	-0	0	0	0	0	0	-0	0	546.023	551.043	325.006	201.643	-0.0188757	0.290305	-0.00430579	-0.0152411	-0.865262
10	-0.0151524	-0.0213073	0.0085941	0.00993853	-0.0164264	-0.0399007	0.0211678	0.0286784	-0.00102706	-0.000778215	0.000488687	0.00249478	0.0529851	-0.00384169	0.0179563	-2.20536	0.0181993	-1.53502	0	0	0	0	-0	0	0	0	-0.1265	0	-0	0	0	0	0	0	-0	0	0.105	-0.015	0	0	-0	0	0	-0.098	0.1	0	-0	0	0	0	0	0	-0	0	0.05595	0	0	0	-0	0	0	0	0	0	-0	0	546.148	551.076	325.021	201.688	-0.0159049	0.28071	-0.00424957	-0.0152808	-0.864686
11	-0.0133899	-0.0213123	0.00859938	0.00991267	-0.0164391	-0.0398856	0.0211668	0.0286777	-0.0010261	0.00360938	0.00328551	0.000720775	0.052922	-0.00383842	0.0180862	-2.20394	0.0180812	-1.53507	0	0	0	0	-0	0	0	0	-0.1265	0	-0	0	0	0	0	0	-0	0	0.105	-0.015	0	0	-0	0	0	-0.098	0.1	0	-0	0	0	0	0	0	-0	0	0.05595	0	0	0	-0	0	0	0	0	0	-0	0	546.45	551.216	325.054	201.825	-0.0187087	0.289311	-0.00384187	-0.0152529	-0.878498
12	-0.00974883	-0.0213211	0.00860717	0.00987679	-0.016454	-0.0398619	0.0211671	0.0286785	-0.00102566	0.000550353	0.000504465	-0.0115475	0.0528036	-0.00383338	0.0183406	-2.20122	0.0178449	-1.53519	0	0	0	0	-0	0	0	0	-0.1265	0	-0	0	0	0	0	0	-0	0	0.105	-0.015	0	0	-0	0	0	-0.098	0.1	0	-0	0	0	0	0	0	-0	0	0.05595	0	0	0	-0	0	0	0	0	0	-0	0	547.094	551.755	325.129	202.23	-0.0273361	0.335896	-0.00333382	-0.0151988	-0.969605
13	-0.00273733	-0.0213377	0.00862138	0.00983563	-0.016468	-0.0398278	0.0211762	0.0286824	-0.00102204	-0.0154179	0.0256452	-0.0144539	0.0525834	-0.00382645	0.0188196	-2.19671	0.0173199	-1.5355	0	0	0	0	-0	0	0	0	-0.1265	0	-0	0	0	0	0	0	-0	0	0.105	-0.015	0	0	-0	0	0	-0.098	0.1	0	-0	0	0	0	0	0	-0	0	0.05595	0	0	0	-0	0	0	0	0	0	-0	0	548.405	553.303	325.352	203.367	-0.0454002	0.456289	-0.00299101	-0.0150887	-1.21937
14	-0.00178038	-0.0213427	0.00862453	0.00981647	-0.01647	-0.0398107	0.021165	0.0286761	-0.00102226	-0.0117916	0.0335252	-0.00147168	0.0525258	-0.00382303	0.0189131	-2.19695	0.0171469	-1.53572	0	0	0	0	-0	0	0	0	-0.1265	0	-0	0	0	0	0	0	-0	0	0.105	-0.015	0	0	-0	0	0	-0.098	0.1	0	-0	0	0	0	0	0	-0	0	0.05595	0	0	0	-0	0	0	0	0	0	-0	0	548.973	554.022	325.47	203.923	-0.0539756	0.518647	-0.00289513	-0.0150194	-1.35595
15	-0.00442758	-0.0213605	0.00863041	0.00979462	-0.0164809	-0.0397913	0.0211664	0.028681	-0.001019	-0.0310696	0.0438976	-0.0078373	0.0525286	-0.00381949	0.0188311	-2.20128	0.0170268	-1.53609	0	0	0	0	-0	0	0	0	-0.1265	0	-0	0	0	0	0	0	-0	0	0.105	-0.015	0	0	-0	0	0	-0.098	0.1	0	-0	0	0	0	0	0	-0	0	0.05595	0	0	0	-0	0	0	0	0	0	-0	0	549.699	554.963	325.657	204.716	-0.0644255	0.596278	-0.00278672	-0.0149348	-1.52688
16	-0.0173133	-0.0213817	0.00863522	0.00976883	-0.0164928	-0.039767	0.0211535	0.0286957	-0.00100038	-0.0776956	0.0164545	0.0108552	0.0527159	-0.00381538	0.0182216	-2.21639	0.0171407	-1.53679	0	0	0	0	-0	0	0	0	-0.1265	0	-0	0	0	0	0	0	-0	0	0.105	-0.015	0	0	-0	0	0	-0.098	0.1	0	-0	0	0	0	0	0	-0	0	0.05595	0	0	0	-0	0	0	0	0	0	-0	0	550.562	556.098	325.947	205.783	-0.0768767	0.691955	-0.00262819	-0.014804	-1.7431
17	-0.0117659	-0.021398	0.00863962	0.00973861	-0.0165016	-0.0397473	0.0211568	0.0286762	-0.00101503	-0.104453	-0.00113145	0.00743007	0.0525772	-0.00381205	0.018556	-2.2124	0.0166914	-1.53707	0	0	0	0	-0	0	0	0	-0.1265	0	-0	0	0	0	0	0	-0	0	0.105	-0.015	0	0	-0	0	0	-0.098	0.1	0	-0	0	0	0	0	0	-0	0	0.05595	0	0	0	-0	0	0	0	0	0	-0	0	551.123	556.835	326.172	206.537	-0.0856678	0.761305	-0.00248397	-0.0146869	-1.90479
18	-0.0235951	-0.0214289	0.00863551	0.00972583	-0.0165203	-0.039726	0.0211579	0.0286737	-0.00101523	-0.0863762	0.0124914	0.0147214	0.0527548	-0.003809	0.0179853	-2.22629	0.0167023	-1.53779	0	0	0	0	-0	0	0	0	-0.1265	0	-0	0	0	0	0	0	-0	0	0.105	-0.015	0	0	-0	0	0	-0.098	0.1	0	-0	0	0	0	0	0	-0	0	0.05595	0	0	0	-0	0	0	0	0	0	-0	0	551.796	557.728	326.517	207.557	-0.0959337	0.8452	-0.0022847	-0.014535	-2.10446
19	-0.0265919	-0.0214367	0.00863245	0.00971717	-0.0165242	-0.039718	0.0211591	0.0286715	-0.00101175	-0.0825106	0.0133694	0.021523	0.0527963	-0.00380759	0.0178386	-2.22984	0.0166888	-1.53799	0	0	0	0	-0	0	0	0	-0.1265	0	-0	0	0	0	0	0	-0	0	0.105	-0.015	0	0	-0	0	0	-0.098	0.1	0	-0	0	0	0	0	0	-0	0	0.05595	0	0	0	-0	0	0	0	0	0	-0	0	551.972	557.956	326.613	207.832	-0.0993821	0.872761	-0.00219369	-0.0144713	-2.17181
20	-0.0296932	-0.0214472	0.00863109	0.00970957	-0.01653	-0.0397097	0.0211581	0.0286747	-0.00101195	-0.0650919	0.0155823	0.0269928	0.0528394	-0.00380647	0.0176906	-2.23367	0.0166389	-1.53824	0	0	0	0	-0	0	0	0	-0.1265	0	-0	0	0	0	0	0	-0	0	0.105	-0.015	0	0	-0	0	0	-0.098	0.1	0	-0	0	0	0	0	0	-0	0	0.05595	0	0	0	-0	0	0	0	0	0	-0	0	552.192	558.245	326.746	208.197	-0.103246	0.904704	-0.00210299	-0.0144092	-2.24925
21	-0.0351432	-0.0214627	0.00862968	0.00969814	-0.0165389	-0.0396987	0.021163	0.0286751	-0.0010126	-0.0642115	0.00355303	0.00889851	0.0529193	-0.00380505	0.0174243	-2.24014	0.0165865	-1.53862	0	0	0	0	-0	0	0	0	-0.1265	0	-0	0	0	0	0	0	-0	0	0.105	-0.015	0	0	-0	0	0	-0.098	0.1	0	-0	0	0	0	0	0	-0	0	0.05595	0	0	0	-0	0	0	0	0	0	-0	0	552.484	558.632	326.946	208.709	-0.108072	0.945627	-0.00197889	-0.0143159	-2.35033
22	-0.0181873	-0.0214941	0.00862441	0.00968155	-0.0165575	-0.0396786	0.0211527	0.0286744	-0.00100841	-0.031778	0.0331907	0.00893626	0.0525953	-0.00380274	0.0183593	-2.22516	0.0155321	-1.53898	0	0	0	0	-0	0	0	0	-0.1265	0	-0	0	0	0	0	0	-0	0	0.105	-0.015	0	0	-0	0	0	-0.098	0.1	0	-0	0	0	0	0	0	-0	0	0.05595	0	0	0	-0	0	0	0	0	0	-0	0	552.991	559.323	327.388	209.703	-0.116417	1.0195	-0.00174743	-0.0141148	-2.53738
23	-0.0200773	-0.0215123	0.00862011	0.00966697	-0.0165683	-0.0396666	0.0211555	0.0286725	-0.00100855	-0.0487699	0.0240194	0.00339169	0.052611	-0.00380107	0.0182717	-2.22796	0.0153463	-1.53933	0	0	0	0	-0	0	0	0	-0.1265	0	-0	0	0	0	0	0	-0	0	0.105	-0.015	0	0	-0	0	0	-0.098	0.1	0	-0	0	0	0	0	0	-0	0	0.05595	0	0	0	-0	0	0	0	0	0	-0	0	553.213	559.618	327.61	210.169	-0.121027	1.05894	-0.00158356	-0.0139889	-2.63909
24	-0.0324013	-0.0215191	0.00861726	0.00966175	-0.0165719	-0.0396618	0.0211568	0.0286708	-0.00100656	-0.0569478	0.0263323	0.00142049	0.0528325	-0.00380039	0.0176283	-2.24064	0.0156281	-1.53966	0	0	0	0	-0	0	0	0	-0.1265	0	-0	0	0	0	0	0	-0	0	0.105	-0.015	0	0	-0	0	0	-0.098	0.1	0	-0	0	0	0	0	0	-0	0	0.05595	0	0	0	-0	0	0	0	0	0	-0	0	553.3	559.732	327.702	210.355	-0.123105	1.07608	-0.00150668	-0.013934	-2.68268
25	-0.0363286	-0.0215321	0.00861403	0.00965673	-0.0165794	-0.0396543	0.0211568	0.0286699	-0.00100621	-0.0589925	0.0321634	0.00534493	0.0528902	-0.00379964	0.0174302	-2.24527	0.0155335	-1.53998	0	0	0	0	-0	0	0	0	-0.1265	0	-0	0	0	0	0	0	-0	0	0.105	-0.015	0	0	-0	0	0	-0.098	0.1	0	-0	0	0	0	0	0	-0	0	0.05595	0	0	0	-0	0	0	0	0	0	-0	0	553.456	559.947	327.889	210.716	-0.126124	1.10383	-0.00140762	-0.0138463	-2.75546
26	-0.0251489	-0.0215449	0.00861067	0.00964934	-0.0165871	-0.039647	0.0211563	0.0286697	-0.00100347	-0.071199	0.0149021	0.010535	0.0526883	-0.00379881	0.018031	-2.23475	0.0149736	-1.54006	0	0	0	0	-0	0	0	0	-0.1265	0	-0	0	0	0	0	0	-0	0	0.105	-0.015	0	0	-0	0	0	-0.098	0.1	0	-0	0	0	0	0	0	-0	0	0.05595	0	0	0	-0	0	0	0	0	0	-0	0	553.598	560.144	328.074	211.053	-0.12896	1.12968	-0.00130541	-0.0137522	-2.82394
27	-0.031562	-0.0215502	0.00860862	0.00964577	-0.0165901	-0.0396433	0.0211572	0.0286716	-0.00100553	-0.0663959	0.0143708	0.0221302	0.0527982	-0.00379832	0.0176953	-2.24142	0.0150842	-1.54026	0	0	0	0	-0	0	0	0	-0.1265	0	-0	0	0	0	0	0	-0	0	0.105	-0.015	0	0	-0	0	0	-0.098	0.1	0	-0	0	0	0	0	0	-0	0	0.05595	0	0	0	-0	0	0	0	0	0	-0	0	553.654	560.219	328.15	211.189	-0.130292	1.14093	-0.00124752	-0.0137071	-2.85341
28	-0.0183949	-0.0215605	0.00860621	0.00964044	-0.0165963	-0.0396378	0.0211571	0.0286702	-0.0010033	-0.0679642	0.00495594	0.0308425	0.0525593	-0.00379781	0.0183971	-2.22877	0.0145036	-1.54028	0	0	0	0	-0	0	0	0	-0.1265	0	-0	0	0	0	0	0	-0	0	0.105	-0.015	0	0	-0	0	0	-0.098	0.1	0	-0	0	0	0	0	0	-0	0	0.05595	0	0	0	-0	0	0	0	0	0	-0	0	553.759	560.363	328.304	211.453	-0.132453	1.16107	-0.00116572	-0.0136321	-2.90737
29	-0.0158784	-0.0215657	0.00860409	0.00963806	-0.0165993	-0.0396346	0.0211565	0.0286699	-0.00100436	-0.0637441	-0.00245016	0.0313654	0.0525063	-0.00379741	0.0185307	-2.22651	0.0143403	-1.54035	0	0	0	0	-0	0	0	0	-0.1265	0	-0	0	0	0	0	0	-0	0	0.105	-0.015	0	0	-0	0	0	-0.098	0.1	0	-0	0	0	0	0	0	-0	0	0.05595	0	0	0	-0	0	0	0	0	0	-0	0	553.809	560.432	328.381	211.582	-0.133641	1.17149	-0.00111523	-0.0135886	-2.93511
30	-0.00873058	-0.0215736	0.0086022	0.00963353	-0.0166041	-0.0396306	0.021156	0.02867	-0.00100401	-0.0692616	0.00247393	0.0327651	0.0523704	-0.00379701	0.0189105	-2.21972	0.0139925	-1.54041	0	0	0	0	-0	0	0	0	-0.1265	0	-0	0	0	0	0	0	-0	0	0.105	-0.015	0	0	-0	0	0	-0.098	0.1	0	-0	0	0	0	0	0	-0	0	0.05595	0	0	0	-0	0	0	0	0	0	-0	0	553.881	560.532	328.496	211.767	-0.135235	1.18628	-0.00105483	-0.0135311	-2.97486
31	-0.0179037	-0.0215803	0.00860021	0.00963021	-0.0166081	-0.039627	0.0211569	0.0286727	-0.00100097	-0.0784909	-0.00406739	0.0472168	0.0525399	-0.00379663	0.0184333	-2.2292	0.0141557	-1.54068	0	0	0	0	-0	0	0	0	-0.1265	0	-0	0	0	0	0	0	-0	0	0.105	-0.015	0	0	-0	0	0	-0.098	0.1	0	-0	0	0	0	0	0	-0	0	0.05595	0	0	0	-0	0	0	0	0	0	-0	0	553.94	560.615	328.597	211.927	-0.136584	1.19871	-0.000999484	-0.013478	-3.00852
32	-0.0187421	-0.0215844	0.00859896	0.00962695	-0.0166105	-0.0396241	0.0211557	0.0286695	-0.00100293	-0.0798348	-0.00947801	0.0528165	0.0525515	-0.00379632	0.018391	-2.23026	0.0140931	-1.5408	0	0	0	0	-0	0	0	0	-0.1265	0	-0	0	0	0	0	0	-0	0	0.105	-0.015	0	0	-0	0	0	-0.098	0.1	0	-0	0	0	0	0	0	-0	0	0.05595	0	0	0	-0	0	0	0	0	0	-0	0	553.982	560.675	328.673	212.044	-0.137568	1.20767	-0.000956758	-0.0134368	-3.03282
33	-0.0204732	-0.0216048	0.00859403	0.0096195	-0.0166234	-0.039615	0.0211558	0.0286684	-0.00100277	-0.0972333	-0.034323	0.0539481	0.0525762	-0.00379562	0.0183104	-2.23288	0.0137689	-1.54126	0	0	0	0	-0	0	0	0	-0.1265	0	-0	0	0	0	0	0	-0	0	0.105	-0.015	0	0	-0	0	0	-0.098	0.1	0	-0	0	0	0	0	0	-0	0	0.05595	0	0	0	-0	0	0	0	0	0	-0	0	554.137	560.907	328.998	212.504	-0.140824	1.24106	-0.000837213	-0.0132814	-3.12632
34	-0.0294837	-0.0216111	0.00859062	0.00961598	-0.0166271	-0.0396114	0.0211549	0.0286695	-0.00100248	-0.0973198	-0.0340291	0.0588351	0.0527403	-0.00379511	0.0178383	-2.24212	0.0139312	-1.54151	0	0	0	0	-0	0	0	0	-0.1265	0	-0	0	0	0	0	0	-0	0	0.105	-0.015	0	0	-0	0	0	-0.098	0.1	0	-0	0	0	0	0	0	-0	0	0.05595	0	0	0	-0	0	0	0	0	0	-0	0	554.179	560.963	329.087	212.627	-0.142277	1.25256	-0.00076162	-0.0132218	-3.15669
35	-0.0238471	-0.021615	0.00858939	0.0096138	-0.0166294	-0.0396092	0.0211548	0.0286694	-0.00100214	-0.0958173	-0.0328253	0.0540527	0.0526367	-0.00379489	0.0181363	-2.23664	0.0136943	-1.54151	0	0	0	0	-0	0	0	0	-0.1265	0	-0	0	0	0	0	0	-0	0	0.105	-0.015	0	0	-0	0	0	-0.098	0.1	0	-0	0	0	0	0	0	-0	0	0.05595	0	0	0	-0	0	0	0	0	0	-0	0	554.208	561.001	329.148	212.71	-0.143085	1.25969	-0.000723563	-0.0131877	-3.17605
36	-0.0321944	-0.0216205	0.00858781	0.00961114	-0.0166328	-0.0396066	0.0211548	0.0286706	-0.00100149	-0.104318	-0.0330325	0.0606385	0.0527859	-0.00379465	0.0176988	-2.24522	0.0138324	-1.54175	0	0	0	0	-0	0	0	0	-0.1265	0	-0	0	0	0	0	0	-0	0	0.105	-0.015	0	0	-0	0	0	-0.098	0.1	0	-0	0	0	0	0	0	-0	0	0.05595	0	0	0	-0	0	0	0	0	0	-0	0	554.246	561.057	329.239	212.83	-0.144078	1.2693	-0.000682211	-0.0131412	-3.20278
37	-0.0363801	-0.0216245	0.00858647	0.00960889	-0.0166352	-0.0396044	0.0211549	0.0286703	-0.00100237	-0.0977545	-0.0334681	0.0668539	0.0528573	-0.00379444	0.0174787	-2.24957	0.0138738	-1.5419	0	0	0	0	-0	0	0	0	-0.1265	0	-0	0	0	0	0	0	-0	0	0.105	-0.015	0	0	-0	0	0	-0.098	0.1	0	-0	0	0	0	0	0	-0	0	0.05595	0	0	0	-0	0	0	0	0	0	-0	0	554.274	561.098	329.306	212.919	-0.144887	1.27664	-0.000644765	-0.013104	-3.22296
38	-0.0355876	-0.0216278	0.00858531	0.00960735	-0.0166372	-0.0396028	0.0211548	0.0286695	-0.00100159	-0.0973577	-0.0311904	0.0614042	0.0528422	-0.00379428	0.0175217	-2.2489	0.0137912	-1.54195	0	0	0	0	-0	0	0	0	-0.1265	0	-0	0	0	0	0	0	-0	0	0.105	-0.015	0	0	-0	0	0	-0.098	0.1	0	-0	0	0	0	0	0	-0	0	0.05595	0	0	0	-0	0	0	0	0	0	-0	0	554.296	561.127	329.357	212.983	-0.145484	1.28203	-0.000616177	-0.0130763	-3.23777
39	-0.0347619	-0.0216322	0.00858392	0.00960556	-0.01664	-0.0396007	0.021155	0.0286692	-0.00100086	-0.101715	-0.0400328	0.0663169	0.0528268	-0.0037941	0.0175668	-2.24826	0.0136788	-1.54204	0	0	0	0	-0	0	0	0	-0.1265	0	-0	0	0	0	0	0	-0	0	0.105	-0.015	0	0	-0	0	0	-0.098	0.1	0	-0	0	0	0	0	0	-0	0	0.05595	0	0	0	-0	0	0	0	0	0	-0	0	554.324	561.17	329.432	213.078	-0.146255	1.28964	-0.00058511	-0.0130378	-3.25913
40	-0.0312207	-0.0216366	0.00858244	0.00960364	-0.0166427	-0.0395986	0.0211544	0.0286697	-0.00100169	-0.107221	-0.0398545	0.0630885	0.0527636	-0.0037939	0.0177556	-2.2449	0.0134859	-1.54209	0	0	0	0	-0	0	0	0	-0.1265	0	-0	0	0	0	0	0	-0	0	0.105	-0.015	0	0	-0	0	0	-0.098	0.1	0	-0	0	0	0	0	0	-0	0	0.05595	0	0	0	-0	0	0	0	0	0	-0	0	554.353	561.214	329.509	213.173	-0.147043	1.29726	-0.000551465	-0.0129971	-3.28054
41	-0.0291174	-0.0216388	0.00858162	0.00960247	-0.0166441	-0.0395975	0.0211551	0.0286694	-0.00100162	-0.105264	-0.0468537	0.0600945	0.0527257	-0.00379378	0.017867	-2.24287	0.0133889	-1.54211	0	0	0	0	-0	0	0	0	-0.1265	0	-0	0	0	0	0	0	-0	0	0.105	-0.015	0	0	-0	0	0	-0.098	0.1	0	-0	0	0	0	0	0	-0	0	0.05595	0	0	0	-0	0	0	0	0	0	-0	0	554.365	561.23	329.54	213.211	-0.147432	1.30051	-0.00053017	-0.012978	-3.28937
42	-0.0258233	-0.0216423	0.00858049	0.00960124	-0.0166463	-0.0395959	0.0211543	0.0286691	-0.00100118	-0.103784	-0.0436524	0.0584743	0.0526658	-0.00379365	0.018042	-2.23972	0.0132188	-1.54215	0	0	0	0	-0	0	0	0	-0.1265	0	-0	0	0	0	0	0	-0	0	0.105	-0.015	0	0	-0	0	0	-0.098	0.1	0	-0	0	0	0	0	0	-0	0	0.05595	0	0	0	-0	0	0	0	0	0	-0	0	554.389	561.266	329.605	213.288	-0.148026	1.30651	-0.00050543	-0.0129455	-3.30645
43	-0.0210344	-0.0216461	0.00857941	0.00959949	-0.0166487	-0.0395941	0.0211542	0.0286695	-0.0010013	-0.108945	-0.0440512	0.0561521	0.0525782	-0.00379348	0.0182956	-2.23508	0.0130069	-1.54217	0	0	0	0	-0	0	0	0	-0.1265	0	-0	0	0	0	0	0	-0	0	0.105	-0.015	0	0	-0	0	0	-0.098	0.1	0	-0	0	0	0	0	0	-0	0	0.05595	0	0	0	-0	0	0	0	0	0	-0	0	554.411	561.301	329.668	213.364	-0.148593	1.31214	-0.000479893	-0.0129117	-3.32256
44	-0.025012	-0.0216488	0.00857848	0.00959813	-0.0166505	-0.0395928	0.0211542	0.0286692	-0.00100099	-0.110866	-0.0435584	0.0581975	0.0526498	-0.00379335	0.0180872	-2.23916	0.0130653	-1.54229	0	0	0	0	-0	0	0	0	-0.1265	0	-0	0	0	0	0	0	-0	0	0.105	-0.015	0	0	-0	0	0	-0.098	0.1	0	-0	0	0	0	0	0	-0	0	0.05595	0	0	0	-0	0	0	0	0	0	-0	0	554.428	561.325	329.716	213.419	-0.149053	1.31644	-0.000456386	-0.0128855	-3.33472
45	-0.0269668	-0.0216501	0.00857788	0.00959756	-0.0166513	-0.0395921	0.0211541	0.0286691	-0.001001	-0.110836	-0.0443757	0.056132	0.0526847	-0.00379327	0.0179843	-2.24116	0.0130982	-1.54234	0	0	0	0	-0	0	0	0	-0.1265	0	-0	0	0	0	0	0	-0	0	0.105	-0.015	0	0	-0	0	0	-0.098	0.1	0	-0	0	0	0	0	0	-0	0	0.05595	0	0	0	-0	0	0	0	0	0	-0	0	554.434	561.335	329.735	213.442	-0.149321	1.31865	-0.000443524	-0.0128736	-3.3406
46	-0.0309549	-0.0216537	0.0085769	0.00959614	-0.0166535	-0.0395906	0.0211541	0.0286691	-0.00100089	-0.110234	-0.0466006	0.0546917	0.0527556	-0.00379316	0.0177754	-2.24529	0.0131342	-1.54248	0	0	0	0	-0	0	0	0	-0.1265	0	-0	0	0	0	0	0	-0	0	0.105	-0.015	0	0	-0	0	0	-0.098	0.1	0	-0	0	0	0	0	0	-0	0	0.05595	0	0	0	-0	0	0	0	0	0	-0	0	554.456	561.37	329.801	213.516	-0.149926	1.32492	-0.000422389	-0.0128408	-3.3585
47	-0.0352342	-0.0216559	0.00857605	0.00959511	-0.0166549	-0.0395895	0.0211543	0.0286693	-0.00100096	-0.110608	-0.049324	0.0504741	0.0528309	-0.00379304	0.0175502	-2.24965	0.0132114	-1.54258	0	0	0	0	-0	0	0	0	-0.1265	0	-0	0	0	0	0	0	-0	0	0.105	-0.015	0	0	-0	0	0	-0.098	0.1	0	-0	0	0	0	0	0	-0	0	0.05595	0	0	0	-0	0	0	0	0	0	-0	0	554.469	561.387	329.837	213.558	-0.150314	1.32834	-0.0004015	-0.0128197	-3.36802
48	-0.0330452	-0.0216575	0.00857544	0.00959447	-0.0166559	-0.0395887	0.0211541	0.0286692	-0.00100088	-0.108659	-0.0471226	0.0533067	0.0527918	-0.00379297	0.017666	-2.24752	0.0131169	-1.54259	0	0	0	0	-0	0	0	0	-0.1265	0	-0	0	0	0	0	0	-0	0	0.105	-0.015	0	0	-0	0	0	-0.098	0.1	0	-0	0	0	0	0	0	-0	0	0.05595	0	0	0	-0	0	0	0	0	0	-0	0	554.478	561.401	329.865	213.589	-0.150621	1.33114	-0.000388142	-0.0128044	-3.37578
49	-0.0347741	-0.0216598	0.00857473	0.00959342	-0.0166574	-0.0395876	0.0211541	0.0286693	-0.00100019	-0.113438	-0.0525897	0.0572359	0.0528219	-0.00379288	0.0175753	-2.24933	0.013117	-1.54266	0	0	0	0	-0	0	0	0	-0.1265	0	-0	0	0	0	0	0	-0	0	0.105	-0.015	0	0	-0	0	0	-0.098	0.1	0	-0	0	0	0	0	0	-0	0	0.05595	0	0	0	-0	0	0	0	0	0	-0	0	554.491	561.42	329.906	213.634	-0.151009	1.33494	-0.000371049	-0.0127829	-3.38657
50	-0.0312026	-0.021669	0.00857229	0.00958973	-0.0166634	-0.0395836	0.0211549	0.0286711	-0.00100079	-0.10556	-0.0552418	0.0650924	0.0527571	-0.00379261	0.0177671	-2.24612	0.0128042	-1.54285	0	0	0	0	-0	0	0	0	-0.1265	0	-0	0	0	0	0	0	-0	0	0.105	-0.015	0	0	-0	0	0	-0.098	0.1	0	-0	0	0	0	0	0	-0	0	0.05595	0	0	0	-0	0	0	0	0	0	-0	0	554.542	561.503	330.084	213.822	-0.152363	1.34962	-0.000318358	-0.012694	-3.42953
51	-0.0367857	-0.0216739	0.00857024	0.0095873	-0.0166664	-0.0395812	0.0211541	0.0286689	-0.00099979	-0.0999736	-0.0458598	0.0626515	0.0528554	-0.00379236	0.0174736	-2.25188	0.0128557	-1.54304	0	0	0	0	-0	0	0	0	-0.1265	0	-0	0	0	0	0	0	-0	0	0.105	-0.015	0	0	-0	0	0	-0.098	0.1	0	-0	0	0	0	0	0	-0	0	0.05595	0	0	0	-0	0	0	0	0	0	-0	0	554.567	561.542	330.172	213.914	-0.153257	1.35737	-0.000271327	-0.012642	-3.45112
52	-0.0341712	-0.0216763	0.00856915	0.00958655	-0.016668	-0.0395801	0.0211538	0.0286691	-0.0010001	-0.0989841	-0.0470794	0.0612813	0.0528087	-0.00379221	0.017612	-2.24933	0.0127398	-1.54305	0	0	0	0	-0	0	0	0	-0.1265	0	-0	0	0	0	0	0	-0	0	0.105	-0.015	0	0	-0	0	0	-0.098	0.1	0	-0	0	0	0	0	0	-0	0	0.05595	0	0	0	-0	0	0	0	0	0	-0	0	554.578	561.557	330.208	213.951	-0.153642	1.36061	-0.00024945	-0.0126203	-3.46004
53	-0.0397433	-0.021679	0.00856832	0.00958524	-0.0166698	-0.0395789	0.0211538	0.028669	-0.00100001	-0.0984301	-0.0441669	0.0614842	0.0529064	-0.00379211	0.0173183	-2.255	0.0128355	-1.54319	0	0	0	0	-0	0	0	0	-0.1265	0	-0	0	0	0	0	0	-0	0	0.105	-0.015	0	0	-0	0	0	-0.098	0.1	0	-0	0	0	0	0	0	-0	0	0.05595	0	0	0	-0	0	0	0	0	0	-0	0	554.591	561.577	330.257	214	-0.154087	1.36497	-0.000229506	-0.0125941	-3.47253
54	-0.0394324	-0.0216846	0.00856669	0.00958329	-0.0166734	-0.0395766	0.0211543	0.0286701	-0.000999727	-0.10082	-0.0430383	0.0697476	0.0528993	-0.00379195	0.0173361	-2.25489	0.0126965	-1.54332	0	0	0	0	-0	0	0	0	-0.1265	0	-0	0	0	0	0	0	-0	0	0.105	-0.015	0	0	-0	0	0	-0.098	0.1	0	-0	0	0	0	0	0	-0	0	0.05595	0	0	0	-0	0	0	0	0	0	-0	0	554.619	561.623	330.365	214.107	-0.154875	1.37343	-0.000197694	-0.0125387	-3.49747
55	-0.0372503	-0.0216874	0.0085655	0.00958154	-0.0166752	-0.0395751	0.0211542	0.0286692	-0.000999872	-0.101721	-0.0361613	0.0716494	0.0528612	-0.00379179	0.0174521	-2.25281	0.0125721	-1.54337	0	0	0	0	-0	0	0	0	-0.1265	0	-0	0	0	0	0	0	-0	0	0.105	-0.015	0	0	-0	0	0	-0.098	0.1	0	-0	0	0	0	0	0	-0	0	0.05595	0	0	0	-0	0	0	0	0	0	-0	0	554.633	561.645	330.419	214.159	-0.155434	1.37818	-0.000168306	-0.0125066	-3.5106
56	-0.035083	-0.0216898	0.0085645	0.00958088	-0.0166768	-0.0395741	0.0211538	0.0286696	-0.000999511	-0.105643	-0.0351719	0.0763544	0.0528232	-0.00379169	0.017567	-2.25072	0.012463	-1.54339	0	0	0	0	-0	0	0	0	-0.1265	0	-0	0	0	0	0	0	-0	0	0.105	-0.015	0	0	-0	0	0	-0.098	0.1	0	-0	0	0	0	0	0	-0	0	0.05595	0	0	0	-0	0	0	0	0	0	-0	0	554.644	561.661	330.46	214.199	-0.155838	1.38191	-0.000149461	-0.0124835	-3.52108
57	-0.0310954	-0.0216981	0.00856234	0.0095776	-0.0166823	-0.0395707	0.0211535	0.0286691	-0.000999565	-0.0944836	-0.0220035	0.0762061	0.0527517	-0.00379148	0.0177798	-2.24702	0.0121511	-1.54356	0	0	0	0	-0	0	0	0	-0.1265	0	-0	0	0	0	0	0	-0	0	0.105	-0.015	0	0	-0	0	0	-0.098	0.1	0	-0	0	0	0	0	0	-0	0	0.05595	0	0	0	-0	0	0	0	0	0	-0	0	554.681	561.728	330.629	214.354	-0.156972	1.39455	-0.000108066	-0.0123977	-3.55875
58	-0.0327208	-0.0217006	0.0085609	0.00957668	-0.0166838	-0.0395696	0.0211536	0.0286693	-0.000999342	-0.0967146	-0.018922	0.077657	0.0527805	-0.00379131	0.0176939	-2.24871	0.0121562	-1.54363	0	0	0	0	-0	0	0	0	-0.1265	0	-0	0	0	0	0	0	-0	0	0.105	-0.015	0	0	-0	0	0	-0.098	0.1	0	-0	0	0	0	0	0	-0	0	0.05595	0	0	0	-0	0	0	0	0	0	-0	0	554.69	561.739	330.662	214.384	-0.157456	1.39786	-7.85755e-05	-0.0123734	-3.56722
59	-0.0349202	-0.0217023	0.00856028	0.00957575	-0.0166849	-0.0395687	0.0211535	0.0286696	-0.000999284	-0.102206	-0.0176233	0.0773377	0.0528191	-0.00379123	0.0175782	-2.25097	0.0121741	-1.5437	0	0	0	0	-0	0	0	0	-0.1265	0	-0	0	0	0	0	0	-0	0	0.105	-0.015	0	0	-0	0	0	-0.098	0.1	0	-0	0	0	0	0	0	-0	0	0.05595	0	0	0	-0	0	0	0	0	0	-0	0	554.699	561.752	330.697	214.416	-0.15779	1.40091	-6.24513e-05	-0.0123541	-3.57582
60	-0.0381139	-0.0217039	0.00855975	0.00957487	-0.016686	-0.0395679	0.0211535	0.0286694	-0.00099937	-0.0994507	-0.0166449	0.0812071	0.052875	-0.00379115	0.0174098	-2.25421	0.0122253	-1.54378	0	0	0	0	-0	0	0	0	-0.1265	0	-0	0	0	0	0	0	-0	0	0.105	-0.015	0	0	-0	0	0	-0.098	0.1	0	-0	0	0	0	0	0	-0	0	0.05595	0	0	0	-0	0	0	0	0	0	-0	0	554.707	561.762	330.727	214.442	-0.15808	1.40354	-4.80715e-05	-0.0123376	-3.58324
61	-0.0397347	-0.0217051	0.00855926	0.0095745	-0.0166868	-0.0395674	0.0211536	0.0286694	-0.00099907	-0.10128	-0.0165714	0.0857734	0.0529029	-0.00379111	0.0173241	-2.25587	0.0122426	-1.54382	0	0	0	0	-0	0	0	0	-0.1265	0	-0	0	0	0	0	0	-0	0	0.105	-0.015	0	0	-0	0	0	-0.098	0.1	0	-0	0	0	0	0	0	-0	0	0.05595	0	0	0	-0	0	0	0	0	0	-0	0	554.712	561.77	330.748	214.462	-0.158295	1.4055	-3.86679e-05	-0.0123253	-3.58874
62	-0.0356051	-0.0217075	0.00855853	0.00957346	-0.0166883	-0.0395663	0.0211533	0.0286692	-0.000999195	-0.105663	-0.0202166	0.0848663	0.052831	-0.00379103	0.0175431	-2.25182	0.0120723	-1.54384	0	0	0	0	-0	0	0	0	-0.1265	0	-0	0	0	0	0	0	-0	0	0.105	-0.015	0	0	-0	0	0	-0.098	0.1	0	-0	0	0	0	0	0	-0	0	0.05595	0	0	0	-0	0	0	0	0	0	-0	0	554.723	561.788	330.797	214.505	-0.158679	1.40943	-2.30191e-05	-0.0122997	-3.60019
63	-0.0412953	-0.0217112	0.00855735	0.00957206	-0.0166908	-0.0395648	0.0211534	0.0286692	-0.00099899	-0.105496	-0.0199713	0.0880469	0.05293	-0.0037909	0.0172431	-2.25763	0.0121388	-1.544	0	0	0	0	-0	0	0	0	-0.1265	0	-0	0	0	0	0	0	-0	0	0.105	-0.015	0	0	-0	0	0	-0.098	0.1	0	-0	0	0	0	0	0	-0	0	0.05595	0	0	0	-0	0	0	0	0	0	-0	0	554.738	561.813	330.869	214.567	-0.159215	1.41487	1.58848e-06	-0.0122615	-3.61619
64	-0.0402676	-0.0217131	0.00855651	0.00957144	-0.016692	-0.039564	0.0211538	0.0286692	-0.000998566	-0.107368	-0.0268849	0.0914506	0.0529114	-0.00379082	0.0172974	-2.25666	0.0120678	-1.54403	0	0	0	0	-0	0	0	0	-0.1265	0	-0	0	0	0	0	0	-0	0	0.105	-0.015	0	0	-0	0	0	-0.098	0.1	0	-0	0	0	0	0	0	-0	0	0.05595	0	0	0	-0	0	0	0	0	0	-0	0	554.745	561.825	330.905	214.598	-0.159521	1.41759	1.70573e-05	-0.0122404	-3.62386
65	-0.0430582	-0.0217144	0.00855599	0.00957075	-0.0166929	-0.0395634	0.0211538	0.0286695	-0.000999074	-0.105936	-0.03204	0.0878904	0.0529596	-0.00379076	0.01715	-2.25949	0.0121099	-1.5441	0	0	0	0	-0	0	0	0	-0.1265	0	-0	0	0	0	0	0	-0	0	0.105	-0.015	0	0	-0	0	0	-0.098	0.1	0	-0	0	0	0	0	0	-0	0	0.05595	0	0	0	-0	0	0	0	0	0	-0	0	554.751	561.834	330.932	214.621	-0.159741	1.41963	2.85494e-05	-0.0122253	-3.62977
66	-0.0463444	-0.0217173	0.00855509	0.00956955	-0.0166949	-0.0395621	0.0211531	0.0286693	-0.000998765	-0.101019	-0.0302987	0.0872754	0.0530155	-0.00379067	0.0169765	-2.26287	0.0121256	-1.54422	0	0	0	0	-0	0	0	0	-0.1265	0	-0	0	0	0	0	0	-0	0	0.105	-0.015	0	0	-0	0	0	-0.098	0.1	0	-0	0	0	0	0	0	-0	0	0.05595	0	0	0	-0	0	0	0	0	0	-0	0	554.762	561.852	330.991	214.671	-0.160157	1.42395	4.85588e-05	-0.0121942	-3.6426
67	-0.0487827	-0.0217192	0.00855439	0.0095687	-0.0166961	-0.0395613	0.0211532	0.0286691	-0.000998796	-0.0984935	-0.0273691	0.0880844	0.0530567	-0.0037906	0.0168472	-2.26536	0.0121501	-1.54429	0	0	0	0	-0	0	0	0	-0.1265	0	-0	0	0	0	0	0	-0	0	0.105	-0.015	0	0	-0	0	0	-0.098	0.1	0	-0	0	0	0	0	0	-0	0	0.05595	0	0	0	-0	0	0	0	0	0	-0	0	554.768	561.863	331.024	214.699	-0.160461	1.42665	6.32842e-05	-0.0121749	-3.65017
68	-0.0445691	-0.0217209	0.00855378	0.00956806	-0.0166973	-0.0395606	0.0211532	0.0286691	-0.000998684	-0.0992328	-0.0272904	0.0875858	0.0529853	-0.00379053	0.0170711	-2.2612	0.0119956	-1.54428	0	0	0	0	-0	0	0	0	-0.1265	0	-0	0	0	0	0	0	-0	0	0.105	-0.015	0	0	-0	0	0	-0.098	0.1	0	-0	0	0	0	0	0	-0	0	0.05595	0	0	0	-0	0	0	0	0	0	-0	0	554.775	561.874	331.059	214.728	-0.160711	1.42913	7.56159e-05	-0.0121559	-3.6575
69	-0.0462672	-0.0217245	0.0085527	0.00956684	-0.0166997	-0.0395592	0.0211528	0.0286696	-0.000998492	-0.107674	-0.0317568	0.0886492	0.0530135	-0.00379044	0.0169818	-2.26302	0.0119464	-1.5444	0	0	0	0	-0	0	0	0	-0.1265	0	-0	0	0	0	0	0	-0	0	0.105	-0.015	0	0	-0	0	0	-0.098	0.1	0	-0	0	0	0	0	0	-0	0	0.05595	0	0	0	-0	0	0	0	0	0	-0	0	554.789	561.901	331.136	214.79	-0.161185	1.43441	9.24693e-05	-0.0121156	-3.6734
70	-0.0465237	-0.021727	0.00855179	0.00956555	-0.0167013	-0.0395581	0.0211534	0.0286695	-0.000998558	-0.10656	-0.0340526	0.0842618	0.0530178	-0.00379033	0.0169684	-2.26335	0.0118955	-1.54446	0	0	0	0	-0	0	0	0	-0.1265	0	-0	0	0	0	0	0	-0	0	0.105	-0.015	0	0	-0	0	0	-0.098	0.1	0	-0	0	0	0	0	0	-0	0	0.05595	0	0	0	-0	0	0	0	0	0	-0	0	554.799	561.917	331.183	214.828	-0.161629	1.43835	0.000112287	-0.0120881	-3.68442
71	-0.0494118	-0.021729	0.00855095	0.00956487	-0.0167027	-0.0395572	0.0211536	0.0286694	-0.000998465	-0.108934	-0.0285992	0.084591	0.0530667	-0.00379025	0.0168156	-2.2663	0.0119212	-1.54455	0	0	0	0	-0	0	0	0	-0.1265	0	-0	0	0	0	0	0	-0	0	0.105	-0.015	0	0	-0	0	0	-0.098	0.1	0	-0	0	0	0	0	0	-0	0	0.05595	0	0	0	-0	0	0	0	0	0	-0	0	554.807	561.93	331.224	214.86	-0.161975	1.44156	0.000129441	-0.0120652	-3.69365
72	-0.0531205	-0.0217305	0.00855034	0.00956444	-0.0167037	-0.0395566	0.0211531	0.0286693	-0.000998431	-0.11138	-0.0279838	0.0833966	0.0531287	-0.00379019	0.016619	-2.27005	0.0119806	-1.54463	0	0	0	0	-0	0	0	0	-0.1265	0	-0	0	0	0	0	0	-0	0	0.105	-0.015	0	0	-0	0	0	-0.098	0.1	0	-0	0	0	0	0	0	-0	0	0.05595	0	0	0	-0	0	0	0	0	0	-0	0	554.813	561.94	331.255	214.885	-0.162192	1.44362	0.000139868	-0.0120479	-3.69965
73	-0.0538859	-0.0217318	0.00854993	0.00956378	-0.0167046	-0.039556	0.0211532	0.0286695	-0.000998299	-0.113749	-0.0270875	0.0874843	0.053141	-0.00379014	0.0165784	-2.27085	0.0119724	-1.54467	0	0	0	0	-0	0	0	0	-0.1265	0	-0	0	0	0	0	0	-0	0	0.105	-0.015	0	0	-0	0	0	-0.098	0.1	0	-0	0	0	0	0	0	-0	0	0.05595	0	0	0	-0	0	0	0	0	0	-0	0	554.818	561.947	331.278	214.903	-0.162398	1.44549	0.000150252	-0.0120349	-3.705
74	-0.0548755	-0.0217342	0.0085492	0.00956283	-0.0167061	-0.0395551	0.0211531	0.0286693	-0.000998284	-0.116318	-0.0249781	0.0881786	0.0531573	-0.00379007	0.0165262	-2.27191	0.0119353	-1.54475	0	0	0	0	-0	0	0	0	-0.1265	0	-0	0	0	0	0	0	-0	0	0.105	-0.015	0	0	-0	0	0	-0.098	0.1	0	-0	0	0	0	0	0	-0	0	0.05595	0	0	0	-0	0	0	0	0	0	-0	0	554.827	561.963	331.328	214.942	-0.162789	1.44956	0.00016303	-0.0120079	-3.71688
75	-0.051337	-0.0217378	0.00854804	0.00956153	-0.0167086	-0.0395536	0.0211539	0.02867	-0.000998081	-0.112075	-0.030735	0.0925126	0.0530985	-0.00378996	0.0167149	-2.26848	0.0117506	-1.5448	0	0	0	0	-0	0	0	0	-0.1265	0	-0	0	0	0	0	0	-0	0	0.105	-0.015	0	0	-0	0	0	-0.098	0.1	0	-0	0	0	0	0	0	-0	0	0.05595	0	0	0	-0	0	0	0	0	0	-0	0	554.84	561.988	331.403	214.999	-0.163323	1.45502	0.000183222	-0.0119676	-3.73295
76	-0.053149	-0.0217394	0.00854724	0.00956079	-0.0167097	-0.0395528	0.0211532	0.0286692	-0.00099802	-0.112289	-0.0348369	0.0947078	0.0531284	-0.00378987	0.0166189	-2.27035	0.011752	-1.54487	0	0	0	0	-0	0	0	0	-0.1265	0	-0	0	0	0	0	0	-0	0	0.105	-0.015	0	0	-0	0	0	-0.098	0.1	0	-0	0	0	0	0	0	-0	0	0.05595	0	0	0	-0	0	0	0	0	0	-0	0	554.847	561.999	331.44	215.027	-0.163606	1.45741	0.000200848	-0.0119455	-3.73979
77	-0.0543604	-0.0217405	0.00854683	0.00956044	-0.0167104	-0.0395524	0.021153	0.0286692	-0.000998155	-0.111996	-0.0369444	0.0929653	0.0531485	-0.00378982	0.0165545	-2.27158	0.0117647	-1.5449	0	0	0	0	-0	0	0	0	-0.1265	0	-0	0	0	0	0	0	-0	0	0.105	-0.015	0	0	-0	0	0	-0.098	0.1	0	-0	0	0	0	0	0	-0	0	0.05595	0	0	0	-0	0	0	0	0	0	-0	0	554.85	562.003	331.456	215.038	-0.163761	1.45868	0.000208317	-0.0119362	-3.74326
78	-0.0544469	-0.021742	0.00854637	0.00955972	-0.0167115	-0.0395518	0.0211531	0.0286693	-0.00099796	-0.111845	-0.0401975	0.0955662	0.0531498	-0.00378977	0.0165502	-2.27171	0.0117286	-1.54494	0	0	0	0	-0	0	0	0	-0.1265	0	-0	0	0	0	0	0	-0	0	0.105	-0.015	0	0	-0	0	0	-0.098	0.1	0	-0	0	0	0	0	0	-0	0	0.05595	0	0	0	-0	0	0	0	0	0	-0	0	554.856	562.012	331.487	215.061	-0.164018	1.46118	0.000219703	-0.0119195	-3.75051
79	-0.0554145	-0.0217442	0.00854565	0.00955891	-0.0167129	-0.0395509	0.021153	0.0286694	-0.00099813	-0.113953	-0.0413741	0.0925142	0.0531657	-0.0037897	0.016499	-2.27274	0.0116965	-1.54501	0	0	0	0	-0	0	0	0	-0.1265	0	-0	0	0	0	0	0	-0	0	0.105	-0.015	0	0	-0	0	0	-0.098	0.1	0	-0	0	0	0	0	0	-0	0	0.05595	0	0	0	-0	0	0	0	0	0	-0	0	554.864	562.026	331.533	215.095	-0.164378	1.4648	0.000232426	-0.0118945	-3.76105
80	-0.054117	-0.0217474	0.0085446	0.00955757	-0.0167151	-0.0395495	0.0211527	0.0286695	-0.000998524	-0.12317	-0.0497472	0.0904803	0.0531441	-0.00378959	0.0165685	-2.27154	0.0115793	-1.54508	0	0	0	0	-0	0	0	0	-0.1265	0	-0	0	0	0	0	0	-0	0	0.105	-0.015	0	0	-0	0	0	-0.098	0.1	0	-0	0	0	0	0	0	-0	0	0.05595	0	0	0	-0	0	0	0	0	0	-0	0	554.875	562.045	331.601	215.144	-0.164852	1.46956	0.000253706	-0.0118579	-3.77515
81	-0.0544305	-0.0217492	0.0085439	0.0095569	-0.0167163	-0.0395489	0.0211533	0.0286693	-0.000997651	-0.123095	-0.0438497	0.0876391	0.0531493	-0.00378953	0.016552	-2.2719	0.0115458	-1.54513	0	0	0	0	-0	0	0	0	-0.1265	0	-0	0	0	0	0	0	-0	0	0.105	-0.015	0	0	-0	0	0	-0.098	0.1	0	-0	0	0	0	0	0	-0	0	0.05595	0	0	0	-0	0	0	0	0	0	-0	0	554.881	562.056	331.634	215.168	-0.16513	1.47201	0.000266563	-0.0118379	-3.7821
82	-0.0567237	-0.0217502	0.00854341	0.00955656	-0.016717	-0.0395484	0.0211529	0.0286697	-0.000998	-0.128442	-0.0435153	0.0852798	0.0531871	-0.00378947	0.0164303	-2.27423	0.0115733	-1.54519	0	0	0	0	-0	0	0	0	-0.1265	0	-0	0	0	0	0	0	-0	0	0.105	-0.015	0	0	-0	0	0	-0.098	0.1	0	-0	0	0	0	0	0	-0	0	0.05595	0	0	0	-0	0	0	0	0	0	-0	0	554.885	562.063	331.659	215.186	-0.165295	1.47355	0.000275287	-0.0118236	-3.78661
83	-0.0584221	-0.0217528	0.00854271	0.00955544	-0.0167188	-0.0395474	0.0211529	0.0286693	-0.000997776	-0.126943	-0.043862	0.0873808	0.0532147	-0.0037894	0.0163404	-2.276	0.0115475	-1.54528	0	0	0	0	-0	0	0	0	-0.1265	0	-0	0	0	0	0	0	-0	0	0.105	-0.015	0	0	-0	0	0	-0.098	0.1	0	-0	0	0	0	0	0	-0	0	0.05595	0	0	0	-0	0	0	0	0	0	-0	0	554.894	562.08	331.715	215.226	-0.165661	1.47744	0.000288735	-0.011794	-3.79823
84	-0.0602456	-0.0217543	0.00854208	0.00955483	-0.0167199	-0.0395467	0.0211529	0.0286693	-0.000997782	-0.127482	-0.0457552	0.0851444	0.0532444	-0.00378933	0.0162435	-2.27786	0.0115582	-1.54533	0	0	0	0	-0	0	0	0	-0.1265	0	-0	0	0	0	0	0	-0	0	0.105	-0.015	0	0	-0	0	0	-0.098	0.1	0	-0	0	0	0	0	0	-0	0	0.05595	0	0	0	-0	0	0	0	0	0	-0	0	554.899	562.087	331.744	215.246	-0.165889	1.4794	0.000301639	-0.0117769	-3.80385
85	-0.0611739	-0.0217554	0.00854167	0.00955452	-0.0167206	-0.0395463	0.0211529	0.0286693	-0.000997789	-0.127583	-0.0489003	0.0828541	0.0532594	-0.0037893	0.0161942	-2.27882	0.011555	-1.54537	0	0	0	0	-0	0	0	0	-0.1265	0	-0	0	0	0	0	0	-0	0	0.105	-0.015	0	0	-0	0	0	-0.098	0.1	0	-0	0	0	0	0	0	-0	0	0.05595	0	0	0	-0	0	0	0	0	0	-0	0	554.902	562.093	331.765	215.261	-0.166039	1.48083	0.000308332	-0.0117648	-3.80803
86	-0.0609664	-0.0217561	0.00854136	0.00955428	-0.0167211	-0.039546	0.0211529	0.0286694	-0.000997669	-0.129561	-0.047025	0.0818441	0.0532561	-0.00378927	0.0162053	-2.27863	0.0115296	-1.54539	0	0	0	0	-0	0	0	0	-0.1265	0	-0	0	0	0	0	0	-0	0	0.105	-0.015	0	0	-0	0	0	-0.098	0.1	0	-0	0	0	0	0	0	-0	0	0.05595	0	0	0	-0	0	0	0	0	0	-0	0	554.905	562.098	331.781	215.272	-0.16616	1.48196	0.000313371	-0.0117556	-3.81126
87	-0.0625359	-0.0217577	0.00854087	0.00955359	-0.0167222	-0.0395454	0.0211529	0.0286693	-0.000997589	-0.129895	-0.044283	0.0809351	0.0532815	-0.00378922	0.0161218	-2.28024	0.0115248	-1.54545	0	0	0	0	-0	0	0	0	-0.1265	0	-0	0	0	0	0	0	-0	0	0.105	-0.015	0	0	-0	0	0	-0.098	0.1	0	-0	0	0	0	0	0	-0	0	0.05595	0	0	0	-0	0	0	0	0	0	-0	0	554.91	562.107	331.817	215.297	-0.166392	1.48441	0.000322754	-0.0117365	-3.81862
88	-0.059934	-0.0217586	0.00854046	0.00955331	-0.0167228	-0.039545	0.0211531	0.0286696	-0.000997582	-0.13288	-0.0409675	0.0781384	0.0532394	-0.00378918	0.0162606	-2.27767	0.0114366	-1.54545	0	0	0	0	-0	0	0	0	-0.1265	0	-0	0	0	0	0	0	-0	0	0.105	-0.015	0	0	-0	0	0	-0.098	0.1	0	-0	0	0	0	0	0	-0	0	0.05595	0	0	0	-0	0	0	0	0	0	-0	0	554.913	562.113	331.835	215.309	-0.166538	1.48565	0.000330068	-0.0117259	-3.82209
89	-0.0622754	-0.0217592	0.00854023	0.00955306	-0.0167232	-0.0395447	0.0211528	0.0286692	-0.000997601	-0.132321	-0.0394004	0.0787974	0.0532774	-0.00378916	0.0161359	-2.28002	0.0114793	-1.54549	0	0	0	0	-0	0	0	0	-0.1265	0	-0	0	0	0	0	0	-0	0	0.105	-0.015	0	0	-0	0	0	-0.098	0.1	0	-0	0	0	0	0	0	-0	0	0.05595	0	0	0	-0	0	0	0	0	0	-0	0	554.915	562.116	331.848	215.318	-0.166654	1.48671	0.000334868	-0.0117183	-3.82513
90	-0.0603236	-0.0217598	0.00854004	0.00955286	-0.0167236	-0.0395445	0.0211527	0.0286693	-0.000997573	-0.133356	-0.0397196	0.0785719	0.0532457	-0.00378914	0.0162399	-2.27809	0.0114174	-1.54548	0	0	0	0	-0	0	0	0	-0.1265	0	-0	0	0	0	0	0	-0	0	0.105	-0.015	0	0	-0	0	0	-0.098	0.1	0	-0	0	0	0	0	0	-0	0	0.05595	0	0	0	-0	0	0	0	0	0	-0	0	554.917	562.119	331.858	215.325	-0.166733	1.48744	0.000338447	-0.0117126	-3.82725
91	-0.0600677	-0.0217608	0.00853973	0.0095524	-0.0167243	-0.0395441	0.0211528	0.0286693	-0.000997653	-0.135499	-0.0429254	0.0770426	0.0532413	-0.0037891	0.0162537	-2.27786	0.0113831	-1.5455	0	0	0	0	-0	0	0	0	-0.1265	0	-0	0	0	0	0	0	-0	0	0.105	-0.015	0	0	-0	0	0	-0.098	0.1	0	-0	0	0	0	0	0	-0	0	0.05595	0	0	0	-0	0	0	0	0	0	-0	0	554.92	562.125	331.881	215.34	-0.166888	1.489	0.000344978	-0.0117006	-3.83186
92	-0.0585812	-0.0217623	0.00853924	0.00955189	-0.0167253	-0.0395436	0.0211528	0.0286699	-0.000997734	-0.129609	-0.0429034	0.080054	0.0532171	-0.00378907	0.016333	-2.27642	0.0113042	-1.54553	0	0	0	0	-0	0	0	0	-0.1265	0	-0	0	0	0	0	0	-0	0	0.105	-0.015	0	0	-0	0	0	-0.098	0.1	0	-0	0	0	0	0	0	-0	0	0.05595	0	0	0	-0	0	0	0	0	0	-0	0	554.925	562.135	331.914	215.362	-0.167114	1.49136	0.000352082	-0.0116827	-3.83882
93	-0.0603343	-0.0217631	0.00853893	0.00955138	-0.0167259	-0.0395432	0.0211528	0.0286694	-0.000997543	-0.129432	-0.0449597	0.0769929	0.0532458	-0.00378903	0.0162398	-2.27819	0.0113279	-1.54557	0	0	0	0	-0	0	0	0	-0.1265	0	-0	0	0	0	0	0	-0	0	0.105	-0.015	0	0	-0	0	0	-0.098	0.1	0	-0	0	0	0	0	0	-0	0	0.05595	0	0	0	-0	0	0	0	0	0	-0	0	554.928	562.139	331.93	215.373	-0.167274	1.49269	0.000360597	-0.0116727	-3.84253
94	-0.0645345	-0.0217648	0.00853838	0.0095509	-0.016727	-0.0395425	0.0211528	0.0286693	-0.000997589	-0.13078	-0.0482143	0.0744375	0.0533138	-0.00378897	0.0160164	-2.28243	0.0113878	-1.54566	0	0	0	0	-0	0	0	0	-0.1265	0	-0	0	0	0	0	0	-0	0	0.105	-0.015	0	0	-0	0	0	-0.098	0.1	0	-0	0	0	0	0	0	-0	0	0.05595	0	0	0	-0	0	0	0	0	0	-0	0	554.934	562.15	331.967	215.398	-0.167514	1.4952	0.000369288	-0.0116531	-3.85004
95	-0.0619031	-0.0217672	0.00853755	0.00955005	-0.0167288	-0.0395416	0.0211528	0.0286693	-0.000997509	-0.132223	-0.0510494	0.0719695	0.0532711	-0.0037889	0.0161568	-2.27987	0.0112538	-1.5457	0	0	0	0	-0	0	0	0	-0.1265	0	-0	0	0	0	0	0	-0	0	0.105	-0.015	0	0	-0	0	0	-0.098	0.1	0	-0	0	0	0	0	0	-0	0	0.05595	0	0	0	-0	0	0	0	0	0	-0	0	554.941	562.164	332.021	215.433	-0.167866	1.49883	0.000383257	-0.0116238	-3.86087
96	-0.0597797	-0.0217686	0.00853693	0.00954952	-0.0167297	-0.039541	0.0211527	0.0286693	-0.000997344	-0.131057	-0.0529758	0.0711014	0.0532367	-0.00378885	0.0162698	-2.27778	0.011167	-1.54571	0	0	0	0	-0	0	0	0	-0.1265	0	-0	0	0	0	0	0	-0	0	0.105	-0.015	0	0	-0	0	0	-0.098	0.1	0	-0	0	0	0	0	0	-0	0	0.05595	0	0	0	-0	0	0	0	0	0	-0	0	554.945	562.17	332.048	215.451	-0.168108	1.50087	0.00039485	-0.0116077	-3.86653
97	-0.0618378	-0.0217696	0.00853657	0.00954905	-0.0167303	-0.0395406	0.0211526	0.0286693	-0.000997303	-0.132066	-0.0535121	0.0710983	0.0532701	-0.0037888	0.0161603	-2.27986	0.0111936	-1.54576	0	0	0	0	-0	0	0	0	-0.1265	0	-0	0	0	0	0	0	-0	0	0.105	-0.015	0	0	-0	0	0	-0.098	0.1	0	-0	0	0	0	0	0	-0	0	0.05595	0	0	0	-0	0	0	0	0	0	-0	0	554.948	562.175	332.068	215.464	-0.168274	1.50232	0.000403375	-0.0115961	-3.87067
98	-0.062104	-0.0217715	0.00853602	0.00954829	-0.0167317	-0.0395399	0.0211527	0.0286697	-0.000997252	-0.136868	-0.0518272	0.0714808	0.0532742	-0.00378875	0.0161464	-2.28018	0.0111444	-1.54582	0	0	0	0	-0	0	0	0	-0.1265	0	-0	0	0	0	0	0	-0	0	0.105	-0.015	0	0	-0	0	0	-0.098	0.1	0	-0	0	0	0	0	0	-0	0	0.05595	0	0	0	-0	0	0	0	0	0	-0	0	554.954	562.186	332.113	215.492	-0.168506	1.50497	0.000412236	-0.0115724	-3.87887
99	-0.0605431	-0.0217743	0.00853515	0.00954708	-0.0167337	-0.0395387	0.0211526	0.0286699	-0.000997494	-0.130815	-0.0508061	0.075019	0.0532488	-0.00378866	0.0162301	-2.2787	0.0110236	-1.54588	0	0	0	0	-0	0	0	0	-0.1265	0	-0	0	0	0	0	0	-0	0	0.105	-0.015	0	0	-0	0	0	-0.098	0.1	0	-0	0	0	0	0	0	-0	0	0.05595	0	0	0	-0	0	0	0	0	0	-0	0	554.963	562.204	332.178	215.533	-0.1689	1.50906	0.000427836	-0.0115369	-3.89118
100	-0.063281	-0.021776	0.00853445	0.00954652	-0.0167348	-0.0395381	0.0211526	0.0286694	-0.000997123	-0.129361	-0.0527314	0.0747925	0.0532932	-0.0037886	0.0160843	-2.28148	0.0110514	-1.54595	0	0	0	0	-0	0	0	0	-0.1265	0	-0	0	0	0	0	0	-0	0	0.105	-0.015	0	0	-0	0	0	-0.098	0.1	0	-0	0	0	0	0	0	-0	0	0.05595	0	0	0	-0	0	0	0	0	0	-0	0	554.968	562.213	332.21	215.554	-0.169176	1.51138	0.000440528	-0.0115175	-3.89769
