Stefan210/kinematic_calibration/src/kinematic_calibration/validation/experiments/experiments/impact_noise/outlier/larm_randomize_7_measurements_rk_false/optimization_intermediate_results.csv
iteration	HeadPitch_offset	HeadYaw_offset	LElbowRoll_offset	LElbowYaw_offset	LShoulderPitch_offset	LShoulderRoll_offset	marker_transform_larm_tx	marker_transform_larm_ty	marker_transform_larm_tz	marker_transform_larm_rr	marker_transform_larm_rp	marker_transform_larm_ry	camera_transform_tx	camera_transform_ty	camera_transform_tz	camera_transform_rr	camera_transform_rp	camera_transform_ry	HeadPitch_transform_tx	HeadPitch_transform_ty	HeadPitch_transform_tz	HeadPitch_transform_rr	HeadPitch_transform_rp	HeadPitch_transform_ry	HeadYaw_transform_tx	HeadYaw_transform_ty	HeadYaw_transform_tz	HeadYaw_transform_rr	HeadYaw_transform_rp	HeadYaw_transform_ry	LElbowRoll_transform_tx	LElbowRoll_transform_ty	LElbowRoll_transform_tz	LElbowRoll_transform_rr	LElbowRoll_transform_rp	LElbowRoll_transform_ry	LElbowYaw_transform_tx	LElbowYaw_transform_ty	LElbowYaw_transform_tz	LElbowYaw_transform_rr	LElbowYaw_transform_rp	LElbowYaw_transform_ry	LShoulderPitch_transform_tx	LShoulderPitch_transform_ty	LShoulderPitch_transform_tz	LShoulderPitch_transform_rr	LShoulderPitch_transform_rp	LShoulderPitch_transform_ry	LShoulderRoll_transform_tx	LShoulderRoll_transform_ty	LShoulderRoll_transform_tz	LShoulderRoll_transform_rr	LShoulderRoll_transform_rp	LShoulderRoll_transform_ry	LWristYaw_transform_tx	LWristYaw_transform_ty	LWristYaw_transform_tz	LWristYaw_transform_rr	LWristYaw_transform_rp	LWristYaw_transform_ry	l_wrist_joint_transform_tx	l_wrist_joint_transform_ty	l_wrist_joint_transform_tz	l_wrist_joint_transform_rr	l_wrist_joint_transform_rp	l_wrist_joint_transform_ry	camera_fx	camera_fy	camera_cx	camera_cy	camera_D0	camera_D1	camera_D2	camera_D3	camera_D4	
0	0.0249164	-0.0307543	0.000853157	4.65819e-06	-0.000318322	-0.00310766	0.05071	0	0.01774	-2.26369	1.66533e-16	-1.5708	545.901	551.038	324.928	201.58	0.0255298	2.61142	-0.0636736	-0.0350419	0.213964
1	-0.00505346	0.0406351	-0.0385863	0.159233	0.101726	0.00303258	0.0242903	-0.0279174	0.0174156	-0.00202447	-0.00196723	-0.00290167	0.0554791	0.000152171	0.0133864	-2.24227	0.000703362	-1.6403	0	0	0	0	-0	0	0	0	-0.1265	0	-0	0	0	0	0	0	-0	0	0.105	0.015	0	0	-0	0	0	0.098	0.1	0	-0	0	0	0	0	0	-0	0	0.05595	0	0	0	-0	0	0	0	0	0	-0	0	545.902	551.038	324.928	201.58	0.00647106	2.60347	-0.0949414	0.170551	0.212318
2	-0.00756457	0.0723614	-0.030758	0.208421	0.0868174	0.0164444	0.0234757	-0.0283715	0.0221712	-0.00251251	-0.00249093	-0.00303583	0.0538387	0.000224369	0.0167959	-2.23047	-0.0294916	-1.67079	0	0	0	0	-0	0	0	0	-0.1265	0	-0	0	0	0	0	0	-0	0	0.105	0.015	0	0	-0	0	0	0.098	0.1	0	-0	0	0	0	0	0	-0	0	0.05595	0	0	0	-0	0	0	0	0	0	-0	0	545.908	551.037	324.917	201.589	-0.199613	2.47288	-0.0434622	0.109365	0.172129
3	-0.00806967	0.0836907	-0.0348234	0.19604	0.0831379	0.0262116	0.023597	-0.0280745	0.021129	-0.00242859	-0.00237188	-0.0029908	0.0561548	0.00130824	0.0145792	-2.2275	-0.03229	-1.69113	0	0	0	0	-0	0	0	0	-0.1265	0	-0	0	0	0	0	0	-0	0	0.105	0.015	0	0	-0	0	0	0.098	0.1	0	-0	0	0	0	0	0	-0	0	0.05595	0	0	0	-0	0	0	0	0	0	-0	0	545.923	551.033	324.9	201.603	-0.57454	2.20309	-0.000467949	0.0904436	0.0862612
4	-0.00725525	0.0955315	-0.0476558	0.203451	0.0755859	0.0227635	0.0228275	-0.0275332	0.021374	-0.00243663	-0.00249677	-0.00304526	0.0579258	0.00151511	0.0131671	-2.22981	-0.03723	-1.70447	0	0	0	0	-0	0	0	0	-0.1265	0	-0	0	0	0	0	0	-0	0	0.105	0.015	0	0	-0	0	0	0.098	0.1	0	-0	0	0	0	0	0	-0	0	0.05595	0	0	0	-0	0	0	0	0	0	-0	0	545.962	551.019	324.873	201.622	-0.878507	1.78281	0.0491289	0.06258	-0.0609546
5	-0.00661442	0.108081	-0.0565149	0.197129	0.07062	0.0228132	0.0224669	-0.0272507	0.020681	-0.00245042	-0.00263972	-0.00293186	0.0582562	0.00191211	0.0136617	-2.23177	-0.0422114	-1.72065	0	0	0	0	-0	0	0	0	-0.1265	0	-0	0	0	0	0	0	-0	0	0.105	0.015	0	0	-0	0	0	0.098	0.1	0	-0	0	0	0	0	0	-0	0	0.05595	0	0	0	-0	0	0	0	0	0	-0	0	546.064	550.97	324.842	201.654	-0.80794	1.25365	0.0577836	0.0600103	-0.23395
6	-0.00634853	0.110721	-0.0600189	0.199228	0.0691014	0.0234159	0.0222901	-0.0271417	0.0207847	-0.00268118	-0.00264954	-0.00308822	0.0576805	0.00201897	0.0147284	-2.23391	-0.0421425	-1.72235	0	0	0	0	-0	0	0	0	-0.1265	0	-0	0	0	0	0	0	-0	0	0.105	0.015	0	0	-0	0	0	0.098	0.1	0	-0	0	0	0	0	0	-0	0	0.05595	0	0	0	-0	0	0	0	0	0	-0	0	546.347	550.823	324.787	201.731	-0.632009	0.734372	0.0526476	0.0612212	-0.235471
7	-0.00557946	0.110804	-0.0603295	0.200502	0.068907	0.024967	0.0223022	-0.0271339	0.0209039	-0.00245106	-0.00215927	-0.00456917	0.0571076	0.00211517	0.0156113	-2.23442	-0.041151	-1.72159	0	0	0	0	-0	0	0	0	-0.1265	0	-0	0	0	0	0	0	-0	0	0.105	0.015	0	0	-0	0	0	0.098	0.1	0	-0	0	0	0	0	0	-0	0	0.05595	0	0	0	-0	0	0	0	0	0	-0	0	547.169	550.384	324.605	201.949	-0.489374	0.206745	0.0490148	0.0640861	0.250076
8	-0.00869044	0.11102	-0.0607676	0.203159	0.0685561	0.0259441	0.0222811	-0.0271174	0.0211418	0.000604535	-0.00311851	-0.0046772	0.0563404	0.00227057	0.0165325	-2.2397	-0.0409136	-1.72009	0	0	0	0	-0	0	0	0	-0.1265	0	-0	0	0	0	0	0	-0	0	0.105	0.015	0	0	-0	0	0	0.098	0.1	0	-0	0	0	0	0	0	-0	0	0.05595	0	0	0	-0	0	0	0	0	0	-0	0	549.556	549.091	323.976	202.574	-0.361819	-0.657101	0.053267	0.0665706	1.85988
9	-0.0183087	0.112658	-0.0621692	0.206033	0.0672998	0.026877	0.0222055	-0.0270823	0.0213977	-0.0185003	-0.00768648	-0.00922829	0.0547706	0.00268534	0.0183533	-2.25458	-0.0415554	-1.7182	0	0	0	0	-0	0	0	0	-0.1265	0	-0	0	0	0	0	0	-0	0	0.105	0.015	0	0	-0	0	0	0.098	0.1	0	-0	0	0	0	0	0	-0	0	0.05595	0	0	0	-0	0	0	0	0	0	-0	0	556.184	545.449	322.132	204.277	-0.165858	-2.52475	0.071675	0.0716844	5.9786
10	-0.0493354	0.115235	-0.0650544	0.211352	0.0651252	0.0283493	0.0220505	-0.0270295	0.0218492	-0.0307131	-0.00180344	-0.0128973	0.0517925	0.00359525	0.0215928	-2.29732	-0.043772	-1.71194	0	0	0	0	-0	0	0	0	-0.1265	0	-0	0	0	0	0	0	-0	0	0.105	0.015	0	0	-0	0	0	0.098	0.1	0	-0	0	0	0	0	0	-0	0	0.05595	0	0	0	-0	0	0	0	0	0	-0	0	572.467	536.48	317.493	208.496	0.0652263	-6.01587	0.12439	0.0821813	15.1589
11	-0.0150055	0.11619	-0.0679593	0.219276	0.0637352	0.0310425	0.0219224	-0.0270163	0.0224861	-0.0311575	0.00264588	-0.0123829	0.0481419	0.00460271	0.0279194	-2.27487	-0.0377023	-1.70926	0	0	0	0	-0	0	0	0	-0.1265	0	-0	0	0	0	0	0	-0	0	0.105	0.015	0	0	-0	0	0	0.098	0.1	0	-0	0	0	0	0	0	-0	0	0.05595	0	0	0	-0	0	0	0	0	0	-0	0	590.403	526.663	313.535	213.77	0.0350682	-8.49889	0.190692	0.0959574	24.7621
12	0.00689261	0.117052	-0.0699272	0.225506	0.0625697	0.0325744	0.0218813	-0.0270536	0.022962	-0.0489183	0.0100513	-0.0880021	0.0455855	0.00528309	0.0313146	-2.25988	-0.0372812	-1.71084	0	0	0	0	-0	0	0	0	-0.1265	0	-0	0	0	0	0	0	-0	0	0.105	0.015	0	0	-0	0	0	0.098	0.1	0	-0	0	0	0	0	0	-0	0	0.05595	0	0	0	-0	0	0	0	0	0	-0	0	601.164	520.957	313.105	217.293	-0.0226512	-9.61183	0.232478	0.105401	30.333
13	0.0360197	0.116517	-0.0719249	0.229395	0.0616675	0.0330872	0.0217467	-0.027547	0.0237305	-0.222541	-0.0685746	-0.154398	0.0386987	0.00669585	0.0402347	-2.24289	-0.0387654	-1.71016	0	0	0	0	-0	0	0	0	-0.1265	0	-0	0	0	0	0	0	-0	0	0.105	0.015	0	0	-0	0	0	0.098	0.1	0	-0	0	0	0	0	0	-0	0	0.05595	0	0	0	-0	0	0	0	0	0	-0	0	632.24	509.822	314.287	220.178	-0.028246	-14.4721	0.348639	0.117484	50.1486
14	0.118073	0.117045	-0.0728052	0.235189	0.0601612	0.0336853	0.0217	-0.0270458	0.0238686	-0.15185	-0.0550646	-0.137033	0.0329537	0.00729025	0.0458261	-2.15915	-0.0308778	-1.71676	0	0	0	0	-0	0	0	0	-0.1265	0	-0	0	0	0	0	0	-0	0	0.105	0.015	0	0	-0	0	0	0.098	0.1	0	-0	0	0	0	0	0	-0	0	0.05595	0	0	0	-0	0	0	0	0	0	-0	0	643.752	506.388	316.276	218.62	-0.107166	-15.3605	0.392013	0.125317	55.9057
15	0.058073	0.118888	-0.0744993	0.238128	0.0588469	0.0331734	0.0217247	-0.0270317	0.0241	-0.0968628	-0.0772131	-0.215449	0.03356	0.00781484	0.0453281	-2.21606	-0.0431077	-1.71791	0	0	0	0	-0	0	0	0	-0.1265	0	-0	0	0	0	0	0	-0	0	0.105	0.015	0	0	-0	0	0	0.098	0.1	0	-0	0	0	0	0	0	-0	0	0.05595	0	0	0	-0	0	0	0	0	0	-0	0	651.608	504.252	317.743	216.251	-0.23623	-15.9618	0.429108	0.121523	59.6805
16	0.0620821	0.120663	-0.075652	0.239082	0.0579411	0.0333588	0.0216198	-0.0269117	0.0241413	-0.0323387	-0.0835883	-0.254675	0.0316494	0.00836736	0.0475503	-2.20901	-0.0460399	-1.72212	0	0	0	0	-0	0	0	0	-0.1265	0	-0	0	0	0	0	0	-0	0	0.105	0.015	0	0	-0	0	0	0.098	0.1	0	-0	0	0	0	0	0	-0	0	0.05595	0	0	0	-0	0	0	0	0	0	-0	0	658.75	502.315	319.636	213.545	-0.229543	-16.819	0.455053	0.123456	62.8055
17	-0.0272503	0.121797	-0.0763075	0.239918	0.0571755	0.0329343	0.0215846	-0.026972	0.0241737	0.0254076	-0.0321325	-0.214994	0.0334532	0.0089261	0.0475098	-2.2926	-0.0623262	-1.72004	0	0	0	0	-0	0	0	0	-0.1265	0	-0	0	0	0	0	0	-0	0	0.105	0.015	0	0	-0	0	0	0.098	0.1	0	-0	0	0	0	0	0	-0	0	0.05595	0	0	0	-0	0	0	0	0	0	-0	0	668.514	499.824	321.477	208.872	-0.337864	-17.5548	0.496357	0.12161	67.0373
18	-0.0222197	0.123297	-0.0769331	0.239982	0.0562788	0.0324926	0.0214572	-0.0268477	0.0241361	0.121906	-0.0862871	-0.160613	0.0317437	0.00940845	0.0499468	-2.28356	-0.0643622	-1.72329	0	0	0	0	-0	0	0	0	-0.1265	0	-0	0	0	0	0	0	-0	0	0.105	0.015	0	0	-0	0	0	0.098	0.1	0	-0	0	0	0	0	0	-0	0	0.05595	0	0	0	-0	0	0	0	0	0	-0	0	675.353	497.984	323.034	205.084	-0.405225	-18.0924	0.525799	0.120986	69.8172
19	-0.105734	0.124902	-0.0775403	0.239736	0.0554277	0.031857	0.0216685	-0.0268901	0.0240094	0.134134	-0.149934	-0.0391848	0.0335566	0.0100382	0.0505391	-2.36067	-0.0801878	-1.72058	0	0	0	0	-0	0	0	0	-0.1265	0	-0	0	0	0	0	0	-0	0	0.105	0.015	0	0	-0	0	0	0.098	0.1	0	-0	0	0	0	0	0	-0	0	0.05595	0	0	0	-0	0	0	0	0	0	-0	0	684.786	495.359	325.12	199.449	-0.507427	-18.8155	0.568293	0.118986	73.5929
20	-0.0872331	0.126913	-0.0787414	0.241076	0.0541868	0.0316619	0.0214793	-0.0268684	0.0241989	0.168296	-0.164847	-0.124761	0.0312222	0.0106476	0.0537947	-2.3381	-0.0810827	-1.72541	0	0	0	0	-0	0	0	0	-0.1265	0	-0	0	0	0	0	0	-0	0	0.105	0.015	0	0	-0	0	0	0.098	0.1	0	-0	0	0	0	0	0	-0	0	0.05595	0	0	0	-0	0	0	0	0	0	-0	0	691.36	493.33	327.1	195.355	-0.534136	-19.5478	0.598457	0.118753	76.1232
21	-0.111521	0.127837	-0.078583	0.239961	0.0538171	0.031361	0.0214829	-0.0267585	0.0241722	0.140968	-0.0631172	-0.131737	0.0311168	0.0110778	0.0552072	-2.35883	-0.0866513	-1.72542	0	0	0	0	-0	0	0	0	-0.1265	0	-0	0	0	0	0	0	-0	0	0.105	0.015	0	0	-0	0	0	0.098	0.1	0	-0	0	0	0	0	0	-0	0	0.05595	0	0	0	-0	0	0	0	0	0	-0	0	697.063	491.43	328.35	191.735	-0.608973	-19.9534	0.6272	0.117893	78.2595
22	-0.141382	0.129	-0.0790499	0.240769	0.0532466	0.0312077	0.0213869	-0.0267944	0.0241334	0.173655	-0.0413354	-0.167064	0.0317585	0.0114751	0.0560752	-2.38618	-0.0931007	-1.72443	0	0	0	0	-0	0	0	0	-0.1265	0	-0	0	0	0	0	0	-0	0	0.105	0.015	0	0	-0	0	0	0.098	0.1	0	-0	0	0	0	0	0	-0	0	0.05595	0	0	0	-0	0	0	0	0	0	-0	0	701.198	489.968	329.269	189.182	-0.665672	-20.2614	0.650654	0.117089	79.6938
23	-0.125937	0.129258	-0.0791875	0.240263	0.0530125	0.0308867	0.0213523	-0.0267898	0.0240635	0.183372	-0.0235676	-0.132321	0.0305891	0.0116062	0.0572109	-2.36991	-0.0912521	-1.72637	0	0	0	0	-0	0	0	0	-0.1265	0	-0	0	0	0	0	0	-0	0	0.105	0.015	0	0	-0	0	0	0.098	0.1	0	-0	0	0	0	0	0	-0	0	0.05595	0	0	0	-0	0	0	0	0	0	-0	0	702.854	489.378	329.614	188.066	-0.706451	-20.3343	0.660593	0.11613	80.2695
24	-0.0928808	0.129602	-0.0793305	0.239996	0.0528209	0.0306275	0.0213251	-0.0267623	0.0240401	0.210172	-0.0454988	-0.13417	0.0281524	0.011776	0.0591399	-2.3358	-0.0867682	-1.72992	0	0	0	0	-0	0	0	0	-0.1265	0	-0	0	0	0	0	0	-0	0	0.105	0.015	0	0	-0	0	0	0.098	0.1	0	-0	0	0	0	0	0	-0	0	0.05595	0	0	0	-0	0	0	0	0	0	-0	0	705.07	488.578	330.116	186.558	-0.739131	-20.4697	0.672411	0.115709	81.0415
25	-0.0513695	0.130465	-0.0796066	0.239643	0.0523775	0.0304487	0.0213546	-0.0268987	0.0242813	0.309803	-0.116525	-0.198083	0.0241917	0.0122185	0.0626205	-2.29158	-0.0818135	-1.73505	0	0	0	0	-0	0	0	0	-0.1265	0	-0	0	0	0	0	0	-0	0	0.105	0.015	0	0	-0	0	0	0.098	0.1	0	-0	0	0	0	0	0	-0	0	0.05595	0	0	0	-0	0	0	0	0	0	-0	0	710.586	486.608	331.462	183.021	-0.785152	-20.911	0.7001	0.115948	82.9114
26	-0.0695115	0.130977	-0.0791327	0.239178	0.0522571	0.0306573	0.0213259	-0.0268296	0.0239999	0.347733	-0.0913286	-0.1681	0.0244568	0.0124777	0.0632452	-2.30829	-0.0855931	-1.73499	0	0	0	0	-0	0	0	0	-0.1265	0	-0	0	0	0	0	0	-0	0	0.105	0.015	0	0	-0	0	0	0.098	0.1	0	-0	0	0	0	0	0	-0	0	0.05595	0	0	0	-0	0	0	0	0	0	-0	0	713.294	485.546	332.102	181.443	-0.785719	-21.188	0.712895	0.118019	83.7623
27	-0.0809356	0.131021	-0.0797742	0.240368	0.0518509	0.0302182	0.0212911	-0.0267655	0.0240586	0.343805	-0.058379	-0.158639	0.0248702	0.0125395	0.0634091	-2.31903	-0.0876927	-1.73378	0	0	0	0	-0	0	0	0	-0.1265	0	-0	0	0	0	0	0	-0	0	0.105	0.015	0	0	-0	0	0	0.098	0.1	0	-0	0	0	0	0	0	-0	0	0.05595	0	0	0	-0	0	0	0	0	0	-0	0	714.371	485.139	332.314	180.709	-0.838428	-21.1822	0.722278	0.115668	84.1314
28	-0.0694011	0.131576	-0.0799153	0.239666	0.0517132	0.0302372	0.0213266	-0.0267445	0.0240134	0.329919	0.00897618	-0.185066	0.0237403	0.0127256	0.0643523	-2.30685	-0.0865327	-1.73566	0	0	0	0	-0	0	0	0	-0.1265	0	-0	0	0	0	0	0	-0	0	0.105	0.015	0	0	-0	0	0	0.098	0.1	0	-0	0	0	0	0	0	-0	0	0.05595	0	0	0	-0	0	0	0	0	0	-0	0	715.844	484.575	332.658	179.77	-0.855235	-21.2987	0.730893	0.115884	84.5958
29	-0.0532771	0.131872	-0.0801212	0.240145	0.051534	0.0302248	0.0212598	-0.0267537	0.0240198	0.339972	0.0185995	-0.188156	0.0223678	0.0128434	0.0652239	-2.29033	-0.0843159	-1.73744	0	0	0	0	-0	0	0	0	-0.1265	0	-0	0	0	0	0	0	-0	0	0.105	0.015	0	0	-0	0	0	0.098	0.1	0	-0	0	0	0	0	0	-0	0	0.05595	0	0	0	-0	0	0	0	0	0	-0	0	716.923	484.156	332.918	179.08	-0.870165	-21.3871	0.737702	0.115702	84.9465
30	-0.0195001	0.132313	-0.0802638	0.239551	0.051301	0.0301001	0.0213413	-0.02673	0.0240149	0.357715	-0.0656025	-0.148093	0.0188003	0.01321	0.0679606	-2.2546	-0.0797291	-1.74127	0	0	0	0	-0	0	0	0	-0.1265	0	-0	0	0	0	0	0	-0	0	0.105	0.015	0	0	-0	0	0	0.098	0.1	0	-0	0	0	0	0	0	-0	0	0.05595	0	0	0	-0	0	0	0	0	0	-0	0	721.586	482.399	334.015	176.194	-0.915533	-21.7057	0.761899	0.11628	86.4182
31	-0.071851	0.133088	-0.0804815	0.240001	0.0508673	0.0301377	0.0212165	-0.0267743	0.0240262	0.409093	-0.0773446	-0.148494	0.0215448	0.013482	0.0679419	-2.30545	-0.0894979	-1.73816	0	0	0	0	-0	0	0	0	-0.1265	0	-0	0	0	0	0	0	-0	0	0.105	0.015	0	0	-0	0	0	0.098	0.1	0	-0	0	0	0	0	0	-0	0	0.05595	0	0	0	-0	0	0	0	0	0	-0	0	723.856	481.488	334.596	174.843	-0.93737	-21.9273	0.776231	0.116612	87.1297
32	-0.0802572	0.132836	-0.0803315	0.23954	0.0509075	0.0299365	0.0212533	-0.0267599	0.0239652	0.415911	-0.0500948	-0.170633	0.0219071	0.0135153	0.0680546	-2.31333	-0.0908726	-1.7373	0	0	0	0	-0	0	0	0	-0.1265	0	-0	0	0	0	0	0	-0	0	0.105	0.015	0	0	-0	0	0	0.098	0.1	0	-0	0	0	0	0	0	-0	0	0.05595	0	0	0	-0	0	0	0	0	0	-0	0	724.775	481.124	334.778	174.256	-0.959553	-21.9442	0.781435	0.11635	87.4222
33	-0.107238	0.133152	-0.0805558	0.23978	0.0507119	0.0298734	0.0212236	-0.0267603	0.0239933	0.442764	-0.0660107	-0.188522	0.0233754	0.0136418	0.0680424	-2.33948	-0.095749	-1.73523	0	0	0	0	-0	0	0	0	-0.1265	0	-0	0	0	0	0	0	-0	0	0.105	0.015	0	0	-0	0	0	0.098	0.1	0	-0	0	0	0	0	0	-0	0	0.05595	0	0	0	-0	0	0	0	0	0	-0	0	726.017	480.631	335.055	173.481	-0.978613	-22.0219	0.789218	0.116329	87.8064
34	-0.104456	0.133236	-0.0805057	0.23955	0.0506798	0.0298536	0.0212263	-0.0267551	0.0239691	0.429072	-0.041989	-0.179635	0.0230642	0.0136937	0.0683188	-2.3365	-0.0954558	-1.73569	0	0	0	0	-0	0	0	0	-0.1265	0	-0	0	0	0	0	0	-0	0	0.105	0.015	0	0	-0	0	0	0.098	0.1	0	-0	0	0	0	0	0	-0	0	0.05595	0	0	0	-0	0	0	0	0	0	-0	0	726.523	480.427	335.164	173.167	-0.987009	-22.053	0.792371	0.116388	87.9576
35	-0.105164	0.133473	-0.0806483	0.239598	0.0505477	0.0298183	0.0212476	-0.0267884	0.0240059	0.428166	-0.0923161	-0.209368	0.0225317	0.0138709	0.069255	-2.33628	-0.0960707	-1.73605	0	0	0	0	-0	0	0	0	-0.1265	0	-0	0	0	0	0	0	-0	0	0.105	0.015	0	0	-0	0	0	0.098	0.1	0	-0	0	0	0	0	0	-0	0	0.05595	0	0	0	-0	0	0	0	0	0	-0	0	728.552	479.599	335.621	171.926	-1.01141	-22.1831	0.804074	0.11666	88.5831
36	-0.179079	0.133872	-0.0807206	0.239478	0.0503479	0.0298751	0.0211439	-0.026904	0.0238968	0.289722	-0.0286635	-0.338459	0.0268214	0.014145	0.0689785	-2.40839	-0.108804	-1.72939	0	0	0	0	-0	0	0	0	-0.1265	0	-0	0	0	0	0	0	-0	0	0.105	0.015	0	0	-0	0	0	0.098	0.1	0	-0	0	0	0	0	0	-0	0	0.05595	0	0	0	-0	0	0	0	0	0	-0	0	731.484	478.401	336.323	170.215	-1.03315	-22.4179	0.820308	0.117772	89.4838
37	-0.211127	0.133871	-0.0807248	0.238683	0.0501077	0.0294607	0.0212484	-0.0269245	0.0239342	0.253084	-0.0870683	-0.402242	0.028088	0.0144161	0.0699195	-2.4384	-0.114316	-1.72618	0	0	0	0	-0	0	0	0	-0.1265	0	-0	0	0	0	0	0	-0	0	0.105	0.015	0	0	-0	0	0	0.098	0.1	0	-0	0	0	0	0	0	-0	0	0.05595	0	0	0	-0	0	0	0	0	0	-0	0	735.675	476.768	337.174	167.608	-1.1066	-22.5919	0.844455	0.11787	90.793
38	-0.195323	0.134398	-0.0807711	0.239139	0.0498782	0.0295999	0.0211899	-0.0267656	0.0239172	0.256877	-0.0951301	-0.412566	0.026876	0.0145524	0.0707277	-2.4225	-0.112488	-1.72867	0	0	0	0	-0	0	0	0	-0.1265	0	-0	0	0	0	0	0	-0	0	0.105	0.015	0	0	-0	0	0	0.098	0.1	0	-0	0	0	0	0	0	-0	0	0.05595	0	0	0	-0	0	0	0	0	0	-0	0	736.237	476.527	337.318	167.301	-1.10316	-22.6917	0.8488	0.118805	90.9434
39	-0.203177	0.134647	-0.0810192	0.239526	0.0497693	0.0295776	0.0211763	-0.0267612	0.0239607	0.285507	-0.110989	-0.428089	0.0271987	0.0146646	0.0709495	-2.43009	-0.114122	-1.7279	0	0	0	0	-0	0	0	0	-0.1265	0	-0	0	0	0	0	0	-0	0	0.105	0.015	0	0	-0	0	0	0.098	0.1	0	-0	0	0	0	0	0	-0	0	0.05595	0	0	0	-0	0	0	0	0	0	-0	0	737.009	476.205	337.492	166.852	-1.13048	-22.7298	0.856076	0.117735	91.1778
40	-0.190305	0.134863	-0.081077	0.239313	0.049724	0.0296444	0.021183	-0.0267815	0.023952	0.251111	-0.137418	-0.417021	0.0260142	0.0147968	0.0718851	-2.41687	-0.112493	-1.72971	0	0	0	0	-0	0	0	0	-0.1265	0	-0	0	0	0	0	0	-0	0	0.105	0.015	0	0	-0	0	0	0.098	0.1	0	-0	0	0	0	0	0	-0	0	0.05595	0	0	0	-0	0	0	0	0	0	-0	0	738.148	475.719	337.748	166.204	-1.14344	-22.809	0.863081	0.118173	91.5102
41	-0.181123	0.134913	-0.0810917	0.239413	0.0496658	0.0296316	0.0211722	-0.0267615	0.0239399	0.259798	-0.118539	-0.407566	0.0252318	0.0148408	0.072348	-2.40758	-0.111149	-1.73084	0	0	0	0	-0	0	0	0	-0.1265	0	-0	0	0	0	0	0	-0	0	0.105	0.015	0	0	-0	0	0	0.098	0.1	0	-0	0	0	0	0	0	-0	0	0.05595	0	0	0	-0	0	0	0	0	0	-0	0	738.612	475.525	337.849	165.938	-1.15011	-22.8408	0.86607	0.118279	91.6427
42	-0.15374	0.135112	-0.0812177	0.239379	0.0495572	0.0296097	0.0211513	-0.0267499	0.0239436	0.186988	-0.0855213	-0.44618	0.0227698	0.0150133	0.0739749	-2.3797	-0.10719	-1.73411	0	0	0	0	-0	0	0	0	-0.1265	0	-0	0	0	0	0	0	-0	0	0.105	0.015	0	0	-0	0	0	0.098	0.1	0	-0	0	0	0	0	0	-0	0	0.05595	0	0	0	-0	0	0	0	0	0	-0	0	740.477	474.745	338.257	164.872	-1.17797	-22.9407	0.87767	0.118568	92.1901
43	-0.188749	0.135447	-0.0812956	0.239161	0.0493766	0.0295746	0.0212125	-0.0268171	0.0239706	0.141602	-0.11953	-0.399997	0.0246158	0.0152679	0.0744671	-2.41354	-0.11349	-1.73087	0	0	0	0	-0	0	0	0	-0.1265	0	-0	0	0	0	0	0	-0	0	0.105	0.015	0	0	-0	0	0	0.098	0.1	0	-0	0	0	0	0	0	-0	0	0.05595	0	0	0	-0	0	0	0	0	0	-0	0	743.132	473.623	338.837	163.352	-1.21838	-23.0884	0.894546	0.119121	92.9738
44	-0.1617	0.135824	-0.0814366	0.239263	0.0491541	0.029684	0.0211196	-0.0267531	0.0239765	0.0539424	-0.0840181	-0.425046	0.0216604	0.0156373	0.0770808	-2.38544	-0.110101	-1.73465	0	0	0	0	-0	0	0	0	-0.1265	0	-0	0	0	0	0	0	-0	0	0.105	0.015	0	0	-0	0	0	0.098	0.1	0	-0	0	0	0	0	0	-0	0	0.05595	0	0	0	-0	0	0	0	0	0	-0	0	746.972	472.042	339.74	161.322	-1.24948	-23.3715	0.916825	0.12114	94.1015
45	-0.159103	0.1361	-0.0814301	0.239086	0.0489562	0.0295554	0.0211821	-0.0267882	0.0239144	0.043249	-0.107322	-0.376977	0.0207408	0.0158767	0.0783449	-2.38214	-0.110167	-1.73532	0	0	0	0	-0	0	0	0	-0.1265	0	-0	0	0	0	0	0	-0	0	0.105	0.015	0	0	-0	0	0	0.098	0.1	0	-0	0	0	0	0	0	-0	0	0.05595	0	0	0	-0	0	0	0	0	0	-0	0	749.461	471.014	340.164	159.923	-1.31732	-23.4319	0.935423	0.120813	94.8316
46	-0.15693	0.136345	-0.0817069	0.239473	0.0487589	0.0295561	0.0211204	-0.0267572	0.0239242	0.0615092	-0.116556	-0.351968	0.0204155	0.0159698	0.0786788	-2.37985	-0.110083	-1.73588	0	0	0	0	-0	0	0	0	-0.1265	0	-0	0	0	0	0	0	-0	0	0.105	0.015	0	0	-0	0	0	0.098	0.1	0	-0	0	0	0	0	0	-0	0	0.05595	0	0	0	-0	0	0	0	0	0	-0	0	749.967	470.8	340.266	159.646	-1.32644	-23.4831	0.939862	0.121006	94.9669
47	-0.12712	0.136445	-0.0817482	0.23918	0.0487291	0.0295114	0.0211234	-0.0267294	0.0239418	0.134419	-0.174222	-0.319332	0.0175177	0.0161542	0.0803069	-2.34965	-0.105469	-1.73927	0	0	0	0	-0	0	0	0	-0.1265	0	-0	0	0	0	0	0	-0	0	0.105	0.015	0	0	-0	0	0	0.098	0.1	0	-0	0	0	0	0	0	-0	0	0.05595	0	0	0	-0	0	0	0	0	0	-0	0	751.99	469.956	340.653	158.518	-1.36702	-23.5533	0.953364	0.121275	95.5444
48	-0.148193	0.136742	-0.0817739	0.239209	0.0486052	0.0295436	0.0211297	-0.0268136	0.0239369	0.171727	-0.135237	-0.298136	0.0188701	0.0162905	0.0804358	-2.37032	-0.109355	-1.73744	0	0	0	0	-0	0	0	0	-0.1265	0	-0	0	0	0	0	0	-0	0	0.105	0.015	0	0	-0	0	0	0.098	0.1	0	-0	0	0	0	0	0	-0	0	0.05595	0	0	0	-0	0	0	0	0	0	-0	0	752.994	469.529	340.848	157.981	-1.38716	-23.6094	0.961168	0.121549	95.815
49	-0.170549	0.136622	-0.081759	0.239143	0.0486114	0.0295305	0.0211159	-0.0267739	0.0239413	0.126795	-0.12284	-0.27582	0.0204806	0.0163354	0.0803511	-2.39226	-0.11301	-1.73499	0	0	0	0	-0	0	0	0	-0.1265	0	-0	0	0	0	0	0	-0	0	0.105	0.015	0	0	-0	0	0	0.098	0.1	0	-0	0	0	0	0	0	-0	0	0.05595	0	0	0	-0	0	0	0	0	0	-0	0	753.742	469.222	340.991	157.577	-1.39352	-23.651	0.965014	0.122149	96.0256
50	-0.146351	0.136749	-0.0817765	0.239216	0.0485538	0.029526	0.0211104	-0.0267561	0.0239115	0.1319	-0.118168	-0.278794	0.018379	0.016403	0.0811419	-2.36811	-0.109207	-1.73778	0	0	0	0	-0	0	0	0	-0.1265	0	-0	0	0	0	0	0	-0	0	0.105	0.015	0	0	-0	0	0	0.098	0.1	0	-0	0	0	0	0	0	-0	0	0.05595	0	0	0	-0	0	0	0	0	0	-0	0	754.296	468.988	341.094	157.279	-1.40801	-23.6689	0.969528	0.122105	96.1709
51	-0.141113	0.136844	-0.0818893	0.239249	0.0484788	0.0294905	0.0211092	-0.0267497	0.0239167	0.120637	-0.0929774	-0.281492	0.0178232	0.0164531	0.0814271	-2.36282	-0.108454	-1.73843	0	0	0	0	-0	0	0	0	-0.1265	0	-0	0	0	0	0	0	-0	0	0.105	0.015	0	0	-0	0	0	0.098	0.1	0	-0	0	0	0	0	0	-0	0	0.05595	0	0	0	-0	0	0	0	0	0	-0	0	754.707	468.819	341.17	157.051	-1.42122	-23.6804	0.97304	0.121914	96.2849
52	-0.109126	0.137019	-0.0819768	0.239172	0.0484125	0.0295139	0.0211329	-0.0267996	0.0239462	0.138892	-0.124789	-0.330014	0.0147026	0.0166324	0.0829171	-2.3306	-0.103407	-1.74207	0	0	0	0	-0	0	0	0	-0.1265	0	-0	0	0	0	0	0	-0	0	0.105	0.015	0	0	-0	0	0	0.098	0.1	0	-0	0	0	0	0	0	-0	0	0.05595	0	0	0	-0	0	0	0	0	0	-0	0	756.516	468.086	341.518	156.089	-1.45375	-23.7512	0.985025	0.1225	96.7983
53	-0.119526	0.13714	-0.0819123	0.239071	0.0483549	0.0295675	0.0211068	-0.026767	0.0239282	0.108785	-0.101012	-0.309379	0.0152687	0.016729	0.0831598	-2.34069	-0.105361	-1.7413	0	0	0	0	-0	0	0	0	-0.1265	0	-0	0	0	0	0	0	-0	0	0.105	0.015	0	0	-0	0	0	0.098	0.1	0	-0	0	0	0	0	0	-0	0	0.05595	0	0	0	-0	0	0	0	0	0	-0	0	757.404	467.724	341.7	155.632	-1.46127	-23.817	0.990519	0.123274	97.0365
54	-0.131077	0.137173	-0.081993	0.239266	0.0482998	0.0295314	0.021092	-0.026765	0.0239465	0.153822	-0.118053	-0.322557	0.0159733	0.0168081	0.0834103	-2.35193	-0.107448	-1.74011	0	0	0	0	-0	0	0	0	-0.1265	0	-0	0	0	0	0	0	-0	0	0.105	0.015	0	0	-0	0	0	0.098	0.1	0	-0	0	0	0	0	0	-0	0	0.05595	0	0	0	-0	0	0	0	0	0	-0	0	758.231	467.388	341.847	155.196	-1.48382	-23.8359	0.996915	0.123146	97.2715
55	-0.130173	0.137268	-0.0819962	0.239109	0.0482683	0.029541	0.0211067	-0.0267762	0.0239086	0.153277	-0.103427	-0.288495	0.015727	0.0168795	0.0837384	-2.35089	-0.107439	-1.74037	0	0	0	0	-0	0	0	0	-0.1265	0	-0	0	0	0	0	0	-0	0	0.105	0.015	0	0	-0	0	0	0.098	0.1	0	-0	0	0	0	0	0	-0	0	0.05595	0	0	0	-0	0	0	0	0	0	-0	0	758.844	467.135	341.956	154.876	-1.49658	-23.8591	1.00133	0.123372	97.436
56	-0.135167	0.137462	-0.0821677	0.239133	0.048136	0.0295239	0.021094	-0.0267601	0.0239057	0.164416	-0.0852846	-0.306975	0.0154317	0.0171102	0.084903	-2.35521	-0.108685	-1.74015	0	0	0	0	-0	0	0	0	-0.1265	0	-0	0	0	0	0	0	-0	0	0.105	0.015	0	0	-0	0	0	0.098	0.1	0	-0	0	0	0	0	0	-0	0	0.05595	0	0	0	-0	0	0	0	0	0	-0	0	761.287	466.147	342.43	153.598	-1.54281	-23.9459	1.01779	0.124099	98.1083
57	-0.147041	0.137641	-0.0822197	0.239141	0.0480098	0.0295117	0.02109	-0.0267693	0.0239137	0.154093	-0.116841	-0.319409	0.0162471	0.0172041	0.0850884	-2.36687	-0.110909	-1.7391	0	0	0	0	-0	0	0	0	-0.1265	0	-0	0	0	0	0	0	-0	0	0.105	0.015	0	0	-0	0	0	0.098	0.1	0	-0	0	0	0	0	0	-0	0	0.05595	0	0	0	-0	0	0	0	0	0	-0	0	761.949	465.879	342.549	153.255	-1.56163	-23.9759	1.02367	0.124152	98.2883
58	-0.147668	0.13765	-0.0822166	0.23912	0.0480164	0.0295194	0.0210858	-0.026771	0.023914	0.125336	-0.13613	-0.307034	0.0161757	0.0172515	0.085308	-2.36739	-0.111084	-1.7391	0	0	0	0	-0	0	0	0	-0.1265	0	-0	0	0	0	0	0	-0	0	0.105	0.015	0	0	-0	0	0	0.098	0.1	0	-0	0	0	0	0	0	-0	0	0.05595	0	0	0	-0	0	0	0	0	0	-0	0	762.403	465.696	342.629	153.02	-1.56984	-23.9949	1.02675	0.124367	98.4127
59	-0.151049	0.137682	-0.0822247	0.239126	0.0479955	0.0295181	0.0210778	-0.0267569	0.0239059	0.110569	-0.12565	-0.293653	0.0163658	0.0172869	0.0854349	-2.37067	-0.111708	-1.73878	0	0	0	0	-0	0	0	0	-0.1265	0	-0	0	0	0	0	0	-0	0	0.105	0.015	0	0	-0	0	0	0.098	0.1	0	-0	0	0	0	0	0	-0	0	0.05595	0	0	0	-0	0	0	0	0	0	-0	0	762.748	465.558	342.689	152.845	-1.57725	-24.0069	1.02925	0.12447	98.5043
60	-0.151892	0.137809	-0.0823052	0.239083	0.0479328	0.0295124	0.0210961	-0.0267814	0.0239105	0.132759	-0.119732	-0.335585	0.0160095	0.0174352	0.0862074	-2.37117	-0.112091	-1.73886	0	0	0	0	-0	0	0	0	-0.1265	0	-0	0	0	0	0	0	-0	0	0.105	0.015	0	0	-0	0	0	0.098	0.1	0	-0	0	0	0	0	0	-0	0	0.05595	0	0	0	-0	0	0	0	0	0	-0	0	764.265	464.959	342.95	152.079	-1.61172	-24.0444	1.04001	0.124828	98.9312
61	-0.206728	0.138024	-0.0823868	0.239017	0.0478163	0.0295541	0.0211052	-0.0267336	0.0239296	0.0939773	-0.0579723	-0.353174	0.0201366	0.0176545	0.0864473	-2.42518	-0.121511	-1.73289	0	0	0	0	-0	0	0	0	-0.1265	0	-0	0	0	0	0	0	-0	0	0.105	0.015	0	0	-0	0	0	0.098	0.1	0	-0	0	0	0	0	0	-0	0	0.05595	0	0	0	-0	0	0	0	0	0	-0	0	766.407	464.14	343.367	151.019	-1.64744	-24.137	1.05435	0.125868	99.5092
62	-0.176256	0.138269	-0.0824581	0.239242	0.0477021	0.0296253	0.0210884	-0.0267724	0.0239109	0.099952	-0.036899	-0.396422	0.0172435	0.0178052	0.0875936	-2.39473	-0.116904	-1.73675	0	0	0	0	-0	0	0	0	-0.1265	0	-0	0	0	0	0	0	-0	0	0.105	0.015	0	0	-0	0	0	0.098	0.1	0	-0	0	0	0	0	0	-0	0	0.05595	0	0	0	-0	0	0	0	0	0	-0	0	767.47	463.711	343.556	150.515	-1.67325	-24.1854	1.06338	0.126139	99.7906
63	-0.215208	0.138244	-0.0824981	0.239111	0.0476749	0.0295818	0.0210387	-0.0267901	0.0239233	0.156941	-0.0268486	-0.382112	0.0204333	0.0178686	0.087262	-2.43329	-0.123281	-1.73216	0	0	0	0	-0	0	0	0	-0.1265	0	-0	0	0	0	0	0	-0	0	0.105	0.015	0	0	-0	0	0	0.098	0.1	0	-0	0	0	0	0	0	-0	0	0.05595	0	0	0	-0	0	0	0	0	0	-0	0	768.253	463.407	343.687	150.116	-1.69128	-24.2041	1.06872	0.126348	100.006
64	-0.216824	0.138188	-0.0823847	0.238775	0.0477011	0.0295161	0.0210681	-0.0267883	0.0238976	0.11893	-0.0486982	-0.373855	0.0203142	0.0179504	0.0877357	-2.43465	-0.123581	-1.73199	0	0	0	0	-0	0	0	0	-0.1265	0	-0	0	0	0	0	0	-0	0	0.105	0.015	0	0	-0	0	0	0.098	0.1	0	-0	0	0	0	0	0	-0	0	0.05595	0	0	0	-0	0	0	0	0	0	-0	0	769.374	462.984	343.856	149.549	-1.71886	-24.2057	1.07612	0.126738	100.31
65	-0.207925	0.138369	-0.082508	0.239005	0.0475841	0.0295292	0.0210574	-0.0267619	0.0239118	0.0906625	-0.0267223	-0.359171	0.0193175	0.0180516	0.0883907	-2.42566	-0.122368	-1.73326	0	0	0	0	-0	0	0	0	-0.1265	0	-0	0	0	0	0	0	-0	0	0.105	0.015	0	0	-0	0	0	0.098	0.1	0	-0	0	0	0	0	0	-0	0	0.05595	0	0	0	-0	0	0	0	0	0	-0	0	770.201	462.675	343.995	149.146	-1.73868	-24.2325	1.08268	0.127008	100.524
66	-0.211133	0.138459	-0.0825419	0.23901	0.0475572	0.0295567	0.0210562	-0.0267572	0.0238906	0.0889637	-0.0431863	-0.344378	0.0195034	0.0181068	0.0885228	-2.42881	-0.123017	-1.73297	0	0	0	0	-0	0	0	0	-0.1265	0	-0	0	0	0	0	0	-0	0	0.105	0.015	0	0	-0	0	0	0.098	0.1	0	-0	0	0	0	0	0	-0	0	0.05595	0	0	0	-0	0	0	0	0	0	-0	0	770.532	462.548	344.049	148.983	-1.74868	-24.2459	1.08576	0.127008	100.608
67	-0.191323	0.138506	-0.0826279	0.239073	0.0475134	0.0295431	0.0210468	-0.0267561	0.0238945	0.0806888	-0.0416094	-0.32931	0.0176299	0.0181566	0.0891613	-2.40904	-0.11987	-1.73539	0	0	0	0	-0	0	0	0	-0.1265	0	-0	0	0	0	0	0	-0	0	0.105	0.015	0	0	-0	0	0	0.098	0.1	0	-0	0	0	0	0	0	-0	0	0.05595	0	0	0	-0	0	0	0	0	0	-0	0	770.989	462.375	344.122	148.755	-1.76186	-24.255	1.08945	0.127006	100.731
68	-0.177107	0.138543	-0.082621	0.238973	0.0475018	0.0295379	0.0210429	-0.0267527	0.023885	0.103546	-0.0557207	-0.313696	0.0162685	0.0181939	0.0895707	-2.39486	-0.117592	-1.73713	0	0	0	0	-0	0	0	0	-0.1265	0	-0	0	0	0	0	0	-0	0	0.105	0.015	0	0	-0	0	0	0.098	0.1	0	-0	0	0	0	0	0	-0	0	0.05595	0	0	0	-0	0	0	0	0	0	-0	0	771.327	462.242	344.176	148.586	-1.77123	-24.2592	1.09204	0.127099	100.822
69	-0.143285	0.138646	-0.0826897	0.238943	0.0474497	0.029533	0.0210391	-0.0267542	0.0239144	0.146417	-0.0850039	-0.317897	0.0128333	0.0183379	0.0908947	-2.36101	-0.11212	-1.74111	0	0	0	0	-0	0	0	0	-0.1265	0	-0	0	0	0	0	0	-0	0	0.105	0.015	0	0	-0	0	0	0.098	0.1	0	-0	0	0	0	0	0	-0	0	0.05595	0	0	0	-0	0	0	0	0	0	-0	0	772.819	461.691	344.414	147.859	-1.80831	-24.2768	1.10277	0.127523	101.221
70	-0.131607	0.138743	-0.0826175	0.238843	0.0474292	0.0295659	0.0210407	-0.0267571	0.0238765	0.140254	-0.0836243	-0.323451	0.0116826	0.0183787	0.0910995	-2.34942	-0.11024	-1.74257	0	0	0	0	-0	0	0	0	-0.1265	0	-0	0	0	0	0	0	-0	0	0.105	0.015	0	0	-0	0	0	0.098	0.1	0	-0	0	0	0	0	0	-0	0	0.05595	0	0	0	-0	0	0	0	0	0	-0	0	773.02	461.613	344.445	147.763	-1.81244	-24.2912	1.10456	0.127747	101.272
71	-0.11843	0.138717	-0.0827289	0.239035	0.0473883	0.0295295	0.021032	-0.0267536	0.0238901	0.118851	-0.077955	-0.331708	0.0103897	0.0183992	0.0913912	-2.33631	-0.107971	-1.74393	0	0	0	0	-0	0	0	0	-0.1265	0	-0	0	0	0	0	0	-0	0	0.105	0.015	0	0	-0	0	0	0.098	0.1	0	-0	0	0	0	0	0	-0	0	0.05595	0	0	0	-0	0	0	0	0	0	-0	0	773.295	461.512	344.487	147.626	-1.82159	-24.2942	1.10689	0.127637	101.342
72	-0.115428	0.138773	-0.0827246	0.238902	0.0473796	0.0295435	0.0210424	-0.0267516	0.0238877	0.131973	-0.103401	-0.331656	0.00999028	0.0184472	0.0916257	-2.33326	-0.107533	-1.74435	0	0	0	0	-0	0	0	0	-0.1265	0	-0	0	0	0	0	0	-0	0	0.105	0.015	0	0	-0	0	0	0.098	0.1	0	-0	0	0	0	0	0	-0	0	0.05595	0	0	0	-0	0	0	0	0	0	-0	0	773.703	461.359	344.552	147.426	-1.83082	-24.3044	1.10988	0.127837	101.449
73	-0.112673	0.138816	-0.0827515	0.239012	0.0473562	0.0295608	0.0210366	-0.0267566	0.0238911	0.12059	-0.101938	-0.31625	0.00967813	0.0184726	0.091752	-2.33051	-0.107107	-1.74469	0	0	0	0	-0	0	0	0	-0.1265	0	-0	0	0	0	0	0	-0	0	0.105	0.015	0	0	-0	0	0	0.098	0.1	0	-0	0	0	0	0	0	-0	0	0.05595	0	0	0	-0	0	0	0	0	0	-0	0	773.872	461.295	344.578	147.346	-1.83496	-24.3122	1.11137	0.127909	101.493
74	-0.123563	0.138842	-0.0827681	0.238941	0.0473459	0.029566	0.021031	-0.0267684	0.0238913	0.0912487	-0.114323	-0.3221	0.010471	0.018537	0.091992	-2.34118	-0.109054	-1.74359	0	0	0	0	-0	0	0	0	-0.1265	0	-0	0	0	0	0	0	-0	0	0.105	0.015	0	0	-0	0	0	0.098	0.1	0	-0	0	0	0	0	0	-0	0	0.05595	0	0	0	-0	0	0	0	0	0	-0	0	774.552	461.046	344.69	147.019	-1.84983	-24.3264	1.1161	0.128182	101.67
75	-0.106133	0.138865	-0.0827572	0.238882	0.0473244	0.0295588	0.0210422	-0.0267568	0.0238935	0.105009	-0.143155	-0.331365	0.00870875	0.018589	0.0924544	-2.32381	-0.106099	-1.7455	0	0	0	0	-0	0	0	0	-0.1265	0	-0	0	0	0	0	0	-0	0	0.105	0.015	0	0	-0	0	0	0.098	0.1	0	-0	0	0	0	0	0	-0	0	0.05595	0	0	0	-0	0	0	0	0	0	-0	0	775.113	460.838	344.778	146.75	-1.86344	-24.3329	1.12009	0.128425	101.817
76	-0.105192	0.138953	-0.0827879	0.238974	0.0472892	0.0295846	0.0210302	-0.0267595	0.0238882	0.118063	-0.131639	-0.325582	0.00853354	0.0186291	0.0925855	-2.32286	-0.106028	-1.7457	0	0	0	0	-0	0	0	0	-0.1265	0	-0	0	0	0	0	0	-0	0	0.105	0.015	0	0	-0	0	0	0.098	0.1	0	-0	0	0	0	0	0	-0	0	0.05595	0	0	0	-0	0	0	0	0	0	-0	0	775.344	460.75	344.815	146.643	-1.86959	-24.3441	1.12226	0.128505	101.875
77	-0.113137	0.13894	-0.0828116	0.238941	0.0472824	0.0295707	0.0210345	-0.0267527	0.0238869	0.112741	-0.109428	-0.328403	0.00917207	0.0186562	0.0926748	-2.33068	-0.10742	-1.74486	0	0	0	0	-0	0	0	0	-0.1265	0	-0	0	0	0	0	0	-0	0	0.105	0.015	0	0	-0	0	0	0.098	0.1	0	-0	0	0	0	0	0	-0	0	0.05595	0	0	0	-0	0	0	0	0	0	-0	0	775.658	460.633	344.864	146.492	-1.87764	-24.3501	1.12457	0.128559	101.96
78	-0.129355	0.139012	-0.0828454	0.238963	0.0472508	0.029583	0.0210336	-0.0267621	0.0238916	0.10159	-0.0994759	-0.305359	0.010528	0.0187114	0.0927741	-2.34668	-0.110309	-1.7432	0	0	0	0	-0	0	0	0	-0.1265	0	-0	0	0	0	0	0	-0	0	0.105	0.015	0	0	-0	0	0	0.098	0.1	0	-0	0	0	0	0	0	-0	0	0.05595	0	0	0	-0	0	0	0	0	0	-0	0	776.125	460.458	344.939	146.272	-1.88985	-24.3581	1.12826	0.128714	102.079
79	-0.120133	0.139019	-0.0828365	0.238932	0.0472455	0.0295893	0.0210271	-0.0267526	0.0238822	0.107062	-0.108959	-0.302352	0.00961979	0.0187318	0.092961	-2.33752	-0.108744	-1.74424	0	0	0	0	-0	0	0	0	-0.1265	0	-0	0	0	0	0	0	-0	0	0.105	0.015	0	0	-0	0	0	0.098	0.1	0	-0	0	0	0	0	0	-0	0	0.05595	0	0	0	-0	0	0	0	0	0	-0	0	776.32	460.386	344.969	146.182	-1.89361	-24.3647	1.12962	0.128855	102.127
80	-0.169075	0.139071	-0.0828818	0.238932	0.0472148	0.0295785	0.021025	-0.0267646	0.0239046	0.142983	-0.119511	-0.319136	0.0139314	0.0188083	0.0928886	-2.38594	-0.117158	-1.73882	0	0	0	0	-0	0	0	0	-0.1265	0	-0	0	0	0	0	0	-0	0	0.105	0.015	0	0	-0	0	0	0.098	0.1	0	-0	0	0	0	0	0	-0	0	0.05595	0	0	0	-0	0	0	0	0	0	-0	0	777.106	460.106	345.09	145.816	-1.91547	-24.3668	1.13551	0.12901	102.33
81	-0.18475	0.139109	-0.0828154	0.238778	0.0472151	0.0295999	0.0210378	-0.0267695	0.0238779	0.155848	-0.118238	-0.348584	0.0152945	0.0188523	0.0927757	-2.40145	-0.119835	-1.73708	0	0	0	0	-0	0	0	0	-0.1265	0	-0	0	0	0	0	0	-0	0	0.105	0.015	0	0	-0	0	0	0.098	0.1	0	-0	0	0	0	0	0	-0	0	0.05595	0	0	0	-0	0	0	0	0	0	-0	0	777.496	459.963	345.15	145.639	-1.92239	-24.379	1.13816	0.129358	102.426
82	-0.164137	0.139136	-0.0829076	0.238982	0.0471661	0.0295924	0.0210276	-0.0267561	0.0238893	0.160576	-0.0983834	-0.357958	0.0132768	0.018888	0.0932818	-2.38094	-0.116439	-1.7395	0	0	0	0	-0	0	0	0	-0.1265	0	-0	0	0	0	0	0	-0	0	0.105	0.015	0	0	-0	0	0	0.098	0.1	0	-0	0	0	0	0	0	-0	0	0.05595	0	0	0	-0	0	0	0	0	0	-0	0	777.853	459.837	345.207	145.473	-1.93205	-24.387	1.14105	0.129406	102.518
83	-0.158687	0.139219	-0.0829294	0.238876	0.047144	0.0296095	0.0210354	-0.0267784	0.0238995	0.192683	-0.0831363	-0.384008	0.0125404	0.0189754	0.0937548	-2.37542	-0.115661	-1.74025	0	0	0	0	-0	0	0	0	-0.1265	0	-0	0	0	0	0	0	-0	0	0.105	0.015	0	0	-0	0	0	0.098	0.1	0	-0	0	0	0	0	0	-0	0	0.05595	0	0	0	-0	0	0	0	0	0	-0	0	778.641	459.558	345.337	145.109	-1.95115	-24.4025	1.14692	0.129685	102.725
84	-0.174585	0.139235	-0.0829116	0.238885	0.047133	0.0296337	0.0210401	-0.0267496	0.0239001	0.213455	-0.124891	-0.37776	0.0139191	0.0190159	0.0937612	-2.39114	-0.118374	-1.73847	0	0	0	0	-0	0	0	0	-0.1265	0	-0	0	0	0	0	0	-0	0	0.105	0.015	0	0	-0	0	0	0.098	0.1	0	-0	0	0	0	0	0	-0	0	0.05595	0	0	0	-0	0	0	0	0	0	-0	0	779.038	459.419	345.4	144.933	-1.95752	-24.4168	1.14956	0.130042	102.822
85	-0.179549	0.139326	-0.0829697	0.239036	0.0470954	0.0296604	0.0210134	-0.0267645	0.0238978	0.188287	-0.13554	-0.384305	0.0142902	0.0190644	0.0938666	-2.39605	-0.119313	-1.73796	0	0	0	0	-0	0	0	0	-0.1265	0	-0	0	0	0	0	0	-0	0	0.105	0.015	0	0	-0	0	0	0.098	0.1	0	-0	0	0	0	0	0	-0	0	0.05595	0	0	0	-0	0	0	0	0	0	-0	0	779.337	459.313	345.445	144.802	-1.9678	-24.4228	1.15248	0.130009	102.895
86	-0.186341	0.139273	-0.0829549	0.238852	0.0471069	0.0296246	0.0210217	-0.0267621	0.0238851	0.208629	-0.129201	-0.400186	0.0148217	0.0190928	0.0939799	-2.40273	-0.12042	-1.73713	0	0	0	0	-0	0	0	0	-0.1265	0	-0	0	0	0	0	0	-0	0	0.105	0.015	0	0	-0	0	0	0.098	0.1	0	-0	0	0	0	0	0	-0	0	0.05595	0	0	0	-0	0	0	0	0	0	-0	0	779.78	459.161	345.509	144.598	-1.97964	-24.4209	1.1554	0.130131	103.015
87	-0.183012	0.139327	-0.0829833	0.238915	0.0470686	0.0296167	0.0210158	-0.0267566	0.0238804	0.20945	-0.12781	-0.386056	0.0144594	0.0191172	0.0941315	-2.39941	-0.119925	-1.73758	0	0	0	0	-0	0	0	0	-0.1265	0	-0	0	0	0	0	0	-0	0	0.105	0.015	0	0	-0	0	0	0.098	0.1	0	-0	0	0	0	0	0	-0	0	0.05595	0	0	0	-0	0	0	0	0	0	-0	0	779.961	459.097	345.535	144.516	-1.98599	-24.4212	1.15707	0.130164	103.061
88	-0.187365	0.139345	-0.0830089	0.238892	0.0470558	0.0296084	0.021017	-0.026759	0.0238766	0.21303	-0.128945	-0.364368	0.0148028	0.0191433	0.0941982	-2.40371	-0.120679	-1.73707	0	0	0	0	-0	0	0	0	-0.1265	0	-0	0	0	0	0	0	-0	0	0.105	0.015	0	0	-0	0	0	0.098	0.1	0	-0	0	0	0	0	0	-0	0	0.05595	0	0	0	-0	0	0	0	0	0	-0	0	780.208	459.012	345.57	144.403	-1.99403	-24.4203	1.15906	0.130171	103.122
89	-0.184085	0.139363	-0.0830215	0.238891	0.0470422	0.029606	0.0210136	-0.0267537	0.023878	0.216458	-0.121363	-0.372284	0.0144675	0.019156	0.0943012	-2.40044	-0.120158	-1.73749	0	0	0	0	-0	0	0	0	-0.1265	0	-0	0	0	0	0	0	-0	0	0.105	0.015	0	0	-0	0	0	0.098	0.1	0	-0	0	0	0	0	0	-0	0	0.05595	0	0	0	-0	0	0	0	0	0	-0	0	780.308	458.977	345.585	144.357	-1.99689	-24.4224	1.1599	0.130211	103.147
90	-0.176145	0.139392	-0.083034	0.238875	0.0470343	0.0296096	0.0210184	-0.0267689	0.0238827	0.223789	-0.101985	-0.350178	0.013608	0.0191978	0.0946353	-2.3925	-0.11889	-1.73847	0	0	0	0	-0	0	0	0	-0.1265	0	-0	0	0	0	0	0	-0	0	0.105	0.015	0	0	-0	0	0	0.098	0.1	0	-0	0	0	0	0	0	-0	0	0.05595	0	0	0	-0	0	0	0	0	0	-0	0	780.716	458.835	345.646	144.169	-2.00782	-24.4245	1.16296	0.130337	103.25
91	-0.15396	0.139423	-0.0830334	0.238826	0.0470201	0.0296239	0.0210191	-0.0267733	0.0238917	0.254977	-0.0857017	-0.364853	0.0113445	0.0192567	0.0952531	-2.37039	-0.115223	-1.74111	0	0	0	0	-0	0	0	0	-0.1265	0	-0	0	0	0	0	0	-0	0	0.105	0.015	0	0	-0	0	0	0.098	0.1	0	-0	0	0	0	0	0	-0	0	0.05595	0	0	0	-0	0	0	0	0	0	-0	0	781.33	458.63	345.74	143.897	-2.02089	-24.4338	1.16714	0.130704	103.401
92	-0.149606	0.139454	-0.0830099	0.238814	0.0470104	0.0296387	0.0210057	-0.0267681	0.0238757	0.225089	-0.0881859	-0.383167	0.0108352	0.0192904	0.0954376	-2.36604	-0.114533	-1.74166	0	0	0	0	-0	0	0	0	-0.1265	0	-0	0	0	0	0	0	-0	0	0.105	0.015	0	0	-0	0	0	0.098	0.1	0	-0	0	0	0	0	0	-0	0	0.05595	0	0	0	-0	0	0	0	0	0	-0	0	781.629	458.528	345.786	143.763	-2.02721	-24.4427	1.16933	0.130899	103.479
93	-0.169991	0.139452	-0.0830527	0.238826	0.0469872	0.0296084	0.0210053	-0.0267575	0.0238927	0.262284	-0.103469	-0.386989	0.0126519	0.0193289	0.0954451	-2.38621	-0.118001	-1.73931	0	0	0	0	-0	0	0	0	-0.1265	0	-0	0	0	0	0	0	-0	0	0.105	0.015	0	0	-0	0	0	0.098	0.1	0	-0	0	0	0	0	0	-0	0	0.05595	0	0	0	-0	0	0	0	0	0	-0	0	782.081	458.378	345.85	143.556	-2.0423	-24.4361	1.17286	0.130883	103.591
94	-0.169404	0.139515	-0.0830361	0.238801	0.0469812	0.0296342	0.0210128	-0.0267588	0.0238761	0.254929	-0.118686	-0.38316	0.0125714	0.0193528	0.0954936	-2.38563	-0.117975	-1.73946	0	0	0	0	-0	0	0	0	-0.1265	0	-0	0	0	0	0	0	-0	0	0.105	0.015	0	0	-0	0	0	0.098	0.1	0	-0	0	0	0	0	0	-0	0	0.05595	0	0	0	-0	0	0	0	0	0	-0	0	782.171	458.346	345.862	143.515	-2.04515	-24.4393	1.1738	0.130959	103.614
95	-0.159366	0.139544	-0.0831049	0.238886	0.0469498	0.0296321	0.0210215	-0.026765	0.0238959	0.253547	-0.154936	-0.390713	0.0115048	0.0193911	0.0958228	-2.37562	-0.116324	-1.74064	0	0	0	0	-0	0	0	0	-0.1265	0	-0	0	0	0	0	0	-0	0	0.105	0.015	0	0	-0	0	0	0.098	0.1	0	-0	0	0	0	0	0	-0	0	0.05595	0	0	0	-0	0	0	0	0	0	-0	0	782.546	458.22	345.917	143.346	-2.05587	-24.4419	1.17675	0.131024	103.703
96	-0.163632	0.139608	-0.0830973	0.238839	0.0469426	0.0296774	0.0210163	-0.0267568	0.0238821	0.254069	-0.129736	-0.401323	0.0117521	0.0194561	0.0960702	-2.37979	-0.117141	-1.74026	0	0	0	0	-0	0	0	0	-0.1265	0	-0	0	0	0	0	0	-0	0	0.105	0.015	0	0	-0	0	0	0.098	0.1	0	-0	0	0	0	0	0	-0	0	0.05595	0	0	0	-0	0	0	0	0	0	-0	0	783.107	458.031	346.003	143.108	-2.06662	-24.457	1.1807	0.131446	103.839
97	-0.179434	0.139664	-0.0831624	0.238892	0.0468962	0.0296705	0.0209985	-0.0267601	0.023887	0.280594	-0.127054	-0.403259	0.0130143	0.019547	0.0963677	-2.39538	-0.119895	-1.73846	0	0	0	0	-0	0	0	0	-0.1265	0	-0	0	0	0	0	0	-0	0	0.105	0.015	0	0	-0	0	0	0.098	0.1	0	-0	0	0	0	0	0	-0	0	0.05595	0	0	0	-0	0	0	0	0	0	-0	0	784.026	457.736	346.135	142.709	-2.0933	-24.4578	1.18774	0.131637	104.073
98	-0.194926	0.139671	-0.0831412	0.238777	0.0468862	0.0296564	0.0210057	-0.026759	0.0238719	0.275635	-0.127239	-0.385269	0.0144515	0.0195741	0.0962874	-2.41076	-0.122497	-1.73664	0	0	0	0	-0	0	0	0	-0.1265	0	-0	0	0	0	0	0	-0	0	0.105	0.015	0	0	-0	0	0	0.098	0.1	0	-0	0	0	0	0	0	-0	0	0.05595	0	0	0	-0	0	0	0	0	0	-0	0	784.278	457.652	346.169	142.599	-2.1009	-24.4594	1.18974	0.131737	104.137
99	-0.186162	0.139713	-0.0831868	0.238845	0.0468548	0.0296502	0.0210026	-0.0267677	0.0238876	0.248823	-0.143963	-0.377146	0.0135177	0.0196104	0.0965864	-2.40201	-0.121098	-1.73773	0	0	0	0	-0	0	0	0	-0.1265	0	-0	0	0	0	0	0	-0	0	0.105	0.015	0	0	-0	0	0	0.098	0.1	0	-0	0	0	0	0	0	-0	0	0.05595	0	0	0	-0	0	0	0	0	0	-0	0	784.612	457.543	346.216	142.448	-2.11147	-24.458	1.19246	0.131795	104.217
100	-0.178126	0.13972	-0.0831564	0.238767	0.046866	0.0296671	0.0210029	-0.0267672	0.0238796	0.271629	-0.126651	-0.378497	0.0126757	0.0196365	0.0968225	-2.394	-0.119785	-1.73873	0	0	0	0	-0	0	0	0	-0.1265	0	-0	0	0	0	0	0	-0	0	0.105	0.015	0	0	-0	0	0	0.098	0.1	0	-0	0	0	0	0	0	-0	0	0.05595	0	0	0	-0	0	0	0	0	0	-0	0	784.866	457.46	346.252	142.338	-2.1161	-24.4635	1.19411	0.13202	104.279
