Stefan210/kinematic_calibration/src/kinematic_calibration/validation/experiments/experiments/single_point_vs_pose/marker_pose/rarm_190/optimization_intermediate_results.csv
iteration	HeadPitch_offset	HeadYaw_offset	RElbowRoll_offset	RElbowYaw_offset	RShoulderPitch_offset	RShoulderRoll_offset	marker_transform_rarm_tx	marker_transform_rarm_ty	marker_transform_rarm_tz	marker_transform_rarm_rr	marker_transform_rarm_rp	marker_transform_rarm_ry	camera_transform_tx	camera_transform_ty	camera_transform_tz	camera_transform_rr	camera_transform_rp	camera_transform_ry	HeadPitch_transform_tx	HeadPitch_transform_ty	HeadPitch_transform_tz	HeadPitch_transform_rr	HeadPitch_transform_rp	HeadPitch_transform_ry	HeadYaw_transform_tx	HeadYaw_transform_ty	HeadYaw_transform_tz	HeadYaw_transform_rr	HeadYaw_transform_rp	HeadYaw_transform_ry	RElbowRoll_transform_tx	RElbowRoll_transform_ty	RElbowRoll_transform_tz	RElbowRoll_transform_rr	RElbowRoll_transform_rp	RElbowRoll_transform_ry	RElbowYaw_transform_tx	RElbowYaw_transform_ty	RElbowYaw_transform_tz	RElbowYaw_transform_rr	RElbowYaw_transform_rp	RElbowYaw_transform_ry	RShoulderPitch_transform_tx	RShoulderPitch_transform_ty	RShoulderPitch_transform_tz	RShoulderPitch_transform_rr	RShoulderPitch_transform_rp	RShoulderPitch_transform_ry	RShoulderRoll_transform_tx	RShoulderRoll_transform_ty	RShoulderRoll_transform_tz	RShoulderRoll_transform_rr	RShoulderRoll_transform_rp	RShoulderRoll_transform_ry	RWristYaw_transform_tx	RWristYaw_transform_ty	RWristYaw_transform_tz	RWristYaw_transform_rr	RWristYaw_transform_rp	RWristYaw_transform_ry	r_wrist_joint_transform_tx	r_wrist_joint_transform_ty	r_wrist_joint_transform_tz	r_wrist_joint_transform_rr	r_wrist_joint_transform_rp	r_wrist_joint_transform_ry	camera_fx	camera_fy	camera_cx	camera_cy	camera_D0	camera_D1	camera_D2	camera_D3	camera_D4	
0	0.0230449	0.0294606	-0.0013508	-0.00116347	0.000678263	0.00258603	0.05071	0	0.01774	-2.26369	1.66533e-16	-1.5708	545.901	551.038	324.928	201.58	0.0255298	2.61142	-0.0636736	-0.0350419	0.213964
1	-0.0131786	-0.0313807	-0.0150848	-0.0110698	-0.0114582	-0.0467698	0.0256452	0.0366744	-0.00217613	-0.603219	0.269407	0.182357	0.052316	0.00134457	0.0234793	-2.21188	0.00948782	-1.54277	0	0	0	0	-0	0	0	0	-0.1265	0	-0	0	0	0	0	0	-0	0	0.105	-0.015	0	0	-0	0	0	-0.098	0.1	0	-0	0	0	0	0	0	-0	0	0.05595	0	0	0	-0	0	0	0	0	0	-0	0	545.902	551.039	324.931	201.582	-0.0758042	2.5561	-0.0743978	-0.0721543	0.197045
2	-0.00826237	-0.0552052	-0.0401204	0.0214697	-0.0248652	-0.0412412	0.0229377	0.0299962	-0.000350097	-0.872504	0.279332	0.0644803	0.050367	0.00233559	0.0300658	-2.23249	0.0290191	-1.53411	0	0	0	0	-0	0	0	0	-0.1265	0	-0	0	0	0	0	0	-0	0	0.105	-0.015	0	0	-0	0	0	-0.098	0.1	0	-0	0	0	0	0	0	-0	0	0.05595	0	0	0	-0	0	0	0	0	0	-0	0	545.905	551.039	324.937	201.588	-0.204946	2.41055	0.0385134	-0.0251015	0.132931
3	-0.0131433	-0.0341589	-0.0340253	0.0135035	-0.0119194	-0.0494301	0.0236313	0.0277964	-0.000723944	-1.07237	0.244364	0.0263827	0.0532245	0.00140418	0.0228652	-2.21155	0.01575	-1.54821	0	0	0	0	-0	0	0	0	-0.1265	0	-0	0	0	0	0	0	-0	0	0.105	-0.015	0	0	-0	0	0	-0.098	0.1	0	-0	0	0	0	0	0	-0	0	0.05595	0	0	0	-0	0	0	0	0	0	-0	0	545.912	551.039	324.948	201.597	-0.559075	2.11653	-0.0180091	0.000132564	0.0212307
4	-0.0134004	-0.0292339	-0.0274559	0.00378617	-0.00897007	-0.0537695	0.0235878	0.0282818	-0.000368462	-1.24152	0.177749	0.0877294	0.0552166	-0.000273469	0.0188588	-2.20953	0.0141014	-1.54855	0	0	0	0	-0	0	0	0	-0.1265	0	-0	0	0	0	0	0	-0	0	0.105	-0.015	0	0	-0	0	0	-0.098	0.1	0	-0	0	0	0	0	0	-0	0	0.05595	0	0	0	-0	0	0	0	0	0	-0	0	545.919	551.039	324.959	201.607	-0.820326	1.73046	0.0309519	0.0302067	-0.16443
5	-0.0141685	-0.0199186	-0.012464	-0.00539542	-0.00576369	-0.0554116	0.0229067	0.0296748	0.000469716	-1.50043	0.12387	0.211617	0.0561216	-0.00228319	0.0158804	-2.20578	0.0120393	-1.54832	0	0	0	0	-0	0	0	0	-0.1265	0	-0	0	0	0	0	0	-0	0	0.105	-0.015	0	0	-0	0	0	-0.098	0.1	0	-0	0	0	0	0	0	-0	0	0.05595	0	0	0	-0	0	0	0	0	0	-0	0	545.932	551.036	324.966	201.615	-0.735275	1.26329	0.0245894	0.0270166	-0.448515
6	-0.014038	-0.0213188	0.00282499	-0.00294841	-0.0133877	-0.0452009	0.0219997	0.0290811	5.40563e-05	-1.69665	0.140563	0.251501	0.0544604	-0.00312479	0.0172698	-2.20663	0.0155412	-1.53887	0	0	0	0	-0	0	0	0	-0.1265	0	-0	0	0	0	0	0	-0	0	0.105	-0.015	0	0	-0	0	0	-0.098	0.1	0	-0	0	0	0	0	0	-0	0	0.05595	0	0	0	-0	0	0	0	0	0	-0	0	545.949	551.028	324.969	201.619	-0.408121	0.914305	0.0130461	0.00634357	-0.70382
7	-0.0141431	-0.0210916	0.00581195	0.00129205	-0.0145085	-0.0429874	0.021758	0.0285837	-0.000515469	-1.70278	0.15149	0.230622	0.0536081	-0.00334767	0.0179845	-2.2064	0.0163166	-1.53698	0	0	0	0	-0	0	0	0	-0.1265	0	-0	0	0	0	0	0	-0	0	0.105	-0.015	0	0	-0	0	0	-0.098	0.1	0	-0	0	0	0	0	0	-0	0	0.05595	0	0	0	-0	0	0	0	0	0	-0	0	545.979	551.012	324.971	201.619	-0.198741	0.649506	0.00174966	-0.00622092	-0.852191
8	-0.0141564	-0.0209082	0.00616032	0.00186254	-0.0144379	-0.0430097	0.0217543	0.0285533	-0.000542183	-1.70341	0.152695	0.227022	0.0532592	-0.00333498	0.0183532	-2.20648	0.0159884	-1.53715	0	0	0	0	-0	0	0	0	-0.1265	0	-0	0	0	0	0	0	-0	0	0.105	-0.015	0	0	-0	0	0	-0.098	0.1	0	-0	0	0	0	0	0	-0	0	0.05595	0	0	0	-0	0	0	0	0	0	-0	0	546.062	550.964	324.981	201.619	-0.114951	0.494297	-0.00322917	-0.00970967	-0.809973
9	-0.0141337	-0.0208215	0.00623967	0.00190082	-0.014435	-0.0430355	0.0217504	0.0285471	-0.000542341	-1.7031	0.152848	0.226081	0.0530731	-0.00331895	0.0185544	-2.20668	0.0157442	-1.53744	0	0	0	0	-0	0	0	0	-0.1265	0	-0	0	0	0	0	0	-0	0	0.105	-0.015	0	0	-0	0	0	-0.098	0.1	0	-0	0	0	0	0	0	-0	0	0.05595	0	0	0	-0	0	0	0	0	0	-0	0	546.293	550.83	325.013	201.618	-0.0725168	0.320265	-0.004051	-0.0104757	-0.582254
10	-0.013887	-0.0207008	0.00632155	0.00187447	-0.0144324	-0.0430649	0.021743	0.0285436	-0.000541516	-1.70233	0.152867	0.225476	0.0528287	-0.0032979	0.0188167	-2.20669	0.0153531	-1.53795	0	0	0	0	-0	0	0	0	-0.1265	0	-0	0	0	0	0	0	-0	0	0.105	-0.015	0	0	-0	0	0	-0.098	0.1	0	-0	0	0	0	0	0	-0	0	0.05595	0	0	0	-0	0	0	0	0	0	-0	0	546.895	550.477	325.092	201.613	-0.0252348	0.0827673	-0.00391999	-0.0111177	-0.231506
11	-0.0125987	-0.0205836	0.00638844	0.00188214	-0.014433	-0.0429819	0.021728	0.0285439	-0.000547597	-1.70093	0.152845	0.225517	0.0525436	-0.00326946	0.019135	-2.20551	0.0147884	-1.53863	0	0	0	0	-0	0	0	0	-0.1265	0	-0	0	0	0	0	0	-0	0	0.105	-0.015	0	0	-0	0	0	-0.098	0.1	0	-0	0	0	0	0	0	-0	0	0.05595	0	0	0	-0	0	0	0	0	0	-0	0	548.223	549.746	325.267	201.61	0.00277523	-0.0771873	-0.00235647	-0.0118988	0.0160077
12	-0.0102517	-0.0204908	0.00642784	0.00193994	-0.0144244	-0.04277	0.0217072	0.0285484	-0.000561705	-1.69909	0.152794	0.22636	0.0522651	-0.00323791	0.0194569	-2.20323	0.0140598	-1.53944	0	0	0	0	-0	0	0	0	-0.1265	0	-0	0	0	0	0	0	-0	0	0.105	-0.015	0	0	-0	0	0	-0.098	0.1	0	-0	0	0	0	0	0	-0	0	0.05595	0	0	0	-0	0	0	0	0	0	-0	0	550.345	548.953	325.581	201.694	-0.00542387	-0.0711436	0.000668688	-0.012635	0.0243311
13	-0.0105862	-0.0204195	0.00645106	0.00198733	-0.0144005	-0.0425946	0.0216924	0.0285514	-0.000571992	-1.69779	0.152769	0.227016	0.0520521	-0.0032044	0.0196408	-2.20452	0.0132155	-1.54052	0	0	0	0	-0	0	0	0	-0.1265	0	-0	0	0	0	0	0	-0	0	0.105	-0.015	0	0	-0	0	0	-0.098	0.1	0	-0	0	0	0	0	0	-0	0	0.05595	0	0	0	-0	0	0	0	0	0	-0	0	552.716	549.445	326.08	202.098	-0.0260853	0.00455523	0.0029691	-0.0129238	-0.07301
14	0.0103183	-0.0203868	0.0064641	0.00199363	-0.0143862	-0.0425099	0.0216874	0.0285487	-0.000572811	-1.69755	0.1528	0.226784	0.0513744	-0.00316079	0.0210269	-2.18682	0.0109525	-1.54227	0	0	0	0	-0	0	0	0	-0.1265	0	-0	0	0	0	0	0	-0	0	0.105	-0.015	0	0	-0	0	0	-0.098	0.1	0	-0	0	0	0	0	0	-0	0	0.05595	0	0	0	-0	0	0	0	0	0	-0	0	555.577	552.383	327.226	203.346	-0.0473502	0.101085	0.00360249	-0.0124636	-0.206036
15	0.0241227	-0.0203829	0.00646602	0.00198565	-0.0143869	-0.0424831	0.0216869	0.0285463	-0.000571717	-1.69763	0.152798	0.226527	0.0509618	-0.00314338	0.0218421	-2.17453	0.0098878	-1.54303	0	0	0	0	-0	0	0	0	-0.1265	0	-0	0	0	0	0	0	-0	0	0.105	-0.015	0	0	-0	0	0	-0.098	0.1	0	-0	0	0	0	0	0	-0	0	0.05595	0	0	0	-0	0	0	0	0	0	-0	0	556.656	553.709	327.753	203.969	-0.0552341	0.142417	0.0036736	-0.0121987	-0.268504
16	-0.00914242	-0.020424	0.00646574	0.00195083	-0.0144238	-0.0424196	0.0216852	0.0285418	-0.000567458	-1.69788	0.152799	0.225991	0.051431	-0.00310417	0.020421	-2.21289	0.00817711	-1.54666	0	0	0	0	-0	0	0	0	-0.1265	0	-0	0	0	0	0	0	-0	0	0.105	-0.015	0	0	-0	0	0	-0.098	0.1	0	-0	0	0	0	0	0	-0	0	0.05595	0	0	0	-0	0	0	0	0	0	-0	0	559.279	557.169	329.887	206.223	-0.0734177	0.242838	0.00386376	-0.011235	-0.422273
17	0.0095699	-0.02045	0.00646138	0.00192211	-0.0144476	-0.0423877	0.0216847	0.0285395	-0.000564892	-1.69801	0.15276	0.225747	0.0509422	-0.00308906	0.0214835	-2.19633	0.00653925	-1.54786	0	0	0	0	-0	0	0	0	-0.1265	0	-0	0	0	0	0	0	-0	0	0.105	-0.015	0	0	-0	0	0	-0.098	0.1	0	-0	0	0	0	0	0	-0	0	0.05595	0	0	0	-0	0	0	0	0	0	-0	0	560.207	558.399	330.833	207.233	-0.0803869	0.28713	0.00403837	-0.0107835	-0.499154
18	0.0227598	-0.0204687	0.00645667	0.00190364	-0.0144643	-0.0423685	0.0216843	0.0285384	-0.000563287	-1.69807	0.152734	0.225634	0.0505976	-0.00308077	0.0222075	-2.18458	0.00548464	-1.54876	0	0	0	0	-0	0	0	0	-0.1265	0	-0	0	0	0	0	0	-0	0	0.105	-0.015	0	0	-0	0	0	-0.098	0.1	0	-0	0	0	0	0	0	-0	0	0.05595	0	0	0	-0	0	0	0	0	0	-0	0	560.745	559.124	331.491	207.921	-0.0843798	0.312821	0.00417085	-0.0104802	-0.544232
19	0.0274347	-0.0205483	0.00643927	0.00185481	-0.0145271	-0.0423202	0.0216831	0.0285375	-0.000559122	-1.69815	0.152672	0.22551	0.0503885	-0.00306597	0.0225561	-2.1837	0.00276632	-1.552	0	0	0	0	-0	0	0	0	-0.1265	0	-0	0	0	0	0	0	-0	0	0.105	-0.015	0	0	-0	0	0	-0.098	0.1	0	-0	0	0	0	0	0	-0	0	0.05595	0	0	0	-0	0	0	0	0	0	-0	0	561.842	560.723	333.812	209.795	-0.0931504	0.375809	0.00449474	-0.00948938	-0.658713
20	0.0242948	-0.0205522	0.00643607	0.00184121	-0.0145333	-0.0423162	0.0216831	0.0285372	-0.000558278	-1.69817	0.152641	0.225495	0.0504507	-0.0030639	0.0224057	-2.187	0.00273457	-1.55216	0	0	0	0	-0	0	0	0	-0.1265	0	-0	0	0	0	0	0	-0	0	0.105	-0.015	0	0	-0	0	0	-0.098	0.1	0	-0	0	0	0	0	0	-0	0	0.05595	0	0	0	-0	0	0	0	0	0	-0	0	561.886	560.774	333.902	209.874	-0.0932836	0.375779	0.00459816	-0.00937884	-0.661469
21	0.0356804	-0.0205633	0.00643335	0.00183466	-0.014542	-0.0423093	0.0216829	0.0285371	-0.000557771	-1.69818	0.152631	0.22549	0.0501847	-0.00306235	0.0229921	-2.17612	0.00218681	-1.55255	0	0	0	0	-0	0	0	0	-0.1265	0	-0	0	0	0	0	0	-0	0	0.105	-0.015	0	0	-0	0	0	-0.098	0.1	0	-0	0	0	0	0	0	-0	0	0.05595	0	0	0	-0	0	0	0	0	0	-0	0	562.006	560.944	334.205	210.129	-0.0942703	0.38344	0.00466121	-0.00925016	-0.676273
22	0.031171	-0.0205791	0.00642927	0.00182519	-0.0145546	-0.0423006	0.0216827	0.0285371	-0.000557031	-1.69819	0.152616	0.225486	0.0502724	-0.00306057	0.0227785	-2.18128	0.00180139	-1.55316	0	0	0	0	-0	0	0	0	-0.1265	0	-0	0	0	0	0	0	-0	0	0.105	-0.015	0	0	-0	0	0	-0.098	0.1	0	-0	0	0	0	0	0	-0	0	0.05595	0	0	0	-0	0	0	0	0	0	-0	0	562.147	561.158	334.631	210.466	-0.0954797	0.393152	0.00474338	-0.00906185	-0.695504
23	0.0215018	-0.0205943	0.00642524	0.0018148	-0.0145668	-0.0422931	0.0216825	0.0285371	-0.000556255	-1.69819	0.152599	0.225487	0.0504817	-0.00305902	0.0223045	-2.19153	0.00152429	-1.55373	0	0	0	0	-0	0	0	0	-0.1265	0	-0	0	0	0	0	0	-0	0	0.105	-0.015	0	0	-0	0	0	-0.098	0.1	0	-0	0	0	0	0	0	-0	0	0.05595	0	0	0	-0	0	0	0	0	0	-0	0	562.262	561.338	335.033	210.762	-0.096468	0.401226	0.00482235	-0.00887871	-0.711913
24	0.0131777	-0.0205993	0.00642357	0.00181089	-0.0145712	-0.0422903	0.0216824	0.0285371	-0.000555989	-1.6982	0.152591	0.22549	0.0506618	-0.00305843	0.0218873	-2.20003	0.00152115	-1.55391	0	0	0	0	-0	0	0	0	-0.1265	0	-0	0	0	0	0	0	-0	0	0.105	-0.015	0	0	-0	0	0	-0.098	0.1	0	-0	0	0	0	0	0	-0	0	0.05595	0	0	0	-0	0	0	0	0	0	-0	0	562.296	561.389	335.16	210.855	-0.0967253	0.403055	0.0048601	-0.00881306	-0.715859
25	0.0188806	-0.0206087	0.00642114	0.00180534	-0.0145787	-0.0422859	0.0216823	0.0285372	-0.00055557	-1.6982	0.152582	0.225494	0.0505302	-0.00305775	0.0221818	-2.19467	0.00114122	-1.55425	0	0	0	0	-0	0	0	0	-0.1265	0	-0	0	0	0	0	0	-0	0	0.105	-0.015	0	0	-0	0	0	-0.098	0.1	0	-0	0	0	0	0	0	-0	0	0.05595	0	0	0	-0	0	0	0	0	0	-0	0	562.356	561.488	335.412	211.03	-0.0972815	0.407936	0.0049029	-0.00870197	-0.725912
26	0.0210811	-0.0206334	0.00641484	0.00179158	-0.0145982	-0.0422756	0.021682	0.0285373	-0.000554544	-1.6982	0.15256	0.225509	0.0504702	-0.00305653	0.0223055	-2.19324	0.000355705	-1.55514	0	0	0	0	-0	0	0	0	-0.1265	0	-0	0	0	0	0	0	-0	0	0.105	-0.015	0	0	-0	0	0	-0.098	0.1	0	-0	0	0	0	0	0	-0	0	0.05595	0	0	0	-0	0	0	0	0	0	-0	0	562.479	561.708	336.08	211.432	-0.0985858	0.419878	0.00499336	-0.00840599	-0.75086
27	0.0105423	-0.0206845	0.00640154	0.00176438	-0.0146397	-0.0422575	0.0216815	0.028538	-0.000552605	-1.69819	0.152516	0.225565	0.0506895	-0.00305497	0.0217942	-2.20499	-0.00111379	-1.55704	0	0	0	0	-0	0	0	0	-0.1265	0	-0	0	0	0	0	0	-0	0	0.105	-0.015	0	0	-0	0	0	-0.098	0.1	0	-0	0	0	0	0	0	-0	0	0.05595	0	0	0	-0	0	0	0	0	0	-0	0	562.659	562.08	337.517	212.064	-0.101023	0.442312	0.00512248	-0.00774968	-0.798516
28	0.0032738	-0.0206935	0.00639827	0.00175614	-0.0146488	-0.0422544	0.0216813	0.0285381	-0.000552131	-1.69819	0.152497	0.225588	0.0508416	-0.00305422	0.0214296	-2.21246	-0.00125264	-1.55729	0	0	0	0	-0	0	0	0	-0.1265	0	-0	0	0	0	0	0	-0	0	0.105	-0.015	0	0	-0	0	0	-0.098	0.1	0	-0	0	0	0	0	0	-0	0	0.05595	0	0	0	-0	0	0	0	0	0	-0	0	562.682	562.115	337.717	212.166	-0.100912	0.44067	0.00520878	-0.00762249	-0.796701
29	0.00887398	-0.0207085	0.00639408	0.00174788	-0.0146612	-0.0422492	0.0216812	0.0285384	-0.000551564	-1.69819	0.152483	0.225611	0.0507174	-0.00305402	0.0217181	-2.20721	-0.00181602	-1.55785	0	0	0	0	-0	0	0	0	-0.1265	0	-0	0	0	0	0	0	-0	0	0.105	-0.015	0	0	-0	0	0	-0.098	0.1	0	-0	0	0	0	0	0	-0	0	0.05595	0	0	0	-0	0	0	0	0	0	-0	0	562.72	562.201	338.142	212.351	-0.101471	0.446354	0.00525512	-0.00742732	-0.809412
30	0.0018474	-0.0207196	0.00639086	0.00174126	-0.0146707	-0.0422458	0.0216811	0.0285386	-0.000551132	-1.69818	0.15247	0.225632	0.0508676	-0.00305392	0.021364	-2.21446	-0.00206333	-1.55822	0	0	0	0	-0	0	0	0	-0.1265	0	-0	0	0	0	0	0	-0	0	0.105	-0.015	0	0	-0	0	0	-0.098	0.1	0	-0	0	0	0	0	0	-0	0	0.05595	0	0	0	-0	0	0	0	0	0	-0	0	562.736	562.249	338.438	212.471	-0.101719	0.449005	0.00529657	-0.00728323	-0.815901
31	-0.00229289	-0.0207222	0.00638993	0.00173941	-0.0146731	-0.042245	0.0216811	0.0285386	-0.000551028	-1.69818	0.152466	0.22564	0.0509542	-0.00305379	0.0211538	-2.21865	-0.00208136	-1.55829	0	0	0	0	-0	0	0	0	-0.1265	0	-0	0	0	0	0	0	-0	0	0.105	-0.015	0	0	-0	0	0	-0.098	0.1	0	-0	0	0	0	0	0	-0	0	0.05595	0	0	0	-0	0	0	0	0	0	-0	0	562.74	562.257	338.497	212.497	-0.101727	0.448866	0.00531613	-0.00724885	-0.815881
32	0.00322796	-0.020725	0.00638914	0.0017377	-0.0146755	-0.0422441	0.021681	0.0285387	-0.000550915	-1.69818	0.152463	0.225645	0.0508367	-0.0030538	0.0214354	-2.21319	-0.00224118	-1.55841	0	0	0	0	-0	0	0	0	-0.1265	0	-0	0	0	0	0	0	-0	0	0.105	-0.015	0	0	-0	0	0	-0.098	0.1	0	-0	0	0	0	0	0	-0	0	0.05595	0	0	0	-0	0	0	0	0	0	-0	0	562.744	562.268	338.576	212.529	-0.101776	0.449548	0.00532586	-0.00721201	-0.817595
33	0.00647839	-0.0207309	0.00638756	0.00173468	-0.0146803	-0.0422423	0.021681	0.0285388	-0.000550712	-1.69818	0.152458	0.225655	0.0507658	-0.00305385	0.0216013	-2.21006	-0.00247102	-1.55863	0	0	0	0	-0	0	0	0	-0.1265	0	-0	0	0	0	0	0	-0	0	0.105	-0.015	0	0	-0	0	0	-0.098	0.1	0	-0	0	0	0	0	0	-0	0	0.05595	0	0	0	-0	0	0	0	0	0	-0	0	562.751	562.293	338.741	212.591	-0.10195	0.451496	0.00534091	-0.00713557	-0.822108
34	0.00356211	-0.0207327	0.00638695	0.00173336	-0.014682	-0.0422418	0.0216809	0.0285388	-0.000550633	-1.69818	0.152455	0.22566	0.0508281	-0.00305378	0.0214537	-2.21301	-0.00248607	-1.55868	0	0	0	0	-0	0	0	0	-0.1265	0	-0	0	0	0	0	0	-0	0	0.105	-0.015	0	0	-0	0	0	-0.098	0.1	0	-0	0	0	0	0	0	-0	0	0.05595	0	0	0	-0	0	0	0	0	0	-0	0	562.754	562.3	338.785	212.608	-0.101974	0.451611	0.00535168	-0.00711132	-0.822509
35	0.0102614	-0.0207377	0.00638568	0.00173087	-0.0146861	-0.0422404	0.0216809	0.0285389	-0.000550462	-1.69817	0.152451	0.225668	0.0506836	-0.00305381	0.0217951	-2.2064	-0.00272877	-1.55888	0	0	0	0	-0	0	0	0	-0.1265	0	-0	0	0	0	0	0	-0	0	0.105	-0.015	0	0	-0	0	0	-0.098	0.1	0	-0	0	0	0	0	0	-0	0	0.05595	0	0	0	-0	0	0	0	0	0	-0	0	562.761	562.323	338.926	212.657	-0.10211	0.45322	0.00536129	-0.00704654	-0.826248
36	0.0060722	-0.0207403	0.00638488	0.00172947	-0.0146883	-0.0422395	0.0216809	0.028539	-0.000550381	-1.69817	0.152448	0.225674	0.0507735	-0.00305379	0.0215828	-2.21063	-0.00275596	-1.55895	0	0	0	0	-0	0	0	0	-0.1265	0	-0	0	0	0	0	0	-0	0	0.105	-0.015	0	0	-0	0	0	-0.098	0.1	0	-0	0	0	0	0	0	-0	0	0.05595	0	0	0	-0	0	0	0	0	0	-0	0	562.764	562.332	338.993	212.681	-0.102192	0.453857	0.00537322	-0.00701235	-0.827737
37	0.00425098	-0.0207413	0.00638456	0.00172876	-0.0146892	-0.0422393	0.0216809	0.028539	-0.000550337	-1.69817	0.152447	0.225677	0.0508123	-0.00305377	0.0214904	-2.21247	-0.00276279	-1.55898	0	0	0	0	-0	0	0	0	-0.1265	0	-0	0	0	0	0	0	-0	0	0.105	-0.015	0	0	-0	0	0	-0.098	0.1	0	-0	0	0	0	0	0	-0	0	0.05595	0	0	0	-0	0	0	0	0	0	-0	0	562.765	562.335	339.018	212.69	-0.102204	0.453946	0.00537786	-0.00699938	-0.828012
38	0.00140906	-0.0207421	0.00638433	0.00172823	-0.0146899	-0.0422391	0.0216809	0.028539	-0.000550302	-1.69817	0.152446	0.225679	0.0508731	-0.00305377	0.0213461	-2.21533	-0.00275604	-1.559	0	0	0	0	-0	0	0	0	-0.1265	0	-0	0	0	0	0	0	-0	0	0.105	-0.015	0	0	-0	0	0	-0.098	0.1	0	-0	0	0	0	0	0	-0	0	0.05595	0	0	0	-0	0	0	0	0	0	-0	0	562.766	562.338	339.041	212.698	-0.1022	0.45402	0.00538028	-0.0069883	-0.828281
39	0.00254781	-0.0207439	0.00638388	0.00172731	-0.0146914	-0.0422386	0.0216808	0.028539	-0.000550239	-1.69817	0.152444	0.225682	0.0508484	-0.00305378	0.0214043	-2.21422	-0.00282845	-1.55907	0	0	0	0	-0	0	0	0	-0.1265	0	-0	0	0	0	0	0	-0	0	0.105	-0.015	0	0	-0	0	0	-0.098	0.1	0	-0	0	0	0	0	0	-0	0	0.05595	0	0	0	-0	0	0	0	0	0	-0	0	562.768	562.346	339.092	212.715	-0.102243	0.454555	0.00538377	-0.0069646	-0.829551
40	-0.00229822	-0.020747	0.00638304	0.00172571	-0.014694	-0.0422377	0.0216808	0.0285391	-0.000550136	-1.69817	0.152442	0.225688	0.0509522	-0.00305385	0.0211581	-2.21912	-0.0028709	-1.55917	0	0	0	0	-0	0	0	0	-0.1265	0	-0	0	0	0	0	0	-0	0	0.105	-0.015	0	0	-0	0	0	-0.098	0.1	0	-0	0	0	0	0	0	-0	0	0.05595	0	0	0	-0	0	0	0	0	0	-0	0	562.769	562.355	339.178	212.743	-0.102326	0.455486	0.00539129	-0.00692431	-0.831749
41	-0.00784106	-0.0207486	0.00638256	0.00172488	-0.0146954	-0.0422373	0.0216808	0.0285391	-0.000550084	-1.69817	0.15244	0.225691	0.0510686	-0.00305384	0.0208758	-2.22469	-0.00285574	-1.5592	0	0	0	0	-0	0	0	0	-0.1265	0	-0	0	0	0	0	0	-0	0	0.105	-0.015	0	0	-0	0	0	-0.098	0.1	0	-0	0	0	0	0	0	-0	0	0.05595	0	0	0	-0	0	0	0	0	0	-0	0	562.771	562.362	339.22	212.757	-0.102348	0.455719	0.00539684	-0.00690307	-0.832376
42	-0.00491274	-0.0207497	0.00638225	0.00172427	-0.0146964	-0.042237	0.0216808	0.0285392	-0.000550045	-1.69817	0.152439	0.225693	0.0510066	-0.00305383	0.0210253	-2.22178	-0.00292611	-1.55925	0	0	0	0	-0	0	0	0	-0.1265	0	-0	0	0	0	0	0	-0	0	0.105	-0.015	0	0	-0	0	0	-0.098	0.1	0	-0	0	0	0	0	0	-0	0	0.05595	0	0	0	-0	0	0	0	0	0	-0	0	562.772	562.366	339.251	212.767	-0.102367	0.455931	0.00540025	-0.0068879	-0.832921
43	-0.00127655	-0.020751	0.00638188	0.00172353	-0.0146974	-0.0422367	0.0216808	0.0285392	-0.000549997	-1.69817	0.152438	0.225696	0.0509298	-0.00305384	0.0212108	-2.21816	-0.00300913	-1.55931	0	0	0	0	-0	0	0	0	-0.1265	0	-0	0	0	0	0	0	-0	0	0.105	-0.015	0	0	-0	0	0	-0.098	0.1	0	-0	0	0	0	0	0	-0	0	0.05595	0	0	0	-0	0	0	0	0	0	-0	0	562.773	562.371	339.286	212.778	-0.102406	0.456331	0.00540309	-0.00687087	-0.833846
44	0.000342379	-0.0207513	0.00638179	0.00172333	-0.0146977	-0.0422366	0.0216808	0.0285392	-0.000549985	-1.69817	0.152437	0.225697	0.0508951	-0.00305383	0.0212933	-2.21655	-0.00303604	-1.55932	0	0	0	0	-0	0	0	0	-0.1265	0	-0	0	0	0	0	0	-0	0	0.105	-0.015	0	0	-0	0	0	-0.098	0.1	0	-0	0	0	0	0	0	-0	0	0.05595	0	0	0	-0	0	0	0	0	0	-0	0	562.774	562.372	339.293	212.78	-0.102405	0.456299	0.00540509	-0.00686677	-0.833812
45	-0.000566352	-0.0207517	0.00638167	0.00172301	-0.0146981	-0.0422365	0.0216808	0.0285392	-0.000549965	-1.69817	0.152437	0.225698	0.0509142	-0.00305382	0.0212472	-2.21747	-0.00304277	-1.55934	0	0	0	0	-0	0	0	0	-0.1265	0	-0	0	0	0	0	0	-0	0	0.105	-0.015	0	0	-0	0	0	-0.098	0.1	0	-0	0	0	0	0	0	-0	0	0.05595	0	0	0	-0	0	0	0	0	0	-0	0	562.775	562.374	339.308	212.785	-0.1024	0.456326	0.00540647	-0.00685996	-0.833936
46	0.00230563	-0.0207525	0.00638146	0.00172257	-0.0146988	-0.0422363	0.0216808	0.0285392	-0.000549935	-1.69817	0.152436	0.225699	0.0508531	-0.00305383	0.0213935	-2.21461	-0.00310091	-1.55938	0	0	0	0	-0	0	0	0	-0.1265	0	-0	0	0	0	0	0	-0	0	0.105	-0.015	0	0	-0	0	0	-0.098	0.1	0	-0	0	0	0	0	0	-0	0	0.05595	0	0	0	-0	0	0	0	0	0	-0	0	562.775	562.377	339.33	212.792	-0.102412	0.456505	0.00540801	-0.00684966	-0.834383
47	0.000139328	-0.0207536	0.00638115	0.00172205	-0.0146997	-0.0422359	0.0216808	0.0285392	-0.000549901	-1.69817	0.152435	0.225701	0.0508991	-0.00305383	0.0212835	-2.21679	-0.0031134	-1.55941	0	0	0	0	-0	0	0	0	-0.1265	0	-0	0	0	0	0	0	-0	0	0.105	-0.015	0	0	-0	0	0	-0.098	0.1	0	-0	0	0	0	0	0	-0	0	0.05595	0	0	0	-0	0	0	0	0	0	-0	0	562.777	562.382	339.362	212.802	-0.102462	0.456963	0.00541032	-0.0068344	-0.835393
48	-0.000791334	-0.0207553	0.00638072	0.00172118	-0.0147011	-0.0422355	0.0216807	0.0285393	-0.000549845	-1.69817	0.152433	0.225704	0.0509187	-0.00305383	0.0212363	-2.21775	-0.00315727	-1.55947	0	0	0	0	-0	0	0	0	-0.1265	0	-0	0	0	0	0	0	-0	0	0.105	-0.015	0	0	-0	0	0	-0.098	0.1	0	-0	0	0	0	0	0	-0	0	0.05595	0	0	0	-0	0	0	0	0	0	-0	0	562.779	562.389	339.409	212.816	-0.102512	0.457475	0.00541388	-0.00681221	-0.836575
49	0.00127155	-0.0207576	0.00638008	0.00171999	-0.0147031	-0.0422349	0.0216807	0.0285393	-0.000549767	-1.69816	0.152431	0.225709	0.0508746	-0.00305384	0.0213418	-2.21572	-0.00325906	-1.55956	0	0	0	0	-0	0	0	0	-0.1265	0	-0	0	0	0	0	0	-0	0	0.105	-0.015	0	0	-0	0	0	-0.098	0.1	0	-0	0	0	0	0	0	-0	0	0.05595	0	0	0	-0	0	0	0	0	0	-0	0	562.782	562.399	339.476	212.835	-0.102591	0.458254	0.00541842	-0.00678016	-0.838349
50	0.00419886	-0.0207611	0.00637914	0.00171824	-0.014706	-0.042234	0.0216807	0.0285394	-0.000549652	-1.69816	0.152428	0.225715	0.0508118	-0.00305387	0.0214913	-2.21285	-0.0034076	-1.5597	0	0	0	0	-0	0	0	0	-0.1265	0	-0	0	0	0	0	0	-0	0	0.105	-0.015	0	0	-0	0	0	-0.098	0.1	0	-0	0	0	0	0	0	-0	0	0.05595	0	0	0	-0	0	0	0	0	0	-0	0	562.785	562.413	339.576	212.862	-0.102695	0.459351	0.00542356	-0.00673261	-0.840882
51	0.00772082	-0.0207629	0.00637861	0.0017172	-0.0147077	-0.0422335	0.0216807	0.0285394	-0.000549591	-1.69816	0.152426	0.225719	0.0507356	-0.00305385	0.0216706	-2.20935	-0.00350329	-1.55977	0	0	0	0	-0	0	0	0	-0.1265	0	-0	0	0	0	0	0	-0	0	0.105	-0.015	0	0	-0	0	0	-0.098	0.1	0	-0	0	0	0	0	0	-0	0	0.05595	0	0	0	-0	0	0	0	0	0	-0	0	562.788	562.42	339.625	212.875	-0.102717	0.45956	0.00543036	-0.00670785	-0.841478
52	0.0121512	-0.0207642	0.00637825	0.00171651	-0.0147088	-0.0422332	0.0216807	0.0285395	-0.000549546	-1.69816	0.152425	0.225722	0.050639	-0.00305384	0.0218956	-2.20494	-0.00359351	-1.55983	0	0	0	0	-0	0	0	0	-0.1265	0	-0	0	0	0	0	0	-0	0	0.105	-0.015	0	0	-0	0	0	-0.098	0.1	0	-0	0	0	0	0	0	-0	0	0.05595	0	0	0	-0	0	0	0	0	0	-0	0	562.789	562.425	339.661	212.885	-0.102745	0.459838	0.0054334	-0.00669007	-0.842159
53	0.0103567	-0.0207645	0.00637813	0.00171634	-0.0147091	-0.0422331	0.0216807	0.0285395	-0.000549539	-1.69816	0.152425	0.225723	0.0506778	-0.00305384	0.0218046	-2.20674	-0.00358212	-1.55984	0	0	0	0	-0	0	0	0	-0.1265	0	-0	0	0	0	0	0	-0	0	0.105	-0.015	0	0	-0	0	0	-0.098	0.1	0	-0	0	0	0	0	0	-0	0	0.05595	0	0	0	-0	0	0	0	0	0	-0	0	562.789	562.426	339.668	212.887	-0.102754	0.459858	0.00543569	-0.00668583	-0.842206
54	0.0124054	-0.020765	0.00637802	0.00171596	-0.0147095	-0.042233	0.0216807	0.0285395	-0.000549514	-1.69816	0.152424	0.225724	0.050633	-0.00305384	0.0219085	-2.2047	-0.00362179	-1.55986	0	0	0	0	-0	0	0	0	-0.1265	0	-0	0	0	0	0	0	-0	0	0.105	-0.015	0	0	-0	0	0	-0.098	0.1	0	-0	0	0	0	0	0	-0	0	0.05595	0	0	0	-0	0	0	0	0	0	-0	0	562.79	562.427	339.683	212.891	-0.102749	0.459896	0.00543676	-0.00667886	-0.842361
55	0.0141968	-0.0207658	0.0063778	0.0017156	-0.0147102	-0.0422328	0.0216807	0.0285395	-0.000549492	-1.69816	0.152423	0.225726	0.0505935	-0.00305384	0.0219993	-2.20292	-0.00366664	-1.5599	0	0	0	0	-0	0	0	0	-0.1265	0	-0	0	0	0	0	0	-0	0	0.105	-0.015	0	0	-0	0	0	-0.098	0.1	0	-0	0	0	0	0	0	-0	0	0.05595	0	0	0	-0	0	0	0	0	0	-0	0	562.791	562.43	339.705	212.897	-0.102775	0.460144	0.00543856	-0.00666839	-0.842926
56	0.0164121	-0.0207662	0.00637767	0.00171536	-0.0147105	-0.0422327	0.0216807	0.0285395	-0.000549477	-1.69816	0.152423	0.225727	0.0505447	-0.00305384	0.0221114	-2.20071	-0.00370324	-1.55992	0	0	0	0	-0	0	0	0	-0.1265	0	-0	0	0	0	0	0	-0	0	0.105	-0.015	0	0	-0	0	0	-0.098	0.1	0	-0	0	0	0	0	0	-0	0	0.05595	0	0	0	-0	0	0	0	0	0	-0	0	562.791	562.432	339.716	212.9	-0.102795	0.460289	0.00543996	-0.00666279	-0.84324
57	0.0187418	-0.0207665	0.0063776	0.00171521	-0.0147108	-0.0422326	0.0216806	0.0285395	-0.000549468	-1.69816	0.152423	0.225727	0.050493	-0.00305384	0.0222291	-2.19838	-0.00373787	-1.55994	0	0	0	0	-0	0	0	0	-0.1265	0	-0	0	0	0	0	0	-0	0	0.105	-0.015	0	0	-0	0	0	-0.098	0.1	0	-0	0	0	0	0	0	-0	0	0.05595	0	0	0	-0	0	0	0	0	0	-0	0	562.791	562.433	339.724	212.903	-0.102793	0.460304	0.0054405	-0.00665879	-0.843307
58	0.0156778	-0.0207671	0.00637743	0.00171491	-0.0147113	-0.0422324	0.0216806	0.0285395	-0.000549448	-1.69816	0.152422	0.225729	0.050561	-0.00305385	0.0220745	-2.20146	-0.00372526	-1.55995	0	0	0	0	-0	0	0	0	-0.1265	0	-0	0	0	0	0	0	-0	0	0.105	-0.015	0	0	-0	0	0	-0.098	0.1	0	-0	0	0	0	0	0	-0	0	0.05595	0	0	0	-0	0	0	0	0	0	-0	0	562.792	562.435	339.742	212.907	-0.102809	0.460483	0.00544142	-0.00665029	-0.843733
59	0.0172098	-0.0207674	0.00637732	0.00171474	-0.0147116	-0.0422324	0.0216806	0.0285395	-0.000549438	-1.69816	0.152422	0.225729	0.0505269	-0.00305385	0.0221519	-2.19993	-0.00375218	-1.55997	0	0	0	0	-0	0	0	0	-0.1265	0	-0	0	0	0	0	0	-0	0	0.105	-0.015	0	0	-0	0	0	-0.098	0.1	0	-0	0	0	0	0	0	-0	0	0.05595	0	0	0	-0	0	0	0	0	0	-0	0	562.792	562.436	339.751	212.91	-0.102824	0.460598	0.00544241	-0.00664568	-0.843983
60	0.015529	-0.0207681	0.00637716	0.00171434	-0.0147122	-0.0422322	0.0216806	0.0285395	-0.000549411	-1.69816	0.152421	0.225731	0.050564	-0.00305385	0.022067	-2.20162	-0.00375679	-1.55999	0	0	0	0	-0	0	0	0	-0.1265	0	-0	0	0	0	0	0	-0	0	0.105	-0.015	0	0	-0	0	0	-0.098	0.1	0	-0	0	0	0	0	0	-0	0	0.05595	0	0	0	-0	0	0	0	0	0	-0	0	562.793	562.439	339.771	212.915	-0.102832	0.460742	0.00544334	-0.00663629	-0.844354
61	0.0180414	-0.0207691	0.00637687	0.00171386	-0.014713	-0.0422319	0.0216806	0.0285396	-0.000549379	-1.69816	0.15242	0.225733	0.0505084	-0.00305387	0.0221942	-2.19912	-0.00381738	-1.56004	0	0	0	0	-0	0	0	0	-0.1265	0	-0	0	0	0	0	0	-0	0	0.105	-0.015	0	0	-0	0	0	-0.098	0.1	0	-0	0	0	0	0	0	-0	0	0.05595	0	0	0	-0	0	0	0	0	0	-0	0	562.793	562.443	339.8	212.922	-0.102867	0.46109	0.00544474	-0.00662229	-0.845146
62	0.0210152	-0.0207706	0.0063765	0.00171314	-0.0147143	-0.0422316	0.0216806	0.0285396	-0.000549331	-1.69816	0.152419	0.225735	0.0504421	-0.00305387	0.0223447	-2.19617	-0.00389782	-1.5601	0	0	0	0	-0	0	0	0	-0.1265	0	-0	0	0	0	0	0	-0	0	0.105	-0.015	0	0	-0	0	0	-0.098	0.1	0	-0	0	0	0	0	0	-0	0	0.05595	0	0	0	-0	0	0	0	0	0	-0	0	562.795	562.449	339.843	212.933	-0.102894	0.461436	0.00544637	-0.00660208	-0.845997
63	0.0226849	-0.0207709	0.00637639	0.00171294	-0.0147146	-0.0422315	0.0216806	0.0285396	-0.000549321	-1.69816	0.152419	0.225736	0.0504045	-0.00305386	0.0224288	-2.1945	-0.00392209	-1.56012	0	0	0	0	-0	0	0	0	-0.1265	0	-0	0	0	0	0	0	-0	0	0.105	-0.015	0	0	-0	0	0	-0.098	0.1	0	-0	0	0	0	0	0	-0	0	0.05595	0	0	0	-0	0	0	0	0	0	-0	0	562.795	562.45	339.848	212.935	-0.102909	0.461486	0.0054485	-0.00659832	-0.846091
64	0.0246048	-0.0207712	0.00637629	0.00171272	-0.0147149	-0.0422314	0.0216806	0.0285396	-0.000549308	-1.69816	0.152418	0.225737	0.0503613	-0.00305385	0.0225257	-2.19259	-0.003956	-1.56014	0	0	0	0	-0	0	0	0	-0.1265	0	-0	0	0	0	0	0	-0	0	0.105	-0.015	0	0	-0	0	0	-0.098	0.1	0	-0	0	0	0	0	0	-0	0	0.05595	0	0	0	-0	0	0	0	0	0	-0	0	562.796	562.452	339.86	212.938	-0.102914	0.461559	0.00544954	-0.00659285	-0.846285
65	0.0215034	-0.0207718	0.00637613	0.0017124	-0.0147154	-0.0422313	0.0216806	0.0285396	-0.000549288	-1.69816	0.152418	0.225738	0.050431	-0.00305387	0.0223695	-2.1957	-0.00394262	-1.56015	0	0	0	0	-0	0	0	0	-0.1265	0	-0	0	0	0	0	0	-0	0	0.105	-0.015	0	0	-0	0	0	-0.098	0.1	0	-0	0	0	0	0	0	-0	0	0.05595	0	0	0	-0	0	0	0	0	0	-0	0	562.796	562.453	339.877	212.942	-0.10292	0.461666	0.00545053	-0.00658459	-0.846571
66	0.0184097	-0.0207727	0.0063759	0.00171199	-0.0147161	-0.0422311	0.0216806	0.0285396	-0.00054926	-1.69816	0.152417	0.22574	0.0504999	-0.00305386	0.0222136	-2.1988	-0.00393892	-1.56017	0	0	0	0	-0	0	0	0	-0.1265	0	-0	0	0	0	0	0	-0	0	0.105	-0.015	0	0	-0	0	0	-0.098	0.1	0	-0	0	0	0	0	0	-0	0	0.05595	0	0	0	-0	0	0	0	0	0	-0	0	562.798	562.458	339.903	212.948	-0.102956	0.461998	0.00545164	-0.00657235	-0.847303
67	0.015467	-0.0207732	0.00637577	0.00171172	-0.0147166	-0.042231	0.0216806	0.0285397	-0.000549244	-1.69816	0.152416	0.225741	0.0505649	-0.00305386	0.022065	-2.20175	-0.00392213	-1.56018	0	0	0	0	-0	0	0	0	-0.1265	0	-0	0	0	0	0	0	-0	0	0.105	-0.015	0	0	-0	0	0	-0.098	0.1	0	-0	0	0	0	0	0	-0	0	0.05595	0	0	0	-0	0	0	0	0	0	-0	0	562.798	562.459	339.915	212.951	-0.102956	0.46202	0.00545299	-0.00656594	-0.847399
68	0.0151644	-0.0207742	0.00637549	0.00171128	-0.0147174	-0.0422307	0.0216806	0.0285397	-0.000549215	-1.69816	0.152416	0.225743	0.0505714	-0.00305388	0.0220497	-2.20206	-0.00395073	-1.56021	0	0	0	0	-0	0	0	0	-0.1265	0	-0	0	0	0	0	0	-0	0	0.105	-0.015	0	0	-0	0	0	-0.098	0.1	0	-0	0	0	0	0	0	-0	0	0.05595	0	0	0	-0	0	0	0	0	0	-0	0	562.798	562.463	339.943	212.958	-0.102993	0.462392	0.00545393	-0.00655277	-0.848237
69	0.0165406	-0.0207743	0.00637543	0.00171113	-0.0147175	-0.0422307	0.0216806	0.0285397	-0.000549207	-1.69816	0.152415	0.225743	0.050541	-0.00305387	0.0221193	-2.20069	-0.00396964	-1.56022	0	0	0	0	-0	0	0	0	-0.1265	0	-0	0	0	0	0	0	-0	0	0.105	-0.015	0	0	-0	0	0	-0.098	0.1	0	-0	0	0	0	0	0	-0	0	0.05595	0	0	0	-0	0	0	0	0	0	-0	0	562.798	562.463	339.947	212.959	-0.102992	0.46235	0.00545537	-0.00655035	-0.848161
70	0.0150287	-0.0207746	0.00637537	0.00171097	-0.0147177	-0.0422306	0.0216806	0.0285397	-0.000549199	-1.69816	0.152415	0.225744	0.0505744	-0.00305387	0.0220429	-2.20221	-0.00396251	-1.56023	0	0	0	0	-0	0	0	0	-0.1265	0	-0	0	0	0	0	0	-0	0	0.105	-0.015	0	0	-0	0	0	-0.098	0.1	0	-0	0	0	0	0	0	-0	0	0.05595	0	0	0	-0	0	0	0	0	0	-0	0	562.799	562.464	339.955	212.961	-0.103008	0.462465	0.00545636	-0.00654669	-0.848403
71	0.0158752	-0.020775	0.00637524	0.00171079	-0.0147181	-0.0422305	0.0216806	0.0285397	-0.000549188	-1.69816	0.152415	0.225745	0.0505557	-0.00305388	0.0220858	-2.20136	-0.00398458	-1.56024	0	0	0	0	-0	0	0	0	-0.1265	0	-0	0	0	0	0	0	-0	0	0.105	-0.015	0	0	-0	0	0	-0.098	0.1	0	-0	0	0	0	0	0	-0	0	0.05595	0	0	0	-0	0	0	0	0	0	-0	0	562.799	562.465	339.966	212.964	-0.103021	0.462593	0.00545714	-0.00654123	-0.848697
72	0.0165736	-0.0207756	0.00637509	0.0017105	-0.0147186	-0.0422303	0.0216806	0.0285397	-0.00054917	-1.69816	0.152414	0.225746	0.0505401	-0.00305388	0.0221212	-2.20067	-0.00401138	-1.56027	0	0	0	0	-0	0	0	0	-0.1265	0	-0	0	0	0	0	0	-0	0	0.105	-0.015	0	0	-0	0	0	-0.098	0.1	0	-0	0	0	0	0	0	-0	0	0.05595	0	0	0	-0	0	0	0	0	0	-0	0	562.8	562.468	339.983	212.968	-0.103044	0.462802	0.00545824	-0.00653315	-0.849159
73	0.0181307	-0.0207758	0.00637502	0.00171031	-0.0147189	-0.0422303	0.0216806	0.0285397	-0.000549157	-1.69816	0.152414	0.225747	0.0505056	-0.00305387	0.0222	-2.19912	-0.00403739	-1.56028	0	0	0	0	-0	0	0	0	-0.1265	0	-0	0	0	0	0	0	-0	0	0.105	-0.015	0	0	-0	0	0	-0.098	0.1	0	-0	0	0	0	0	0	-0	0	0.05595	0	0	0	-0	0	0	0	0	0	-0	0	562.8	562.469	339.991	212.97	-0.103028	0.462723	0.00545864	-0.00652891	-0.849056
74	0.0186003	-0.0207765	0.00637484	0.00171001	-0.0147194	-0.0422301	0.0216806	0.0285397	-0.000549138	-1.69815	0.152413	0.225748	0.0504951	-0.00305388	0.0222238	-2.19866	-0.00406355	-1.56031	0	0	0	0	-0	0	0	0	-0.1265	0	-0	0	0	0	0	0	-0	0	0.105	-0.015	0	0	-0	0	0	-0.098	0.1	0	-0	0	0	0	0	0	-0	0	0.05595	0	0	0	-0	0	0	0	0	0	-0	0	562.801	562.471	340.01	212.974	-0.10306	0.462999	0.00545978	-0.00652012	-0.849652
75	0.0160802	-0.0207768	0.00637475	0.00170981	-0.0147197	-0.04223	0.0216806	0.0285397	-0.000549127	-1.69815	0.152413	0.225749	0.050551	-0.00305387	0.0220966	-2.20118	-0.00404764	-1.56031	0	0	0	0	-0	0	0	0	-0.1265	0	-0	0	0	0	0	0	-0	0	0.105	-0.015	0	0	-0	0	0	-0.098	0.1	0	-0	0	0	0	0	0	-0	0	0.05595	0	0	0	-0	0	0	0	0	0	-0	0	562.802	562.472	340.019	212.976	-0.103069	0.46306	0.005461	-0.00651544	-0.849801
76	0.0145279	-0.020777	0.0063747	0.00170967	-0.0147199	-0.04223	0.0216806	0.0285397	-0.000549117	-1.69815	0.152413	0.225749	0.0505851	-0.00305387	0.0220182	-2.20274	-0.00403927	-1.56032	0	0	0	0	-0	0	0	0	-0.1265	0	-0	0	0	0	0	0	-0	0	0.105	-0.015	0	0	-0	0	0	-0.098	0.1	0	-0	0	0	0	0	0	-0	0	0.05595	0	0	0	-0	0	0	0	0	0	-0	0	562.802	562.473	340.026	212.978	-0.103058	0.463018	0.00546127	-0.00651212	-0.849757
77	0.0148235	-0.0207775	0.00637457	0.00170941	-0.0147203	-0.0422299	0.0216806	0.0285397	-0.000549099	-1.69815	0.152412	0.22575	0.0505784	-0.00305387	0.0220332	-2.20245	-0.00405985	-1.56034	0	0	0	0	-0	0	0	0	-0.1265	0	-0	0	0	0	0	0	-0	0	0.105	-0.015	0	0	-0	0	0	-0.098	0.1	0	-0	0	0	0	0	0	-0	0	0.05595	0	0	0	-0	0	0	0	0	0	-0	0	562.802	562.476	340.041	212.981	-0.103072	0.463177	0.00546156	-0.00650492	-0.85013
78	0.0132515	-0.0207783	0.00637434	0.00170904	-0.014721	-0.0422297	0.0216806	0.0285398	-0.000549074	-1.69815	0.152412	0.225751	0.0506131	-0.00305389	0.0219538	-2.20403	-0.00406908	-1.56036	0	0	0	0	-0	0	0	0	-0.1265	0	-0	0	0	0	0	0	-0	0	0.105	-0.015	0	0	-0	0	0	-0.098	0.1	0	-0	0	0	0	0	0	-0	0	0.05595	0	0	0	-0	0	0	0	0	0	-0	0	562.803	562.479	340.064	212.987	-0.1031	0.463456	0.00546194	-0.00649408	-0.850756
79	0.013824	-0.0207794	0.00637404	0.00170848	-0.014722	-0.0422294	0.0216806	0.0285398	-0.000549041	-1.69815	0.152411	0.225754	0.0506004	-0.00305391	0.0219828	-2.20347	-0.00411215	-1.5604	0	0	0	0	-0	0	0	0	-0.1265	0	-0	0	0	0	0	0	-0	0	0.105	-0.015	0	0	-0	0	0	-0.098	0.1	0	-0	0	0	0	0	0	-0	0	0.05595	0	0	0	-0	0	0	0	0	0	-0	0	562.803	562.482	340.096	212.994	-0.103121	0.463709	0.00546417	-0.00647872	-0.851383
80	0.0118981	-0.02078	0.00637389	0.00170813	-0.0147225	-0.0422293	0.0216805	0.0285398	-0.000549019	-1.69815	0.15241	0.225755	0.0506427	-0.0030539	0.0218855	-2.20541	-0.00411048	-1.56041	0	0	0	0	-0	0	0	0	-0.1265	0	-0	0	0	0	0	0	-0	0	0.105	-0.015	0	0	-0	0	0	-0.098	0.1	0	-0	0	0	0	0	0	-0	0	0.05595	0	0	0	-0	0	0	0	0	0	-0	0	562.803	562.484	340.112	212.997	-0.103126	0.463769	0.00546553	-0.00647061	-0.851563
81	0.0107747	-0.0207802	0.00637383	0.00170806	-0.0147226	-0.0422293	0.0216805	0.0285398	-0.000549016	-1.69815	0.15241	0.225756	0.0506671	-0.0030539	0.0218286	-2.20653	-0.00410256	-1.56041	0	0	0	0	-0	0	0	0	-0.1265	0	-0	0	0	0	0	0	-0	0	0.105	-0.015	0	0	-0	0	0	-0.098	0.1	0	-0	0	0	0	0	0	-0	0	0.05595	0	0	0	-0	0	0	0	0	0	-0	0	562.803	562.484	340.115	212.998	-0.103131	0.463777	0.00546649	-0.00646872	-0.85158
82	0.0120477	-0.0207802	0.00637379	0.00170802	-0.0147227	-0.0422293	0.0216805	0.0285398	-0.000549013	-1.69815	0.15241	0.225756	0.0506393	-0.0030539	0.0218931	-2.20526	-0.00411833	-1.56042	0	0	0	0	-0	0	0	0	-0.1265	0	-0	0	0	0	0	0	-0	0	0.105	-0.015	0	0	-0	0	0	-0.098	0.1	0	-0	0	0	0	0	0	-0	0	0.05595	0	0	0	-0	0	0	0	0	0	-0	0	562.803	562.484	340.117	212.999	-0.103134	0.463803	0.00546665	-0.0064676	-0.851638
83	0.0144438	-0.0207804	0.00637375	0.00170795	-0.0147228	-0.0422292	0.0216805	0.0285398	-0.000549009	-1.69815	0.15241	0.225756	0.0505868	-0.0030539	0.0220145	-2.20287	-0.00414892	-1.56044	0	0	0	0	-0	0	0	0	-0.1265	0	-0	0	0	0	0	0	-0	0	0.105	-0.015	0	0	-0	0	0	-0.098	0.1	0	-0	0	0	0	0	0	-0	0	0.05595	0	0	0	-0	0	0	0	0	0	-0	0	562.804	562.485	340.122	213	-0.103136	0.463844	0.00546686	-0.00646527	-0.851743
84	0.012848	-0.0207807	0.0063737	0.00170784	-0.014723	-0.0422292	0.0216805	0.0285398	-0.000549002	-1.69815	0.152409	0.225757	0.0506218	-0.00305391	0.0219337	-2.20446	-0.00414093	-1.56044	0	0	0	0	-0	0	0	0	-0.1265	0	-0	0	0	0	0	0	-0	0	0.105	-0.015	0	0	-0	0	0	-0.098	0.1	0	-0	0	0	0	0	0	-0	0	0.05595	0	0	0	-0	0	0	0	0	0	-0	0	562.804	562.486	340.13	213.001	-0.103147	0.46394	0.00546718	-0.00646171	-0.851954
85	0.0118375	-0.020781	0.0063736	0.00170763	-0.0147234	-0.0422291	0.0216805	0.0285398	-0.000548987	-1.69815	0.152409	0.225757	0.0506438	-0.0030539	0.0218827	-2.20548	-0.00414323	-1.56045	0	0	0	0	-0	0	0	0	-0.1265	0	-0	0	0	0	0	0	-0	0	0.105	-0.015	0	0	-0	0	0	-0.098	0.1	0	-0	0	0	0	0	0	-0	0	0.05595	0	0	0	-0	0	0	0	0	0	-0	0	562.805	562.488	340.141	213.004	-0.103156	0.464046	0.00546721	-0.00645638	-0.852203
86	0.00919061	-0.0207816	0.00637345	0.00170734	-0.0147238	-0.042229	0.0216805	0.0285398	-0.000548968	-1.69815	0.152409	0.225758	0.0507017	-0.00305391	0.0217487	-2.20813	-0.00413454	-1.56046	0	0	0	0	-0	0	0	0	-0.1265	0	-0	0	0	0	0	0	-0	0	0.105	-0.015	0	0	-0	0	0	-0.098	0.1	0	-0	0	0	0	0	0	-0	0	0.05595	0	0	0	-0	0	0	0	0	0	-0	0	562.805	562.49	340.157	213.007	-0.103167	0.464178	0.00546794	-0.00644864	-0.852528
87	0.0129753	-0.0207824	0.00637324	0.00170697	-0.0147245	-0.0422288	0.0216805	0.0285399	-0.000548944	-1.69815	0.152408	0.22576	0.0506191	-0.00305391	0.0219407	-2.20436	-0.0042012	-1.56051	0	0	0	0	-0	0	0	0	-0.1265	0	-0	0	0	0	0	0	-0	0	0.105	-0.015	0	0	-0	0	0	-0.098	0.1	0	-0	0	0	0	0	0	-0	0	0.05595	0	0	0	-0	0	0	0	0	0	-0	0	562.806	562.494	340.18	213.013	-0.103206	0.464516	0.00546861	-0.00643715	-0.853256
88	0.0166157	-0.0207836	0.00637291	0.00170645	-0.0147255	-0.0422285	0.0216805	0.0285399	-0.000548911	-1.69815	0.152407	0.225762	0.0505389	-0.00305394	0.0221248	-2.20073	-0.00427774	-1.56057	0	0	0	0	-0	0	0	0	-0.1265	0	-0	0	0	0	0	0	-0	0	0.105	-0.015	0	0	-0	0	0	-0.098	0.1	0	-0	0	0	0	0	0	-0	0	0.05595	0	0	0	-0	0	0	0	0	0	-0	0	562.806	562.497	340.215	213.02	-0.103218	0.464736	0.00546982	-0.00642083	-0.853843
89	0.0164918	-0.0207852	0.0063725	0.00170559	-0.0147269	-0.0422281	0.0216805	0.0285399	-0.000548857	-1.69815	0.152406	0.225765	0.0505411	-0.00305396	0.0221187	-2.20087	-0.00433179	-1.56063	0	0	0	0	-0	0	0	0	-0.1265	0	-0	0	0	0	0	0	-0	0	0.105	-0.015	0	0	-0	0	0	-0.098	0.1	0	-0	0	0	0	0	0	-0	0	0.05595	0	0	0	-0	0	0	0	0	0	-0	0	562.807	562.503	340.263	213.029	-0.10325	0.465119	0.00547191	-0.00639778	-0.854782
90	0.018322	-0.0207855	0.00637238	0.00170529	-0.0147273	-0.0422281	0.0216805	0.0285399	-0.000548842	-1.69815	0.152405	0.225767	0.0505006	-0.00305394	0.0222113	-2.19905	-0.00435783	-1.56065	0	0	0	0	-0	0	0	0	-0.1265	0	-0	0	0	0	0	0	-0	0	0.105	-0.015	0	0	-0	0	0	-0.098	0.1	0	-0	0	0	0	0	0	-0	0	0.05595	0	0	0	-0	0	0	0	0	0	-0	0	562.807	562.503	340.269	213.031	-0.103253	0.46507	0.00547462	-0.00639363	-0.854691
91	0.0197925	-0.0207859	0.00637224	0.00170511	-0.0147276	-0.042228	0.0216805	0.0285399	-0.000548831	-1.69815	0.152405	0.225768	0.0504678	-0.00305395	0.0222856	-2.19758	-0.00438793	-1.56067	0	0	0	0	-0	0	0	0	-0.1265	0	-0	0	0	0	0	0	-0	0	0.105	-0.015	0	0	-0	0	0	-0.098	0.1	0	-0	0	0	0	0	0	-0	0	0.05595	0	0	0	-0	0	0	0	0	0	-0	0	562.807	562.505	340.282	213.034	-0.103268	0.465225	0.00547504	-0.00638729	-0.855041
92	0.0198252	-0.0207866	0.00637208	0.0017048	-0.0147282	-0.0422279	0.0216805	0.02854	-0.000548808	-1.69815	0.152404	0.225769	0.0504669	-0.00305395	0.0222874	-2.19756	-0.00441057	-1.56069	0	0	0	0	-0	0	0	0	-0.1265	0	-0	0	0	0	0	0	-0	0	0.105	-0.015	0	0	-0	0	0	-0.098	0.1	0	-0	0	0	0	0	0	-0	0	0.05595	0	0	0	-0	0	0	0	0	0	-0	0	562.808	562.508	340.302	213.038	-0.103287	0.465436	0.00547489	-0.00637789	-0.85553
93	0.0171805	-0.0207869	0.00637197	0.0017046	-0.0147285	-0.0422278	0.0216805	0.02854	-0.000548797	-1.69815	0.152404	0.22577	0.0505258	-0.00305394	0.022154	-2.2002	-0.00439484	-1.56069	0	0	0	0	-0	0	0	0	-0.1265	0	-0	0	0	0	0	0	-0	0	0.105	-0.015	0	0	-0	0	0	-0.098	0.1	0	-0	0	0	0	0	0	-0	0	0.05595	0	0	0	-0	0	0	0	0	0	-0	0	562.808	562.509	340.312	213.04	-0.103289	0.465452	0.00547611	-0.006373	-0.855591
94	0.0207526	-0.0207876	0.00637181	0.00170427	-0.0147291	-0.0422276	0.0216805	0.02854	-0.000548775	-1.69815	0.152403	0.225771	0.0504463	-0.00305394	0.0223347	-2.19664	-0.00445512	-1.56074	0	0	0	0	-0	0	0	0	-0.1265	0	-0	0	0	0	0	0	-0	0	0.105	-0.015	0	0	-0	0	0	-0.098	0.1	0	-0	0	0	0	0	0	-0	0	0.05595	0	0	0	-0	0	0	0	0	0	-0	0	562.81	562.513	340.332	213.044	-0.103313	0.465687	0.00547625	-0.00636297	-0.856119
95	0.024279	-0.0207887	0.00637151	0.00170378	-0.01473	-0.0422274	0.0216805	0.02854	-0.000548745	-1.69815	0.152402	0.225773	0.0503673	-0.00305397	0.0225124	-2.19313	-0.00452477	-1.56079	0	0	0	0	-0	0	0	0	-0.1265	0	-0	0	0	0	0	0	-0	0	0.105	-0.015	0	0	-0	0	0	-0.098	0.1	0	-0	0	0	0	0	0	-0	0	0.05595	0	0	0	-0	0	0	0	0	0	-0	0	562.809	562.515	340.363	213.05	-0.103335	0.465949	0.00547748	-0.0063485	-0.856757
96	0.0254624	-0.0207889	0.00637143	0.00170366	-0.0147302	-0.0422274	0.0216805	0.02854	-0.00054874	-1.69815	0.152402	0.225774	0.0503404	-0.00305397	0.0225719	-2.19194	-0.00454117	-1.5608	0	0	0	0	-0	0	0	0	-0.1265	0	-0	0	0	0	0	0	-0	0	0.105	-0.015	0	0	-0	0	0	-0.098	0.1	0	-0	0	0	0	0	0	-0	0	0.05595	0	0	0	-0	0	0	0	0	0	-0	0	562.809	562.516	340.367	213.051	-0.10334	0.465942	0.00547902	-0.0063459	-0.856744
97	0.0238251	-0.020789	0.0063714	0.00170355	-0.0147303	-0.0422273	0.0216805	0.02854	-0.000548733	-1.69815	0.152402	0.225774	0.0503773	-0.00305397	0.0224895	-2.19358	-0.004528	-1.5608	0	0	0	0	-0	0	0	0	-0.1265	0	-0	0	0	0	0	0	-0	0	0.105	-0.015	0	0	-0	0	0	-0.098	0.1	0	-0	0	0	0	0	0	-0	0	0.05595	0	0	0	-0	0	0	0	0	0	-0	0	562.809	562.516	340.37	213.051	-0.103344	0.465976	0.0054793	-0.00634445	-0.856821
98	0.0223574	-0.020789	0.00637138	0.00170352	-0.0147303	-0.0422273	0.0216805	0.02854	-0.00054873	-1.69815	0.152402	0.225774	0.0504102	-0.00305396	0.0224156	-2.19505	-0.00451574	-1.5608	0	0	0	0	-0	0	0	0	-0.1265	0	-0	0	0	0	0	0	-0	0	0.105	-0.015	0	0	-0	0	0	-0.098	0.1	0	-0	0	0	0	0	0	-0	0	0.05595	0	0	0	-0	0	0	0	0	0	-0	0	562.81	562.516	340.372	213.052	-0.103341	0.465961	0.00547935	-0.00634341	-0.856798
99	0.0234137	-0.0207891	0.00637139	0.00170348	-0.0147304	-0.0422273	0.0216805	0.02854	-0.000548728	-1.69815	0.152402	0.225774	0.0503864	-0.00305396	0.0224688	-2.194	-0.00452814	-1.5608	0	0	0	0	-0	0	0	0	-0.1265	0	-0	0	0	0	0	0	-0	0	0.105	-0.015	0	0	-0	0	0	-0.098	0.1	0	-0	0	0	0	0	0	-0	0	0.05595	0	0	0	-0	0	0	0	0	0	-0	0	562.81	562.517	340.373	213.052	-0.103334	0.465923	0.00547944	-0.00634271	-0.85674
100	0.0235026	-0.0207892	0.00637132	0.00170347	-0.0147305	-0.0422273	0.0216805	0.02854	-0.000548728	-1.69815	0.152402	0.225775	0.0503844	-0.00305397	0.0224733	-2.19391	-0.00453298	-1.56081	0	0	0	0	-0	0	0	0	-0.1265	0	-0	0	0	0	0	0	-0	0	0.105	-0.015	0	0	-0	0	0	-0.098	0.1	0	-0	0	0	0	0	0	-0	0	0.05595	0	0	0	-0	0	0	0	0	0	-0	0	562.81	562.517	340.377	213.053	-0.103354	0.466055	0.0054798	-0.00634097	-0.856998
