Stefan210/kinematic_calibration/src/kinematic_calibration/validation/experiments/experiments/single_point_vs_pose/marker_single_point/rarm_70/optimization_intermediate_results.csv
iteration	HeadPitch_offset	HeadYaw_offset	RElbowRoll_offset	RElbowYaw_offset	RShoulderPitch_offset	RShoulderRoll_offset	marker_transform_rarm_tx	marker_transform_rarm_ty	marker_transform_rarm_tz	marker_transform_rarm_rr	marker_transform_rarm_rp	marker_transform_rarm_ry	camera_transform_tx	camera_transform_ty	camera_transform_tz	camera_transform_rr	camera_transform_rp	camera_transform_ry	HeadPitch_transform_tx	HeadPitch_transform_ty	HeadPitch_transform_tz	HeadPitch_transform_rr	HeadPitch_transform_rp	HeadPitch_transform_ry	HeadYaw_transform_tx	HeadYaw_transform_ty	HeadYaw_transform_tz	HeadYaw_transform_rr	HeadYaw_transform_rp	HeadYaw_transform_ry	RElbowRoll_transform_tx	RElbowRoll_transform_ty	RElbowRoll_transform_tz	RElbowRoll_transform_rr	RElbowRoll_transform_rp	RElbowRoll_transform_ry	RElbowYaw_transform_tx	RElbowYaw_transform_ty	RElbowYaw_transform_tz	RElbowYaw_transform_rr	RElbowYaw_transform_rp	RElbowYaw_transform_ry	RShoulderPitch_transform_tx	RShoulderPitch_transform_ty	RShoulderPitch_transform_tz	RShoulderPitch_transform_rr	RShoulderPitch_transform_rp	RShoulderPitch_transform_ry	RShoulderRoll_transform_tx	RShoulderRoll_transform_ty	RShoulderRoll_transform_tz	RShoulderRoll_transform_rr	RShoulderRoll_transform_rp	RShoulderRoll_transform_ry	RWristYaw_transform_tx	RWristYaw_transform_ty	RWristYaw_transform_tz	RWristYaw_transform_rr	RWristYaw_transform_rp	RWristYaw_transform_ry	r_wrist_joint_transform_tx	r_wrist_joint_transform_ty	r_wrist_joint_transform_tz	r_wrist_joint_transform_rr	r_wrist_joint_transform_rp	r_wrist_joint_transform_ry	camera_fx	camera_fy	camera_cx	camera_cy	camera_D0	camera_D1	camera_D2	camera_D3	camera_D4	
0	0.0230449	0.0294606	-0.0013508	-0.00116347	0.000678263	0.00258603	0.05071	0	0.01774	-2.26369	1.66533e-16	-1.5708	545.901	551.038	324.928	201.58	0.0255298	2.61142	-0.0636736	-0.0350419	0.213964
1	-0.0159898	-0.0204025	0.00895457	0.0107468	-0.00973382	-0.0297221	0.0210649	0.0283509	-0.000807786	-0.00110568	0.000638928	0.00271645	0.0532326	-0.00299173	0.0169249	-2.19905	0.0147395	-1.5282	0	0	0	0	-0	0	0	0	-0.1265	0	-0	0	0	0	0	0	-0	0	0.105	-0.015	0	0	-0	0	0	-0.098	0.1	0	-0	0	0	0	0	0	-0	0	0.05595	0	0	0	-0	0	0	0	0	0	-0	0	545.901	551.039	324.929	201.581	-0.0233905	2.59629	-0.0846028	-0.076636	0.210815
2	-0.0149318	-0.0383055	-0.000670798	0.0131015	-0.0233775	-0.0248951	0.0211543	0.0284178	-0.000885899	-0.00111455	0.000645971	0.00271195	0.0525399	-0.00114286	0.0199434	-2.20371	0.0202806	-1.51851	0	0	0	0	-0	0	0	0	-0.1265	0	-0	0	0	0	0	0	-0	0	0.105	-0.015	0	0	-0	0	0	-0.098	0.1	0	-0	0	0	0	0	0	-0	0	0.05595	0	0	0	-0	0	0	0	0	0	-0	0	545.903	551.039	324.934	201.586	-0.196993	2.48416	-0.0351374	-0.0438131	0.173752
3	-0.0155743	-0.0319761	0.00185222	0.0144773	-0.0191388	-0.0282454	0.0211576	0.0285794	-0.0011763	-0.00114395	0.000669392	0.00272606	0.0540531	-0.00225735	0.0171527	-2.20041	0.0207136	-1.52005	0	0	0	0	-0	0	0	0	-0.1265	0	-0	0	0	0	0	0	-0	0	0.105	-0.015	0	0	-0	0	0	-0.098	0.1	0	-0	0	0	0	0	0	-0	0	0.05595	0	0	0	-0	0	0	0	0	0	-0	0	545.905	551.04	324.94	201.59	-0.41797	2.34857	-0.0235393	-0.03595	0.130914
4	-0.0153923	-0.0275486	0.0024363	0.0156633	-0.0177436	-0.0317482	0.0211834	0.0288943	-0.00151219	-0.00117591	0.000697329	0.00274589	0.0551132	-0.003105	0.0153491	-2.20061	0.0215243	-1.52458	0	0	0	0	-0	0	0	0	-0.1265	0	-0	0	0	0	0	0	-0	0	0.105	-0.015	0	0	-0	0	0	-0.098	0.1	0	-0	0	0	0	0	0	-0	0	0.05595	0	0	0	-0	0	0	0	0	0	-0	0	545.909	551.04	324.949	201.598	-0.677957	2.11296	0.0128272	-0.00919317	0.0479492
5	-0.0152954	-0.0237839	0.00378911	0.0162347	-0.016552	-0.0344226	0.021157	0.0290638	-0.00167253	-0.00119966	0.00071184	0.00276087	0.0553219	-0.00372134	0.0147458	-2.20086	0.0214375	-1.52814	0	0	0	0	-0	0	0	0	-0.1265	0	-0	0	0	0	0	0	-0	0	0.105	-0.015	0	0	-0	0	0	-0.098	0.1	0	-0	0	0	0	0	0	-0	0	0.05595	0	0	0	-0	0	0	0	0	0	-0	0	545.921	551.038	324.96	201.607	-0.710923	1.79663	0.0249262	0.00126742	-0.0791947
6	-0.015217	-0.0209506	0.00602725	0.0159948	-0.0155254	-0.0361307	0.0210895	0.0290773	-0.00162634	-0.00119273	0.000706473	0.00276206	0.054379	-0.00407169	0.0155785	-2.20146	0.0204557	-1.53141	0	0	0	0	-0	0	0	0	-0.1265	0	-0	0	0	0	0	0	-0	0	0.105	-0.015	0	0	-0	0	0	-0.098	0.1	0	-0	0	0	0	0	0	-0	0	0.05595	0	0	0	-0	0	0	0	0	0	-0	0	545.947	551.029	324.975	201.619	-0.508417	1.29814	0.0172321	-0.000164913	-0.289214
7	-0.0151738	-0.01869	0.00826671	0.0154887	-0.0147357	-0.0374493	0.0210188	0.029057	-0.00153095	-0.00122212	0.000756194	0.00276308	0.0531823	-0.00431403	0.0167354	-2.20212	0.0194029	-1.53432	0	0	0	0	-0	0	0	0	-0.1265	0	-0	0	0	0	0	0	-0	0	0.105	-0.015	0	0	-0	0	0	-0.098	0.1	0	-0	0	0	0	0	0	-0	0	0.05595	0	0	0	-0	0	0	0	0	0	-0	0	545.996	551.008	324.989	201.628	-0.242431	0.689769	0.0052776	-0.00396738	-0.527374
8	-0.0150809	-0.0176568	0.00948052	0.015051	-0.0145118	-0.0381051	0.0209764	0.0290418	-0.00146107	-0.00110848	0.000896988	0.00274403	0.0523889	-0.00440912	0.017556	-2.20262	0.0187805	-1.53595	0	0	0	0	-0	0	0	0	-0.1265	0	-0	0	0	0	0	0	-0	0	0.105	-0.015	0	0	-0	0	0	-0.098	0.1	0	-0	0	0	0	0	0	-0	0	0.05595	0	0	0	-0	0	0	0	0	0	-0	0	546.097	550.955	325.006	201.629	-0.0613695	0.233753	-0.00198874	-0.00622342	-0.637343
9	-0.0146	-0.0174196	0.00982329	0.0148568	-0.0145358	-0.0382147	0.0209603	0.0290358	-0.00143601	-0.00113034	0.000758548	0.00212304	0.0520781	-0.00441814	0.0179083	-2.20244	0.0184932	-1.53653	0	0	0	0	-0	0	0	0	-0.1265	0	-0	0	0	0	0	0	-0	0	0.105	-0.015	0	0	-0	0	0	-0.098	0.1	0	-0	0	0	0	0	0	-0	0	0.05595	0	0	0	-0	0	0	0	0	0	-0	0	546.347	550.824	325.05	201.624	0.0048805	0.000569238	-0.00361433	-0.00678368	-0.491541
10	-0.0150458	-0.0173709	0.00987217	0.0147404	-0.0145762	-0.0380937	0.0209525	0.0290333	-0.00143071	-0.000562122	0.00181078	0.00370151	0.0519386	-0.00439774	0.0180404	-2.20312	0.0182297	-1.53698	0	0	0	0	-0	0	0	0	-0.1265	0	-0	0	0	0	0	0	-0	0	0.105	-0.015	0	0	-0	0	0	-0.098	0.1	0	-0	0	0	0	0	0	-0	0	0.05595	0	0	0	-0	0	0	0	0	0	-0	0	546.921	550.528	325.169	201.622	0.0292639	-0.228484	-0.0023301	-0.0066345	0.0261099
11	-0.0165322	-0.0173175	0.00986002	0.0145845	-0.0146188	-0.0378556	0.0209447	0.0290322	-0.00142743	0.00328174	-0.00191532	-0.0042971	0.0517657	-0.00435635	0.0181724	-2.20505	0.0177265	-1.53778	0	0	0	0	-0	0	0	0	-0.1265	0	-0	0	0	0	0	0	-0	0	0.105	-0.015	0	0	-0	0	0	-0.098	0.1	0	-0	0	0	0	0	0	-0	0	0.05595	0	0	0	-0	0	0	0	0	0	-0	0	547.846	550.09	325.444	201.65	0.0646062	-0.645012	0.000167977	-0.00619428	1.07248
12	-0.0247599	-0.0172763	0.00978826	0.0144555	-0.0146625	-0.0376011	0.0209397	0.0290338	-0.0014242	0.0190265	-0.00775216	0.000700091	0.0517101	-0.00430563	0.0179727	-2.21412	0.0168944	-1.53925	0	0	0	0	-0	0	0	0	-0.1265	0	-0	0	0	0	0	0	-0	0	0.105	-0.015	0	0	-0	0	0	-0.098	0.1	0	-0	0	0	0	0	0	-0	0	0.05595	0	0	0	-0	0	0	0	0	0	-0	0	548.555	549.841	326.136	201.827	0.118865	-1.21246	0.00203981	-0.00554392	2.49572
13	-0.0329196	-0.0172683	0.00973255	0.0143964	-0.0146818	-0.0374981	0.0209392	0.0290326	-0.00142487	0.00740871	-0.0189594	-0.0149319	0.0517826	-0.0042825	0.0176408	-2.22287	0.0161265	-1.5405	0	0	0	0	-0	0	0	0	-0.1265	0	-0	0	0	0	0	0	-0	0	0.105	-0.015	0	0	-0	0	0	-0.098	0.1	0	-0	0	0	0	0	0	-0	0	0.05595	0	0	0	-0	0	0	0	0	0	-0	0	548.683	549.839	326.88	202.008	0.149566	-1.51523	0.00240536	-0.00509218	3.27427
14	-0.0292669	-0.017298	0.00967551	0.0143863	-0.0147173	-0.0374189	0.0209382	0.0290304	-0.00142125	0.0141307	-0.0106056	-0.00309158	0.0516832	-0.00426806	0.0178769	-2.21993	0.0145146	-1.54201	0	0	0	0	-0	0	0	0	-0.1265	0	-0	0	0	0	0	0	-0	0	0.105	-0.015	0	0	-0	0	0	-0.098	0.1	0	-0	0	0	0	0	0	-0	0	0.05595	0	0	0	-0	0	0	0	0	0	-0	0	548.607	549.895	328.062	202.296	0.175318	-1.7564	0.00235171	-0.00451559	3.89996
15	-0.0320122	-0.0174599	0.00957812	0.014393	-0.0148528	-0.0372616	0.0209452	0.029045	-0.00141809	-0.0119206	0.0097457	0.00128379	0.0517417	-0.0042601	0.0177406	-2.22486	0.00822318	-1.54872	0	0	0	0	-0	0	0	0	-0.1265	0	-0	0	0	0	0	0	-0	0	0.105	-0.015	0	0	-0	0	0	-0.098	0.1	0	-0	0	0	0	0	0	-0	0	0.05595	0	0	0	-0	0	0	0	0	0	-0	0	548.257	550.146	333.312	203.361	0.211886	-2.12672	0.00202752	-0.00228268	4.95466
16	-0.0256112	-0.0175271	0.00953469	0.0143934	-0.0149229	-0.0371805	0.0209459	0.0290571	-0.00141714	-0.0482137	0.0293525	-0.00797076	0.0516213	-0.00425596	0.018089	-2.21942	0.00484193	-1.55207	0	0	0	0	-0	0	0	0	-0.1265	0	-0	0	0	0	0	0	-0	0	0.105	-0.015	0	0	-0	0	0	-0.098	0.1	0	-0	0	0	0	0	0	-0	0	0.05595	0	0	0	-0	0	0	0	0	0	-0	0	548.038	550.177	335.971	203.829	0.241588	-2.41845	0.00172766	-0.00115842	5.8042
17	-0.0193548	-0.0175362	0.00952752	0.0143862	-0.0149384	-0.0371649	0.0209347	0.0290313	-0.00141411	-0.0544674	0.0468697	-0.00682243	0.0515009	-0.00425487	0.0184205	-2.21335	0.00406281	-1.55277	0	0	0	0	-0	0	0	0	-0.1265	0	-0	0	0	0	0	0	-0	0	0.105	-0.015	0	0	-0	0	0	-0.098	0.1	0	-0	0	0	0	0	0	-0	0	0.05595	0	0	0	-0	0	0	0	0	0	-0	0	547.989	550.173	336.526	203.915	0.249886	-2.49782	0.00165695	-0.000905684	6.03504
18	-0.0235283	-0.0175629	0.00951009	0.0143849	-0.0149648	-0.0371354	0.0209309	0.0290328	-0.00141637	-0.0459197	0.054777	0.00764169	0.0515748	-0.00425255	0.0182109	-2.21777	0.00321316	-1.55377	0	0	0	0	-0	0	0	0	-0.1265	0	-0	0	0	0	0	0	-0	0	0.105	-0.015	0	0	-0	0	0	-0.098	0.1	0	-0	0	0	0	0	0	-0	0	0.05595	0	0	0	-0	0	0	0	0	0	-0	0	547.911	550.164	337.293	204.034	0.259424	-2.5921	0.0015672	-0.000589579	6.30935
19	-0.00122367	-0.0175988	0.00949001	0.0143886	-0.0149988	-0.0370985	0.0209293	0.0290301	-0.00141309	-0.0428171	0.045476	0.00822315	0.0511685	-0.00425104	0.0193649	-2.19582	0.00146637	-1.55517	0	0	0	0	-0	0	0	0	-0.1265	0	-0	0	0	0	0	0	-0	0	0.105	-0.015	0	0	-0	0	0	-0.098	0.1	0	-0	0	0	0	0	0	-0	0	0.05595	0	0	0	-0	0	0	0	0	0	-0	0	547.793	550.145	338.439	204.21	0.271964	-2.71654	0.00144124	-0.000116627	6.67652
20	-0.0146068	-0.0176238	0.00947749	0.0143877	-0.0150245	-0.0370729	0.0209299	0.0290341	-0.00140954	-0.0358699	0.0521374	-0.00862566	0.0514142	-0.00425023	0.0186791	-2.20946	0.000676924	-1.55632	0	0	0	0	-0	0	0	0	-0.1265	0	-0	0	0	0	0	0	-0	0	0.105	-0.015	0	0	-0	0	0	-0.098	0.1	0	-0	0	0	0	0	0	-0	0	0.05595	0	0	0	-0	0	0	0	0	0	-0	0	547.706	550.127	339.295	204.337	0.281537	-2.81074	0.0013444	0.000239569	6.95553
21	-5.15789e-05	-0.0176622	0.00945928	0.0143916	-0.0150608	-0.0370357	0.0209344	0.0290373	-0.00141066	-0.0491526	0.0694642	-0.0236516	0.0511402	-0.00424968	0.0194271	-2.19526	-0.00103895	-1.55794	0	0	0	0	-0	0	0	0	-0.1265	0	-0	0	0	0	0	0	-0	0	0.105	-0.015	0	0	-0	0	0	-0.098	0.1	0	-0	0	0	0	0	0	-0	0	0.05595	0	0	0	-0	0	0	0	0	0	-0	0	547.578	550.098	340.563	204.523	0.294422	-2.94023	0.0012055	0.000756853	7.3472
22	0.00435512	-0.0176668	0.00945832	0.0143882	-0.0150687	-0.0370307	0.0209268	0.0290304	-0.00141083	-0.0479598	0.0599019	-0.0174731	0.0510466	-0.00424976	0.019654	-2.19093	-0.00138692	-1.5583	0	0	0	0	-0	0	0	0	-0.1265	0	-0	0	0	0	0	0	-0	0	0.105	-0.015	0	0	-0	0	0	-0.098	0.1	0	-0	0	0	0	0	0	-0	0	0.05595	0	0	0	-0	0	0	0	0	0	-0	0	547.552	550.089	340.821	204.559	0.297979	-2.97288	0.00117596	0.000875055	7.44032
23	0.00758648	-0.0177023	0.00944233	0.0143927	-0.0151012	-0.0369985	0.0209239	0.0290301	-0.00141073	-0.0367972	0.0740984	-0.0189386	0.0509856	-0.0042493	0.0198189	-2.18798	-0.00265077	-1.55967	0	0	0	0	-0	0	0	0	-0.1265	0	-0	0	0	0	0	0	-0	0	0.105	-0.015	0	0	-0	0	0	-0.098	0.1	0	-0	0	0	0	0	0	-0	0	0.05595	0	0	0	-0	0	0	0	0	0	-0	0	547.445	550.057	341.874	204.708	0.308754	-3.08287	0.00105692	0.00129512	7.77864
24	0.0352726	-0.0177959	0.00940725	0.0144051	-0.0151864	-0.0369206	0.0209319	0.0290433	-0.00139336	-0.0524343	0.0460527	0.0117436	0.0504465	-0.00425058	0.0212278	-2.16105	-0.00637494	-1.56369	0	0	0	0	-0	0	0	0	-0.1265	0	-0	0	0	0	0	0	-0	0	0.105	-0.015	0	0	-0	0	0	-0.098	0.1	0	-0	0	0	0	0	0	-0	0	0.05595	0	0	0	-0	0	0	0	0	0	-0	0	547.201	550.015	344.869	205.123	0.334946	-3.35548	0.000737371	0.00249314	8.64095
25	0.0214894	-0.0178304	0.00939831	0.0144025	-0.0152283	-0.0368883	0.0209348	0.029051	-0.00140417	-0.053134	0.0559373	-0.0263745	0.0507133	-0.00425146	0.0205355	-2.1752	-0.00783431	-1.56555	0	0	0	0	-0	0	0	0	-0.1265	0	-0	0	0	0	0	0	-0	0	0.105	-0.015	0	0	-0	0	0	-0.098	0.1	0	-0	0	0	0	0	0	-0	0	0.05595	0	0	0	-0	0	0	0	0	0	-0	0	547.07	549.964	346.289	205.315	0.352939	-3.53043	0.000544335	0.00309372	9.17562
26	0.0251998	-0.0178373	0.00939948	0.014399	-0.0152401	-0.0368833	0.0209194	0.0290325	-0.00140828	-0.0615674	0.0591424	-0.0176369	0.0506273	-0.00425187	0.0207281	-2.17156	-0.00819155	-1.56595	0	0	0	0	-0	0	0	0	-0.1265	0	-0	0	0	0	0	0	-0	0	0.105	-0.015	0	0	-0	0	0	-0.098	0.1	0	-0	0	0	0	0	0	-0	0	0.05595	0	0	0	-0	0	0	0	0	0	-0	0	547.043	549.949	346.574	205.352	0.357629	-3.57321	0.000517009	0.00322979	9.29837
27	0.0217716	-0.0178783	0.00938281	0.0144046	-0.0152782	-0.0368484	0.020917	0.0290442	-0.00141275	-0.031854	0.0614428	-0.00477174	0.0506998	-0.00425165	0.0205562	-2.17529	-0.00948732	-1.56744	0	0	0	0	-0	0	0	0	-0.1265	0	-0	0	0	0	0	0	-0	0	0.105	-0.015	0	0	-0	0	0	-0.098	0.1	0	-0	0	0	0	0	0	-0	0	0.05595	0	0	0	-0	0	0	0	0	0	-0	0	546.931	549.898	347.727	205.516	0.37108	-3.7133	0.000374882	0.00368273	9.74434
28	0.0438227	-0.0178939	0.00937978	0.0144046	-0.0152968	-0.036836	0.0209146	0.0290331	-0.00140461	-0.0128095	0.0787294	-0.0127637	0.0502428	-0.00425217	0.0216793	-2.15338	-0.0101915	-1.56839	0	0	0	0	-0	0	0	0	-0.1265	0	-0	0	0	0	0	0	-0	0	0.105	-0.015	0	0	-0	0	0	-0.098	0.1	0	-0	0	0	0	0	0	-0	0	0.05595	0	0	0	-0	0	0	0	0	0	-0	0	546.873	549.868	348.286	205.596	0.378875	-3.78861	0.000304983	0.00392312	9.97304
29	0.0524544	-0.0179328	0.00936623	0.0144086	-0.0153338	-0.0368028	0.0209136	0.0290305	-0.00140708	-0.02295	0.0676451	-0.0105194	0.0500452	-0.00425272	0.0221093	-2.14507	-0.0115487	-1.57012	0	0	0	0	-0	0	0	0	-0.1265	0	-0	0	0	0	0	0	-0	0	0.105	-0.015	0	0	-0	0	0	-0.098	0.1	0	-0	0	0	0	0	0	-0	0	0.05595	0	0	0	-0	0	0	0	0	0	-0	0	546.752	549.809	349.502	205.777	0.39328	-3.93742	0.000147036	0.00440751	10.4497
30	0.0536328	-0.0179412	0.00936697	0.014404	-0.0153466	-0.0367978	0.0209133	0.0290314	-0.00140756	-0.0316733	0.0671923	-0.0153536	0.0500131	-0.00425325	0.0221725	-2.14398	-0.0118951	-1.57058	0	0	0	0	-0	0	0	0	-0.1265	0	-0	0	0	0	0	0	-0	0	0.105	-0.015	0	0	-0	0	0	-0.098	0.1	0	-0	0	0	0	0	0	-0	0	0.05595	0	0	0	-0	0	0	0	0	0	-0	0	546.721	549.787	349.823	205.825	0.398269	-3.98369	0.000114534	0.00455452	10.5864
31	0.067233	-0.0179829	0.00935312	0.0144127	-0.0153843	-0.0367639	0.0209122	0.0290311	-0.00140716	-0.0348894	0.0701823	-0.00816986	0.0497151	-0.00425435	0.0228523	-2.13073	-0.0132792	-1.57247	0	0	0	0	-0	0	0	0	-0.1265	0	-0	0	0	0	0	0	-0	0	0.105	-0.015	0	0	-0	0	0	-0.098	0.1	0	-0	0	0	0	0	0	-0	0	0.05595	0	0	0	-0	0	0	0	0	0	-0	0	546.592	549.709	351.095	206.029	0.413269	-4.14189	-2.45944e-05	0.00506141	11.1014
32	0.0784828	-0.018	0.00935189	0.01441	-0.0154053	-0.0367524	0.0209165	0.0290342	-0.00140367	-0.0303652	0.0537992	0.00707644	0.0494494	-0.00425532	0.023415	-2.11965	-0.0138921	-1.57346	0	0	0	0	-0	0	0	0	-0.1265	0	-0	0	0	0	0	0	-0	0	0.105	-0.015	0	0	-0	0	0	-0.098	0.1	0	-0	0	0	0	0	0	-0	0	0.05595	0	0	0	-0	0	0	0	0	0	-0	0	546.53	549.666	351.697	206.128	0.42193	-4.22626	-8.88261e-05	0.00532326	11.3623
33	0.0779722	-0.0180116	0.00935013	0.0144092	-0.0154188	-0.0367429	0.0209097	0.0290392	-0.0014048	-0.00587414	0.0538796	0.00243103	0.0494562	-0.00425591	0.0233911	-2.1203	-0.0143542	-1.57406	0	0	0	0	-0	0	0	0	-0.1265	0	-0	0	0	0	0	0	-0	0	0.105	-0.015	0	0	-0	0	0	-0.098	0.1	0	-0	0	0	0	0	0	-0	0	0.05595	0	0	0	-0	0	0	0	0	0	-0	0	546.486	549.636	352.135	206.204	0.428124	-4.28836	-0.000134283	0.00550956	11.5575
34	0.0817624	-0.0180172	0.00935032	0.0144079	-0.0154259	-0.0367396	0.0209089	0.0290303	-0.00140606	-0.0130311	0.0470205	0.000153281	0.0493657	-0.00425622	0.0235808	-2.11656	-0.0145279	-1.57436	0	0	0	0	-0	0	0	0	-0.1265	0	-0	0	0	0	0	0	-0	0	0.105	-0.015	0	0	-0	0	0	-0.098	0.1	0	-0	0	0	0	0	0	-0	0	0.05595	0	0	0	-0	0	0	0	0	0	-0	0	546.467	549.622	352.311	206.236	0.430891	-4.31474	-0.000149442	0.00558897	11.6371
35	0.0784835	-0.0180416	0.00934268	0.0144125	-0.0154473	-0.0367211	0.020913	0.0290366	-0.0014063	-0.0198274	0.0500854	-0.020456	0.0494454	-0.00425699	0.0234178	-2.12006	-0.0152849	-1.57528	0	0	0	0	-0	0	0	0	-0.1265	0	-0	0	0	0	0	0	-0	0	0.105	-0.015	0	0	-0	0	0	-0.098	0.1	0	-0	0	0	0	0	0	-0	0	0.05595	0	0	0	-0	0	0	0	0	0	-0	0	546.391	549.566	353.016	206.365	0.439684	-4.40905	-0.000219195	0.0058694	11.9495
36	0.0756612	-0.0180499	0.00934277	0.0144118	-0.0154582	-0.0367156	0.0209108	0.0290305	-0.00140692	-0.0204358	0.0667041	-0.0144696	0.0495083	-0.00425772	0.0232816	-2.123	-0.0156579	-1.5757	0	0	0	0	-0	0	0	0	-0.1265	0	-0	0	0	0	0	0	-0	0	0.105	-0.015	0	0	-0	0	0	-0.098	0.1	0	-0	0	0	0	0	0	-0	0	0.05595	0	0	0	-0	0	0	0	0	0	-0	0	546.357	549.542	353.353	206.43	0.444881	-4.45957	-0.000252509	0.00601985	12.1054
37	0.0721645	-0.0180612	0.00934057	0.0144114	-0.0154697	-0.0367076	0.0209106	0.0290311	-0.001405	-0.0256602	0.0822361	-0.0165556	0.0495891	-0.00425816	0.0231098	-2.12661	-0.016041	-1.57612	0	0	0	0	-0	0	0	0	-0.1265	0	-0	0	0	0	0	0	-0	0	0.105	-0.015	0	0	-0	0	0	-0.098	0.1	0	-0	0	0	0	0	0	-0	0	0.05595	0	0	0	-0	0	0	0	0	0	-0	0	546.322	549.514	353.695	206.498	0.449596	-4.50871	-0.00027958	0.00616218	12.2646
38	0.0740638	-0.0180682	0.00933982	0.0144108	-0.0154777	-0.0367025	0.0209075	0.0290312	-0.00140535	-0.0258077	0.0857104	-0.00686196	0.0495439	-0.00425858	0.0232054	-2.1248	-0.0162993	-1.57649	0	0	0	0	-0	0	0	0	-0.1265	0	-0	0	0	0	0	0	-0	0	0.105	-0.015	0	0	-0	0	0	-0.098	0.1	0	-0	0	0	0	0	0	-0	0	0.05595	0	0	0	-0	0	0	0	0	0	-0	0	546.297	549.493	353.945	206.549	0.453237	-4.5456	-0.000300031	0.0062698	12.382
39	0.0627486	-0.0180801	0.00933711	0.0144123	-0.015489	-0.036694	0.0209058	0.02903	-0.00140477	-0.0290572	0.0864267	-0.00739669	0.0498064	-0.00425911	0.0226455	-2.13625	-0.0167555	-1.57681	0	0	0	0	-0	0	0	0	-0.1265	0	-0	0	0	0	0	0	-0	0	0.105	-0.015	0	0	-0	0	0	-0.098	0.1	0	-0	0	0	0	0	0	-0	0	0.05595	0	0	0	-0	0	0	0	0	0	-0	0	546.26	549.465	354.311	206.626	0.458213	-4.59823	-0.000330761	0.00642144	12.555
40	0.0622199	-0.0180887	0.00933616	0.0144118	-0.0154981	-0.0366884	0.0209068	0.0290303	-0.00140445	-0.0252737	0.0769175	-0.00575252	0.0498144	-0.00425961	0.0226192	-2.13688	-0.017061	-1.57717	0	0	0	0	-0	0	0	0	-0.1265	0	-0	0	0	0	0	0	-0	0	0.105	-0.015	0	0	-0	0	0	-0.098	0.1	0	-0	0	0	0	0	0	-0	0	0.05595	0	0	0	-0	0	0	0	0	0	-0	0	546.23	549.441	354.588	206.686	0.462257	-4.63948	-0.000353427	0.00654006	12.6872
41	0.0812196	-0.0181258	0.00932574	0.014421	-0.0155293	-0.0366614	0.0209005	0.0290499	-0.00138917	-0.0644421	0.0533555	0.0151028	0.0493894	-0.00426153	0.0235633	-2.11832	-0.0181796	-1.57908	0	0	0	0	-0	0	0	0	-0.1265	0	-0	0	0	0	0	0	-0	0	0.105	-0.015	0	0	-0	0	0	-0.098	0.1	0	-0	0	0	0	0	0	-0	0	0.05595	0	0	0	-0	0	0	0	0	0	-0	0	546.119	549.35	355.751	206.951	0.476686	-4.79908	-0.000427662	0.00701358	13.2292
42	0.0820742	-0.0181368	0.00932938	0.0144156	-0.0155449	-0.0366553	0.0209061	0.0290345	-0.00140414	-0.0609464	0.0524128	0.0331302	0.0493553	-0.00426307	0.0236071	-2.1177	-0.0187064	-1.57984	0	0	0	0	-0	0	0	0	-0.1265	0	-0	0	0	0	0	0	-0	0	0.105	-0.015	0	0	-0	0	0	-0.098	0.1	0	-0	0	0	0	0	0	-0	0	0.05595	0	0	0	-0	0	0	0	0	0	-0	0	546.065	549.294	356.271	207.085	0.485177	-4.88231	-0.000443139	0.00725868	13.4883
43	0.0869945	-0.0181497	0.00932841	0.0144153	-0.015559	-0.0366485	0.0209011	0.0290313	-0.00140397	-0.0733131	0.0486834	0.0300818	0.0492378	-0.00426401	0.023852	-2.11295	-0.0190487	-1.58044	0	0	0	0	-0	0	0	0	-0.1265	0	-0	0	0	0	0	0	-0	0	0.105	-0.015	0	0	-0	0	0	-0.098	0.1	0	-0	0	0	0	0	0	-0	0	0.05595	0	0	0	-0	0	0	0	0	0	-0	0	546.025	549.253	356.641	207.186	0.490966	-4.94321	-0.000450103	0.00741826	13.6867
44	0.0726707	-0.0181657	0.00932554	0.0144163	-0.0155737	-0.0366377	0.0209023	0.0290295	-0.0014019	-0.0691862	0.0622112	0.0241362	0.0495795	-0.00426504	0.0231468	-2.12753	-0.0197352	-1.58089	0	0	0	0	-0	0	0	0	-0.1265	0	-0	0	0	0	0	0	-0	0	0.105	-0.015	0	0	-0	0	0	-0.098	0.1	0	-0	0	0	0	0	0	-0	0	0.05595	0	0	0	-0	0	0	0	0	0	-0	0	545.974	549.199	357.163	207.338	0.498342	-5.02475	-0.000452315	0.00764033	13.9621
45	0.0777341	-0.0181752	0.00932613	0.0144142	-0.0155843	-0.0366321	0.0209009	0.0290325	-0.00140296	-0.0827518	0.0662553	0.0227814	0.0494558	-0.00426604	0.0233975	-2.12266	-0.0200753	-1.58149	0	0	0	0	-0	0	0	0	-0.1265	0	-0	0	0	0	0	0	-0	0	0.105	-0.015	0	0	-0	0	0	-0.098	0.1	0	-0	0	0	0	0	0	-0	0	0.05595	0	0	0	-0	0	0	0	0	0	-0	0	545.937	549.16	357.526	207.451	0.504092	-5.08485	-0.000456086	0.00780316	14.1582
46	0.0758215	-0.0181894	0.00932406	0.0144161	-0.0155974	-0.0366225	0.020902	0.0290355	-0.00140099	-0.0948656	0.0682584	0.03839	0.0495006	-0.00426728	0.0233027	-2.12486	-0.0206316	-1.58215	0	0	0	0	-0	0	0	0	-0.1265	0	-0	0	0	0	0	0	-0	0	0.105	-0.015	0	0	-0	0	0	-0.098	0.1	0	-0	0	0	0	0	0	-0	0	0.05595	0	0	0	-0	0	0	0	0	0	-0	0	545.885	549.103	358.033	207.62	0.511658	-5.16893	-0.000446868	0.00802277	14.4429
47	0.0699198	-0.0181971	0.00932515	0.0144142	-0.0156067	-0.0366177	0.0209028	0.0290315	-0.0014017	-0.1022	0.084036	0.0336706	0.0496363	-0.00426835	0.0230126	-2.13098	-0.0210698	-1.58251	0	0	0	0	-0	0	0	0	-0.1265	0	-0	0	0	0	0	0	-0	0	0.105	-0.015	0	0	-0	0	0	-0.098	0.1	0	-0	0	0	0	0	0	-0	0	0.05595	0	0	0	-0	0	0	0	0	0	-0	0	545.849	549.061	358.381	207.746	0.517461	-5.23058	-0.000433289	0.0081825	14.6452
48	0.0807875	-0.0182033	0.00932589	0.014412	-0.0156138	-0.0366141	0.0208987	0.0290295	-0.00140189	-0.0990084	0.0766938	0.0336239	0.0493847	-0.00426912	0.0235527	-2.12028	-0.0212029	-1.58308	0	0	0	0	-0	0	0	0	-0.1265	0	-0	0	0	0	0	0	-0	0	0.105	-0.015	0	0	-0	0	0	-0.098	0.1	0	-0	0	0	0	0	0	-0	0	0.05595	0	0	0	-0	0	0	0	0	0	-0	0	545.823	549.024	358.626	207.842	0.521488	-5.27449	-0.000407876	0.00829448	14.7908
49	0.0824531	-0.0182081	0.00932628	0.0144105	-0.015619	-0.0366115	0.0209005	0.0290331	-0.00140143	-0.102121	0.0795454	0.0169961	0.0493419	-0.00426963	0.0236345	-2.11874	-0.0213655	-1.58336	0	0	0	0	-0	0	0	0	-0.1265	0	-0	0	0	0	0	0	-0	0	0.105	-0.015	0	0	-0	0	0	-0.098	0.1	0	-0	0	0	0	0	0	-0	0	0.05595	0	0	0	-0	0	0	0	0	0	-0	0	545.805	549.002	358.802	207.913	0.524478	-5.30677	-0.000398761	0.00837452	14.8981
50	0.0861697	-0.0182102	0.00932709	0.0144098	-0.0156218	-0.0366101	0.0208981	0.0290303	-0.00140072	-0.100456	0.0829027	0.00736454	0.0492535	-0.00427012	0.0238184	-2.11511	-0.0214513	-1.58361	0	0	0	0	-0	0	0	0	-0.1265	0	-0	0	0	0	0	0	-0	0	0.105	-0.015	0	0	-0	0	0	-0.098	0.1	0	-0	0	0	0	0	0	-0	0	0.05595	0	0	0	-0	0	0	0	0	0	-0	0	545.792	548.984	358.929	207.967	0.526577	-5.32959	-0.00038381	0.00843428	14.9736
51	0.0896004	-0.0182115	0.00932765	0.0144082	-0.0156238	-0.0366095	0.0208972	0.0290293	-0.00140109	-0.102172	0.0826635	0.0118039	0.0491707	-0.00427026	0.023988	-2.11172	-0.0214602	-1.58376	0	0	0	0	-0	0	0	0	-0.1265	0	-0	0	0	0	0	0	-0	0	0.105	-0.015	0	0	-0	0	0	-0.098	0.1	0	-0	0	0	0	0	0	-0	0	0.05595	0	0	0	-0	0	0	0	0	0	-0	0	545.787	548.977	358.98	207.989	0.527575	-5.33982	-0.000379589	0.00845889	15.0061
52	0.0862257	-0.0182133	0.00932755	0.0144081	-0.0156254	-0.0366085	0.0208971	0.0290299	-0.00140127	-0.0947026	0.0808121	0.0142925	0.0492516	-0.00427044	0.0238218	-2.11514	-0.0215672	-1.58377	0	0	0	0	-0	0	0	0	-0.1265	0	-0	0	0	0	0	0	-0	0	0.105	-0.015	0	0	-0	0	0	-0.098	0.1	0	-0	0	0	0	0	0	-0	0	0.05595	0	0	0	-0	0	0	0	0	0	-0	0	545.78	548.969	359.04	208.016	0.528571	-5.351	-0.0003768	0.00848569	15.0444
53	0.0868046	-0.0182166	0.00932692	0.0144089	-0.015628	-0.036606	0.0208963	0.0290297	-0.00140063	-0.103632	0.0756368	0.0168392	0.0492382	-0.00427081	0.0238498	-2.11466	-0.0216995	-1.58397	0	0	0	0	-0	0	0	0	-0.1265	0	-0	0	0	0	0	0	-0	0	0.105	-0.015	0	0	-0	0	0	-0.098	0.1	0	-0	0	0	0	0	0	-0	0	0.05595	0	0	0	-0	0	0	0	0	0	-0	0	545.766	548.953	359.174	208.075	0.530651	-5.37536	-0.00036773	0.00854373	15.1297
54	0.0919465	-0.0182237	0.00932548	0.0144102	-0.0156335	-0.0366003	0.0208975	0.029031	-0.00140144	-0.110503	0.0780229	0.0063754	0.0491169	-0.00427158	0.0241019	-2.10975	-0.02194	-1.5845	0	0	0	0	-0	0	0	0	-0.1265	0	-0	0	0	0	0	0	-0	0	0.105	-0.015	0	0	-0	0	0	-0.098	0.1	0	-0	0	0	0	0	0	-0	0	0.05595	0	0	0	-0	0	0	0	0	0	-0	0	545.736	548.912	359.471	208.211	0.535307	-5.43052	-0.000335938	0.0086728	15.3232
55	0.0849951	-0.0182258	0.00932718	0.0144081	-0.0156371	-0.0365994	0.0208971	0.0290324	-0.00139926	-0.120829	0.0771773	0.0180501	0.0492822	-0.00427217	0.0237618	-2.11682	-0.0221769	-1.58454	0	0	0	0	-0	0	0	0	-0.1265	0	-0	0	0	0	0	0	-0	0	0.105	-0.015	0	0	-0	0	0	-0.098	0.1	0	-0	0	0	0	0	0	-0	0	0.05595	0	0	0	-0	0	0	0	0	0	-0	0	545.722	548.893	359.608	208.279	0.53802	-5.45883	-0.000319548	0.00874082	15.4144
56	0.0849882	-0.0182271	0.00932805	0.0144067	-0.0156391	-0.0365983	0.020897	0.0290303	-0.00139934	-0.122576	0.0708916	0.028797	0.0492806	-0.00427254	0.0237615	-2.11692	-0.0222823	-1.58468	0	0	0	0	-0	0	0	0	-0.1265	0	-0	0	0	0	0	0	-0	0	0.105	-0.015	0	0	-0	0	0	-0.098	0.1	0	-0	0	0	0	0	0	-0	0	0.05595	0	0	0	-0	0	0	0	0	0	-0	0	545.712	548.879	359.708	208.33	0.539828	-5.47877	-0.000305274	0.00878845	15.4811
57	0.0829723	-0.0182285	0.00932836	0.0144057	-0.0156408	-0.0365973	0.0208953	0.0290294	-0.00139968	-0.115376	0.075211	0.0240623	0.0493283	-0.00427276	0.0236625	-2.119	-0.0223869	-1.58474	0	0	0	0	-0	0	0	0	-0.1265	0	-0	0	0	0	0	0	-0	0	0.105	-0.015	0	0	-0	0	0	-0.098	0.1	0	-0	0	0	0	0	0	-0	0	0.05595	0	0	0	-0	0	0	0	0	0	-0	0	545.706	548.868	359.781	208.369	0.541131	-5.4936	-0.000292407	0.00882244	15.5315
58	0.0902458	-0.0182355	0.00932655	0.0144077	-0.0156453	-0.0365914	0.020896	0.0290278	-0.00140153	-0.0993538	0.100548	0.026485	0.0491586	-0.00427363	0.024019	-2.11201	-0.0226093	-1.58533	0	0	0	0	-0	0	0	0	-0.1265	0	-0	0	0	0	0	0	-0	0	0.105	-0.015	0	0	-0	0	0	-0.098	0.1	0	-0	0	0	0	0	0	-0	0	0.05595	0	0	0	-0	0	0	0	0	0	-0	0	545.675	548.825	360.092	208.534	0.545891	-5.55279	-0.000245292	0.00895706	15.745
59	0.0930513	-0.0182356	0.00932895	0.0144044	-0.0156479	-0.0365926	0.0208948	0.0290286	-0.00139996	-0.0985338	0.0963957	0.027349	0.0490873	-0.00427396	0.0241589	-2.10925	-0.0226075	-1.58546	0	0	0	0	-0	0	0	0	-0.1265	0	-0	0	0	0	0	0	-0	0	0.105	-0.015	0	0	-0	0	0	-0.098	0.1	0	-0	0	0	0	0	0	-0	0	0.05595	0	0	0	-0	0	0	0	0	0	-0	0	545.671	548.819	360.131	208.557	0.547206	-5.56369	-0.000238078	0.00898358	15.773
60	0.094029	-0.0182362	0.00932945	0.0144035	-0.0156487	-0.0365919	0.0208948	0.0290286	-0.00139992	-0.0967676	0.0921541	0.0264816	0.0490635	-0.00427416	0.0242068	-2.10832	-0.0226481	-1.58555	0	0	0	0	-0	0	0	0	-0.1265	0	-0	0	0	0	0	0	-0	0	0.105	-0.015	0	0	-0	0	0	-0.098	0.1	0	-0	0	0	0	0	0	-0	0	0.05595	0	0	0	-0	0	0	0	0	0	-0	0	545.666	548.81	360.184	208.588	0.548152	-5.57464	-0.000228428	0.00900854	15.8109
61	0.0901323	-0.0182369	0.00932975	0.014403	-0.0156495	-0.0365912	0.0208945	0.029029	-0.00139919	-0.0912122	0.0966725	0.0219706	0.0491577	-0.00427436	0.0240157	-2.11228	-0.0227629	-1.58554	0	0	0	0	-0	0	0	0	-0.1265	0	-0	0	0	0	0	0	-0	0	0.105	-0.015	0	0	-0	0	0	-0.098	0.1	0	-0	0	0	0	0	0	-0	0	0.05595	0	0	0	-0	0	0	0	0	0	-0	0	545.661	548.801	360.239	208.622	0.549142	-5.58632	-0.000214656	0.00903463	15.8513
62	0.090903	-0.0182379	0.00932991	0.0144027	-0.0156504	-0.0365903	0.0208946	0.0290289	-0.00139985	-0.0893889	0.0971113	0.0276673	0.0491391	-0.00427459	0.0240532	-2.11157	-0.0228141	-1.58565	0	0	0	0	-0	0	0	0	-0.1265	0	-0	0	0	0	0	0	-0	0	0.105	-0.015	0	0	-0	0	0	-0.098	0.1	0	-0	0	0	0	0	0	-0	0	0.05595	0	0	0	-0	0	0	0	0	0	-0	0	545.654	548.791	360.3	208.658	0.550218	-5.59898	-0.000203436	0.00906241	15.8955
63	0.0869126	-0.0182388	0.00933017	0.0144024	-0.0156513	-0.0365898	0.020895	0.0290293	-0.00139984	-0.0852657	0.0914692	0.0230635	0.0492351	-0.00427481	0.0238571	-2.11562	-0.0229296	-1.58563	0	0	0	0	-0	0	0	0	-0.1265	0	-0	0	0	0	0	0	-0	0	0.105	-0.015	0	0	-0	0	0	-0.098	0.1	0	-0	0	0	0	0	0	-0	0	0.05595	0	0	0	-0	0	0	0	0	0	-0	0	545.648	548.782	360.354	208.692	0.5512	-5.61043	-0.000192195	0.00908796	15.9352
64	0.0888664	-0.0182406	0.0093299	0.0144029	-0.0156524	-0.0365878	0.0208928	0.0290306	-0.00140102	-0.0687804	0.101304	0.0285084	0.0491887	-0.0042752	0.0239525	-2.11379	-0.023024	-1.58584	0	0	0	0	-0	0	0	0	-0.1265	0	-0	0	0	0	0	0	-0	0	0.105	-0.015	0	0	-0	0	0	-0.098	0.1	0	-0	0	0	0	0	0	-0	0	0.05595	0	0	0	-0	0	0	0	0	0	-0	0	545.638	548.767	360.472	208.767	0.553236	-5.63547	-0.000171615	0.00914092	16.025
65	0.0826915	-0.0182414	0.00933073	0.0144019	-0.0156539	-0.0365875	0.0208941	0.029029	-0.00139918	-0.0717154	0.10076	0.0344908	0.0493358	-0.00427545	0.0236495	-2.12004	-0.0231753	-1.58578	0	0	0	0	-0	0	0	0	-0.1265	0	-0	0	0	0	0	0	-0	0	0.105	-0.015	0	0	-0	0	0	-0.098	0.1	0	-0	0	0	0	0	0	-0	0	0.05595	0	0	0	-0	0	0	0	0	0	-0	0	545.633	548.758	360.529	208.804	0.554435	-5.6487	-0.000155436	0.00916991	16.0687
66	0.0862236	-0.0182414	0.00933127	0.0144007	-0.0156543	-0.0365871	0.0208947	0.0290293	-0.00139937	-0.0778388	0.107586	0.0344608	0.0492511	-0.00427561	0.0238234	-2.11655	-0.0231662	-1.58592	0	0	0	0	-0	0	0	0	-0.1265	0	-0	0	0	0	0	0	-0	0	0.105	-0.015	0	0	-0	0	0	-0.098	0.1	0	-0	0	0	0	0	0	-0	0	0.05595	0	0	0	-0	0	0	0	0	0	-0	0	545.629	548.751	360.57	208.832	0.555248	-5.65801	-0.000145621	0.00919006	16.1005
67	0.0865275	-0.0182416	0.00933166	0.0144003	-0.0156547	-0.0365869	0.020894	0.0290287	-0.0013993	-0.0743386	0.103097	0.0330317	0.0492435	-0.00427577	0.0238384	-2.11629	-0.0231935	-1.58597	0	0	0	0	-0	0	0	0	-0.1265	0	-0	0	0	0	0	0	-0	0	0.105	-0.015	0	0	-0	0	0	-0.098	0.1	0	-0	0	0	0	0	0	-0	0	0.05595	0	0	0	-0	0	0	0	0	0	-0	0	545.625	548.745	360.601	208.853	0.555863	-5.66498	-0.000137575	0.00920517	16.1241
68	0.0859329	-0.0182427	0.00933135	0.0144005	-0.0156553	-0.0365857	0.020894	0.0290288	-0.00139916	-0.0780751	0.10696	0.0288349	0.0492581	-0.00427596	0.0238087	-2.11696	-0.0232733	-1.58606	0	0	0	0	-0	0	0	0	-0.1265	0	-0	0	0	0	0	0	-0	0	0.105	-0.015	0	0	-0	0	0	-0.098	0.1	0	-0	0	0	0	0	0	-0	0	0.05595	0	0	0	-0	0	0	0	0	0	-0	0	545.62	548.736	360.669	208.899	0.557016	-5.67973	-0.000122686	0.00923534	16.178
69	0.0775631	-0.0182437	0.00933155	0.0144002	-0.0156561	-0.0365844	0.0208942	0.0290304	-0.00139755	-0.0697022	0.111002	0.018875	0.0494578	-0.00427632	0.023396	-2.12545	-0.0235026	-1.586	0	0	0	0	-0	0	0	0	-0.1265	0	-0	0	0	0	0	0	-0	0	0.105	-0.015	0	0	-0	0	0	-0.098	0.1	0	-0	0	0	0	0	0	-0	0	0.05595	0	0	0	-0	0	0	0	0	0	-0	0	545.611	548.719	360.766	208.968	0.558708	-5.70106	-9.13777e-05	0.00928066	16.2546
70	0.0749667	-0.0182431	0.00933264	0.0143987	-0.0156565	-0.0365848	0.0208933	0.0290282	-0.00139893	-0.0689426	0.110192	0.0209397	0.0495158	-0.00427643	0.0232677	-2.12807	-0.0235563	-1.58596	0	0	0	0	-0	0	0	0	-0.1265	0	-0	0	0	0	0	0	-0	0	0.105	-0.015	0	0	-0	0	0	-0.098	0.1	0	-0	0	0	0	0	0	-0	0	0.05595	0	0	0	-0	0	0	0	0	0	-0	0	545.61	548.717	360.779	208.977	0.559197	-5.70511	-8.80584e-05	0.00929033	16.2649
71	0.0783961	-0.0182439	0.00933267	0.0143984	-0.0156571	-0.0365844	0.0208932	0.0290281	-0.00139889	-0.0693184	0.109895	0.022015	0.049436	-0.00427653	0.0234373	-2.12467	-0.0235337	-1.58608	0	0	0	0	-0	0	0	0	-0.1265	0	-0	0	0	0	0	0	-0	0	0.105	-0.015	0	0	-0	0	0	-0.098	0.1	0	-0	0	0	0	0	0	-0	0	0.05595	0	0	0	-0	0	0	0	0	0	-0	0	545.607	548.714	360.807	208.998	0.559713	-5.7114	-8.37413e-05	0.00930262	16.2875
72	0.0807443	-0.0182443	0.00933269	0.0143984	-0.0156574	-0.0365838	0.0208936	0.029028	-0.00139888	-0.0710873	0.101496	0.0220039	0.049381	-0.00427668	0.023553	-2.12237	-0.023541	-1.58619	0	0	0	0	-0	0	0	0	-0.1265	0	-0	0	0	0	0	0	-0	0	0.105	-0.015	0	0	-0	0	0	-0.098	0.1	0	-0	0	0	0	0	0	-0	0	0.05595	0	0	0	-0	0	0	0	0	0	-0	0	545.603	548.706	360.848	209.028	0.56046	-5.72081	-7.11334e-05	0.0093216	16.3214
73	0.0815944	-0.0182444	0.00933296	0.014398	-0.0156577	-0.0365837	0.0208932	0.0290284	-0.00139866	-0.0733884	0.100747	0.0259156	0.0493606	-0.00427678	0.023595	-2.12155	-0.023549	-1.58624	0	0	0	0	-0	0	0	0	-0.1265	0	-0	0	0	0	0	0	-0	0	0.105	-0.015	0	0	-0	0	0	-0.098	0.1	0	-0	0	0	0	0	0	-0	0	0.05595	0	0	0	-0	0	0	0	0	0	-0	0	545.602	548.703	360.868	209.043	0.56089	-5.72562	-6.65702e-05	0.00933184	16.3377
74	0.0803878	-0.0182448	0.00933307	0.0143978	-0.0156579	-0.0365831	0.0208928	0.0290292	-0.00139851	-0.0642494	0.102099	0.0242374	0.0493893	-0.00427694	0.0235353	-2.12282	-0.0236146	-1.58627	0	0	0	0	-0	0	0	0	-0.1265	0	-0	0	0	0	0	0	-0	0	0.105	-0.015	0	0	-0	0	0	-0.098	0.1	0	-0	0	0	0	0	0	-0	0	0.05595	0	0	0	-0	0	0	0	0	0	-0	0	545.598	548.696	360.913	209.077	0.561666	-5.7357	-5.03456e-05	0.00935263	16.3744
75	0.0839341	-0.0182448	0.00933348	0.0143973	-0.0156582	-0.036583	0.0208929	0.0290283	-0.00139874	-0.0683114	0.102793	0.0225155	0.0493056	-0.00427706	0.0237105	-2.1193	-0.0235826	-1.58639	0	0	0	0	-0	0	0	0	-0.1265	0	-0	0	0	0	0	0	-0	0	0.105	-0.015	0	0	-0	0	0	-0.098	0.1	0	-0	0	0	0	0	0	-0	0	0.05595	0	0	0	-0	0	0	0	0	0	-0	0	545.596	548.692	360.935	209.094	0.562134	-5.74096	-4.29955e-05	0.00936411	16.392
76	0.0810627	-0.018245	0.00933368	0.014397	-0.0156584	-0.0365829	0.0208929	0.0290282	-0.00139865	-0.0664851	0.101507	0.0207444	0.0493733	-0.00427714	0.0235689	-2.12219	-0.0236443	-1.58634	0	0	0	0	-0	0	0	0	-0.1265	0	-0	0	0	0	0	0	-0	0	0.105	-0.015	0	0	-0	0	0	-0.098	0.1	0	-0	0	0	0	0	0	-0	0	0.05595	0	0	0	-0	0	0	0	0	0	-0	0	545.594	548.689	360.951	209.107	0.562499	-5.74501	-4.07823e-05	0.00937197	16.4058
77	0.0820918	-0.0182453	0.00933376	0.0143969	-0.0156586	-0.0365824	0.0208929	0.0290281	-0.0013986	-0.064687	0.0998027	0.023029	0.0493491	-0.00427728	0.0236194	-2.12121	-0.0236662	-1.58642	0	0	0	0	-0	0	0	0	-0.1265	0	-0	0	0	0	0	0	-0	0	0.105	-0.015	0	0	-0	0	0	-0.098	0.1	0	-0	0	0	0	0	0	-0	0	0.05595	0	0	0	-0	0	0	0	0	0	-0	0	545.59	548.683	360.987	209.135	0.563169	-5.75352	-2.98544e-05	0.0093885	16.4366
78	0.0856893	-0.0182454	0.00933393	0.0143966	-0.0156588	-0.0365823	0.0208929	0.0290281	-0.00139863	-0.0640525	0.0976768	0.0203855	0.049264	-0.00427735	0.023797	-2.11764	-0.0236284	-1.58653	0	0	0	0	-0	0	0	0	-0.1265	0	-0	0	0	0	0	0	-0	0	0.105	-0.015	0	0	-0	0	0	-0.098	0.1	0	-0	0	0	0	0	0	-0	0	0.05595	0	0	0	-0	0	0	0	0	0	-0	0	545.589	548.681	361.005	209.149	0.563541	-5.75787	-2.42544e-05	0.00939756	16.4516
79	0.0874316	-0.0182456	0.00933396	0.0143965	-0.0156589	-0.0365816	0.020893	0.0290284	-0.00139855	-0.0685698	0.101158	0.0204684	0.0492225	-0.00427749	0.0238824	-2.11595	-0.023642	-1.58663	0	0	0	0	-0	0	0	0	-0.1265	0	-0	0	0	0	0	0	-0	0	0.105	-0.015	0	0	-0	0	0	-0.098	0.1	0	-0	0	0	0	0	0	-0	0	0.05595	0	0	0	-0	0	0	0	0	0	-0	0	545.586	548.674	361.045	209.18	0.564239	-5.7671	-8.4762e-06	0.00941575	16.4854
80	0.0851711	-0.0182458	0.00933403	0.0143964	-0.015659	-0.0365808	0.0208929	0.0290291	-0.00139936	-0.0617858	0.10448	0.0282426	0.0492765	-0.00427768	0.023771	-2.11829	-0.0237376	-1.58665	0	0	0	0	-0	0	0	0	-0.1265	0	-0	0	0	0	0	0	-0	0	0.105	-0.015	0	0	-0	0	0	-0.098	0.1	0	-0	0	0	0	0	0	-0	0	0.05595	0	0	0	-0	0	0	0	0	0	-0	0	545.582	548.664	361.102	209.227	0.565362	-5.78148	1.22075e-05	0.00944265	16.5374
81	0.0881297	-0.0182458	0.00933472	0.0143956	-0.0156594	-0.0365808	0.0208931	0.0290284	-0.00139763	-0.0591844	0.11086	0.0220404	0.0492055	-0.00427784	0.0239171	-2.11538	-0.0237196	-1.58676	0	0	0	0	-0	0	0	0	-0.1265	0	-0	0	0	0	0	0	-0	0	0.105	-0.015	0	0	-0	0	0	-0.098	0.1	0	-0	0	0	0	0	0	-0	0	0.05595	0	0	0	-0	0	0	0	0	0	-0	0	545.579	548.659	361.13	209.25	0.566054	-5.78907	2.25933e-05	0.0094576	16.5623
82	0.0854676	-0.0182459	0.00933478	0.0143952	-0.0156592	-0.0365799	0.020893	0.0290302	-0.00139799	-0.0698425	0.1136	0.0260254	0.0492696	-0.00427806	0.0237855	-2.11813	-0.023826	-1.58679	0	0	0	0	-0	0	0	0	-0.1265	0	-0	0	0	0	0	0	-0	0	0.105	-0.015	0	0	-0	0	0	-0.098	0.1	0	-0	0	0	0	0	0	-0	0	0.05595	0	0	0	-0	0	0	0	0	0	-0	0	545.574	548.649	361.191	209.302	0.567142	-5.80341	4.25652e-05	0.00948575	16.6154
83	0.0851279	-0.0182459	0.00933548	0.0143946	-0.0156595	-0.0365799	0.0208928	0.0290284	-0.00139856	-0.0694695	0.117597	0.0320229	0.0492771	-0.00427826	0.023769	-2.11851	-0.0238622	-1.58682	0	0	0	0	-0	0	0	0	-0.1265	0	-0	0	0	0	0	0	-0	0	0.105	-0.015	0	0	-0	0	0	-0.098	0.1	0	-0	0	0	0	0	0	-0	0	0.05595	0	0	0	-0	0	0	0	0	0	-0	0	545.57	548.645	361.221	209.328	0.567895	-5.81143	4.82196e-05	0.00950153	16.6418
84	0.0865477	-0.0182461	0.00933572	0.0143941	-0.0156599	-0.0365797	0.0208924	0.0290278	-0.00139807	-0.0693186	0.113342	0.0332448	0.0492434	-0.00427836	0.023839	-2.11713	-0.0238622	-1.58689	0	0	0	0	-0	0	0	0	-0.1265	0	-0	0	0	0	0	0	-0	0	0.105	-0.015	0	0	-0	0	0	-0.098	0.1	0	-0	0	0	0	0	0	-0	0	0.05595	0	0	0	-0	0	0	0	0	0	-0	0	545.568	548.641	361.242	209.347	0.568346	-5.81689	5.52937e-05	0.00951205	16.6611
85	0.0938895	-0.0182462	0.00933572	0.0143939	-0.0156597	-0.036579	0.0208921	0.0290279	-0.00139807	-0.0715786	0.114048	0.0333629	0.0490686	-0.0042785	0.0242002	-2.10986	-0.0237935	-1.58713	0	0	0	0	-0	0	0	0	-0.1265	0	-0	0	0	0	0	0	-0	0	0.105	-0.015	0	0	-0	0	0	-0.098	0.1	0	-0	0	0	0	0	0	-0	0	0.05595	0	0	0	-0	0	0	0	0	0	-0	0	545.566	548.634	361.291	209.389	0.569199	-5.82857	7.59614e-05	0.00953443	16.7047
86	0.0882971	-0.0182464	0.00933597	0.0143936	-0.0156597	-0.0365782	0.0208917	0.0290326	-0.00139718	-0.0900331	0.112894	0.0363073	0.0492028	-0.00427878	0.0239248	-2.11556	-0.023956	-1.5871	0	0	0	0	-0	0	0	0	-0.1265	0	-0	0	0	0	0	0	-0	0	0.105	-0.015	0	0	-0	0	0	-0.098	0.1	0	-0	0	0	0	0	0	-0	0	0.05595	0	0	0	-0	0	0	0	0	0	-0	0	545.561	548.625	361.36	209.452	0.57059	-5.84623	9.80527e-05	0.00956708	16.7689
87	0.0844214	-0.0182458	0.00933672	0.0143931	-0.0156591	-0.0365771	0.0208915	0.0290291	-0.00139949	-0.101983	0.10453	0.0287329	0.0492951	-0.00427923	0.0237333	-2.1196	-0.0241204	-1.58715	0	0	0	0	-0	0	0	0	-0.1265	0	-0	0	0	0	0	0	-0	0	0.105	-0.015	0	0	-0	0	0	-0.098	0.1	0	-0	0	0	0	0	0	-0	0	0.05595	0	0	0	-0	0	0	0	0	0	-0	0	545.552	548.605	361.457	209.543	0.5726	-5.87205	0.000142423	0.00961471	16.8622
88	0.0850602	-0.0182461	0.00933759	0.0143916	-0.0156602	-0.0365775	0.0208918	0.0290278	-0.0013977	-0.099566	0.101806	0.0284867	0.0492787	-0.00427934	0.0237655	-2.11898	-0.0241234	-1.58718	0	0	0	0	-0	0	0	0	-0.1265	0	-0	0	0	0	0	0	-0	0	0.105	-0.015	0	0	-0	0	0	-0.098	0.1	0	-0	0	0	0	0	0	-0	0	0.05595	0	0	0	-0	0	0	0	0	0	-0	0	545.551	548.602	361.47	209.556	0.573108	-5.87656	0.000146513	0.00962343	16.8746
89	0.0818572	-0.0182457	0.00933777	0.0143909	-0.0156598	-0.0365769	0.0208925	0.0290282	-0.00139772	-0.103543	0.108839	0.0293767	0.049355	-0.00427945	0.0236074	-2.12225	-0.0242139	-1.58715	0	0	0	0	-0	0	0	0	-0.1265	0	-0	0	0	0	0	0	-0	0	0.105	-0.015	0	0	-0	0	0	-0.098	0.1	0	-0	0	0	0	0	0	-0	0	0.05595	0	0	0	-0	0	0	0	0	0	-0	0	545.548	548.596	361.506	209.591	0.573856	-5.88653	0.000162419	0.00964031	16.9115
90	0.0790694	-0.0182455	0.00933823	0.0143904	-0.0156598	-0.036577	0.020892	0.0290282	-0.00139756	-0.0981636	0.105018	0.0295138	0.0494203	-0.00427957	0.0234699	-2.12507	-0.024278	-1.58711	0	0	0	0	-0	0	0	0	-0.1265	0	-0	0	0	0	0	0	-0	0	0.105	-0.015	0	0	-0	0	0	-0.098	0.1	0	-0	0	0	0	0	0	-0	0	0.05595	0	0	0	-0	0	0	0	0	0	-0	0	545.547	548.594	361.524	209.609	0.574324	-5.89163	0.000165922	0.00964985	16.9285
91	0.0796596	-0.0182453	0.00933834	0.0143902	-0.0156596	-0.0365764	0.0208913	0.0290278	-0.0013972	-0.0916637	0.110804	0.028075	0.0494066	-0.00427971	0.0234987	-2.12455	-0.0243093	-1.58718	0	0	0	0	-0	0	0	0	-0.1265	0	-0	0	0	0	0	0	-0	0	0.105	-0.015	0	0	-0	0	0	-0.098	0.1	0	-0	0	0	0	0	0	-0	0	0.05595	0	0	0	-0	0	0	0	0	0	-0	0	545.544	548.587	361.562	209.649	0.575121	-5.90242	0.000185803	0.00966822	16.9685
92	0.0845174	-0.0182453	0.00933852	0.01439	-0.0156592	-0.0365758	0.0208916	0.029028	-0.0013975	-0.0969755	0.112194	0.0249953	0.049293	-0.00427997	0.0237381	-2.11979	-0.0242882	-1.58738	0	0	0	0	-0	0	0	0	-0.1265	0	-0	0	0	0	0	0	-0	0	0.105	-0.015	0	0	-0	0	0	-0.098	0.1	0	-0	0	0	0	0	0	-0	0	0.05595	0	0	0	-0	0	0	0	0	0	-0	0	545.539	548.579	361.619	209.707	0.576248	-5.91717	0.000205067	0.00969473	17.0233
93	0.0874057	-0.0182449	0.00933924	0.0143891	-0.0156592	-0.0365758	0.0208912	0.0290276	-0.00139732	-0.0926234	0.114903	0.0257597	0.0492234	-0.00428013	0.0238806	-2.11695	-0.0242679	-1.58749	0	0	0	0	-0	0	0	0	-0.1265	0	-0	0	0	0	0	0	-0	0	0.105	-0.015	0	0	-0	0	0	-0.098	0.1	0	-0	0	0	0	0	0	-0	0	0.05595	0	0	0	-0	0	0	0	0	0	-0	0	545.537	548.574	361.645	209.735	0.57693	-5.92516	0.000219067	0.00970951	17.0506
94	0.08418	-0.0182444	0.00933946	0.0143886	-0.0156585	-0.036575	0.0208922	0.0290289	-0.00139726	-0.0848831	0.109467	0.0304498	0.0493006	-0.00428034	0.0237213	-2.12029	-0.0243827	-1.5875	0	0	0	0	-0	0	0	0	-0.1265	0	-0	0	0	0	0	0	-0	0	0.105	-0.015	0	0	-0	0	0	-0.098	0.1	0	-0	0	0	0	0	0	-0	0	0.05595	0	0	0	-0	0	0	0	0	0	-0	0	545.534	548.563	361.704	209.799	0.578094	-5.94151	0.000253479	0.00973747	17.112
95	0.0857141	-0.0182436	0.0093402	0.0143878	-0.0156583	-0.0365751	0.0208925	0.0290285	-0.00139776	-0.0868569	0.117065	0.0377518	0.0492634	-0.00428051	0.0237972	-2.11881	-0.0243862	-1.58757	0	0	0	0	-0	0	0	0	-0.1265	0	-0	0	0	0	0	0	-0	0	0.105	-0.015	0	0	-0	0	0	-0.098	0.1	0	-0	0	0	0	0	0	-0	0	0.05595	0	0	0	-0	0	0	0	0	0	-0	0	545.532	548.559	361.732	209.83	0.578932	-5.95095	0.000263248	0.00975287	17.1439
96	0.0876894	-0.0182434	0.00934063	0.0143871	-0.0156583	-0.036575	0.0208919	0.0290284	-0.001397	-0.0826295	0.113564	0.0450141	0.0492162	-0.00428062	0.0238946	-2.11688	-0.0243741	-1.58765	0	0	0	0	-0	0	0	0	-0.1265	0	-0	0	0	0	0	0	-0	0	0.105	-0.015	0	0	-0	0	0	-0.098	0.1	0	-0	0	0	0	0	0	-0	0	0.05595	0	0	0	-0	0	0	0	0	0	-0	0	545.53	548.554	361.752	209.854	0.579421	-5.95718	0.00027725	0.00976359	17.166
97	0.088349	-0.0182431	0.00934089	0.0143866	-0.0156582	-0.0365748	0.0208914	0.0290279	-0.00139655	-0.0847722	0.11101	0.0513119	0.0492004	-0.00428069	0.023927	-2.11625	-0.0243787	-1.58769	0	0	0	0	-0	0	0	0	-0.1265	0	-0	0	0	0	0	0	-0	0	0.105	-0.015	0	0	-0	0	0	-0.098	0.1	0	-0	0	0	0	0	0	-0	0	0.05595	0	0	0	-0	0	0	0	0	0	-0	0	545.529	548.55	361.767	209.871	0.579804	-5.96196	0.000285226	0.00977138	17.183
98	0.0885085	-0.0182429	0.00934107	0.0143862	-0.0156581	-0.0365747	0.0208911	0.0290274	-0.00139676	-0.0838005	0.114617	0.0492152	0.0491965	-0.00428073	0.0239349	-2.11611	-0.0243877	-1.58771	0	0	0	0	-0	0	0	0	-0.1265	0	-0	0	0	0	0	0	-0	0	0.105	-0.015	0	0	-0	0	0	-0.098	0.1	0	-0	0	0	0	0	0	-0	0	0.05595	0	0	0	-0	0	0	0	0	0	-0	0	545.528	548.549	361.778	209.885	0.580075	-5.96539	0.00029126	0.00977719	17.1953
99	0.0917204	-0.0182428	0.00934115	0.014386	-0.0156578	-0.0365744	0.020891	0.029028	-0.00139691	-0.0906554	0.115934	0.0478714	0.0491197	-0.00428083	0.0240927	-2.11295	-0.024359	-1.58783	0	0	0	0	-0	0	0	0	-0.1265	0	-0	0	0	0	0	0	-0	0	0.105	-0.015	0	0	-0	0	0	-0.098	0.1	0	-0	0	0	0	0	0	-0	0	0.05595	0	0	0	-0	0	0	0	0	0	-0	0	545.527	548.546	361.803	209.914	0.580642	-5.97295	0.000301223	0.00978882	17.2235
100	0.0905936	-0.0182426	0.00934134	0.0143858	-0.0156577	-0.0365744	0.0208912	0.0290274	-0.00139694	-0.0907944	0.120505	0.0498727	0.0491465	-0.00428089	0.0240373	-2.11411	-0.0243905	-1.58782	0	0	0	0	-0	0	0	0	-0.1265	0	-0	0	0	0	0	0	-0	0	0.105	-0.015	0	0	-0	0	0	-0.098	0.1	0	-0	0	0	0	0	0	-0	0	0.05595	0	0	0	-0	0	0	0	0	0	-0	0	545.526	548.544	361.815	209.928	0.580966	-5.97692	0.000307621	0.00979543	17.2375
