Stefan210/kinematic_calibration/src/kinematic_calibration/validation/experiments/experiments/anzahl_messungen/BC_A/larm_42/optimization_intermediate_results.csv
iteration	HeadPitch_offset	HeadYaw_offset	LElbowRoll_offset	LElbowYaw_offset	LShoulderPitch_offset	LShoulderRoll_offset	marker_transform_larm_tx	marker_transform_larm_ty	marker_transform_larm_tz	marker_transform_larm_rr	marker_transform_larm_rp	marker_transform_larm_ry	camera_transform_tx	camera_transform_ty	camera_transform_tz	camera_transform_rr	camera_transform_rp	camera_transform_ry	HeadPitch_transform_tx	HeadPitch_transform_ty	HeadPitch_transform_tz	HeadPitch_transform_rr	HeadPitch_transform_rp	HeadPitch_transform_ry	HeadYaw_transform_tx	HeadYaw_transform_ty	HeadYaw_transform_tz	HeadYaw_transform_rr	HeadYaw_transform_rp	HeadYaw_transform_ry	LElbowRoll_transform_tx	LElbowRoll_transform_ty	LElbowRoll_transform_tz	LElbowRoll_transform_rr	LElbowRoll_transform_rp	LElbowRoll_transform_ry	LElbowYaw_transform_tx	LElbowYaw_transform_ty	LElbowYaw_transform_tz	LElbowYaw_transform_rr	LElbowYaw_transform_rp	LElbowYaw_transform_ry	LShoulderPitch_transform_tx	LShoulderPitch_transform_ty	LShoulderPitch_transform_tz	LShoulderPitch_transform_rr	LShoulderPitch_transform_rp	LShoulderPitch_transform_ry	LShoulderRoll_transform_tx	LShoulderRoll_transform_ty	LShoulderRoll_transform_tz	LShoulderRoll_transform_rr	LShoulderRoll_transform_rp	LShoulderRoll_transform_ry	LWristYaw_transform_tx	LWristYaw_transform_ty	LWristYaw_transform_tz	LWristYaw_transform_rr	LWristYaw_transform_rp	LWristYaw_transform_ry	l_wrist_joint_transform_tx	l_wrist_joint_transform_ty	l_wrist_joint_transform_tz	l_wrist_joint_transform_rr	l_wrist_joint_transform_rp	l_wrist_joint_transform_ry	camera_fx	camera_fy	camera_cx	camera_cy	camera_D0	camera_D1	camera_D2	camera_D3	camera_D4	
0	0.0249164	-0.0307543	0.000853157	4.65819e-06	-0.000318322	-0.00310766	0.05071	0	0.01774	-2.26369	1.66533e-16	-1.5708	545.901	551.038	324.928	201.58	0.0255298	2.61142	-0.0636736	-0.0350419	0.213964
1	-0.0143402	0.0268242	0.00906763	0.0226533	-0.00996521	0.0299584	0.0240098	-0.0296879	0.00224357	-0.000168393	-0.000459492	-0.00311284	0.057676	0.000544754	0.0171994	-2.20573	-0.00751427	-1.56562	0	0	0	0	-0	0	0	0	-0.1265	0	-0	0	0	0	0	0	-0	0	0.105	0.015	0	0	-0	0	0	0.098	0.1	0	-0	0	0	0	0	0	-0	0	0.05595	0	0	0	-0	0	0	0	0	0	-0	0	545.901	551.039	324.927	201.581	-0.0160701	2.59626	-0.0859573	0.063971	0.210398
2	-0.0123977	0.0362747	0.00880961	0.0280229	-0.016985	0.0368069	0.0240321	-0.0298159	0.00251861	-0.000198868	-0.000485944	-0.00312296	0.0558011	0.000142943	0.0215819	-2.21465	-0.0102108	-1.5682	0	0	0	0	-0	0	0	0	-0.1265	0	-0	0	0	0	0	0	-0	0	0.105	0.015	0	0	-0	0	0	0.098	0.1	0	-0	0	0	0	0	0	-0	0	0.05595	0	0	0	-0	0	0	0	0	0	-0	0	545.903	551.039	324.923	201.585	-0.143745	2.50409	-0.0412364	0.0259309	0.177475
3	-0.0139447	0.032381	0.00702753	0.0287532	-0.0145744	0.0374147	0.0240712	-0.0297517	0.00253364	-0.000201353	-0.00049148	-0.00311197	0.0569107	0.00081889	0.0187405	-2.20773	-0.00992642	-1.56936	0	0	0	0	-0	0	0	0	-0.1265	0	-0	0	0	0	0	0	-0	0	0.105	0.015	0	0	-0	0	0	0.098	0.1	0	-0	0	0	0	0	0	-0	0	0.05595	0	0	0	-0	0	0	0	0	0	-0	0	545.905	551.039	324.918	201.59	-0.337282	2.37806	-0.0319423	0.0230932	0.135164
4	-0.0147987	0.030266	0.0083817	0.0314725	-0.0127699	0.036352	0.0243237	-0.0297097	0.00268666	-0.00021878	-0.000497666	-0.00307328	0.057724	0.000778488	0.0163768	-2.2037	-0.0095414	-1.56631	0	0	0	0	-0	0	0	0	-0.1265	0	-0	0	0	0	0	0	-0	0	0.105	0.015	0	0	-0	0	0	0.098	0.1	0	-0	0	0	0	0	0	-0	0	0.05595	0	0	0	-0	0	0	0	0	0	-0	0	545.91	551.038	324.91	201.598	-0.595234	2.14951	0.00416403	0.0025883	0.0506726
5	-0.0153823	0.0285804	0.00893268	0.0327224	-0.0114964	0.0352042	0.0244572	-0.0296812	0.00272115	-0.000231211	-0.000501913	-0.00305634	0.0578297	0.000811722	0.0152528	-2.20111	-0.00960471	-1.56499	0	0	0	0	-0	0	0	0	-0.1265	0	-0	0	0	0	0	0	-0	0	0.105	0.015	0	0	-0	0	0	0.098	0.1	0	-0	0	0	0	0	0	-0	0	0.05595	0	0	0	-0	0	0	0	0	0	-0	0	545.922	551.032	324.901	201.607	-0.652761	1.86599	0.0182985	-0.00560116	-0.0697681
6	-0.015442	0.0279358	0.00889885	0.0323787	-0.0111193	0.0342265	0.0244677	-0.0296688	0.00262109	-0.000228202	-0.000449184	-0.00303545	0.0567827	0.000852701	0.0160312	-2.20116	-0.010165	-1.56513	0	0	0	0	-0	0	0	0	-0.1265	0	-0	0	0	0	0	0	-0	0	0.105	0.015	0	0	-0	0	0	0.098	0.1	0	-0	0	0	0	0	0	-0	0	0.05595	0	0	0	-0	0	0	0	0	0	-0	0	545.951	551.016	324.89	201.618	-0.464713	1.45299	0.00995281	-0.00349347	-0.25804
7	-0.0153848	0.027502	0.00872332	0.0316983	-0.0109774	0.0334085	0.0244506	-0.029662	0.00249863	-0.000193036	-0.000444453	-0.00306232	0.0554923	0.000907678	0.0172138	-2.20165	-0.0108271	-1.56545	0	0	0	0	-0	0	0	0	-0.1265	0	-0	0	0	0	0	0	-0	0	0.105	0.015	0	0	-0	0	0	0.098	0.1	0	-0	0	0	0	0	0	-0	0	0.05595	0	0	0	-0	0	0	0	0	0	-0	0	546.019	550.973	324.876	201.625	-0.210851	0.952895	-0.00374298	0.000846333	-0.469226
8	-0.0151522	0.0274726	0.00871286	0.0312425	-0.011053	0.0329529	0.0244431	-0.0296632	0.00242213	-0.00037991	-0.000495968	-0.00331504	0.0546413	0.000914732	0.0180653	-2.20196	-0.0112265	-1.56562	0	0	0	0	-0	0	0	0	-0.1265	0	-0	0	0	0	0	0	-0	0	0.105	0.015	0	0	-0	0	0	0.098	0.1	0	-0	0	0	0	0	0	-0	0	0.05595	0	0	0	-0	0	0	0	0	0	-0	0	546.198	550.852	324.841	201.615	-0.0402785	0.57937	-0.0119113	0.00338654	-0.559521
9	-0.015449	0.0276552	0.00879975	0.0310094	-0.0112107	0.0328759	0.0244466	-0.0296715	0.00239297	-0.000303276	-0.000211109	-0.00305048	0.0542838	0.000888595	0.0184617	-2.20257	-0.0111706	-1.56553	0	0	0	0	-0	0	0	0	-0.1265	0	-0	0	0	0	0	0	-0	0	0.105	0.015	0	0	-0	0	0	0.098	0.1	0	-0	0	0	0	0	0	-0	0	0.05595	0	0	0	-0	0	0	0	0	0	-0	0	546.701	550.505	324.723	201.567	0.020092	0.374772	-0.0127118	0.00391187	-0.412905
10	-0.0159499	0.0280851	0.00897557	0.0307373	-0.0115119	0.0329988	0.0244589	-0.0296913	0.00237624	0.000408496	-0.00253344	-0.0027424	0.0539805	0.000819637	0.0188676	-2.20338	-0.0105944	-1.56518	0	0	0	0	-0	0	0	0	-0.1265	0	-0	0	0	0	0	0	-0	0	0.105	0.015	0	0	-0	0	0	0.098	0.1	0	-0	0	0	0	0	0	-0	0	0.05595	0	0	0	-0	0	0	0	0	0	-0	0	548.059	549.57	324.394	201.426	0.0404927	0.141705	-0.00800284	0.0035327	0.075154
11	-0.0132447	0.0290086	0.00932912	0.0301825	-0.0121228	0.0332936	0.0244839	-0.0297327	0.00234834	-0.00712876	-0.00166201	0.000190042	0.053325	0.000671407	0.0198766	-2.20114	-0.00932479	-1.56453	0	0	0	0	-0	0	0	0	-0.1265	0	-0	0	0	0	0	0	-0	0	0.105	0.015	0	0	-0	0	0	0.098	0.1	0	-0	0	0	0	0	0	-0	0	0.05595	0	0	0	-0	0	0	0	0	0	-0	0	551.163	547.451	323.703	201.061	0.0571814	-0.255189	0.00347857	0.00266183	1.00141
12	-0.0146458	0.0303405	0.00981917	0.0293587	-0.0129362	0.0337422	0.0245236	-0.0297948	0.00230756	0.00363766	0.000944525	-0.0202615	0.052433	0.000453012	0.0210917	-2.20266	-0.00752722	-1.56374	0	0	0	0	-0	0	0	0	-0.1265	0	-0	0	0	0	0	0	-0	0	0.105	0.015	0	0	-0	0	0	0.098	0.1	0	-0	0	0	0	0	0	-0	0	0.05595	0	0	0	-0	0	0	0	0	0	-0	0	556.211	544.236	322.827	200.236	0.052577	-0.671436	0.0218149	0.0015986	2.03884
13	-0.0478627	0.0313049	0.0101597	0.0287078	-0.0134401	0.0341332	0.0245524	-0.0298795	0.00225706	0.0627784	0.00124841	0.00159987	0.0522729	0.000266174	0.0205186	-2.23377	-0.00602446	-1.56325	0	0	0	0	-0	0	0	0	-0.1265	0	-0	0	0	0	0	0	-0	0	0.105	0.015	0	0	-0	0	0	0.098	0.1	0	-0	0	0	0	0	0	-0	0	0.05595	0	0	0	-0	0	0	0	0	0	-0	0	561.201	542.067	322.459	198.259	0.0203183	-0.828106	0.0373817	0.000931886	2.47272
14	-0.0328844	0.0315158	0.0102262	0.0285088	-0.0134872	0.0342919	0.0245719	-0.0298386	0.00225577	0.0671306	0.028826	-0.0170983	0.0515594	0.000189622	0.0218704	-2.21495	-0.0062098	-1.5639	0	0	0	0	-0	0	0	0	-0.1265	0	-0	0	0	0	0	0	-0	0	0.105	0.015	0	0	-0	0	0	0.098	0.1	0	-0	0	0	0	0	0	-0	0	0.05595	0	0	0	-0	0	0	0	0	0	-0	0	563.682	541.947	322.949	195.71	-0.00259405	-0.769616	0.0417341	0.000903685	2.29146
15	-0.018214	0.0315502	0.0102426	0.0284373	-0.0134803	0.0343312	0.0245607	-0.0298349	0.0022573	0.075122	0.0412342	-0.0156185	0.0510943	0.000167505	0.0227783	-2.19843	-0.00651004	-1.56435	0	0	0	0	-0	0	0	0	-0.1265	0	-0	0	0	0	0	0	-0	0	0.105	0.015	0	0	-0	0	0	0.098	0.1	0	-0	0	0	0	0	0	-0	0	0.05595	0	0	0	-0	0	0	0	0	0	-0	0	564.424	542.108	323.274	194.549	-0.00928273	-0.736623	0.0422395	0.000919997	2.18911
16	-0.0114685	0.0315578	0.0102451	0.0284284	-0.0134754	0.0343447	0.0245598	-0.0298322	0.00225931	0.0617641	0.0623128	-0.0112789	0.05089	0.000159836	0.0231694	-2.19095	-0.00663976	-1.56454	0	0	0	0	-0	0	0	0	-0.1265	0	-0	0	0	0	0	0	-0	0	0.105	0.015	0	0	-0	0	0	0.098	0.1	0	-0	0	0	0	0	0	-0	0	0.05595	0	0	0	-0	0	0	0	0	0	-0	0	564.668	542.189	323.407	194.093	-0.0115204	-0.725116	0.0423145	0.000926576	2.15328
17	-0.00876225	0.0315601	0.0102461	0.0284244	-0.0134734	0.0343493	0.024559	-0.0298339	0.00225607	0.0539729	0.0583901	-0.0101981	0.05081	0.000157101	0.0233246	-2.18797	-0.00668978	-1.56462	0	0	0	0	-0	0	0	0	-0.1265	0	-0	0	0	0	0	0	-0	0	0.105	0.015	0	0	-0	0	0	0.098	0.1	0	-0	0	0	0	0	0	-0	0	0.05595	0	0	0	-0	0	0	0	0	0	-0	0	564.755	542.222	323.457	193.925	-0.0121701	-0.721758	0.0423271	0.000929357	2.14171
18	-0.0062065	0.0315503	0.0102396	0.02842	-0.0134584	0.0343636	0.0245596	-0.0298342	0.00225591	0.0636672	0.0618383	-0.015177	0.0507005	0.000150559	0.0235096	-2.18434	-0.00686039	-1.56487	0	0	0	0	-0	0	0	0	-0.1265	0	-0	0	0	0	0	0	-0	0	0.105	0.015	0	0	-0	0	0	0.098	0.1	0	-0	0	0	0	0	0	-0	0	0.05595	0	0	0	-0	0	0	0	0	0	-0	0	565.026	542.369	323.661	193.276	-0.0143609	-0.70256	0.0421163	0.000997495	2.07961
19	-0.0171265	0.0315409	0.010235	0.0284163	-0.0134438	0.0343752	0.0245585	-0.0298403	0.00225258	0.0882422	0.0591383	-0.00526	0.0509147	0.000144859	0.0230021	-2.19425	-0.00695455	-1.56503	0	0	0	0	-0	0	0	0	-0.1265	0	-0	0	0	0	0	0	-0	0	0.105	0.015	0	0	-0	0	0	0.098	0.1	0	-0	0	0	0	0	0	-0	0	0.05595	0	0	0	-0	0	0	0	0	0	-0	0	565.248	542.502	323.86	192.67	-0.0161252	-0.686347	0.0418773	0.00105437	2.02596
20	-0.00949194	0.0315333	0.0102319	0.0284167	-0.013433	0.0343828	0.0245625	-0.0298316	0.00225244	0.0854576	0.0749013	-0.0148578	0.0507088	0.000141065	0.0234207	-2.18589	-0.00712045	-1.56525	0	0	0	0	-0	0	0	0	-0.1265	0	-0	0	0	0	0	0	-0	0	0.105	0.015	0	0	-0	0	0	0.098	0.1	0	-0	0	0	0	0	0	-0	0	0.05595	0	0	0	-0	0	0	0	0	0	-0	0	565.39	542.594	324.006	192.239	-0.0171745	-0.676182	0.0416894	0.00109225	1.99093
21	9.52899e-05	0.0315144	0.0102237	0.0284099	-0.0134112	0.0343966	0.0245639	-0.0298349	0.00225319	0.0801029	0.0675476	0.00195077	0.0504313	0.000135273	0.0239617	-2.17483	-0.00745221	-1.56571	0	0	0	0	-0	0	0	0	-0.1265	0	-0	0	0	0	0	0	-0	0	0.105	0.015	0	0	-0	0	0	0.098	0.1	0	-0	0	0	0	0	0	-0	0	0.05595	0	0	0	-0	0	0	0	0	0	-0	0	565.635	542.76	324.329	191.368	-0.0185869	-0.656351	0.0411953	0.00121751	1.92021
22	-0.00729537	0.0315093	0.0102229	0.0284093	-0.0134022	0.0344028	0.0245602	-0.0298322	0.00225622	0.0695447	0.0737157	0.0124214	0.0505813	0.000131788	0.0236134	-2.18153	-0.00754616	-1.56584	0	0	0	0	-0	0	0	0	-0.1265	0	-0	0	0	0	0	0	-0	0	0.105	0.015	0	0	-0	0	0	0.098	0.1	0	-0	0	0	0	0	0	-0	0	0.05595	0	0	0	-0	0	0	0	0	0	-0	0	565.741	542.828	324.483	190.959	-0.0190744	-0.650615	0.0410102	0.00125377	1.8962
23	-0.011309	0.0314996	0.0102186	0.0284074	-0.0133902	0.0344111	0.0245589	-0.0298375	0.00225917	0.0942056	0.0649287	0.00194112	0.0506443	0.000128139	0.0234434	-2.18457	-0.00773017	-1.56609	0	0	0	0	-0	0	0	0	-0.1265	0	-0	0	0	0	0	0	-0	0	0.105	0.015	0	0	-0	0	0	0.098	0.1	0	-0	0	0	0	0	0	-0	0	0.05595	0	0	0	-0	0	0	0	0	0	-0	0	565.869	542.905	324.708	190.39	-0.0195063	-0.641809	0.0406996	0.0013395	1.86008
24	-0.00478696	0.0314999	0.0102194	0.0284094	-0.0133882	0.0344123	0.0245604	-0.0298294	0.00225366	0.0910971	0.0587224	-0.00334277	0.0504847	0.000126768	0.0237809	-2.17786	-0.00780067	-1.56619	0	0	0	0	-0	0	0	0	-0.1265	0	-0	0	0	0	0	0	-0	0	0.105	0.015	0	0	-0	0	0	0.098	0.1	0	-0	0	0	0	0	0	-0	0	0.05595	0	0	0	-0	0	0	0	0	0	-0	0	565.895	542.919	324.753	190.277	-0.0196287	-0.641335	0.040671	0.00133953	1.85628
25	0.000145547	0.0314986	0.0102203	0.0284041	-0.0133862	0.0344152	0.0245597	-0.0298288	0.00225299	0.0927821	0.0631704	-0.00154422	0.0503574	0.000125823	0.0240392	-2.17267	-0.0078771	-1.56631	0	0	0	0	-0	0	0	0	-0.1265	0	-0	0	0	0	0	0	-0	0	0.105	0.015	0	0	-0	0	0	0.098	0.1	0	-0	0	0	0	0	0	-0	0	0.05595	0	0	0	-0	0	0	0	0	0	-0	0	565.928	542.937	324.813	190.127	-0.0194862	-0.640698	0.0405906	0.00136335	1.85008
26	0.00308685	0.0314955	0.0102193	0.028403	-0.013382	0.0344186	0.0245617	-0.0298317	0.00225293	0.104682	0.0715607	-0.0014429	0.0502745	0.000124489	0.0241994	-2.16936	-0.00797035	-1.56644	0	0	0	0	-0	0	0	0	-0.1265	0	-0	0	0	0	0	0	-0	0	0.105	0.015	0	0	-0	0	0	0.098	0.1	0	-0	0	0	0	0	0	-0	0	0.05595	0	0	0	-0	0	0	0	0	0	-0	0	565.971	542.959	324.902	189.909	-0.019539	-0.638167	0.0404766	0.00139787	1.83807
27	0.00135556	0.0314938	0.0102192	0.0284025	-0.013379	0.034421	0.0245608	-0.0298284	0.00225325	0.104258	0.0819675	0.00170966	0.0503075	0.000123376	0.0241216	-2.17081	-0.00802248	-1.56651	0	0	0	0	-0	0	0	0	-0.1265	0	-0	0	0	0	0	0	-0	0	0.105	0.015	0	0	-0	0	0	0.098	0.1	0	-0	0	0	0	0	0	-0	0	0.05595	0	0	0	-0	0	0	0	0	0	-0	0	566.002	542.972	324.968	189.75	-0.0195506	-0.636877	0.0404053	0.00141951	1.83047
28	0.0056151	0.0314922	0.0102188	0.0284003	-0.0133762	0.0344238	0.0245602	-0.0298297	0.00225296	0.0970584	0.0808884	0.00831319	0.0501952	0.000122247	0.0243464	-2.16624	-0.00811085	-1.56664	0	0	0	0	-0	0	0	0	-0.1265	0	-0	0	0	0	0	0	-0	0	0.105	0.015	0	0	-0	0	0	0.098	0.1	0	-0	0	0	0	0	0	-0	0	0.05595	0	0	0	-0	0	0	0	0	0	-0	0	566.035	542.985	325.045	189.567	-0.0195447	-0.635131	0.0403144	0.00144993	1.82121
29	0.0027983	0.0314888	0.0102178	0.0283996	-0.0133715	0.0344276	0.0245607	-0.0298292	0.00225357	0.0938166	0.0873306	0.0174927	0.0502506	0.000120847	0.0242184	-2.16861	-0.00820488	-1.56677	0	0	0	0	-0	0	0	0	-0.1265	0	-0	0	0	0	0	0	-0	0	0.105	0.015	0	0	-0	0	0	0.098	0.1	0	-0	0	0	0	0	0	-0	0	0.05595	0	0	0	-0	0	0	0	0	0	-0	0	566.076	543.001	325.159	189.305	-0.0194557	-0.633018	0.0401737	0.00149541	1.80866
30	-0.00430638	0.031487	0.0102178	0.0283977	-0.013368	0.0344309	0.0245603	-0.0298288	0.00225209	0.0921617	0.0866471	0.0256274	0.0504116	0.000119527	0.0238733	-2.17532	-0.00827205	-1.56684	0	0	0	0	-0	0	0	0	-0.1265	0	-0	0	0	0	0	0	-0	0	0.105	0.015	0	0	-0	0	0	0.098	0.1	0	-0	0	0	0	0	0	-0	0	0.05595	0	0	0	-0	0	0	0	0	0	-0	0	566.11	543.01	325.261	189.076	-0.0194201	-0.631121	0.0400634	0.00153451	1.79762
31	-0.00199279	0.0314873	0.0102187	0.0283967	-0.0133672	0.034432	0.0245598	-0.0298277	0.00225159	0.0951513	0.0804892	0.0288817	0.0503513	0.000118919	0.0239938	-2.17287	-0.00831331	-1.5669	0	0	0	0	-0	0	0	0	-0.1265	0	-0	0	0	0	0	0	-0	0	0.105	0.015	0	0	-0	0	0	0.098	0.1	0	-0	0	0	0	0	0	-0	0	0.05595	0	0	0	-0	0	0	0	0	0	-0	0	566.121	543.013	325.294	189	-0.0193754	-0.631085	0.040035	0.00154269	1.79528
32	-0.00201376	0.0314851	0.0102181	0.0283953	-0.0133641	0.0344349	0.0245618	-0.0298276	0.00225393	0.100075	0.0647182	0.0230121	0.0503429	0.000118032	0.0240024	-2.17255	-0.00839899	-1.56702	0	0	0	0	-0	0	0	0	-0.1265	0	-0	0	0	0	0	0	-0	0	0.105	0.015	0	0	-0	0	0	0.098	0.1	0	-0	0	0	0	0	0	-0	0	0.05595	0	0	0	-0	0	0	0	0	0	-0	0	566.145	543.018	325.384	188.804	-0.0192195	-0.629862	0.0399266	0.00158225	1.78657
33	-0.00159548	0.0314846	0.0102185	0.0283942	-0.0133627	0.0344359	0.0245601	-0.029828	0.00225215	0.101722	0.0605789	0.0169369	0.0503284	0.00011741	0.0240284	-2.17197	-0.00844289	-1.56708	0	0	0	0	-0	0	0	0	-0.1265	0	-0	0	0	0	0	0	-0	0	0.105	0.015	0	0	-0	0	0	0.098	0.1	0	-0	0	0	0	0	0	-0	0	0.05595	0	0	0	-0	0	0	0	0	0	-0	0	566.156	543.02	325.429	188.707	-0.0191148	-0.629798	0.03988	0.00159655	1.78352
34	0.00239372	0.0314837	0.0102185	0.0283936	-0.013361	0.0344381	0.0245601	-0.0298281	0.00225191	0.103898	0.058832	0.0102021	0.0502264	0.000116739	0.0242361	-2.16773	-0.00852137	-1.5672	0	0	0	0	-0	0	0	0	-0.1265	0	-0	0	0	0	0	0	-0	0	0.105	0.015	0	0	-0	0	0	0.098	0.1	0	-0	0	0	0	0	0	-0	0	0.05595	0	0	0	-0	0	0	0	0	0	-0	0	566.17	543.019	325.495	188.566	-0.0189352	-0.629578	0.0398091	0.00162433	1.77865
35	-0.00141521	0.0314839	0.0102191	0.0283929	-0.0133604	0.0344389	0.0245603	-0.029828	0.00225157	0.108407	0.0638063	0.0125522	0.0503156	0.000116338	0.0240475	-2.17144	-0.00853323	-1.5672	0	0	0	0	-0	0	0	0	-0.1265	0	-0	0	0	0	0	0	-0	0	0.105	0.015	0	0	-0	0	0	0.098	0.1	0	-0	0	0	0	0	0	-0	0	0.05595	0	0	0	-0	0	0	0	0	0	-0	0	566.176	543.018	325.522	188.509	-0.0188726	-0.629675	0.0397872	0.00163243	1.77711
36	0.00100621	0.0314832	0.0102193	0.0283919	-0.0133591	0.0344406	0.0245598	-0.0298274	0.00225167	0.111402	0.0598579	0.00975934	0.050252	0.000115807	0.0241749	-2.16882	-0.00859539	-1.5673	0	0	0	0	-0	0	0	0	-0.1265	0	-0	0	0	0	0	0	-0	0	0.105	0.015	0	0	-0	0	0	0.098	0.1	0	-0	0	0	0	0	0	-0	0	0.05595	0	0	0	-0	0	0	0	0	0	-0	0	566.186	543.015	325.577	188.393	-0.0186598	-0.629918	0.0397283	0.00165614	1.77402
37	-0.00169193	0.0314821	0.0102193	0.0283905	-0.0133569	0.034443	0.0245601	-0.0298295	0.00225132	0.099835	0.0577909	0.00856535	0.0503097	0.00011504	0.0240474	-2.17121	-0.00866919	-1.56738	0	0	0	0	-0	0	0	0	-0.1265	0	-0	0	0	0	0	0	-0	0	0.105	0.015	0	0	-0	0	0	0.098	0.1	0	-0	0	0	0	0	0	-0	0	0.05595	0	0	0	-0	0	0	0	0	0	-0	0	566.2	543.011	325.663	188.218	-0.0184432	-0.629452	0.0396375	0.00169316	1.76754
38	-0.00486273	0.0314806	0.0102194	0.0283892	-0.0133538	0.0344464	0.0245607	-0.0298293	0.00225203	0.0913202	0.0578373	0.0170694	0.0503763	0.000114119	0.0238985	-2.17394	-0.00878462	-1.56752	0	0	0	0	-0	0	0	0	-0.1265	0	-0	0	0	0	0	0	-0	0	0.105	0.015	0	0	-0	0	0	0.098	0.1	0	-0	0	0	0	0	0	-0	0	0.05595	0	0	0	-0	0	0	0	0	0	-0	0	566.214	542.998	325.79	187.967	-0.0181107	-0.628775	0.0395065	0.00174906	1.75802
39	-0.00910163	0.0314789	0.0102201	0.0283862	-0.0133498	0.0344509	0.0245616	-0.0298302	0.00225032	0.101166	0.0621473	0.0275908	0.0504652	0.000112985	0.0236989	-2.17756	-0.00896016	-1.56774	0	0	0	0	-0	0	0	0	-0.1265	0	-0	0	0	0	0	0	-0	0	0.105	0.015	0	0	-0	0	0	0.098	0.1	0	-0	0	0	0	0	0	-0	0	0.05595	0	0	0	-0	0	0	0	0	0	-0	0	566.224	542.972	325.977	187.614	-0.0175332	-0.628402	0.0393166	0.00183296	1.74583
40	-0.00803152	0.0314788	0.0102224	0.0283815	-0.0133459	0.0344572	0.0245611	-0.0298283	0.0022519	0.0966743	0.0683544	0.0381277	0.0504242	0.000111666	0.0237707	-2.17563	-0.00924627	-1.56811	0	0	0	0	-0	0	0	0	-0.1265	0	-0	0	0	0	0	0	-0	0	0.105	0.015	0	0	-0	0	0	0.098	0.1	0	-0	0	0	0	0	0	-0	0	0.05595	0	0	0	-0	0	0	0	0	0	-0	0	566.22	542.913	326.25	187.133	-0.0165148	-0.629386	0.0390692	0.00195821	1.73189
41	-0.0110261	0.0314817	0.0102251	0.0283801	-0.0133466	0.0344576	0.0245597	-0.0298271	0.00224993	0.0907633	0.0701794	0.0352756	0.0504926	0.000110832	0.0236232	-2.17852	-0.00927455	-1.56813	0	0	0	0	-0	0	0	0	-0.1265	0	-0	0	0	0	0	0	-0	0	0.105	0.015	0	0	-0	0	0	0.098	0.1	0	-0	0	0	0	0	0	-0	0	0.05595	0	0	0	-0	0	0	0	0	0	-0	0	566.22	542.903	326.286	187.068	-0.0163175	-0.631205	0.039066	0.0019597	1.734
42	-0.0119993	0.0314833	0.0102267	0.0283773	-0.0133468	0.0344602	0.0245616	-0.0298274	0.00224863	0.0898146	0.0799437	0.0267204	0.0505092	0.000110185	0.0235815	-2.1792	-0.00936877	-1.56825	0	0	0	0	-0	0	0	0	-0.1265	0	-0	0	0	0	0	0	-0	0	0.105	0.015	0	0	-0	0	0	0.098	0.1	0	-0	0	0	0	0	0	-0	0	0.05595	0	0	0	-0	0	0	0	0	0	-0	0	566.218	542.875	326.38	186.906	-0.0157326	-0.633566	0.0390009	0.0020031	1.73363
43	-0.0102955	0.0314843	0.0102283	0.0283756	-0.0133466	0.0344613	0.0245601	-0.0298268	0.00225036	0.0943506	0.0733755	0.0235156	0.0504661	0.00010979	0.0236711	-2.17736	-0.00942144	-1.56833	0	0	0	0	-0	0	0	0	-0.1265	0	-0	0	0	0	0	0	-0	0	0.105	0.015	0	0	-0	0	0	0.098	0.1	0	-0	0	0	0	0	0	-0	0	0.05595	0	0	0	-0	0	0	0	0	0	-0	0	566.217	542.862	326.426	186.826	-0.0154724	-0.634677	0.0389716	0.00202059	1.73325
44	-0.0116822	0.0314855	0.010229	0.0283746	-0.0133468	0.0344624	0.0245605	-0.0298265	0.00224981	0.0939806	0.0808828	0.0240803	0.0504958	0.000109382	0.0236049	-2.17859	-0.00947204	-1.56838	0	0	0	0	-0	0	0	0	-0.1265	0	-0	0	0	0	0	0	-0	0	0.105	0.015	0	0	-0	0	0	0.098	0.1	0	-0	0	0	0	0	0	-0	0	0.05595	0	0	0	-0	0	0	0	0	0	-0	0	566.214	542.844	326.479	186.737	-0.0151761	-0.63596	0.0389386	0.00204343	1.73319
45	-0.0154995	0.0314861	0.0102299	0.0283735	-0.0133467	0.0344633	0.0245599	-0.0298266	0.00224954	0.0952972	0.0800348	0.0258581	0.0505838	0.000109142	0.0234148	-2.18229	-0.00950375	-1.5684	0	0	0	0	-0	0	0	0	-0.1265	0	-0	0	0	0	0	0	-0	0	0.105	0.015	0	0	-0	0	0	0.098	0.1	0	-0	0	0	0	0	0	-0	0	0.05595	0	0	0	-0	0	0	0	0	0	-0	0	566.211	542.832	326.518	186.672	-0.0149434	-0.636889	0.0389102	0.00205981	1.73295
46	-0.016979	0.0314871	0.010231	0.0283718	-0.0133463	0.0344653	0.0245617	-0.0298279	0.0022509	0.0937072	0.088115	0.035538	0.050614	0.000108801	0.0233449	-2.18351	-0.00959261	-1.5685	0	0	0	0	-0	0	0	0	-0.1265	0	-0	0	0	0	0	0	-0	0	0.105	0.015	0	0	-0	0	0	0.098	0.1	0	-0	0	0	0	0	0	-0	0	0.05595	0	0	0	-0	0	0	0	0	0	-0	0	566.203	542.803	326.605	186.528	-0.0145436	-0.637874	0.0388457	0.0021017	1.7302
47	-0.0164962	0.0314885	0.0102328	0.0283693	-0.0133457	0.0344678	0.0245621	-0.0298266	0.00225107	0.0974408	0.0733208	0.0299402	0.0505973	0.000108365	0.0233761	-2.18266	-0.00973207	-1.56868	0	0	0	0	-0	0	0	0	-0.1265	0	-0	0	0	0	0	0	-0	0	0.105	0.015	0	0	-0	0	0	0.098	0.1	0	-0	0	0	0	0	0	-0	0	0.05595	0	0	0	-0	0	0	0	0	0	-0	0	566.187	542.758	326.734	186.323	-0.0138752	-0.639842	0.0387487	0.00216244	1.72729
48	-0.0211433	0.0314905	0.0102348	0.0283672	-0.0133462	0.0344689	0.0245609	-0.0298295	0.00224888	0.109812	0.0766483	0.0343568	0.050703	0.00010795	0.0231447	-2.18713	-0.0097905	-1.56872	0	0	0	0	-0	0	0	0	-0.1265	0	-0	0	0	0	0	0	-0	0	0.105	0.015	0	0	-0	0	0	0.098	0.1	0	-0	0	0	0	0	0	-0	0	0.05595	0	0	0	-0	0	0	0	0	0	-0	0	566.178	542.733	326.798	186.222	-0.0134686	-0.641739	0.0387118	0.0021879	1.72788
49	-0.0292522	0.0314924	0.0102367	0.0283655	-0.0133459	0.0344718	0.0245599	-0.0298279	0.00224816	0.119472	0.0729236	0.0402173	0.0508862	0.000107817	0.0227388	-2.19484	-0.00992986	-1.56884	0	0	0	0	-0	0	0	0	-0.1265	0	-0	0	0	0	0	0	-0	0	0.105	0.015	0	0	-0	0	0	0.098	0.1	0	-0	0	0	0	0	0	-0	0	0.05595	0	0	0	-0	0	0	0	0	0	-0	0	566.15	542.673	326.941	186.006	-0.01281	-0.643235	0.0386102	0.00225871	1.72341
50	-0.0263172	0.0314951	0.0102391	0.0283633	-0.0133469	0.034473	0.0245624	-0.0298297	0.00225009	0.123507	0.0698755	0.0264666	0.0508152	0.000107426	0.0228911	-2.19172	-0.0100132	-1.56896	0	0	0	0	-0	0	0	0	-0.1265	0	-0	0	0	0	0	0	-0	0	0.105	0.015	0	0	-0	0	0	0.098	0.1	0	-0	0	0	0	0	0	-0	0	0.05595	0	0	0	-0	0	0	0	0	0	-0	0	566.136	542.642	327.011	185.901	-0.0123323	-0.645604	0.038575	0.00228724	1.72477
