Stefan210/kinematic_calibration/src/kinematic_calibration/validation/experiments/experiments/impact_noise/outlier/larm_randomize_10_measurements_rk_true/optimization_intermediate_results.csv
iteration	HeadPitch_offset	HeadYaw_offset	LElbowRoll_offset	LElbowYaw_offset	LShoulderPitch_offset	LShoulderRoll_offset	marker_transform_larm_tx	marker_transform_larm_ty	marker_transform_larm_tz	marker_transform_larm_rr	marker_transform_larm_rp	marker_transform_larm_ry	camera_transform_tx	camera_transform_ty	camera_transform_tz	camera_transform_rr	camera_transform_rp	camera_transform_ry	HeadPitch_transform_tx	HeadPitch_transform_ty	HeadPitch_transform_tz	HeadPitch_transform_rr	HeadPitch_transform_rp	HeadPitch_transform_ry	HeadYaw_transform_tx	HeadYaw_transform_ty	HeadYaw_transform_tz	HeadYaw_transform_rr	HeadYaw_transform_rp	HeadYaw_transform_ry	LElbowRoll_transform_tx	LElbowRoll_transform_ty	LElbowRoll_transform_tz	LElbowRoll_transform_rr	LElbowRoll_transform_rp	LElbowRoll_transform_ry	LElbowYaw_transform_tx	LElbowYaw_transform_ty	LElbowYaw_transform_tz	LElbowYaw_transform_rr	LElbowYaw_transform_rp	LElbowYaw_transform_ry	LShoulderPitch_transform_tx	LShoulderPitch_transform_ty	LShoulderPitch_transform_tz	LShoulderPitch_transform_rr	LShoulderPitch_transform_rp	LShoulderPitch_transform_ry	LShoulderRoll_transform_tx	LShoulderRoll_transform_ty	LShoulderRoll_transform_tz	LShoulderRoll_transform_rr	LShoulderRoll_transform_rp	LShoulderRoll_transform_ry	LWristYaw_transform_tx	LWristYaw_transform_ty	LWristYaw_transform_tz	LWristYaw_transform_rr	LWristYaw_transform_rp	LWristYaw_transform_ry	l_wrist_joint_transform_tx	l_wrist_joint_transform_ty	l_wrist_joint_transform_tz	l_wrist_joint_transform_rr	l_wrist_joint_transform_rp	l_wrist_joint_transform_ry	camera_fx	camera_fy	camera_cx	camera_cy	camera_D0	camera_D1	camera_D2	camera_D3	camera_D4	
0	0.0249164	-0.0307543	0.000853157	4.65819e-06	-0.000318322	-0.00310766	0.05071	0	0.01774	-2.26369	1.66533e-16	-1.5708	545.901	551.038	324.928	201.58	0.0255298	2.61142	-0.0636736	-0.0350419	0.213964
1	-0.0147523	0.0233124	0.0327975	0.0166069	0.0417423	0.0106092	0.0271289	-0.0295185	0.00180743	-0.000115708	-0.000405716	-0.00271497	0.0528248	-0.00225674	0.0138439	-2.2037	-0.00400919	-1.58976	0	0	0	0	-0	0	0	0	-0.1265	0	-0	0	0	0	0	0	-0	0	0.105	0.015	0	0	-0	0	0	0.098	0.1	0	-0	0	0	0	0	0	-0	0	0.05595	0	0	0	-0	0	0	0	0	0	-0	0	545.902	551.038	324.928	201.58	0.01418	2.60753	-0.062336	0.0732583	0.213203
2	-0.0175307	0.0234914	0.0273767	0.034409	0.00936923	0.0274381	0.0261077	-0.0301224	0.00283271	-0.000230572	-0.000529632	-0.00289396	0.0531298	-0.000976155	0.0153328	-2.19288	-0.00648753	-1.56522	0	0	0	0	-0	0	0	0	-0.1265	0	-0	0	0	0	0	0	-0	0	0.105	0.015	0	0	-0	0	0	0.098	0.1	0	-0	0	0	0	0	0	-0	0	0.05595	0	0	0	-0	0	0	0	0	0	-0	0	545.916	551.037	324.916	201.596	-0.327275	2.31327	-0.0178031	-0.000651488	0.122651
3	-0.0174364	0.0221464	0.0243617	0.040608	0.00332094	0.0306386	0.0257744	-0.0301803	0.00316113	-0.000268289	-0.000559686	-0.00292673	0.0547759	-0.00135278	0.0142975	-2.19293	-0.000937099	-1.55774	0	0	0	0	-0	0	0	0	-0.1265	0	-0	0	0	0	0	0	-0	0	0.105	0.015	0	0	-0	0	0	0.098	0.1	0	-0	0	0	0	0	0	-0	0	0.05595	0	0	0	-0	0	0	0	0	0	-0	0	545.962	551.028	324.909	201.627	-0.357433	1.69632	-0.0106444	-0.00726026	-0.0869639
4	-0.0168805	0.0182899	0.0216733	0.0447912	0.00349163	0.032723	0.0255686	-0.0301357	0.00348858	-0.00026568	-0.000622721	-0.00297797	0.0545755	-0.0013274	0.0147645	-2.19512	0.00341333	-1.5506	0	0	0	0	-0	0	0	0	-0.1265	0	-0	0	0	0	0	0	-0	0	0.105	0.015	0	0	-0	0	0	0.098	0.1	0	-0	0	0	0	0	0	-0	0	0.05595	0	0	0	-0	0	0	0	0	0	-0	0	546.055	551.002	324.912	201.663	-0.127606	0.716853	-0.0164942	-0.00916569	-0.431591
5	-0.0164034	0.0168935	0.0200494	0.0456858	0.0040179	0.0337451	0.0254519	-0.030072	0.00358348	-0.000244883	-0.000689663	-0.00286642	0.05405	-0.00122594	0.0155175	-2.19696	0.00517041	-1.5485	0	0	0	0	-0	0	0	0	-0.1265	0	-0	0	0	0	0	0	-0	0	0.105	0.015	0	0	-0	0	0	0.098	0.1	0	-0	0	0	0	0	0	-0	0	0.05595	0	0	0	-0	0	0	0	0	0	-0	0	546.26	550.936	324.929	201.682	0.076872	-0.044359	-0.0218854	-0.00975759	-0.615584
6	-0.016371	0.0165033	0.0192963	0.0454868	0.00423279	0.0339718	0.0254053	-0.030037	0.00358831	-0.000470831	-0.00127381	-0.00270002	0.0537197	-0.00116467	0.0160185	-2.19839	0.00554054	-1.54795	0	0	0	0	-0	0	0	0	-0.1265	0	-0	0	0	0	0	0	-0	0	0.105	0.015	0	0	-0	0	0	0.098	0.1	0	-0	0	0	0	0	0	-0	0	0.05595	0	0	0	-0	0	0	0	0	0	-0	0	546.815	550.751	324.906	201.719	0.175457	-0.496032	-0.0231284	-0.0100271	-0.370913
7	-0.017182	0.0169566	0.0188851	0.0452624	0.00407827	0.0339097	0.0253806	-0.0300165	0.00358674	0.00108652	-0.00202856	-0.00221598	0.0533304	-0.00116131	0.0165261	-2.20041	0.00556058	-1.54811	0	0	0	0	-0	0	0	0	-0.1265	0	-0	0	0	0	0	0	-0	0	0.105	0.015	0	0	-0	0	0	0.098	0.1	0	-0	0	0	0	0	0	-0	0	0.05595	0	0	0	-0	0	0	0	0	0	-0	0	548.291	550.27	324.728	201.812	0.226293	-0.971874	-0.0191931	-0.0102698	0.613973
8	-0.0174192	0.0174241	0.0186622	0.0452323	0.00389555	0.0338535	0.0253667	-0.0300073	0.00360974	0.00415597	-0.00757196	-0.0092753	0.052582	-0.00119274	0.0174753	-2.20261	0.00598262	-1.54764	0	0	0	0	-0	0	0	0	-0.1265	0	-0	0	0	0	0	0	-0	0	0.105	0.015	0	0	-0	0	0	0.098	0.1	0	-0	0	0	0	0	0	-0	0	0.05595	0	0	0	-0	0	0	0	0	0	-0	0	551.559	549.412	324.187	202.021	0.284318	-1.80102	-0.00962543	-0.0108078	2.8673
9	-0.0101539	0.0178143	0.0184804	0.0454731	0.00373978	0.0337877	0.0253613	-0.0300021	0.00366462	0.00715526	-0.0384671	-0.0137568	0.0513919	-0.00125521	0.0191808	-2.19833	0.00730222	-1.54585	0	0	0	0	-0	0	0	0	-0.1265	0	-0	0	0	0	0	0	-0	0	0.105	0.015	0	0	-0	0	0	0.098	0.1	0	-0	0	0	0	0	0	-0	0	0.05595	0	0	0	-0	0	0	0	0	0	-0	0	556.615	549.184	322.842	202.469	0.355687	-2.97695	0.0030873	-0.011792	6.42948
10	-0.0151154	0.0179293	0.0184804	0.0455324	0.00368368	0.0337293	0.025351	-0.0300164	0.00368576	0.0284906	-0.0313212	-0.0230346	0.0509474	-0.00130586	0.0195657	-2.20498	0.00862519	-1.5445	0	0	0	0	-0	0	0	0	-0.1265	0	-0	0	0	0	0	0	-0	0	0.105	0.015	0	0	-0	0	0	0.098	0.1	0	-0	0	0	0	0	0	-0	0	0.05595	0	0	0	-0	0	0	0	0	0	-0	0	559.537	549.906	321.866	202.801	0.38771	-3.61309	0.00849846	-0.0123659	8.66516
11	-0.0470215	0.0181371	0.0184255	0.0458064	0.00367925	0.0336868	0.0253445	-0.0300094	0.00371365	0.0392109	-0.0471198	-0.0156329	0.0511655	-0.00134992	0.0184061	-2.23901	0.0108822	-1.54344	0	0	0	0	-0	0	0	0	-0.1265	0	-0	0	0	0	0	0	-0	0	0.105	0.015	0	0	-0	0	0	0.098	0.1	0	-0	0	0	0	0	0	-0	0	0.05595	0	0	0	-0	0	0	0	0	0	-0	0	562.015	551.47	320.716	203.523	0.415043	-4.0972	0.0109302	-0.0128744	10.4431
12	-0.0622043	0.0184793	0.0183242	0.045946	0.00357782	0.0336314	0.0253451	-0.030007	0.00372406	0.0365606	-0.0146605	-0.024557	0.0511645	-0.00136672	0.0179506	-2.25723	0.0129408	-1.54218	0	0	0	0	-0	0	0	0	-0.1265	0	-0	0	0	0	0	0	-0	0	0.105	0.015	0	0	-0	0	0	0.098	0.1	0	-0	0	0	0	0	0	-0	0	0.05595	0	0	0	-0	0	0	0	0	0	-0	0	564.229	553.837	319.274	204.848	0.430902	-4.43125	0.0114426	-0.0134885	11.8323
13	-0.0723366	0.0185404	0.0182911	0.0460687	0.00360718	0.0336715	0.0253358	-0.0300436	0.00374738	-0.00960423	-0.0190881	-0.0142164	0.0512325	-0.00137558	0.0175579	-2.26957	0.014453	-1.54128	0	0	0	0	-0	0	0	0	-0.1265	0	-0	0	0	0	0	0	-0	0	0.105	0.015	0	0	-0	0	0	0.098	0.1	0	-0	0	0	0	0	0	-0	0	0.05595	0	0	0	-0	0	0	0	0	0	-0	0	565.44	555.594	318.327	205.924	0.442254	-4.59661	0.0101707	-0.0137523	12.6085
14	-0.0669103	0.0185569	0.0182868	0.0462334	0.00363631	0.0337015	0.0253397	-0.0300235	0.00375295	-0.0194517	-0.0381424	-0.0135089	0.0510685	-0.00138819	0.0179045	-2.2658	0.0152015	-1.54037	0	0	0	0	-0	0	0	0	-0.1265	0	-0	0	0	0	0	0	-0	0	0.105	0.015	0	0	-0	0	0	0.098	0.1	0	-0	0	0	0	0	0	-0	0	0.05595	0	0	0	-0	0	0	0	0	0	-0	0	566.23	556.836	317.635	206.756	0.449889	-4.70657	0.00918289	-0.0140397	13.1323
15	-0.0633576	0.0186126	0.0182442	0.0462406	0.0036284	0.0337143	0.0253339	-0.0300185	0.0037494	-0.0227165	-0.0379183	-0.0318026	0.0509781	-0.00138664	0.0181069	-2.2629	0.0154251	-1.54003	0	0	0	0	-0	0	0	0	-0.1265	0	-0	0	0	0	0	0	-0	0	0.105	0.015	0	0	-0	0	0	0.098	0.1	0	-0	0	0	0	0	0	-0	0	0.05595	0	0	0	-0	0	0	0	0	0	-0	0	566.51	557.342	317.349	207.101	0.453058	-4.74776	0.00873822	-0.0141329	13.3336
16	-0.048267	0.0187288	0.0181803	0.0462841	0.00360427	0.0337108	0.0253349	-0.0300209	0.00376356	-0.0343522	-0.0180895	-0.00580385	0.0506497	-0.00138591	0.0189312	-2.24988	0.0159307	-1.53893	0	0	0	0	-0	0	0	0	-0.1265	0	-0	0	0	0	0	0	-0	0	0.105	0.015	0	0	-0	0	0	0.098	0.1	0	-0	0	0	0	0	0	-0	0	0.05595	0	0	0	-0	0	0	0	0	0	-0	0	567.316	558.632	316.517	208.162	0.455203	-4.83221	0.008148	-0.0145054	13.8233
17	-0.0511078	0.0187149	0.0181693	0.0463753	0.00362397	0.0337557	0.0253309	-0.0300138	0.00375821	-0.0356722	-0.00201379	-0.0158686	0.0506756	-0.00139005	0.0188021	-2.25371	0.0165645	-1.53846	0	0	0	0	-0	0	0	0	-0.1265	0	-0	0	0	0	0	0	-0	0	0.105	0.015	0	0	-0	0	0	0.098	0.1	0	-0	0	0	0	0	0	-0	0	0.05595	0	0	0	-0	0	0	0	0	0	-0	0	567.659	559.258	316.11	208.694	0.459097	-4.87742	0.00742886	-0.0146415	14.071
18	-0.0455361	0.0187656	0.0181457	0.046348	0.00360326	0.0337432	0.0253233	-0.0300097	0.00375457	-0.0411942	0.0105786	-0.0178042	0.0505589	-0.00138668	0.0190921	-2.24854	0.0165529	-1.53822	0	0	0	0	-0	0	0	0	-0.1265	0	-0	0	0	0	0	0	-0	0	0.105	0.015	0	0	-0	0	0	0.098	0.1	0	-0	0	0	0	0	0	-0	0	0.05595	0	0	0	-0	0	0	0	0	0	-0	0	567.791	559.514	315.939	208.908	0.460021	-4.89552	0.00728235	-0.0147099	14.1695
19	-0.048608	0.0188417	0.0181068	0.0463904	0.00357746	0.0337221	0.0253231	-0.0300206	0.00375545	-0.0181021	0.0210081	-0.00883148	0.050584	-0.0013871	0.0189661	-2.25325	0.0174186	-1.53756	0	0	0	0	-0	0	0	0	-0.1265	0	-0	0	0	0	0	0	-0	0	0.105	0.015	0	0	-0	0	0	0.098	0.1	0	-0	0	0	0	0	0	-0	0	0.05595	0	0	0	-0	0	0	0	0	0	-0	0	568.35	560.396	315.281	209.775	0.460215	-4.95126	0.00697543	-0.0150412	14.533
20	-0.0578569	0.0188557	0.0180891	0.0464031	0.00359081	0.0337422	0.0253183	-0.0300195	0.00375767	-0.0395299	0.0182152	-0.00907524	0.0507463	-0.00138508	0.0185082	-2.26329	0.0181236	-1.53737	0	0	0	0	-0	0	0	0	-0.1265	0	-0	0	0	0	0	0	-0	0	0.105	0.015	0	0	-0	0	0	0.098	0.1	0	-0	0	0	0	0	0	-0	0	0.05595	0	0	0	-0	0	0	0	0	0	-0	0	568.592	560.841	314.957	210.202	0.46267	-4.98295	0.00651737	-0.0151359	14.7134
21	-0.0469548	0.0189083	0.0180602	0.0464343	0.00357442	0.0337371	0.0253178	-0.0300095	0.00375664	-0.053795	0.0437989	-0.0141728	0.0505232	-0.0013855	0.0190776	-2.25355	0.0183158	-1.53666	0	0	0	0	-0	0	0	0	-0.1265	0	-0	0	0	0	0	0	-0	0	0.105	0.015	0	0	-0	0	0	0.098	0.1	0	-0	0	0	0	0	0	-0	0	0.05595	0	0	0	-0	0	0	0	0	0	-0	0	568.952	561.433	314.485	210.828	0.463364	-5.02367	0.00625821	-0.01537	14.975
22	-0.0525301	0.0189252	0.0180453	0.0464152	0.00356659	0.0337368	0.0253171	-0.0300126	0.00375487	-0.0451852	0.05267	-0.0260355	0.0506189	-0.00138348	0.0188005	-2.25959	0.0187282	-1.53656	0	0	0	0	-0	0	0	0	-0.1265	0	-0	0	0	0	0	0	-0	0	0.105	0.015	0	0	-0	0	0	0.098	0.1	0	-0	0	0	0	0	0	-0	0	0.05595	0	0	0	-0	0	0	0	0	0	-0	0	569.08	561.68	314.294	211.079	0.464632	-5.0403	0.00603171	-0.0154276	15.0764
23	-0.0499973	0.018931	0.018029	0.0464606	0.00357613	0.0337488	0.0253145	-0.0300106	0.00375836	-0.0516002	0.0443634	-0.0250984	0.0505579	-0.00138419	0.0189371	-2.258	0.0191216	-1.53607	0	0	0	0	-0	0	0	0	-0.1265	0	-0	0	0	0	0	0	-0	0	0.105	0.015	0	0	-0	0	0	0.098	0.1	0	-0	0	0	0	0	0	-0	0	0.05595	0	0	0	-0	0	0	0	0	0	-0	0	569.348	562.134	313.912	211.592	0.465925	-5.07274	0.00569751	-0.0155901	15.2877
24	-0.0352863	0.0189776	0.0179943	0.0465587	0.00357259	0.0337491	0.0253089	-0.0300114	0.00376374	-0.075848	0.061308	-0.0297291	0.0502478	-0.00138852	0.0197046	-2.24591	0.0198316	-1.53463	0	0	0	0	-0	0	0	0	-0.1265	0	-0	0	0	0	0	0	-0	0	0.105	0.015	0	0	-0	0	0	0.098	0.1	0	-0	0	0	0	0	0	-0	0	0.05595	0	0	0	-0	0	0	0	0	0	-0	0	570.055	563.189	312.911	213.026	0.466363	-5.1591	0.00541481	-0.0161069	15.8713
25	-0.0405211	0.0190384	0.0179649	0.0465302	0.00355244	0.0337382	0.0253082	-0.030027	0.00376998	-0.111149	0.0670126	-0.0174951	0.0503327	-0.0013863	0.0194483	-2.25235	0.0205504	-1.53423	0	0	0	0	-0	0	0	0	-0.1265	0	-0	0	0	0	0	0	-0	0	0.105	0.015	0	0	-0	0	0	0.098	0.1	0	-0	0	0	0	0	0	-0	0	0.05595	0	0	0	-0	0	0	0	0	0	-0	0	570.347	563.712	312.436	213.695	0.46828	-5.20468	0.00511294	-0.0163239	16.1543
26	-0.0483084	0.0189992	0.0179679	0.0466922	0.00358157	0.0337775	0.0253157	-0.030023	0.00376812	-0.0951107	0.0595057	0.00699664	0.0504736	-0.00139235	0.0190607	-2.26098	0.021317	-1.53393	0	0	0	0	-0	0	0	0	-0.1265	0	-0	0	0	0	0	0	-0	0	0.105	0.015	0	0	-0	0	0	0.098	0.1	0	-0	0	0	0	0	0	-0	0	0.05595	0	0	0	-0	0	0	0	0	0	-0	0	570.55	564.07	312.094	214.175	0.472057	-5.24957	0.00460176	-0.0164898	16.3992
27	-0.0441333	0.0190419	0.0179428	0.0465712	0.00358302	0.0337887	0.0253107	-0.0300137	0.00376508	-0.0853965	0.0512467	-0.00164571	0.0503898	-0.00138546	0.0192731	-2.25746	0.0214491	-1.5336	0	0	0	0	-0	0	0	0	-0.1265	0	-0	0	0	0	0	0	-0	0	0.105	0.015	0	0	-0	0	0	0.098	0.1	0	-0	0	0	0	0	0	-0	0	0.05595	0	0	0	-0	0	0	0	0	0	-0	0	570.671	564.34	311.83	214.535	0.474238	-5.27906	0.00438652	-0.0165365	16.5603
28	-0.0370978	0.0190218	0.0179279	0.0466485	0.00358072	0.0337872	0.0253083	-0.0300091	0.00376866	-0.0881026	0.0520483	0.000141424	0.050248	-0.00138683	0.0196266	-2.25067	0.0213373	-1.5333	0	0	0	0	-0	0	0	0	-0.1265	0	-0	0	0	0	0	0	-0	0	0.105	0.015	0	0	-0	0	0	0.098	0.1	0	-0	0	0	0	0	0	-0	0	0.05595	0	0	0	-0	0	0	0	0	0	-0	0	570.724	564.443	311.723	214.679	0.475249	-5.29056	0.0042381	-0.0166018	16.6304
29	-0.036876	0.0190443	0.0179122	0.0466815	0.0035687	0.0337787	0.0253071	-0.0300073	0.00376986	-0.0858597	0.0459209	-0.00157974	0.0502334	-0.00138766	0.0196414	-2.25146	0.0218254	-1.53281	0	0	0	0	-0	0	0	0	-0.1265	0	-0	0	0	0	0	0	-0	0	0.105	0.015	0	0	-0	0	0	0.098	0.1	0	-0	0	0	0	0	0	-0	0	0.05595	0	0	0	-0	0	0	0	0	0	-0	0	570.956	564.803	311.309	215.249	0.476074	-5.33445	0.0041752	-0.0168242	16.9072
30	-0.0273522	0.0190412	0.0179097	0.0467037	0.00356586	0.0337793	0.0253071	-0.0300075	0.00377091	-0.081632	0.0512846	-0.00215995	0.050043	-0.00138774	0.0201208	-2.24221	0.0216036	-1.53248	0	0	0	0	-0	0	0	0	-0.1265	0	-0	0	0	0	0	0	-0	0	0.105	0.015	0	0	-0	0	0	0.098	0.1	0	-0	0	0	0	0	0	-0	0	0.05595	0	0	0	-0	0	0	0	0	0	-0	0	571.009	564.908	311.198	215.401	0.477413	-5.34852	0.00402445	-0.016864	16.9833
31	-0.0318714	0.0190608	0.0179002	0.0466978	0.00356083	0.0337803	0.0253071	-0.0300072	0.00376937	-0.0822672	0.0423737	0.00227702	0.0501287	-0.00138697	0.0198955	-2.24727	0.0220355	-1.53233	0	0	0	0	-0	0	0	0	-0.1265	0	-0	0	0	0	0	0	-0	0	0.105	0.015	0	0	-0	0	0	0.098	0.1	0	-0	0	0	0	0	0	-0	0	0.05595	0	0	0	-0	0	0	0	0	0	-0	0	571.12	565.106	310.974	215.708	0.478485	-5.3743	0.00393687	-0.0169662	17.1347
32	-0.0338783	0.0190611	0.0178924	0.046713	0.00356432	0.0337854	0.0253068	-0.0300077	0.0037702	-0.0829122	0.0367521	0.00989021	0.0501651	-0.00138652	0.0197953	-2.24967	0.0223109	-1.53219	0	0	0	0	-0	0	0	0	-0.1265	0	-0	0	0	0	0	0	-0	0	0.105	0.015	0	0	-0	0	0	0.098	0.1	0	-0	0	0	0	0	0	-0	0	0.05595	0	0	0	-0	0	0	0	0	0	-0	0	571.195	565.245	310.814	215.928	0.479836	-5.39419	0.00380284	-0.0170319	17.2464
33	-0.0366224	0.0190621	0.0178909	0.0467231	0.00356464	0.0337894	0.0253056	-0.0300072	0.00377113	-0.0867528	0.0408783	0.00661188	0.0502182	-0.00138656	0.0196582	-2.25257	0.0225001	-1.53217	0	0	0	0	-0	0	0	0	-0.1265	0	-0	0	0	0	0	0	-0	0	0.105	0.015	0	0	-0	0	0	0.098	0.1	0	-0	0	0	0	0	0	-0	0	0.05595	0	0	0	-0	0	0	0	0	0	-0	0	571.223	565.303	310.749	216.017	0.480637	-5.40317	0.00372371	-0.0170555	17.293
34	-0.0363657	0.0190692	0.0178881	0.0467343	0.00355936	0.0337871	0.0253052	-0.0300082	0.00377264	-0.0965984	0.0420113	0.00997714	0.0502118	-0.00138684	0.0196711	-2.25253	0.0225976	-1.53207	0	0	0	0	-0	0	0	0	-0.1265	0	-0	0	0	0	0	0	-0	0	0.105	0.015	0	0	-0	0	0	0.098	0.1	0	-0	0	0	0	0	0	-0	0	0.05595	0	0	0	-0	0	0	0	0	0	-0	0	571.264	565.379	310.659	216.138	0.481074	-5.41407	0.00368435	-0.0171036	17.3569
35	-0.0470983	0.0190724	0.0178879	0.0467582	0.00355816	0.0337888	0.0253082	-0.030009	0.00377523	-0.0945511	0.0519117	0.0204893	0.0504215	-0.00138795	0.0191327	-2.26357	0.0231778	-1.53216	0	0	0	0	-0	0	0	0	-0.1265	0	-0	0	0	0	0	0	-0	0	0.105	0.015	0	0	-0	0	0	0.098	0.1	0	-0	0	0	0	0	0	-0	0	0.05595	0	0	0	-0	0	0	0	0	0	-0	0	571.327	565.487	310.527	216.316	0.48186	-5.4308	0.00361227	-0.0171735	17.4531
36	-0.0442502	0.0190719	0.0178827	0.0467489	0.0035655	0.0338003	0.0253076	-0.0300093	0.00377367	-0.0918615	0.0522956	0.00979183	0.0503632	-0.00138732	0.0192763	-2.26096	0.0231904	-1.53198	0	0	0	0	-0	0	0	0	-0.1265	0	-0	0	0	0	0	0	-0	0	0.105	0.015	0	0	-0	0	0	0.098	0.1	0	-0	0	0	0	0	0	-0	0	0.05595	0	0	0	-0	0	0	0	0	0	-0	0	571.368	565.566	310.43	216.448	0.483024	-5.44448	0.00352214	-0.0172022	17.5234
37	-0.0417372	0.0190792	0.0178768	0.0467712	0.00356547	0.0338028	0.0253076	-0.0300078	0.00377469	-0.088926	0.0626419	0.0084726	0.0503117	-0.00138787	0.0194036	-2.25896	0.0233559	-1.53167	0	0	0	0	-0	0	0	0	-0.1265	0	-0	0	0	0	0	0	-0	0	0.105	0.015	0	0	-0	0	0	0.098	0.1	0	-0	0	0	0	0	0	-0	0	0.05595	0	0	0	-0	0	0	0	0	0	-0	0	571.467	565.732	310.217	216.739	0.484272	-5.4724	0.00343806	-0.0173117	17.6835
38	-0.0345466	0.0190812	0.0178742	0.0467827	0.00356371	0.0338045	0.0253056	-0.030007	0.00377521	-0.0878664	0.0620553	0.00795067	0.0501704	-0.00138797	0.0197658	-2.25203	0.0232047	-1.53139	0	0	0	0	-0	0	0	0	-0.1265	0	-0	0	0	0	0	0	-0	0	0.105	0.015	0	0	-0	0	0	0.098	0.1	0	-0	0	0	0	0	0	-0	0	0.05595	0	0	0	-0	0	0	0	0	0	-0	0	571.511	565.816	310.112	216.881	0.485308	-5.48693	0.00335306	-0.0173558	17.7619
39	-0.0336661	0.0190923	0.0178681	0.0467735	0.003555	0.0337973	0.0253048	-0.0300066	0.003774	-0.0863195	0.0661905	0.00955736	0.0501505	-0.00138717	0.0198096	-2.25125	0.0232112	-1.53133	0	0	0	0	-0	0	0	0	-0.1265	0	-0	0	0	0	0	0	-0	0	0.105	0.015	0	0	-0	0	0	0.098	0.1	0	-0	0	0	0	0	0	-0	0	0.05595	0	0	0	-0	0	0	0	0	0	-0	0	571.529	565.849	310.069	216.939	0.485479	-5.4929	0.00336546	-0.0173775	17.7942
40	-0.0359092	0.0190981	0.0178646	0.0467939	0.00355311	0.0337957	0.0253059	-0.0300082	0.0037773	-0.0804501	0.059059	-0.000856192	0.0501926	-0.00138776	0.0196979	-2.2539	0.0235088	-1.53118	0	0	0	0	-0	0	0	0	-0.1265	0	-0	0	0	0	0	0	-0	0	0.105	0.015	0	0	-0	0	0	0.098	0.1	0	-0	0	0	0	0	0	-0	0	0.05595	0	0	0	-0	0	0	0	0	0	-0	0	571.609	565.977	309.898	217.172	0.48635	-5.5153	0.00331761	-0.0174712	17.925
41	-0.0386601	0.0190903	0.01787	0.0468258	0.00355762	0.033805	0.025306	-0.0300086	0.00377839	-0.0712309	0.0622722	-0.000627886	0.0502463	-0.00138951	0.0195604	-2.25685	0.0237366	-1.53114	0	0	0	0	-0	0	0	0	-0.1265	0	-0	0	0	0	0	0	-0	0	0.105	0.015	0	0	-0	0	0	0.098	0.1	0	-0	0	0	0	0	0	-0	0	0.05595	0	0	0	-0	0	0	0	0	0	-0	0	571.645	566.042	309.814	217.286	0.487456	-5.52804	0.0032067	-0.0175084	17.9919
42	-0.040131	0.019101	0.0178646	0.0468272	0.00355437	0.0338043	0.025307	-0.0300101	0.00377794	-0.0822066	0.0549134	-0.00622581	0.0502732	-0.00138929	0.019487	-2.25862	0.0239417	-1.53104	0	0	0	0	-0	0	0	0	-0.1265	0	-0	0	0	0	0	0	-0	0	0.105	0.015	0	0	-0	0	0	0.098	0.1	0	-0	0	0	0	0	0	-0	0	0.05595	0	0	0	-0	0	0	0	0	0	-0	0	571.698	566.132	309.689	217.455	0.488295	-5.54614	0.00318142	-0.0175713	18.0905
43	-0.0348813	0.0190991	0.0178624	0.046823	0.00356175	0.0338118	0.0253063	-0.0300087	0.00377812	-0.0789602	0.0535006	-0.0147918	0.0501701	-0.00138911	0.0197514	-2.2536	0.0238495	-1.5308	0	0	0	0	-0	0	0	0	-0.1265	0	-0	0	0	0	0	0	-0	0	0.105	0.015	0	0	-0	0	0	0.098	0.1	0	-0	0	0	0	0	0	-0	0	0.05595	0	0	0	-0	0	0	0	0	0	-0	0	571.733	566.197	309.596	217.58	0.489387	-5.56053	0.00311229	-0.0176091	18.1642
44	-0.0386502	0.0191085	0.0178544	0.0468293	0.00355664	0.03381	0.0253077	-0.0300072	0.00377648	-0.0780448	0.0392785	-0.00792819	0.050242	-0.00138875	0.0195623	-2.25768	0.0241599	-1.53074	0	0	0	0	-0	0	0	0	-0.1265	0	-0	0	0	0	0	0	-0	0	0.105	0.015	0	0	-0	0	0	0.098	0.1	0	-0	0	0	0	0	0	-0	0	0.05595	0	0	0	-0	0	0	0	0	0	-0	0	571.788	566.291	309.46	217.763	0.490349	-5.58085	0.00308241	-0.0176777	18.2753
45	-0.041312	0.019107	0.0178486	0.0468176	0.0035624	0.0338148	0.0253056	-0.0300079	0.00377704	-0.0733817	0.0386476	-0.0159902	0.0502926	-0.00138776	0.0194284	-2.26059	0.02439	-1.53069	0	0	0	0	-0	0	0	0	-0.1265	0	-0	0	0	0	0	0	-0	0	0.105	0.015	0	0	-0	0	0	0.098	0.1	0	-0	0	0	0	0	0	-0	0	0.05595	0	0	0	-0	0	0	0	0	0	-0	0	571.824	566.362	309.36	217.899	0.491493	-5.59571	0.00301049	-0.0177128	18.3535
46	-0.0413933	0.019115	0.0178441	0.0468401	0.0035568	0.0338131	0.0253056	-0.0300076	0.00377778	-0.0699526	0.0441891	-0.0227589	0.0502927	-0.00138829	0.019424	-2.26101	0.0245722	-1.53052	0	0	0	0	-0	0	0	0	-0.1265	0	-0	0	0	0	0	0	-0	0	0.105	0.015	0	0	-0	0	0	0.098	0.1	0	-0	0	0	0	0	0	-0	0	0.05595	0	0	0	-0	0	0	0	0	0	-0	0	571.882	566.46	309.213	218.098	0.492441	-5.61736	0.00297555	-0.0177957	18.474
47	-0.0376456	0.0191193	0.0178401	0.0468506	0.00355643	0.0338135	0.0253054	-0.0300095	0.00377957	-0.0812907	0.0421599	-0.0154441	0.0502183	-0.00138856	0.0196126	-2.25766	0.0246249	-1.53024	0	0	0	0	-0	0	0	0	-0.1265	0	-0	0	0	0	0	0	-0	0	0.105	0.015	0	0	-0	0	0	0.098	0.1	0	-0	0	0	0	0	0	-0	0	0.05595	0	0	0	-0	0	0	0	0	0	-0	0	571.946	566.564	309.048	218.324	0.493767	-5.64302	0.00293224	-0.0178811	18.6129
48	-0.0441981	0.0191255	0.0178339	0.0468793	0.00355946	0.0338182	0.0253072	-0.0300105	0.00378093	-0.0933933	0.0323616	-0.0150961	0.0503436	-0.00138993	0.0192838	-2.26505	0.0253187	-1.52999	0	0	0	0	-0	0	0	0	-0.1265	0	-0	0	0	0	0	0	-0	0	0.105	0.015	0	0	-0	0	0	0.098	0.1	0	-0	0	0	0	0	0	-0	0	0.05595	0	0	0	-0	0	0	0	0	0	-0	0	572.085	566.771	308.702	218.802	0.496164	-5.69723	0.00289573	-0.0180708	18.912
49	-0.0468421	0.0191274	0.0178208	0.046892	0.00357142	0.033828	0.0253046	-0.0300073	0.00378046	-0.101159	0.040498	-0.0185165	0.0503911	-0.00139018	0.0191484	-2.26884	0.0260042	-1.52952	0	0	0	0	-0	0	0	0	-0.1265	0	-0	0	0	0	0	0	-0	0	0.105	0.015	0	0	-0	0	0	0.098	0.1	0	-0	0	0	0	0	0	-0	0	0.05595	0	0	0	-0	0	0	0	0	0	-0	0	572.245	567.027	308.24	219.458	0.500725	-5.77934	0.00280153	-0.0183041	19.3426
50	-0.0458507	0.0191376	0.0178115	0.0468924	0.0035571	0.0338198	0.025303	-0.030006	0.00378012	-0.100907	0.0372209	-0.0183285	0.0503693	-0.00138878	0.0191998	-2.26789	0.0259766	-1.52949	0	0	0	0	-0	0	0	0	-0.1265	0	-0	0	0	0	0	0	-0	0	0.105	0.015	0	0	-0	0	0	0.098	0.1	0	-0	0	0	0	0	0	-0	0	0.05595	0	0	0	-0	0	0	0	0	0	-0	0	572.248	567.041	308.221	219.484	0.501471	-5.78417	0.00275954	-0.0182981	19.3594
51	-0.0470518	0.019141	0.0178102	0.0469023	0.0035514	0.0338154	0.0253024	-0.0300055	0.00378056	-0.0996061	0.0342203	-0.0167075	0.0503924	-0.00138884	0.0191386	-2.26917	0.0260663	-1.52949	0	0	0	0	-0	0	0	0	-0.1265	0	-0	0	0	0	0	0	-0	0	0.105	0.015	0	0	-0	0	0	0.098	0.1	0	-0	0	0	0	0	0	-0	0	0.05595	0	0	0	-0	0	0	0	0	0	-0	0	572.254	567.063	308.188	219.529	0.501921	-5.79019	0.00272758	-0.0183139	19.3899
52	-0.0457985	0.0191436	0.0178096	0.046909	0.00354895	0.0338135	0.0253023	-0.0300054	0.00378094	-0.100378	0.0313132	-0.0156037	0.0503687	-0.00138896	0.0192008	-2.26803	0.0260751	-1.5294	0	0	0	0	-0	0	0	0	-0.1265	0	-0	0	0	0	0	0	-0	0	0.105	0.015	0	0	-0	0	0	0.098	0.1	0	-0	0	0	0	0	0	-0	0	0.05595	0	0	0	-0	0	0	0	0	0	-0	0	572.267	567.096	308.139	219.595	0.502491	-5.79917	0.00269528	-0.0183388	19.4362
53	-0.0460554	0.0191456	0.0178084	0.0469157	0.00354827	0.0338136	0.0253023	-0.0300054	0.00378116	-0.0991713	0.0282136	-0.012344	0.0503738	-0.0013891	0.0191867	-2.26846	0.026176	-1.52933	0	0	0	0	-0	0	0	0	-0.1265	0	-0	0	0	0	0	0	-0	0	0.105	0.015	0	0	-0	0	0	0.098	0.1	0	-0	0	0	0	0	0	-0	0	0.05595	0	0	0	-0	0	0	0	0	0	-0	0	572.286	567.14	308.067	219.694	0.503313	-5.81247	0.00265847	-0.0183761	19.5048
54	-0.0498618	0.0191488	0.0178054	0.0469224	0.00354827	0.0338144	0.0253022	-0.0300056	0.00378175	-0.0947371	0.0291781	-0.0141709	0.0504466	-0.00138917	0.018994	-2.27253	0.0264738	-1.5293	0	0	0	0	-0	0	0	0	-0.1265	0	-0	0	0	0	0	0	-0	0	0.105	0.015	0	0	-0	0	0	0.098	0.1	0	-0	0	0	0	0	0	-0	0	0.05595	0	0	0	-0	0	0	0	0	0	-0	0	572.32	567.208	307.954	219.848	0.504546	-5.83354	0.00261589	-0.0184348	19.6142
55	-0.0600513	0.0191539	0.0177995	0.046934	0.00354902	0.0338157	0.0253025	-0.0300058	0.00378222	-0.0971299	0.0275737	-0.0202322	0.0506387	-0.00138945	0.0184789	-2.28323	0.0271626	-1.52932	0	0	0	0	-0	0	0	0	-0.1265	0	-0	0	0	0	0	0	-0	0	0.105	0.015	0	0	-0	0	0	0.098	0.1	0	-0	0	0	0	0	0	-0	0	0.05595	0	0	0	-0	0	0	0	0	0	-0	0	572.392	567.323	307.739	220.145	0.506519	-5.87306	0.00259515	-0.0185508	19.8242
56	-0.0627449	0.019161	0.017788	0.0469087	0.0035505	0.0338156	0.0253031	-0.0300076	0.00377987	-0.102009	0.0240564	-0.0309966	0.0506853	-0.00138765	0.0183409	-2.28618	0.0273964	-1.52929	0	0	0	0	-0	0	0	0	-0.1265	0	-0	0	0	0	0	0	-0	0	0.105	0.015	0	0	-0	0	0	0.098	0.1	0	-0	0	0	0	0	0	-0	0	0.05595	0	0	0	-0	0	0	0	0	0	-0	0	572.418	567.383	307.635	220.291	0.508141	-5.89389	0.00253788	-0.0185865	19.9237
57	-0.060141	0.019152	0.017788	0.046917	0.0035611	0.0338255	0.0253025	-0.0300069	0.00378096	-0.0951573	0.0272458	-0.0325233	0.0506371	-0.00138788	0.0184724	-2.28376	0.0273965	-1.52912	0	0	0	0	-0	0	0	0	-0.1265	0	-0	0	0	0	0	0	-0	0	0.105	0.015	0	0	-0	0	0	0.098	0.1	0	-0	0	0	0	0	0	-0	0	0.05595	0	0	0	-0	0	0	0	0	0	-0	0	572.434	567.428	307.556	220.397	0.50989	-5.91033	0.00242125	-0.0186193	19.9987
58	-0.0577877	0.0191526	0.0177871	0.0469321	0.00355771	0.0338254	0.0253019	-0.0300058	0.00378189	-0.098893	0.0256389	-0.0311523	0.0505936	-0.00138839	0.0185908	-2.28148	0.0273422	-1.52902	0	0	0	0	-0	0	0	0	-0.1265	0	-0	0	0	0	0	0	-0	0	0.105	0.015	0	0	-0	0	0	0.098	0.1	0	-0	0	0	0	0	0	-0	0	0.05595	0	0	0	-0	0	0	0	0	0	-0	0	572.441	567.446	307.523	220.439	0.510307	-5.91647	0.00239448	-0.0186364	20.03
59	-0.0502015	0.0191557	0.0177858	0.0469456	0.00355359	0.0338229	0.0253012	-0.0300063	0.00378303	-0.0883352	0.0222282	-0.0319276	0.0504526	-0.00138883	0.0189733	-2.27408	0.0271263	-1.52872	0	0	0	0	-0	0	0	0	-0.1265	0	-0	0	0	0	0	0	-0	0	0.105	0.015	0	0	-0	0	0	0.098	0.1	0	-0	0	0	0	0	0	-0	0	0.05595	0	0	0	-0	0	0	0	0	0	-0	0	572.462	567.485	307.443	220.546	0.511023	-5.93196	0.0023891	-0.0186837	20.112
60	-0.0501096	0.0191621	0.0177822	0.0469389	0.00355012	0.0338196	0.025302	-0.0300055	0.00378243	-0.0883715	0.0156039	-0.0365316	0.0504494	-0.00138836	0.0189771	-2.27408	0.027166	-1.52868	0	0	0	0	-0	0	0	0	-0.1265	0	-0	0	0	0	0	0	-0	0	0.105	0.015	0	0	-0	0	0	0.098	0.1	0	-0	0	0	0	0	0	-0	0	0.05595	0	0	0	-0	0	0	0	0	0	-0	0	572.472	567.505	307.402	220.598	0.511428	-5.93993	0.00239305	-0.0187024	20.1514
61	-0.0500848	0.0191559	0.0177841	0.0469579	0.00355396	0.0338247	0.025302	-0.0300058	0.00378369	-0.0936162	0.013943	-0.0327355	0.0504489	-0.00138918	0.0189775	-2.27426	0.0272821	-1.52857	0	0	0	0	-0	0	0	0	-0.1265	0	-0	0	0	0	0	0	-0	0	0.105	0.015	0	0	-0	0	0	0.098	0.1	0	-0	0	0	0	0	0	-0	0	0.05595	0	0	0	-0	0	0	0	0	0	-0	0	572.494	567.548	307.316	220.714	0.512675	-5.95746	0.00233766	-0.0187507	20.2401
62	-0.0399895	0.019157	0.0177824	0.0469705	0.00355441	0.0338263	0.0253006	-0.0300085	0.00378453	-0.0759407	0.00923456	-0.0315805	0.0502572	-0.00138969	0.0194857	-2.26446	0.0270139	-1.52814	0	0	0	0	-0	0	0	0	-0.1265	0	-0	0	0	0	0	0	-0	0	0.105	0.015	0	0	-0	0	0	0.098	0.1	0	-0	0	0	0	0	0	-0	0	0.05595	0	0	0	-0	0	0	0	0	0	-0	0	572.528	567.605	307.189	220.882	0.514107	-5.98289	0.0023161	-0.0188197	20.3707
63	-0.0358285	0.0191716	0.017772	0.0469398	0.00355156	0.0338202	0.0253006	-0.0300055	0.00378145	-0.0782318	0.0108334	-0.0320719	0.0501736	-0.00138798	0.0196933	-2.26044	0.0268968	-1.52798	0	0	0	0	-0	0	0	0	-0.1265	0	-0	0	0	0	0	0	-0	0	0.105	0.015	0	0	-0	0	0	0.098	0.1	0	-0	0	0	0	0	0	-0	0	0.05595	0	0	0	-0	0	0	0	0	0	-0	0	572.541	567.634	307.126	220.965	0.514896	-5.99657	0.00232755	-0.018843	20.4341
64	-0.0453039	0.0191706	0.0177661	0.0469645	0.00355372	0.0338204	0.0253015	-0.0300061	0.00378373	-0.0840716	0.0112955	-0.024006	0.0503588	-0.00138851	0.0192156	-2.27052	0.02762	-1.52793	0	0	0	0	-0	0	0	0	-0.1265	0	-0	0	0	0	0	0	-0	0	0.105	0.015	0	0	-0	0	0	0.098	0.1	0	-0	0	0	0	0	0	-0	0	0.05595	0	0	0	-0	0	0	0	0	0	-0	0	572.613	567.74	306.871	221.315	0.517657	-6.04955	0.00232465	-0.0189876	20.7103
65	-0.0411426	0.019167	0.0177622	0.046957	0.00355797	0.033826	0.0253017	-0.030006	0.00378259	-0.0873533	0.00884752	-0.0166895	0.0502759	-0.00138785	0.0194249	-2.26644	0.0274864	-1.52777	0	0	0	0	-0	0	0	0	-0.1265	0	-0	0	0	0	0	0	-0	0	0.105	0.015	0	0	-0	0	0	0.098	0.1	0	-0	0	0	0	0	0	-0	0	0.05595	0	0	0	-0	0	0	0	0	0	-0	0	572.616	567.759	306.837	221.362	0.518989	-6.05907	0.0022441	-0.0189881	20.7462
66	-0.043694	0.0191629	0.0177619	0.0469694	0.00356148	0.0338303	0.0253008	-0.0300055	0.00378382	-0.0797411	0.00521174	-0.0185832	0.0503255	-0.00138821	0.0192949	-2.26915	0.0276904	-1.52776	0	0	0	0	-0	0	0	0	-0.1265	0	-0	0	0	0	0	0	-0	0	0.105	0.015	0	0	-0	0	0	0.098	0.1	0	-0	0	0	0	0	0	-0	0	0.05595	0	0	0	-0	0	0	0	0	0	-0	0	572.625	567.791	306.765	221.456	0.520311	-6.07484	0.00217576	-0.0190227	20.8216
67	-0.044022	0.0191638	0.0177628	0.0469868	0.00355679	0.033829	0.025301	-0.0300047	0.0037847	-0.0805052	0.000945985	-0.0190695	0.0503319	-0.00138888	0.0192777	-2.26952	0.027732	-1.52774	0	0	0	0	-0	0	0	0	-0.1265	0	-0	0	0	0	0	0	-0	0	0.105	0.015	0	0	-0	0	0	0.098	0.1	0	-0	0	0	0	0	0	-0	0	0.05595	0	0	0	-0	0	0	0	0	0	-0	0	572.627	567.8	306.746	221.481	0.520562	-6.07919	0.00216268	-0.0190367	20.8434
68	-0.0438003	0.0191628	0.0177642	0.0469961	0.00355595	0.0338293	0.0253015	-0.0300049	0.00378556	-0.0814528	-0.00389742	-0.0235666	0.050328	-0.00138931	0.0192879	-2.26939	0.0277749	-1.52769	0	0	0	0	-0	0	0	0	-0.1265	0	-0	0	0	0	0	0	-0	0	0.105	0.015	0	0	-0	0	0	0.098	0.1	0	-0	0	0	0	0	0	-0	0	0.05595	0	0	0	-0	0	0	0	0	0	-0	0	572.634	567.816	306.706	221.532	0.521106	-6.08777	0.00214393	-0.0190593	20.8868
69	-0.0421326	0.0191605	0.0177652	0.0470051	0.00355762	0.0338323	0.0253022	-0.0300054	0.00378615	-0.0767068	0.00262593	-0.0215825	0.0502963	-0.00138975	0.0193709	-2.26785	0.0277795	-1.52757	0	0	0	0	-0	0	0	0	-0.1265	0	-0	0	0	0	0	0	-0	0	0.105	0.015	0	0	-0	0	0	0.098	0.1	0	-0	0	0	0	0	0	-0	0	0.05595	0	0	0	-0	0	0	0	0	0	-0	0	572.643	567.84	306.648	221.608	0.52207	-6.1014	0.00211296	-0.0190906	20.9527
70	-0.0462612	0.0191578	0.0177653	0.0470057	0.00356077	0.0338361	0.0253015	-0.0300048	0.00378612	-0.0756167	0.00197415	-0.0240377	0.0503761	-0.00138983	0.0191632	-2.27204	0.0279966	-1.52765	0	0	0	0	-0	0	0	0	-0.1265	0	-0	0	0	0	0	0	-0	0	0.105	0.015	0	0	-0	0	0	0.098	0.1	0	-0	0	0	0	0	0	-0	0	0.05595	0	0	0	-0	0	0	0	0	0	-0	0	572.648	567.852	306.619	221.645	0.522784	-6.10872	0.00207942	-0.0191016	20.985
71	-0.0540509	0.0191631	0.017761	0.0470061	0.00355738	0.0338326	0.0253016	-0.0300051	0.00378583	-0.0744346	0.00275496	-0.0307353	0.0505251	-0.00138954	0.0187694	-2.27997	0.0284104	-1.5278	0	0	0	0	-0	0	0	0	-0.1265	0	-0	0	0	0	0	0	-0	0	0.105	0.015	0	0	-0	0	0	0.098	0.1	0	-0	0	0	0	0	0	-0	0	0.05595	0	0	0	-0	0	0	0	0	0	-0	0	572.66	567.877	306.552	221.73	0.523512	-6.1237	0.00208981	-0.0191374	21.0606
72	-0.0623481	0.0191667	0.0177546	0.0469934	0.00355945	0.033832	0.0253016	-0.030006	0.00378538	-0.0804322	0.00316914	-0.0224221	0.0506794	-0.00138863	0.0183484	-2.28848	0.0288808	-1.52793	0	0	0	0	-0	0	0	0	-0.1265	0	-0	0	0	0	0	0	-0	0	0.105	0.015	0	0	-0	0	0	0.098	0.1	0	-0	0	0	0	0	0	-0	0	0.05595	0	0	0	-0	0	0	0	0	0	-0	0	572.677	567.91	306.456	221.854	0.524936	-6.14599	0.00208256	-0.0191825	21.168
73	-0.0611213	0.0191655	0.017751	0.0469902	0.00356304	0.0338352	0.0253015	-0.0300055	0.00378473	-0.0787697	0.00706648	-0.0160059	0.0506553	-0.00138822	0.0184095	-2.28736	0.0288884	-1.52784	0	0	0	0	-0	0	0	0	-0.1265	0	-0	0	0	0	0	0	-0	0	0.105	0.015	0	0	-0	0	0	0.098	0.1	0	-0	0	0	0	0	0	-0	0	0.05595	0	0	0	-0	0	0	0	0	0	-0	0	572.681	567.929	306.409	221.916	0.526111	-6.15831	0.00203203	-0.0192007	21.2214
74	-0.0605865	0.0191619	0.0177523	0.047006	0.00356389	0.0338375	0.0253015	-0.0300049	0.00378559	-0.0809579	0.00195199	-0.0137026	0.0506455	-0.00138883	0.0184359	-2.2869	0.0289165	-1.52777	0	0	0	0	-0	0	0	0	-0.1265	0	-0	0	0	0	0	0	-0	0	0.105	0.015	0	0	-0	0	0	0.098	0.1	0	-0	0	0	0	0	0	-0	0	0.05595	0	0	0	-0	0	0	0	0	0	-0	0	572.685	567.942	306.373	221.96	0.526814	-6.16654	0.00199348	-0.0192215	21.2605
75	-0.064232	0.0191618	0.0177528	0.0470141	0.00356223	0.0338371	0.0253015	-0.0300052	0.0037863	-0.0769629	0.00404205	-0.0195217	0.0507129	-0.00138915	0.0182506	-2.2906	0.0291088	-1.52785	0	0	0	0	-0	0	0	0	-0.1265	0	-0	0	0	0	0	0	-0	0	0.105	0.015	0	0	-0	0	0	0.098	0.1	0	-0	0	0	0	0	0	-0	0	0.05595	0	0	0	-0	0	0	0	0	0	-0	0	572.689	567.952	306.347	221.993	0.527208	-6.17269	0.00198237	-0.0192364	21.2907
76	-0.0651654	0.019162	0.0177528	0.0470155	0.00356231	0.0338377	0.0253011	-0.0300047	0.00378632	-0.0766078	0.00575658	-0.0158156	0.0507298	-0.00138923	0.0182029	-2.29157	0.0291746	-1.52785	0	0	0	0	-0	0	0	0	-0.1265	0	-0	0	0	0	0	0	-0	0	0.105	0.015	0	0	-0	0	0	0.098	0.1	0	-0	0	0	0	0	0	-0	0	0.05595	0	0	0	-0	0	0	0	0	0	-0	0	572.691	567.959	306.327	222.018	0.527595	-6.17761	0.00196925	-0.0192461	21.3131
77	-0.0671567	0.0191632	0.0177527	0.0470211	0.00355983	0.0338361	0.0253009	-0.0300044	0.00378659	-0.0748457	0.00826819	-0.0162399	0.0507662	-0.00138939	0.0181014	-2.29359	0.0292789	-1.5279	0	0	0	0	-0	0	0	0	-0.1265	0	-0	0	0	0	0	0	-0	0	0.105	0.015	0	0	-0	0	0	0.098	0.1	0	-0	0	0	0	0	0	-0	0	0.05595	0	0	0	-0	0	0	0	0	0	-0	0	572.693	567.965	306.312	222.037	0.52773	-6.1808	0.00196963	-0.0192561	21.3296
78	-0.0724575	0.0191645	0.0177522	0.0470243	0.00355839	0.0338348	0.0253009	-0.0300044	0.00378661	-0.0737861	0.00759199	-0.0118621	0.0508622	-0.00138946	0.0178315	-2.29896	0.0295472	-1.52802	0	0	0	0	-0	0	0	0	-0.1265	0	-0	0	0	0	0	0	-0	0	0.105	0.015	0	0	-0	0	0	0.098	0.1	0	-0	0	0	0	0	0	-0	0	0.05595	0	0	0	-0	0	0	0	0	0	-0	0	572.698	567.975	306.279	222.077	0.528105	-6.18832	0.00197359	-0.0192754	21.3676
79	-0.0743788	0.0191671	0.0177492	0.0470183	0.00355853	0.0338338	0.0253013	-0.0300044	0.00378555	-0.0724809	0.00099001	-0.00634505	0.0508958	-0.00138903	0.017733	-2.30099	0.0296872	-1.52802	0	0	0	0	-0	0	0	0	-0.1265	0	-0	0	0	0	0	0	-0	0	0.105	0.015	0	0	-0	0	0	0.098	0.1	0	-0	0	0	0	0	0	-0	0	0.05595	0	0	0	-0	0	0	0	0	0	-0	0	572.706	567.991	306.231	222.138	0.528816	-6.19992	0.00197235	-0.0192986	21.4236
80	-0.0759789	0.0191651	0.017748	0.0470154	0.00356179	0.0338359	0.0253005	-0.030005	0.00378551	-0.0650709	-0.00111577	-0.00288268	0.0509238	-0.00138874	0.0176516	-2.30264	0.029787	-1.52804	0	0	0	0	-0	0	0	0	-0.1265	0	-0	0	0	0	0	0	-0	0	0.105	0.015	0	0	-0	0	0	0.098	0.1	0	-0	0	0	0	0	0	-0	0	0.05595	0	0	0	-0	0	0	0	0	0	-0	0	572.709	568.001	306.207	222.168	0.529487	-6.20631	0.00194222	-0.0193064	21.4509
81	-0.0696484	0.0191684	0.0177459	0.0470195	0.0035603	0.0338343	0.0253008	-0.0300045	0.00378587	-0.0661935	-0.00542653	0.00156294	0.0508121	-0.00138879	0.0179731	-2.29643	0.0295818	-1.5278	0	0	0	0	-0	0	0	0	-0.1265	0	-0	0	0	0	0	0	-0	0	0.105	0.015	0	0	-0	0	0	0.098	0.1	0	-0	0	0	0	0	0	-0	0	0.05595	0	0	0	-0	0	0	0	0	0	-0	0	572.719	568.019	306.154	222.235	0.530183	-6.21913	0.00194208	-0.0193371	21.5142
82	-0.0705871	0.0191689	0.017743	0.0470128	0.00356122	0.0338348	0.0253007	-0.0300047	0.00378544	-0.0675355	-0.0060096	-0.00458438	0.050828	-0.00138831	0.0179248	-2.29742	0.0296533	-1.5278	0	0	0	0	-0	0	0	0	-0.1265	0	-0	0	0	0	0	0	-0	0	0.105	0.015	0	0	-0	0	0	0.098	0.1	0	-0	0	0	0	0	0	-0	0	0.05595	0	0	0	-0	0	0	0	0	0	-0	0	572.721	568.029	306.128	222.268	0.530764	-6.22582	0.00192474	-0.0193452	21.5439
83	-0.0654507	0.0191665	0.0177434	0.0470244	0.00356276	0.0338369	0.0253001	-0.0300061	0.0037881	-0.0806696	0.000445483	0.000264918	0.0507362	-0.00138877	0.0181849	-2.29241	0.0295097	-1.52757	0	0	0	0	-0	0	0	0	-0.1265	0	-0	0	0	0	0	0	-0	0	0.105	0.015	0	0	-0	0	0	0.098	0.1	0	-0	0	0	0	0	0	-0	0	0.05595	0	0	0	-0	0	0	0	0	0	-0	0	572.729	568.045	306.07	222.341	0.531697	-6.23975	0.00190632	-0.0193793	21.6114
84	-0.0616227	0.0191664	0.017745	0.0470471	0.00356107	0.0338386	0.0253007	-0.0300045	0.00378837	-0.0818162	0.00028926	-0.00199982	0.0506666	-0.00139004	0.0183778	-2.28876	0.029456	-1.52736	0	0	0	0	-0	0	0	0	-0.1265	0	-0	0	0	0	0	0	-0	0	0.105	0.015	0	0	-0	0	0	0.098	0.1	0	-0	0	0	0	0	0	-0	0	0.05595	0	0	0	-0	0	0	0	0	0	-0	0	572.744	568.067	305.986	222.445	0.532798	-6.26057	0.00190999	-0.0194345	21.7146
85	-0.0623351	0.0191667	0.0177436	0.0470436	0.00355985	0.0338375	0.0253006	-0.0300042	0.00378783	-0.0796829	0.00264665	-0.00113583	0.0506788	-0.00138973	0.0183417	-2.2895	0.0295003	-1.52737	0	0	0	0	-0	0	0	0	-0.1265	0	-0	0	0	0	0	0	-0	0	0.105	0.015	0	0	-0	0	0	0.098	0.1	0	-0	0	0	0	0	0	-0	0	0.05595	0	0	0	-0	0	0	0	0	0	-0	0	572.745	568.071	305.974	222.46	0.533164	-6.26415	0.00189976	-0.019436	21.729
86	-0.0590275	0.0191659	0.0177433	0.0470464	0.00356007	0.0338376	0.0253005	-0.0300039	0.00378803	-0.0808171	0.00560959	-0.000113057	0.0506182	-0.00138973	0.0185089	-2.28624	0.0293873	-1.52725	0	0	0	0	-0	0	0	0	-0.1265	0	-0	0	0	0	0	0	-0	0	0.105	0.015	0	0	-0	0	0	0.098	0.1	0	-0	0	0	0	0	0	-0	0	0.05595	0	0	0	-0	0	0	0	0	0	-0	0	572.747	568.078	305.951	222.489	0.533627	-6.27026	0.00188658	-0.0194478	21.7577
87	-0.0593024	0.0191668	0.017742	0.0470477	0.00355964	0.0338373	0.0253014	-0.0300036	0.00378848	-0.0837549	0.0166566	0.0012323	0.0506233	-0.00138965	0.0184941	-2.28659	0.0294427	-1.52722	0	0	0	0	-0	0	0	0	-0.1265	0	-0	0	0	0	0	0	-0	0	0.105	0.015	0	0	-0	0	0	0.098	0.1	0	-0	0	0	0	0	0	-0	0	0.05595	0	0	0	-0	0	0	0	0	0	-0	0	572.75	568.088	305.916	222.533	0.534224	-6.27929	0.00187774	-0.0194656	21.8006
88	-0.0644012	0.0191607	0.0177436	0.0470592	0.00356361	0.0338427	0.0253014	-0.0300036	0.00378843	-0.0953885	0.0324518	-0.0024743	0.0507179	-0.00139017	0.0182351	-2.2918	0.0297361	-1.5273	0	0	0	0	-0	0	0	0	-0.1265	0	-0	0	0	0	0	0	-0	0	0.105	0.015	0	0	-0	0	0	0.098	0.1	0	-0	0	0	0	0	0	-0	0	0.05595	0	0	0	-0	0	0	0	0	0	-0	0	572.755	568.103	305.865	222.597	0.535353	-6.29292	0.00183523	-0.0194921	21.8639
89	-0.0651386	0.0191651	0.0177386	0.0470442	0.00356306	0.0338405	0.0253014	-0.0300048	0.00378769	-0.100986	0.0268521	-0.00592033	0.0507305	-0.00138922	0.0181971	-2.29259	0.0297942	-1.5273	0	0	0	0	-0	0	0	0	-0.1265	0	-0	0	0	0	0	0	-0	0	0.105	0.015	0	0	-0	0	0	0.098	0.1	0	-0	0	0	0	0	0	-0	0	0.05595	0	0	0	-0	0	0	0	0	0	-0	0	572.756	568.112	305.839	222.629	0.535873	-6.30012	0.00183504	-0.019498	21.8957
90	-0.066689	0.0191618	0.0177392	0.0470484	0.00356699	0.0338443	0.025301	-0.0300043	0.00378794	-0.100993	0.0236327	-0.00287344	0.0507588	-0.00138941	0.0181184	-2.29418	0.0298895	-1.52732	0	0	0	0	-0	0	0	0	-0.1265	0	-0	0	0	0	0	0	-0	0	0.105	0.015	0	0	-0	0	0	0.098	0.1	0	-0	0	0	0	0	0	-0	0	0.05595	0	0	0	-0	0	0	0	0	0	-0	0	572.757	568.118	305.82	222.653	0.536528	-6.306	0.00179923	-0.0195073	21.9199
91	-0.0655865	0.0191643	0.0177373	0.047053	0.00356455	0.0338422	0.0252999	-0.0300057	0.00378866	-0.113805	0.0273067	-0.0028373	0.0507394	-0.00138945	0.018173	-2.29317	0.0298949	-1.52724	0	0	0	0	-0	0	0	0	-0.1265	0	-0	0	0	0	0	0	-0	0	0.105	0.015	0	0	-0	0	0	0.098	0.1	0	-0	0	0	0	0	0	-0	0	0.05595	0	0	0	-0	0	0	0	0	0	-0	0	572.76	568.129	305.777	222.705	0.537137	-6.317	0.0018003	-0.0195319	21.9732
92	-0.0619957	0.0191674	0.0177375	0.0470585	0.00356234	0.0338407	0.0253003	-0.0300044	0.0037886	-0.117902	0.0282321	-0.00460345	0.0506744	-0.00138976	0.0183548	-2.28962	0.0297646	-1.52711	0	0	0	0	-0	0	0	0	-0.1265	0	-0	0	0	0	0	0	-0	0	0.105	0.015	0	0	-0	0	0	0.098	0.1	0	-0	0	0	0	0	0	-0	0	0.05595	0	0	0	-0	0	0	0	0	0	-0	0	572.762	568.134	305.755	222.731	0.537401	-6.32251	0.00180439	-0.0195482	21.9993
93	-0.0637062	0.0191681	0.017736	0.0470557	0.00356133	0.0338392	0.0253003	-0.030004	0.00378827	-0.118117	0.0286411	-0.00828952	0.0507054	-0.00138952	0.0182679	-2.29136	0.0298578	-1.52714	0	0	0	0	-0	0	0	0	-0.1265	0	-0	0	0	0	0	0	-0	0	0.105	0.015	0	0	-0	0	0	0.098	0.1	0	-0	0	0	0	0	0	-0	0	0.05595	0	0	0	-0	0	0	0	0	0	-0	0	572.764	568.138	305.74	222.75	0.537684	-6.32678	0.0018053	-0.0195547	22.019
94	-0.0635693	0.0191668	0.0177355	0.0470589	0.00356215	0.0338398	0.0252997	-0.030006	0.00378813	-0.131495	0.0319361	-0.0121775	0.0507029	-0.00138956	0.0182742	-2.2913	0.0298971	-1.5271	0	0	0	0	-0	0	0	0	-0.1265	0	-0	0	0	0	0	0	-0	0	0.105	0.015	0	0	-0	0	0	0.098	0.1	0	-0	0	0	0	0	0	-0	0	0.05595	0	0	0	-0	0	0	0	0	0	-0	0	572.768	568.146	305.705	222.793	0.538285	-6.33562	0.0017971	-0.0195734	22.0615
95	-0.0638951	0.0191701	0.0177335	0.0470539	0.00356341	0.033839	0.0253008	-0.0300051	0.00378793	-0.130535	0.0319806	-0.00410643	0.0507094	-0.00138931	0.0182567	-2.29174	0.0299732	-1.52705	0	0	0	0	-0	0	0	0	-0.1265	0	-0	0	0	0	0	0	-0	0	0.105	0.015	0	0	-0	0	0	0.098	0.1	0	-0	0	0	0	0	0	-0	0	0.05595	0	0	0	-0	0	0	0	0	0	-0	0	572.773	568.158	305.653	222.856	0.539139	-6.34914	0.00179566	-0.0196012	22.1245
96	-0.0565146	0.0191654	0.0177325	0.0470604	0.00356774	0.0338434	0.0253014	-0.0300034	0.00378968	-0.143351	0.0508545	-0.004329	0.0505749	-0.00138946	0.0186299	-2.28451	0.0297473	-1.52674	0	0	0	0	-0	0	0	0	-0.1265	0	-0	0	0	0	0	0	-0	0	0.105	0.015	0	0	-0	0	0	0.098	0.1	0	-0	0	0	0	0	0	-0	0	0.05595	0	0	0	-0	0	0	0	0	0	-0	0	572.779	568.178	305.58	222.948	0.540736	-6.36964	0.00175216	-0.0196379	22.2193
97	-0.053643	0.0191625	0.0177306	0.0470681	0.00356696	0.033846	0.0253012	-0.0300041	0.00378895	-0.143448	0.0543694	-0.0107395	0.0505202	-0.00138958	0.0187739	-2.28172	0.0296695	-1.52661	0	0	0	0	-0	0	0	0	-0.1265	0	-0	0	0	0	0	0	-0	0	0.105	0.015	0	0	-0	0	0	0.098	0.1	0	-0	0	0	0	0	0	-0	0	0.05595	0	0	0	-0	0	0	0	0	0	-0	0	572.781	568.186	305.543	222.993	0.54155	-6.38	0.00173143	-0.0196529	22.267
98	-0.0501262	0.0191628	0.0177293	0.047065	0.00356853	0.0338465	0.0253007	-0.0300039	0.00378888	-0.141387	0.0574559	-0.00929151	0.0504539	-0.0013893	0.0189511	-2.27826	0.0295475	-1.52648	0	0	0	0	-0	0	0	0	-0.1265	0	-0	0	0	0	0	0	-0	0	0.105	0.015	0	0	-0	0	0	0.098	0.1	0	-0	0	0	0	0	0	-0	0	0.05595	0	0	0	-0	0	0	0	0	0	-0	0	572.781	568.194	305.516	223.026	0.542273	-6.38835	0.00171063	-0.0196646	22.303
99	-0.051197	0.0191644	0.0177281	0.0470684	0.00356661	0.033845	0.0253003	-0.0300039	0.00378897	-0.144375	0.0566033	-0.0120088	0.050474	-0.0013893	0.0188965	-2.27937	0.0296198	-1.52649	0	0	0	0	-0	0	0	0	-0.1265	0	-0	0	0	0	0	0	-0	0	0.105	0.015	0	0	-0	0	0	0.098	0.1	0	-0	0	0	0	0	0	-0	0	0.05595	0	0	0	-0	0	0	0	0	0	-0	0	572.782	568.198	305.495	223.051	0.542595	-6.39389	0.00171165	-0.0196765	22.3293
100	-0.0475805	0.0191652	0.0177278	0.0470745	0.00356574	0.0338441	0.0253002	-0.0300037	0.00378902	-0.149478	0.0616138	-0.0157166	0.050406	-0.0013895	0.0190781	-2.27585	0.0295161	-1.52633	0	0	0	0	-0	0	0	0	-0.1265	0	-0	0	0	0	0	0	-0	0	0.105	0.015	0	0	-0	0	0	0.098	0.1	0	-0	0	0	0	0	0	-0	0	0.05595	0	0	0	-0	0	0	0	0	0	-0	0	572.787	568.209	305.45	223.105	0.543312	-6.40612	0.00170938	-0.0197035	22.3884
