Stefan210/kinematic_calibration/src/kinematic_calibration/validation/experiments/experiments/anzahl_messungen/BC_A/larm_27/optimization_intermediate_results.csv
iteration	HeadPitch_offset	HeadYaw_offset	LElbowRoll_offset	LElbowYaw_offset	LShoulderPitch_offset	LShoulderRoll_offset	marker_transform_larm_tx	marker_transform_larm_ty	marker_transform_larm_tz	marker_transform_larm_rr	marker_transform_larm_rp	marker_transform_larm_ry	camera_transform_tx	camera_transform_ty	camera_transform_tz	camera_transform_rr	camera_transform_rp	camera_transform_ry	HeadPitch_transform_tx	HeadPitch_transform_ty	HeadPitch_transform_tz	HeadPitch_transform_rr	HeadPitch_transform_rp	HeadPitch_transform_ry	HeadYaw_transform_tx	HeadYaw_transform_ty	HeadYaw_transform_tz	HeadYaw_transform_rr	HeadYaw_transform_rp	HeadYaw_transform_ry	LElbowRoll_transform_tx	LElbowRoll_transform_ty	LElbowRoll_transform_tz	LElbowRoll_transform_rr	LElbowRoll_transform_rp	LElbowRoll_transform_ry	LElbowYaw_transform_tx	LElbowYaw_transform_ty	LElbowYaw_transform_tz	LElbowYaw_transform_rr	LElbowYaw_transform_rp	LElbowYaw_transform_ry	LShoulderPitch_transform_tx	LShoulderPitch_transform_ty	LShoulderPitch_transform_tz	LShoulderPitch_transform_rr	LShoulderPitch_transform_rp	LShoulderPitch_transform_ry	LShoulderRoll_transform_tx	LShoulderRoll_transform_ty	LShoulderRoll_transform_tz	LShoulderRoll_transform_rr	LShoulderRoll_transform_rp	LShoulderRoll_transform_ry	LWristYaw_transform_tx	LWristYaw_transform_ty	LWristYaw_transform_tz	LWristYaw_transform_rr	LWristYaw_transform_rp	LWristYaw_transform_ry	l_wrist_joint_transform_tx	l_wrist_joint_transform_ty	l_wrist_joint_transform_tz	l_wrist_joint_transform_rr	l_wrist_joint_transform_rp	l_wrist_joint_transform_ry	camera_fx	camera_fy	camera_cx	camera_cy	camera_D0	camera_D1	camera_D2	camera_D3	camera_D4	
0	0.0249164	-0.0307543	0.000853157	4.65819e-06	-0.000318322	-0.00310766	0.05071	0	0.01774	-2.26369	1.66533e-16	-1.5708	545.901	551.038	324.928	201.58	0.0255298	2.61142	-0.0636736	-0.0350419	0.213964
1	-0.01606	0.0247262	0.00122181	0.0317581	-0.015158	0.0279853	0.0235719	-0.0296864	0.00343228	-0.000313356	-0.000579138	-0.00316615	0.057538	0.00104933	0.0174479	-2.19893	-0.0128137	-1.5646	0	0	0	0	-0	0	0	0	-0.1265	0	-0	0	0	0	0	0	-0	0	0.105	0.015	0	0	-0	0	0	0.098	0.1	0	-0	0	0	0	0	0	-0	0	0.05595	0	0	0	-0	0	0	0	0	0	-0	0	545.901	551.039	324.927	201.581	-0.0163507	2.59488	-0.0974887	0.0822608	0.209948
2	-0.0121459	0.0381954	0.00270316	0.0439961	-0.0295331	0.0349158	0.0237944	-0.029876	0.00409568	-0.000389128	-0.000639403	-0.00315855	0.0536212	-0.000365122	0.0260561	-2.21686	-0.0153002	-1.56188	0	0	0	0	-0	0	0	0	-0.1265	0	-0	0	0	0	0	0	-0	0	0.105	0.015	0	0	-0	0	0	0.098	0.1	0	-0	0	0	0	0	0	-0	0	0.05595	0	0	0	-0	0	0	0	0	0	-0	0	545.902	551.039	324.923	201.584	-0.125662	2.50551	-0.0239704	0.0114685	0.176589
3	-0.015081	0.0286278	-0.00533183	0.0459242	-0.0205951	0.0382873	0.0234521	-0.0295995	0.00433904	-0.000424391	-0.000669219	-0.00317313	0.0564235	0.00180673	0.0203835	-2.20363	-0.0170005	-1.56698	0	0	0	0	-0	0	0	0	-0.1265	0	-0	0	0	0	0	0	-0	0	0.105	0.015	0	0	-0	0	0	0.098	0.1	0	-0	0	0	0	0	0	-0	0	0.05595	0	0	0	-0	0	0	0	0	0	-0	0	545.904	551.039	324.92	201.588	-0.264808	2.42034	-0.0520643	0.0463382	0.14911
4	-0.0143429	0.0319612	0.000956929	0.0435814	-0.0229351	0.0370198	0.0238703	-0.0297467	0.00407436	-0.000389863	-0.000636663	-0.00313664	0.0557157	0.000844172	0.021273	-2.20682	-0.0150754	-1.56286	0	0	0	0	-0	0	0	0	-0.1265	0	-0	0	0	0	0	0	-0	0	0.105	0.015	0	0	-0	0	0	0.098	0.1	0	-0	0	0	0	0	0	-0	0	0.05595	0	0	0	-0	0	0	0	0	0	-0	0	545.905	551.039	324.915	201.592	-0.437163	2.28798	-0.00616318	0.00475221	0.100298
5	-0.0155758	0.0283002	0.00250114	0.0408858	-0.0187073	0.037326	0.0240755	-0.0297384	0.00382414	-0.000360732	-0.000610393	-0.00311396	0.0569302	0.00127775	0.0181886	-2.20108	-0.0143474	-1.56234	0	0	0	0	-0	0	0	0	-0.1265	0	-0	0	0	0	0	0	-0	0	0.105	0.015	0	0	-0	0	0	0.098	0.1	0	-0	0	0	0	0	0	-0	0	0.05595	0	0	0	-0	0	0	0	0	0	-0	0	545.908	551.039	324.91	201.597	-0.652692	2.12406	0.012512	-0.00534032	0.0407876
6	-0.0154726	0.0300506	0.00823767	0.0379802	-0.0189985	0.0358847	0.0244994	-0.0298635	0.00346537	-0.000310697	-0.000569334	-0.00308502	0.0566738	0.000587654	0.0179896	-2.20146	-0.0132831	-1.56042	0	0	0	0	-0	0	0	0	-0.1265	0	-0	0	0	0	0	0	-0	0	0.105	0.015	0	0	-0	0	0	0.098	0.1	0	-0	0	0	0	0	0	-0	0	0.05595	0	0	0	-0	0	0	0	0	0	-0	0	545.912	551.039	324.905	201.601	-0.797507	1.9302	0.0439265	-0.0319753	-0.0392042
7	-0.0154338	0.0303913	0.00939828	0.037041	-0.0187414	0.035061	0.0246108	-0.0298835	0.00329889	-0.000307207	-0.000554264	-0.00307834	0.0561527	0.000403636	0.018254	-2.20164	-0.013349	-1.56047	0	0	0	0	-0	0	0	0	-0.1265	0	-0	0	0	0	0	0	-0	0	0.105	0.015	0	0	-0	0	0	0.098	0.1	0	-0	0	0	0	0	0	-0	0	0.05595	0	0	0	-0	0	0	0	0	0	-0	0	545.923	551.036	324.898	201.605	-0.75419	1.70043	0.0477664	-0.0362855	-0.145488
8	-0.0154258	0.0295718	0.00788839	0.0367308	-0.0174602	0.0343745	0.0245438	-0.0298154	0.00318477	-0.000376354	-0.000537806	-0.00306538	0.0551245	0.000508314	0.018923	-2.20165	-0.0137946	-1.56089	0	0	0	0	-0	0	0	0	-0.1265	0	-0	0	0	0	0	0	-0	0	0.105	0.015	0	0	-0	0	0	0.098	0.1	0	-0	0	0	0	0	0	-0	0	0.05595	0	0	0	-0	0	0	0	0	0	-0	0	545.95	551.026	324.889	201.61	-0.524286	1.3238	0.0320705	-0.0266763	-0.326504
9	-0.0154169	0.0285186	0.00573878	0.0365533	-0.015944	0.0336323	0.0244383	-0.0297246	0.00307243	-0.000203556	-0.000498785	-0.00305403	0.053854	0.000661895	0.0197936	-2.20154	-0.0143906	-1.5614	0	0	0	0	-0	0	0	0	-0.1265	0	-0	0	0	0	0	0	-0	0	0.105	0.015	0	0	-0	0	0	0.098	0.1	0	-0	0	0	0	0	0	-0	0	0.05595	0	0	0	-0	0	0	0	0	0	-0	0	546.018	550.989	324.882	201.606	-0.21519	0.841258	0.00963609	-0.0126791	-0.549636
10	-0.0154961	0.028033	0.00454973	0.0364678	-0.0151769	0.0331785	0.024385	-0.0296763	0.00300248	-0.000656251	-0.00116062	-0.00255011	0.0529984	0.000716731	0.0204464	-2.20163	-0.0147385	-1.56169	0	0	0	0	-0	0	0	0	-0.1265	0	-0	0	0	0	0	0	-0	0	0.105	0.015	0	0	-0	0	0	0.098	0.1	0	-0	0	0	0	0	0	-0	0	0.05595	0	0	0	-0	0	0	0	0	0	-0	0	546.199	550.87	324.882	201.578	-0.00496895	0.488056	-0.00473764	-0.00370567	-0.667974
11	-0.0149042	0.0279526	0.00428252	0.0363697	-0.0150044	0.0331427	0.0243782	-0.0296701	0.00297793	0.00126862	-0.00159681	-0.00302932	0.0526536	0.0007077	0.0207922	-2.20107	-0.0147311	-1.56172	0	0	0	0	-0	0	0	0	-0.1265	0	-0	0	0	0	0	0	-0	0	0.105	0.015	0	0	-0	0	0	0.098	0.1	0	-0	0	0	0	0	0	-0	0	0.05595	0	0	0	-0	0	0	0	0	0	-0	0	546.706	550.517	324.894	201.492	0.0675888	0.316715	-0.00804225	-0.000670204	-0.588458
12	-0.0147459	0.0279922	0.0043341	0.0361211	-0.0149789	0.0334143	0.0243911	-0.0296852	0.00296695	-0.000574456	-0.0111018	-0.00111343	0.0524335	0.000666876	0.0210984	-2.20088	-0.0144206	-1.56159	0	0	0	0	-0	0	0	0	-0.1265	0	-0	0	0	0	0	0	-0	0	0.105	0.015	0	0	-0	0	0	0.098	0.1	0	-0	0	0	0	0	0	-0	0	0.05595	0	0	0	-0	0	0	0	0	0	-0	0	548.055	549.561	324.946	201.256	0.0922791	0.15994	-0.00554032	0.000969191	-0.295352
13	-0.0268017	0.0280895	0.00451755	0.0355751	-0.0149202	0.0340062	0.0244177	-0.0297196	0.00295276	-0.00430699	-0.0220618	-0.0119796	0.0523337	0.000583432	0.0210036	-2.21262	-0.0137371	-1.56137	0	0	0	0	-0	0	0	0	-0.1265	0	-0	0	0	0	0	0	-0	0	0.105	0.015	0	0	-0	0	0	0.098	0.1	0	-0	0	0	0	0	0	-0	0	0.05595	0	0	0	-0	0	0	0	0	0	-0	0	551.031	547.404	325.181	200.678	0.111911	-0.0437756	0.0012451	0.00407014	0.139669
14	-0.0461746	0.0282049	0.00477563	0.0347884	-0.0147524	0.0347906	0.0244466	-0.0297574	0.00292802	0.0135273	-0.0368406	-0.00858892	0.0523001	0.000473229	0.0206974	-2.23059	-0.0135209	-1.5621	0	0	0	0	-0	0	0	0	-0.1265	0	-0	0	0	0	0	0	-0	0	0.105	0.015	0	0	-0	0	0	0.098	0.1	0	-0	0	0	0	0	0	-0	0	0.05595	0	0	0	-0	0	0	0	0	0	-0	0	555.415	544.113	326.174	199.449	0.112371	-0.147315	0.0111111	0.00922932	0.366141
15	-0.036809	0.0282452	0.00478986	0.034621	-0.0147011	0.0349368	0.0244538	-0.0297645	0.00292338	0.0211165	-0.0304294	0.00326401	0.0520093	0.000453091	0.0213461	-2.22081	-0.0136543	-1.56251	0	0	0	0	-0	0	0	0	-0.1265	0	-0	0	0	0	0	0	-0	0	0.105	0.015	0	0	-0	0	0	0.098	0.1	0	-0	0	0	0	0	0	-0	0	0.05595	0	0	0	-0	0	0	0	0	0	-0	0	556.357	543.388	326.419	199.141	0.11339	-0.161511	0.0130151	0.0104576	0.385782
16	-0.0374936	0.0282526	0.00479725	0.0345646	-0.0146819	0.0349895	0.024454	-0.029763	0.00292148	0.0199523	-0.0409849	0.00493478	0.0519879	0.00044661	0.0213583	-2.22134	-0.013671	-1.56261	0	0	0	0	-0	0	0	0	-0.1265	0	-0	0	0	0	0	0	-0	0	0.105	0.015	0	0	-0	0	0	0.098	0.1	0	-0	0	0	0	0	0	-0	0	0.05595	0	0	0	-0	0	0	0	0	0	-0	0	556.677	543.138	326.511	199.028	0.113193	-0.163684	0.0136655	0.0108896	0.388279
17	-0.0349395	0.0282593	0.0048404	0.0344088	-0.0146238	0.035139	0.0244684	-0.0297778	0.00290307	0.00394331	-0.0128273	-0.0207501	0.0518486	0.000426598	0.0216285	-2.2181	-0.0139351	-1.56317	0	0	0	0	-0	0	0	0	-0.1265	0	-0	0	0	0	0	0	-0	0	0.105	0.015	0	0	-0	0	0	0.098	0.1	0	-0	0	0	0	0	0	-0	0	0.05595	0	0	0	-0	0	0	0	0	0	-0	0	557.614	542.398	326.933	198.584	0.109317	-0.151884	0.0155361	0.0121993	0.359928
18	-0.0251502	0.028263	0.00487368	0.0342671	-0.0145569	0.0352663	0.0244866	-0.0297747	0.00290846	-0.0012301	0.0319996	-0.0317034	0.0515578	0.000409823	0.0222585	-2.20721	-0.0145685	-1.5642	0	0	0	0	-0	0	0	0	-0.1265	0	-0	0	0	0	0	0	-0	0	0.105	0.015	0	0	-0	0	0	0.098	0.1	0	-0	0	0	0	0	0	-0	0	0.05595	0	0	0	-0	0	0	0	0	0	-0	0	558.491	541.674	327.612	197.942	0.10344	-0.123089	0.0170794	0.0136042	0.291404
19	-0.025261	0.0282597	0.00486959	0.0342082	-0.0145209	0.0353093	0.0244676	-0.0297804	0.00290796	0.00349423	0.0206886	-0.0147125	0.0515239	0.000405673	0.0222965	-2.20675	-0.0148774	-1.56467	0	0	0	0	-0	0	0	0	-0.1265	0	-0	0	0	0	0	0	-0	0	0.105	0.015	0	0	-0	0	0	0.098	0.1	0	-0	0	0	0	0	0	-0	0	0.05595	0	0	0	-0	0	0	0	0	0	-0	0	558.831	541.383	327.957	197.624	0.101593	-0.109009	0.017503	0.0142703	0.256021
20	-0.0288261	0.028255	0.00486158	0.0342009	-0.0145064	0.0353258	0.0244649	-0.0297774	0.00291256	-9.57046e-05	0.010882	-0.0174434	0.0515916	0.000404549	0.0221294	-2.21008	-0.01499	-1.56481	0	0	0	0	-0	0	0	0	-0.1265	0	-0	0	0	0	0	0	-0	0	0.105	0.015	0	0	-0	0	0	0.098	0.1	0	-0	0	0	0	0	0	-0	0	0.05595	0	0	0	-0	0	0	0	0	0	-0	0	558.954	541.274	328.1	197.494	0.101005	-0.103343	0.0176231	0.0145432	0.241994
21	-0.0295506	0.028251	0.00487315	0.0341548	-0.0144755	0.0353691	0.0244659	-0.0297791	0.00291397	0.00788542	-0.00221747	-0.0250027	0.0515776	0.000398735	0.0221377	-2.20985	-0.0155996	-1.56561	0	0	0	0	-0	0	0	0	-0.1265	0	-0	0	0	0	0	0	-0	0	0.105	0.015	0	0	-0	0	0	0.098	0.1	0	-0	0	0	0	0	0	-0	0	0.05595	0	0	0	-0	0	0	0	0	0	-0	0	559.299	540.952	328.707	196.968	0.0968903	-0.0830528	0.0180519	0.0152694	0.196998
22	-0.0317646	0.0282443	0.0048599	0.0341468	-0.0144604	0.0353752	0.0244655	-0.0297799	0.00291059	0.00778509	-0.0053425	-0.0138062	0.0516174	0.00039933	0.0220334	-2.21183	-0.0157345	-1.56577	0	0	0	0	-0	0	0	0	-0.1265	0	-0	0	0	0	0	0	-0	0	0.105	0.015	0	0	-0	0	0	0.098	0.1	0	-0	0	0	0	0	0	-0	0	0.05595	0	0	0	-0	0	0	0	0	0	-0	0	559.368	540.882	328.845	196.848	0.0971174	-0.0794761	0.0180108	0.0155037	0.185568
23	-0.0229094	0.0282408	0.00486551	0.034127	-0.0144418	0.0353937	0.0244677	-0.0297866	0.00290822	0.0229569	-0.00410073	0.002792	0.0514066	0.000396794	0.0225134	-2.20224	-0.0162814	-1.56655	0	0	0	0	-0	0	0	0	-0.1265	0	-0	0	0	0	0	0	-0	0	0.105	0.015	0	0	-0	0	0	0.098	0.1	0	-0	0	0	0	0	0	-0	0	0.05595	0	0	0	-0	0	0	0	0	0	-0	0	559.538	540.696	329.318	196.452	0.0945615	-0.0663007	0.0181336	0.0159607	0.155657
24	-0.021689	0.0282349	0.00485885	0.0341208	-0.0144279	0.0353996	0.0244654	-0.02978	0.00291083	0.0294347	0.00329123	0.00334065	0.0513682	0.00039678	0.0225852	-2.20064	-0.0165416	-1.5669	0	0	0	0	-0	0	0	0	-0.1265	0	-0	0	0	0	0	0	-0	0	0.105	0.015	0	0	-0	0	0	0.098	0.1	0	-0	0	0	0	0	0	-0	0	0.05595	0	0	0	-0	0	0	0	0	0	-0	0	559.609	540.611	329.556	196.255	0.0939925	-0.060604	0.0180995	0.0162179	0.140656
25	-0.0262143	0.0282302	0.00485645	0.0341126	-0.0144148	0.0354061	0.024465	-0.0297796	0.00290987	0.0286435	-0.00360205	0.0104524	0.0514613	0.000396289	0.0223643	-2.20461	-0.0169175	-1.56732	0	0	0	0	-0	0	0	0	-0.1265	0	-0	0	0	0	0	0	-0	0	0.105	0.015	0	0	-0	0	0	0.098	0.1	0	-0	0	0	0	0	0	-0	0	0.05595	0	0	0	-0	0	0	0	0	0	-0	0	559.694	540.502	329.916	195.962	0.0926514	-0.0524616	0.018062	0.0165372	0.121587
26	-0.0341319	0.028224	0.00485392	0.034107	-0.0143983	0.0354114	0.0244647	-0.0297803	0.0029106	0.0362615	0.00282974	0.00795838	0.0516271	0.000395949	0.02197	-2.2117	-0.0175003	-1.56792	0	0	0	0	-0	0	0	0	-0.1265	0	-0	0	0	0	0	0	-0	0	0.105	0.015	0	0	-0	0	0	0.098	0.1	0	-0	0	0	0	0	0	-0	0	0.05595	0	0	0	-0	0	0	0	0	0	-0	0	559.782	540.353	330.46	195.528	0.0909611	-0.0428391	0.0179601	0.0169672	0.0984224
27	-0.0280263	0.0282168	0.00484344	0.0341069	-0.0143864	0.0354111	0.0244644	-0.0297795	0.00290999	0.0394346	0.0104883	0.000960667	0.0514856	0.000396974	0.0222898	-2.20525	-0.0177759	-1.56834	0	0	0	0	-0	0	0	0	-0.1265	0	-0	0	0	0	0	0	-0	0	0.105	0.015	0	0	-0	0	0	0.098	0.1	0	-0	0	0	0	0	0	-0	0	0.05595	0	0	0	-0	0	0	0	0	0	-0	0	559.812	540.297	330.683	195.352	0.0909583	-0.0392134	0.0178293	0.0171871	0.0875471
28	-0.0256055	0.0282131	0.00484115	0.0341061	-0.014378	0.0354116	0.0244681	-0.0297837	0.00291273	0.0427795	0.021366	0.0184809	0.0514257	0.000397152	0.0224195	-2.20237	-0.0181309	-1.5688	0	0	0	0	-0	0	0	0	-0.1265	0	-0	0	0	0	0	0	-0	0	0.105	0.015	0	0	-0	0	0	0.098	0.1	0	-0	0	0	0	0	0	-0	0	0.05595	0	0	0	-0	0	0	0	0	0	-0	0	559.846	540.223	330.993	195.111	0.0901283	-0.0342619	0.0177377	0.0174153	0.075538
29	-0.0248201	0.0282082	0.00483974	0.0341087	-0.014365	0.0354107	0.0244651	-0.029784	0.00290958	0.031381	0.017934	0.00337134	0.0513987	0.000397154	0.0224705	-2.20056	-0.0189252	-1.56977	0	0	0	0	-0	0	0	0	-0.1265	0	-0	0	0	0	0	0	-0	0	0.105	0.015	0	0	-0	0	0	0.098	0.1	0	-0	0	0	0	0	0	-0	0	0.05595	0	0	0	-0	0	0	0	0	0	-0	0	559.896	540.069	331.69	194.579	0.0885095	-0.0273611	0.0175432	0.0178643	0.0584607
30	-0.0131771	0.0281979	0.00483129	0.0341192	-0.0143454	0.0354046	0.0244631	-0.0297779	0.00291063	0.0311669	0.00439186	0.0071432	0.0511241	0.000398502	0.0230816	-2.18741	-0.0201304	-1.57143	0	0	0	0	-0	0	0	0	-0.1265	0	-0	0	0	0	0	0	-0	0	0.105	0.015	0	0	-0	0	0	0.098	0.1	0	-0	0	0	0	0	0	-0	0	0.05595	0	0	0	-0	0	0	0	0	0	-0	0	559.929	539.853	332.739	193.801	0.087276	-0.0211717	0.0171383	0.0185386	0.0398708
31	-0.0178973	0.0281849	0.00481034	0.0341211	-0.0143287	0.0353999	0.0244602	-0.0297791	0.00291073	0.0209673	0.000786507	0.00247779	0.0512228	0.00040121	0.0228418	-2.1918	-0.0203847	-1.57166	0	0	0	0	-0	0	0	0	-0.1265	0	-0	0	0	0	0	0	-0	0	0.105	0.015	0	0	-0	0	0	0.098	0.1	0	-0	0	0	0	0	0	-0	0	0.05595	0	0	0	-0	0	0	0	0	0	-0	0	559.935	539.806	332.962	193.639	0.0883828	-0.0193441	0.0168804	0.0188002	0.0305041
32	-0.0294931	0.0281811	0.00480971	0.0341335	-0.0143187	0.0353927	0.024461	-0.0297888	0.00291407	-0.00567292	-0.00344366	0.00758168	0.0514802	0.000402096	0.0222546	-2.20212	-0.0214557	-1.57268	0	0	0	0	-0	0	0	0	-0.1265	0	-0	0	0	0	0	0	-0	0	0.105	0.015	0	0	-0	0	0	0.098	0.1	0	-0	0	0	0	0	0	-0	0	0.05595	0	0	0	-0	0	0	0	0	0	-0	0	559.939	539.615	333.883	192.984	0.0869501	-0.0150533	0.0165807	0.0193285	0.0189463
33	-0.0255771	0.0281704	0.0047939	0.0341431	-0.0143039	0.0353861	0.0244587	-0.0297762	0.00291068	-0.00361148	-0.0132534	0.0147905	0.0513831	0.000404289	0.0224589	-2.19757	-0.0219972	-1.5734	0	0	0	0	-0	0	0	0	-0.1265	0	-0	0	0	0	0	0	-0	0	0.105	0.015	0	0	-0	0	0	0.098	0.1	0	-0	0	0	0	0	0	-0	0	0.05595	0	0	0	-0	0	0	0	0	0	-0	0	559.937	539.517	334.345	192.662	0.0873476	-0.0130032	0.0163076	0.0196774	0.00978686
34	-0.0242584	0.0281649	0.0047855	0.0341422	-0.0142957	0.0353828	0.0244582	-0.0297779	0.00291269	-0.0105546	-0.0116743	0.0261655	0.0513494	0.000405731	0.0225284	-2.19598	-0.0222165	-1.5737	0	0	0	0	-0	0	0	0	-0.1265	0	-0	0	0	0	0	0	-0	0	0.105	0.015	0	0	-0	0	0	0.098	0.1	0	-0	0	0	0	0	0	-0	0	0.05595	0	0	0	-0	0	0	0	0	0	-0	0	559.935	539.475	334.536	192.531	0.0878979	-0.0122178	0.0161489	0.0198538	0.00504803
35	-0.0254121	0.0281624	0.00478325	0.0341485	-0.0142902	0.0353783	0.0244608	-0.029781	0.00291276	-0.00543577	-0.0112577	0.00696539	0.051373	0.000406627	0.0224711	-2.19656	-0.0227228	-1.57427	0	0	0	0	-0	0	0	0	-0.1265	0	-0	0	0	0	0	0	-0	0	0.105	0.015	0	0	-0	0	0	0.098	0.1	0	-0	0	0	0	0	0	-0	0	0.05595	0	0	0	-0	0	0	0	0	0	-0	0	559.93	539.378	334.969	192.236	0.087363	-0.0100338	0.0159982	0.0201134	-0.000914522
36	-0.0292479	0.0281579	0.00477859	0.0341567	-0.0142813	0.0353721	0.0244604	-0.0297758	0.00291546	-0.00284703	-0.0309285	-0.00239896	0.0514534	0.000407936	0.0222789	-2.19953	-0.0234936	-1.57507	0	0	0	0	-0	0	0	0	-0.1265	0	-0	0	0	0	0	0	-0	0	0.105	0.015	0	0	-0	0	0	0.098	0.1	0	-0	0	0	0	0	0	-0	0	0.05595	0	0	0	-0	0	0	0	0	0	-0	0	559.92	539.236	335.617	191.802	0.0872187	-0.0099288	0.0157591	0.0205069	-0.00443097
37	-0.0224685	0.0281509	0.00476709	0.0341601	-0.0142714	0.0353672	0.0244571	-0.0297756	0.00291277	0.000827819	-0.0191495	0.00328487	0.051297	0.000409722	0.0226308	-2.19232	-0.0238488	-1.57567	0	0	0	0	-0	0	0	0	-0.1265	0	-0	0	0	0	0	0	-0	0	0.105	0.015	0	0	-0	0	0	0.098	0.1	0	-0	0	0	0	0	0	-0	0	0.05595	0	0	0	-0	0	0	0	0	0	-0	0	559.912	539.161	335.943	191.588	0.0879609	-0.0103289	0.0155548	0.0207661	-0.00754766
38	-0.0139614	0.0281474	0.00476288	0.0341676	-0.0142652	0.035363	0.0244559	-0.029776	0.00291342	-0.000732783	-0.0125594	0.0149018	0.0510987	0.000410818	0.0230707	-2.18318	-0.0243716	-1.57655	0	0	0	0	-0	0	0	0	-0.1265	0	-0	0	0	0	0	0	-0	0	0.105	0.015	0	0	-0	0	0	0.098	0.1	0	-0	0	0	0	0	0	-0	0	0.05595	0	0	0	-0	0	0	0	0	0	-0	0	559.901	539.05	336.432	191.271	0.0881351	-0.0113957	0.0153707	0.0210689	-0.00815033
39	-0.00888354	0.0281423	0.00475464	0.0341713	-0.0142583	0.0353595	0.0244541	-0.0297747	0.00291218	0.00215557	-0.00879165	0.0219649	0.0509766	0.000412056	0.0233309	-2.17784	-0.0245725	-1.57696	0	0	0	0	-0	0	0	0	-0.1265	0	-0	0	0	0	0	0	-0	0	0.105	0.015	0	0	-0	0	0	0.098	0.1	0	-0	0	0	0	0	0	-0	0	0.05595	0	0	0	-0	0	0	0	0	0	-0	0	559.896	539.004	336.633	191.142	0.0886011	-0.011129	0.0152372	0.0212341	-0.0113342
40	-0.00261564	0.0281402	0.00475191	0.034175	-0.0142542	0.0353564	0.0244541	-0.0297744	0.00291086	-0.000531828	-0.00165434	0.0128542	0.0508278	0.000412893	0.0236514	-2.17122	-0.0248492	-1.5775	0	0	0	0	-0	0	0	0	-0.1265	0	-0	0	0	0	0	0	-0	0	0.105	0.015	0	0	-0	0	0	0.098	0.1	0	-0	0	0	0	0	0	-0	0	0.05595	0	0	0	-0	0	0	0	0	0	-0	0	559.889	538.938	336.91	190.966	0.0886054	-0.0106717	0.0151289	0.0214132	-0.0138269
41	-0.000951503	0.0281374	0.00474769	0.0341764	-0.0142502	0.0353546	0.0244535	-0.0297737	0.00291211	0.0029839	0.00547615	0.0131863	0.0507856	0.000413586	0.0237365	-2.16941	-0.0249671	-1.57771	0	0	0	0	-0	0	0	0	-0.1265	0	-0	0	0	0	0	0	-0	0	0.105	0.015	0	0	-0	0	0	0.098	0.1	0	-0	0	0	0	0	0	-0	0	0.05595	0	0	0	-0	0	0	0	0	0	-0	0	559.886	538.911	337.023	190.895	0.0888968	-0.0106581	0.0150548	0.0215072	-0.0154017
42	0.0137372	0.0281365	0.00474708	0.0341822	-0.0142468	0.035351	0.0244536	-0.0297737	0.0029127	0.000235827	-0.00398997	0.0098571	0.0504342	0.000414422	0.024485	-2.15413	-0.0253879	-1.57873	0	0	0	0	-0	0	0	0	-0.1265	0	-0	0	0	0	0	0	-0	0	0.105	0.015	0	0	-0	0	0	0.098	0.1	0	-0	0	0	0	0	0	-0	0	0.05595	0	0	0	-0	0	0	0	0	0	-0	0	559.871	538.796	337.49	190.603	0.0888573	-0.01192	0.0149217	0.0217793	-0.0145188
43	0.0131299	0.028132	0.0047399	0.0341853	-0.0142405	0.0353476	0.0244531	-0.0297734	0.0029136	0.00206021	-0.0146871	0.00289281	0.0504403	0.000415619	0.0244536	-2.15445	-0.0256511	-1.57905	0	0	0	0	-0	0	0	0	-0.1265	0	-0	0	0	0	0	0	-0	0	0.105	0.015	0	0	-0	0	0	0.098	0.1	0	-0	0	0	0	0	0	-0	0	0.05595	0	0	0	-0	0	0	0	0	0	-0	0	559.864	538.739	337.724	190.459	0.0893585	-0.0124785	0.0147932	0.0219571	-0.0159428
44	0.0151853	0.02813	0.00473661	0.0341902	-0.0142362	0.0353441	0.0244528	-0.0297759	0.0029132	-0.00860265	-0.0178006	0.0123215	0.050387	0.000416538	0.0245596	-2.15196	-0.0260271	-1.5796	0	0	0	0	-0	0	0	0	-0.1265	0	-0	0	0	0	0	0	-0	0	0.105	0.015	0	0	-0	0	0	0.098	0.1	0	-0	0	0	0	0	0	-0	0	0.05595	0	0	0	-0	0	0	0	0	0	-0	0	559.852	538.653	338.075	190.244	0.089636	-0.0136222	0.0146658	0.0221807	-0.0158218
45	0.0145807	0.0281268	0.00473126	0.034193	-0.0142317	0.035342	0.0244512	-0.0297727	0.00291213	-0.0109221	-0.0232521	0.0152097	0.0503994	0.000417343	0.0245305	-2.15238	-0.0261944	-1.57979	0	0	0	0	-0	0	0	0	-0.1265	0	-0	0	0	0	0	0	-0	0	0.105	0.015	0	0	-0	0	0	0.098	0.1	0	-0	0	0	0	0	0	-0	0	0.05595	0	0	0	-0	0	0	0	0	0	-0	0	559.847	538.616	338.219	190.156	0.0900453	-0.0139901	0.0145806	0.0222981	-0.0170015
46	0.00727693	0.0281254	0.00472924	0.034195	-0.014229	0.0353401	0.0244523	-0.029775	0.0029124	-0.00145521	-0.0161028	0.0209449	0.0505769	0.000417978	0.0241636	-2.15945	-0.0264825	-1.57988	0	0	0	0	-0	0	0	0	-0.1265	0	-0	0	0	0	0	0	-0	0	0.105	0.015	0	0	-0	0	0	0.098	0.1	0	-0	0	0	0	0	0	-0	0	0.05595	0	0	0	-0	0	0	0	0	0	-0	0	559.84	538.565	338.417	190.037	0.0902282	-0.0145027	0.014505	0.0224301	-0.0172584
47	0.00709338	0.0281239	0.00472778	0.0342006	-0.0142248	0.0353361	0.0244505	-0.0297722	0.00291345	-0.00645123	-0.00660874	0.0252984	0.0505777	0.000418994	0.0241555	-2.15909	-0.0269877	-1.5805	0	0	0	0	-0	0	0	0	-0.1265	0	-0	0	0	0	0	0	-0	0	0.105	0.015	0	0	-0	0	0	0.098	0.1	0	-0	0	0	0	0	0	-0	0	0.05595	0	0	0	-0	0	0	0	0	0	-0	0	559.826	538.453	338.863	189.772	0.0902175	-0.015191	0.0143775	0.0226962	-0.0176607
48	0.0169114	0.028121	0.004724	0.0342166	-0.0142155	0.0353272	0.0244516	-0.0297743	0.00291353	-0.0139514	-0.0172875	0.0194897	0.0503314	0.000421686	0.0246608	-2.14771	-0.0283804	-1.58264	0	0	0	0	-0	0	0	0	-0.1265	0	-0	0	0	0	0	0	-0	0	0.105	0.015	0	0	-0	0	0	0.098	0.1	0	-0	0	0	0	0	0	-0	0	0.05595	0	0	0	-0	0	0	0	0	0	-0	0	559.775	538.107	340.191	189	0.0913386	-0.0238865	0.0140135	0.0234942	-0.00664915
49	0.0134658	0.0281109	0.00470661	0.0342331	-0.0141971	0.0353137	0.0244526	-0.029776	0.00291385	-0.00144975	-0.00182858	0.0238434	0.0504027	0.000426156	0.0244938	-2.14969	-0.0298472	-1.58436	0	0	0	0	-0	0	0	0	-0.1265	0	-0	0	0	0	0	0	-0	0	0.105	0.015	0	0	-0	0	0	0.098	0.1	0	-0	0	0	0	0	0	-0	0	0.05595	0	0	0	-0	0	0	0	0	0	-0	0	559.718	537.767	341.466	188.287	0.0933888	-0.0303146	0.013542	0.0243466	-0.00366173
50	0.0153463	0.0281007	0.00468737	0.0342381	-0.0141832	0.035307	0.0244464	-0.0297704	0.0029105	0.0079375	-0.0172266	0.0308263	0.0503489	0.000428709	0.0245923	-2.1475	-0.0301293	-1.5848	0	0	0	0	-0	0	0	0	-0.1265	0	-0	0	0	0	0	0	-0	0	0.105	0.015	0	0	-0	0	0	0.098	0.1	0	-0	0	0	0	0	0	-0	0	0.05595	0	0	0	-0	0	0	0	0	0	-0	0	559.707	537.694	341.73	188.145	0.0951066	-0.0313714	0.0132997	0.0246274	-0.00761937
