Stefan210/kinematic_calibration/src/kinematic_calibration/validation/experiments/experiments/single_point_vs_pose/marker_single_point/rarm_110/optimization_intermediate_results.csv
iteration	HeadPitch_offset	HeadYaw_offset	RElbowRoll_offset	RElbowYaw_offset	RShoulderPitch_offset	RShoulderRoll_offset	marker_transform_rarm_tx	marker_transform_rarm_ty	marker_transform_rarm_tz	marker_transform_rarm_rr	marker_transform_rarm_rp	marker_transform_rarm_ry	camera_transform_tx	camera_transform_ty	camera_transform_tz	camera_transform_rr	camera_transform_rp	camera_transform_ry	HeadPitch_transform_tx	HeadPitch_transform_ty	HeadPitch_transform_tz	HeadPitch_transform_rr	HeadPitch_transform_rp	HeadPitch_transform_ry	HeadYaw_transform_tx	HeadYaw_transform_ty	HeadYaw_transform_tz	HeadYaw_transform_rr	HeadYaw_transform_rp	HeadYaw_transform_ry	RElbowRoll_transform_tx	RElbowRoll_transform_ty	RElbowRoll_transform_tz	RElbowRoll_transform_rr	RElbowRoll_transform_rp	RElbowRoll_transform_ry	RElbowYaw_transform_tx	RElbowYaw_transform_ty	RElbowYaw_transform_tz	RElbowYaw_transform_rr	RElbowYaw_transform_rp	RElbowYaw_transform_ry	RShoulderPitch_transform_tx	RShoulderPitch_transform_ty	RShoulderPitch_transform_tz	RShoulderPitch_transform_rr	RShoulderPitch_transform_rp	RShoulderPitch_transform_ry	RShoulderRoll_transform_tx	RShoulderRoll_transform_ty	RShoulderRoll_transform_tz	RShoulderRoll_transform_rr	RShoulderRoll_transform_rp	RShoulderRoll_transform_ry	RWristYaw_transform_tx	RWristYaw_transform_ty	RWristYaw_transform_tz	RWristYaw_transform_rr	RWristYaw_transform_rp	RWristYaw_transform_ry	r_wrist_joint_transform_tx	r_wrist_joint_transform_ty	r_wrist_joint_transform_tz	r_wrist_joint_transform_rr	r_wrist_joint_transform_rp	r_wrist_joint_transform_ry	camera_fx	camera_fy	camera_cx	camera_cy	camera_D0	camera_D1	camera_D2	camera_D3	camera_D4	
0	0.0230449	0.0294606	-0.0013508	-0.00116347	0.000678263	0.00258603	0.05071	0	0.01774	-2.26369	1.66533e-16	-1.5708	545.901	551.038	324.928	201.58	0.0255298	2.61142	-0.0636736	-0.0350419	0.213964
1	-0.0149516	-0.0219781	0.00479166	0.0100513	-0.0148686	-0.0368928	0.0211493	0.0285509	-0.000759493	-0.0010991	0.000633956	0.00272508	0.0540284	-0.00268762	0.0183514	-2.20351	0.011692	-1.53004	0	0	0	0	-0	0	0	0	-0.1265	0	-0	0	0	0	0	0	-0	0	0.105	-0.015	0	0	-0	0	0	-0.098	0.1	0	-0	0	0	0	0	0	-0	0	0.05595	0	0	0	-0	0	0	0	0	0	-0	0	545.901	551.039	324.929	201.581	-0.026929	2.5948	-0.0819212	-0.0711389	0.210417
2	-0.0135067	-0.0385313	-0.00348303	0.0126833	-0.0252332	-0.0310007	0.0211904	0.0285111	-0.000799811	-0.00110295	0.000637231	0.00271696	0.0536075	-0.0011429	0.0209561	-2.20959	0.0182769	-1.52026	0	0	0	0	-0	0	0	0	-0.1265	0	-0	0	0	0	0	0	-0	0	0.105	-0.015	0	0	-0	0	0	-0.098	0.1	0	-0	0	0	0	0	0	-0	0	0.05595	0	0	0	-0	0	0	0	0	0	-0	0	545.903	551.039	324.934	201.586	-0.201502	2.48124	-0.0341746	-0.0444756	0.172207
3	-0.0142993	-0.0314372	0.000266702	0.0124295	-0.0202109	-0.0350064	0.0212221	0.0285694	-0.00100305	-0.00112459	0.000656308	0.00271667	0.0550435	-0.00223406	0.0179135	-2.20564	0.0181905	-1.52396	0	0	0	0	-0	0	0	0	-0.1265	0	-0	0	0	0	0	0	-0	0	0.105	-0.015	0	0	-0	0	0	-0.098	0.1	0	-0	0	0	0	0	0	-0	0	0.05595	0	0	0	-0	0	0	0	0	0	-0	0	545.905	551.04	324.939	201.591	-0.437512	2.33014	-0.0196703	-0.0349678	0.122869
4	-0.0143021	-0.0256583	0.00314493	0.0104662	-0.0164551	-0.0384234	0.02129	0.0286377	-0.00109233	-0.00113763	0.000663345	0.00271156	0.0559739	-0.00306091	0.0157978	-2.20512	0.0181053	-1.53042	0	0	0	0	-0	0	0	0	-0.1265	0	-0	0	0	0	0	0	-0	0	0.105	-0.015	0	0	-0	0	0	-0.098	0.1	0	-0	0	0	0	0	0	-0	0	0.05595	0	0	0	-0	0	0	0	0	0	-0	0	545.91	551.04	324.949	201.6	-0.659631	2.08283	0.0117152	-0.0131949	0.0300748
5	-0.0143374	-0.0223379	0.00513534	0.00974824	-0.0148428	-0.0405355	0.0212867	0.0286924	-0.00112164	-0.00113796	0.000666272	0.00271642	0.0558419	-0.00355775	0.0154318	-2.20491	0.0176867	-1.53355	0	0	0	0	-0	0	0	0	-0.1265	0	-0	0	0	0	0	0	-0	0	0.105	-0.015	0	0	-0	0	0	-0.098	0.1	0	-0	0	0	0	0	0	-0	0	0.05595	0	0	0	-0	0	0	0	0	0	-0	0	545.923	551.037	324.961	201.61	-0.619708	1.72966	0.0169025	-0.00768307	-0.124164
6	-0.0143759	-0.0204051	0.00682374	0.00919332	-0.0144923	-0.0418268	0.0212466	0.0287135	-0.00104476	-0.00112252	0.000638476	0.00272582	0.0547617	-0.00380636	0.0164407	-2.20517	0.0167245	-1.53535	0	0	0	0	-0	0	0	0	-0.1265	0	-0	0	0	0	0	0	-0	0	0.105	-0.015	0	0	-0	0	0	-0.098	0.1	0	-0	0	0	0	0	0	-0	0	0.05595	0	0	0	-0	0	0	0	0	0	-0	0	545.949	551.029	324.978	201.623	-0.376191	1.17508	0.00593712	-0.0106028	-0.374348
7	-0.0143476	-0.0191276	0.00816636	0.00851902	-0.0145099	-0.0427106	0.0212094	0.0287211	-0.00094401	-0.00109906	0.000687263	0.00282584	0.0536172	-0.0039491	0.01762	-2.20559	0.0158259	-1.53669	0	0	0	0	-0	0	0	0	-0.1265	0	-0	0	0	0	0	0	-0	0	0.105	-0.015	0	0	-0	0	0	-0.098	0.1	0	-0	0	0	0	0	0	-0	0	0.05595	0	0	0	-0	0	0	0	0	0	-0	0	545.994	551.011	324.992	201.631	-0.107298	0.56319	-0.00648284	-0.014355	-0.631253
8	-0.0140731	-0.0186976	0.00873213	0.00803866	-0.0146947	-0.0430365	0.0211911	0.0287228	-0.000878454	-0.0011222	0.000629908	0.00294409	0.0529542	-0.00398256	0.0183625	-2.20582	0.0153447	-1.53734	0	0	0	0	-0	0	0	0	-0.1265	0	-0	0	0	0	0	0	-0	0	0.105	-0.015	0	0	-0	0	0	-0.098	0.1	0	-0	0	0	0	0	0	-0	0	0.05595	0	0	0	-0	0	0	0	0	0	-0	0	546.088	550.969	325.006	201.636	0.0516108	0.161002	-0.0128966	-0.0162264	-0.731919
9	-0.0139876	-0.0186108	0.00885904	0.00781211	-0.0147812	-0.0430553	0.0211859	0.0287215	-0.000854322	-0.00163002	2.8324e-05	0.00258512	0.0527267	-0.0039729	0.0186284	-2.20606	0.0151156	-1.53764	0	0	0	0	-0	0	0	0	-0.1265	0	-0	0	0	0	0	0	-0	0	0.105	-0.015	0	0	-0	0	0	-0.098	0.1	0	-0	0	0	0	0	0	-0	0	0.05595	0	0	0	-0	0	0	0	0	0	-0	0	546.324	550.864	325.041	201.656	0.102616	-0.0297555	-0.01396	-0.0166005	-0.585752
10	-0.0135102	-0.0185567	0.00892277	0.00753776	-0.0148125	-0.0429731	0.0211839	0.0287159	-0.000837082	0.00156901	0.00104348	0.00370389	0.0525748	-0.00394704	0.0188132	-2.206	0.0148211	-1.53802	0	0	0	0	-0	0	0	0	-0.1265	0	-0	0	0	0	0	0	-0	0	0.105	-0.015	0	0	-0	0	0	-0.098	0.1	0	-0	0	0	0	0	0	-0	0	0.05595	0	0	0	-0	0	0	0	0	0	-0	0	546.882	550.637	325.121	201.726	0.126014	-0.240351	-0.0126849	-0.0164811	-0.123113
11	-0.0117616	-0.0184754	0.0090203	0.00708467	-0.0148522	-0.0428315	0.0211819	0.0287061	-0.000810108	-0.00334178	0.00286885	0.000906384	0.0523254	-0.00390371	0.0191437	-2.20513	0.0143283	-1.53862	0	0	0	0	-0	0	0	0	-0.1265	0	-0	0	0	0	0	0	-0	0	0.105	-0.015	0	0	-0	0	0	-0.098	0.1	0	-0	0	0	0	0	0	-0	0	0.05595	0	0	0	-0	0	0	0	0	0	-0	0	547.852	550.354	325.248	201.95	0.159799	-0.590599	-0.0103333	-0.016222	0.702503
12	0.00223638	-0.0183951	0.00910561	0.00664252	-0.0148879	-0.0426935	0.0211859	0.0286993	-0.000785212	0.00279842	-0.013096	-0.0133503	0.0518372	-0.0038601	0.0201206	-2.1929	0.0134035	-1.53914	0	0	0	0	-0	0	0	0	-0.1265	0	-0	0	0	0	0	0	-0	0	0.105	-0.015	0	0	-0	0	0	-0.098	0.1	0	-0	0	0	0	0	0	-0	0	0.05595	0	0	0	-0	0	0	0	0	0	-0	0	548.935	550.465	325.429	202.623	0.194938	-0.947898	-0.0082686	-0.0159625	1.55869
13	0.00738222	-0.0183612	0.00913305	0.00643727	-0.0149017	-0.0426292	0.0211859	0.0286978	-0.000763685	0.0108265	-0.00320261	-0.0366282	0.0516198	-0.00384002	0.0204993	-2.18974	0.0127936	-1.53974	0	0	0	0	-0	0	0	0	-0.1265	0	-0	0	0	0	0	0	-0	0	0.105	-0.015	0	0	-0	0	0	-0.098	0.1	0	-0	0	0	0	0	0	-0	0	0.05595	0	0	0	-0	0	0	0	0	0	-0	0	549.641	550.999	325.738	203.529	0.208585	-1.09172	-0.00751554	-0.0157526	1.92364
14	0.0114715	-0.01835	0.0091357	0.00632722	-0.0149078	-0.0425932	0.0211809	0.0286875	-0.000761335	-0.00737696	-0.031752	-0.0373776	0.0514762	-0.00383017	0.0207765	-2.1881	0.0120548	-1.54055	0	0	0	0	-0	0	0	0	-0.1265	0	-0	0	0	0	0	0	-0	0	0.105	-0.015	0	0	-0	0	0	-0.098	0.1	0	-0	0	0	0	0	0	-0	0	0.05595	0	0	0	-0	0	0	0	0	0	-0	0	550.288	551.798	326.252	204.736	0.209784	-1.11768	-0.00717363	-0.0154978	2.01096
15	0.00797817	-0.0183508	0.00913406	0.00630292	-0.0149122	-0.042585	0.021184	0.0286908	-0.000759472	-0.012618	-0.0220432	-0.024145	0.0515346	-0.00382801	0.0206121	-2.19223	0.0119991	-1.54082	0	0	0	0	-0	0	0	0	-0.1265	0	-0	0	0	0	0	0	-0	0	0.105	-0.015	0	0	-0	0	0	-0.098	0.1	0	-0	0	0	0	0	0	-0	0	0.05595	0	0	0	-0	0	0	0	0	0	-0	0	550.445	552.005	326.392	205.055	0.209542	-1.11693	-0.00710525	-0.0154249	2.01268
16	0.0100986	-0.0183492	0.0091334	0.0062898	-0.0149124	-0.0425806	0.0211812	0.0286888	-0.000756335	-0.00658683	-0.020462	-0.0334416	0.0514832	-0.00382699	0.02073	-2.19054	0.0118253	-1.54094	0	0	0	0	-0	0	0	0	-0.1265	0	-0	0	0	0	0	0	-0	0	0.105	-0.015	0	0	-0	0	0	-0.098	0.1	0	-0	0	0	0	0	0	-0	0	0.05595	0	0	0	-0	0	0	0	0	0	-0	0	550.549	552.146	326.488	205.271	0.209037	-1.1141	-0.00706002	-0.0153785	2.00882
17	0.019266	-0.0183518	0.00912799	0.00624522	-0.0149166	-0.0425624	0.0211888	0.028688	-0.000757524	-0.00584127	-0.0467825	-0.0443466	0.0512697	-0.00382359	0.0212299	-2.18313	0.0110842	-1.54148	0	0	0	0	-0	0	0	0	-0.1265	0	-0	0	0	0	0	0	-0	0	0.105	-0.015	0	0	-0	0	0	-0.098	0.1	0	-0	0	0	0	0	0	-0	0	0.05595	0	0	0	-0	0	0	0	0	0	-0	0	550.954	552.7	326.904	206.163	0.205473	-1.09305	-0.00685179	-0.0151845	1.97537
18	0.0295011	-0.0183519	0.00912458	0.00622462	-0.0149187	-0.0425542	0.0211815	0.0286939	-0.000750065	-0.0270123	-0.0454786	-0.0352797	0.0510375	-0.00382194	0.021768	-2.17375	0.0105683	-1.54168	0	0	0	0	-0	0	0	0	-0.1265	0	-0	0	0	0	0	0	-0	0	0.105	-0.015	0	0	-0	0	0	-0.098	0.1	0	-0	0	0	0	0	0	-0	0	0.05595	0	0	0	-0	0	0	0	0	0	-0	0	551.141	552.959	327.101	206.592	0.204081	-1.08308	-0.00675324	-0.0150871	1.95537
19	0.0182	-0.0183531	0.00912248	0.00620443	-0.0149202	-0.0425464	0.0211812	0.0286901	-0.000750514	-0.0112452	-0.0473317	-0.0304313	0.0512714	-0.00382057	0.0212007	-2.1858	0.010704	-1.54207	0	0	0	0	-0	0	0	0	-0.1265	0	-0	0	0	0	0	0	-0	0	0.105	-0.015	0	0	-0	0	0	-0.098	0.1	0	-0	0	0	0	0	0	-0	0	0.05595	0	0	0	-0	0	0	0	0	0	-0	0	551.301	553.179	327.278	206.977	0.202513	-1.0724	-0.00665532	-0.0149995	1.93436
20	0.0249824	-0.018355	0.00911983	0.00619206	-0.0149225	-0.0425407	0.0211804	0.0286859	-0.000748562	-0.00934273	-0.0494876	-0.0350992	0.0511177	-0.00381958	0.0215553	-2.17956	0.0103659	-1.5422	0	0	0	0	-0	0	0	0	-0.1265	0	-0	0	0	0	0	0	-0	0	0.105	-0.015	0	0	-0	0	0	-0.098	0.1	0	-0	0	0	0	0	0	-0	0	0.05595	0	0	0	-0	0	0	0	0	0	-0	0	551.417	553.339	327.407	207.257	0.20149	-1.06542	-0.00658621	-0.014937	1.92084
21	0.0200365	-0.0183556	0.00911817	0.00618716	-0.0149234	-0.0425386	0.0211804	0.0286858	-0.000748345	-0.00800262	-0.046036	-0.0303763	0.0512203	-0.00381914	0.0213052	-2.18473	0.0104508	-1.54233	0	0	0	0	-0	0	0	0	-0.1265	0	-0	0	0	0	0	0	-0	0	0.105	-0.015	0	0	-0	0	0	-0.098	0.1	0	-0	0	0	0	0	0	-0	0	0.05595	0	0	0	-0	0	0	0	0	0	-0	0	551.463	553.403	327.458	207.371	0.201076	-1.06222	-0.00655996	-0.0149118	1.91396
22	0.0155518	-0.0183585	0.00911458	0.00616726	-0.014926	-0.0425295	0.0211826	0.0286866	-0.000747043	-0.00266479	-0.0575703	-0.0365482	0.0513061	-0.00381773	0.0210862	-2.19008	0.0103486	-1.54269	0	0	0	0	-0	0	0	0	-0.1265	0	-0	0	0	0	0	0	-0	0	0.105	-0.015	0	0	-0	0	0	-0.098	0.1	0	-0	0	0	0	0	0	-0	0	0.05595	0	0	0	-0	0	0	0	0	0	-0	0	551.639	553.645	327.667	207.815	0.199236	-1.0504	-0.00643769	-0.014812	1.89227
23	0.0178685	-0.0183591	0.00911268	0.0061569	-0.014927	-0.042525	0.0211801	0.0286862	-0.000746158	-0.0106328	-0.0606233	-0.041924	0.0512518	-0.003817	0.0212107	-2.18818	0.0101718	-1.54282	0	0	0	0	-0	0	0	0	-0.1265	0	-0	0	0	0	0	0	-0	0	0.105	-0.015	0	0	-0	0	0	-0.098	0.1	0	-0	0	0	0	0	0	-0	0	0.05595	0	0	0	-0	0	0	0	0	0	-0	0	551.723	553.758	327.767	208.033	0.198401	-1.04432	-0.00637143	-0.0147602	1.87899
24	0.02723	-0.0183617	0.00910992	0.00614265	-0.0149293	-0.0425184	0.021179	0.0286879	-0.000746819	-0.0276537	-0.0727402	-0.0478814	0.0510468	-0.00381597	0.0216981	-2.17943	0.0097491	-1.54295	0	0	0	0	-0	0	0	0	-0.1265	0	-0	0	0	0	0	0	-0	0	0.105	-0.015	0	0	-0	0	0	-0.098	0.1	0	-0	0	0	0	0	0	-0	0	0.05595	0	0	0	-0	0	0	0	0	0	-0	0	551.844	553.924	327.914	208.347	0.197168	-1.03618	-0.00628251	-0.0146876	1.86336
25	0.0215397	-0.0183636	0.00910813	0.00613208	-0.0149312	-0.0425136	0.0211846	0.0286843	-0.000740691	-0.0232377	-0.0486897	-0.0553344	0.051163	-0.00381524	0.0214124	-2.18557	0.00979174	-1.54317	0	0	0	0	-0	0	0	0	-0.1265	0	-0	0	0	0	0	0	-0	0	0.105	-0.015	0	0	-0	0	0	-0.098	0.1	0	-0	0	0	0	0	0	-0	0	0.05595	0	0	0	-0	0	0	0	0	0	-0	0	551.929	554.042	328.021	208.577	0.196368	-1.03062	-0.00621453	-0.0146324	1.85179
26	0.013424	-0.0183661	0.00910267	0.0061121	-0.0149335	-0.0425036	0.0211847	0.0286892	-0.000744561	-0.0231036	-0.0597752	-0.0736068	0.051327	-0.0038137	0.0210077	-2.19461	0.00975893	-1.5436	0	0	0	0	-0	0	0	0	-0.1265	0	-0	0	0	0	0	0	-0	0	0.105	-0.015	0	0	-0	0	0	-0.098	0.1	0	-0	0	0	0	0	0	-0	0	0.05595	0	0	0	-0	0	0	0	0	0	-0	0	552.106	554.285	328.253	209.06	0.194569	-1.01869	-0.00607564	-0.0145201	1.82905
27	0.0258056	-0.0183684	0.00910099	0.00610061	-0.0149358	-0.0424985	0.0211813	0.0286845	-0.00074003	-0.0252231	-0.0491213	-0.0765491	0.0510602	-0.00381295	0.0216486	-2.18269	0.00929809	-1.54365	0	0	0	0	-0	0	0	0	-0.1265	0	-0	0	0	0	0	0	-0	0	0.105	-0.015	0	0	-0	0	0	-0.098	0.1	0	-0	0	0	0	0	0	-0	0	0.05595	0	0	0	-0	0	0	0	0	0	-0	0	552.187	554.398	328.365	209.296	0.193956	-1.01433	-0.00600241	-0.0144586	1.81934
28	0.0283599	-0.0183703	0.00909856	0.00609379	-0.0149375	-0.0424947	0.0211802	0.0286854	-0.000739582	-0.0325518	-0.0479677	-0.0708259	0.0509978	-0.00381234	0.0217812	-2.18047	0.00914048	-1.54375	0	0	0	0	-0	0	0	0	-0.1265	0	-0	0	0	0	0	0	-0	0	0.105	-0.015	0	0	-0	0	0	-0.098	0.1	0	-0	0	0	0	0	0	-0	0	0.05595	0	0	0	-0	0	0	0	0	0	-0	0	552.247	554.481	328.447	209.468	0.193424	-1.01054	-0.00595348	-0.0144175	1.81154
29	0.0289445	-0.0183708	0.00909799	0.0060895	-0.014938	-0.0424932	0.0211801	0.0286842	-0.000739477	-0.030455	-0.05321	-0.0707131	0.0509834	-0.00381207	0.0218126	-2.18002	0.00908884	-1.5438	0	0	0	0	-0	0	0	0	-0.1265	0	-0	0	0	0	0	0	-0	0	0.105	-0.015	0	0	-0	0	0	-0.098	0.1	0	-0	0	0	0	0	0	-0	0	0.05595	0	0	0	-0	0	0	0	0	0	-0	0	552.271	554.514	328.48	209.538	0.193184	-1.00882	-0.00592894	-0.0143988	1.80759
30	0.0329812	-0.0183739	0.0090951	0.00607782	-0.0149404	-0.042487	0.0211798	0.0286843	-0.000738552	-0.0350763	-0.0526773	-0.0723792	0.0508905	-0.00381119	0.0220243	-2.17652	0.00883525	-1.54396	0	0	0	0	-0	0	0	0	-0.1265	0	-0	0	0	0	0	0	-0	0	0.105	-0.015	0	0	-0	0	0	-0.098	0.1	0	-0	0	0	0	0	0	-0	0	0.05595	0	0	0	-0	0	0	0	0	0	-0	0	552.365	554.645	328.614	209.815	0.192351	-1.00372	-0.00584551	-0.0143323	1.79871
31	0.0265694	-0.0183767	0.0090923	0.00606626	-0.0149427	-0.0424812	0.02118	0.0286836	-0.000737477	-0.037982	-0.0618678	-0.0720673	0.0510267	-0.00381039	0.0217031	-2.18343	0.00886755	-1.54422	0	0	0	0	-0	0	0	0	-0.1265	0	-0	0	0	0	0	0	-0	0	0.105	-0.015	0	0	-0	0	0	-0.098	0.1	0	-0	0	0	0	0	0	-0	0	0.05595	0	0	0	-0	0	0	0	0	0	-0	0	552.454	554.766	328.744	210.081	0.191425	-0.997361	-0.0057575	-0.0142647	1.78537
32	0.0252045	-0.0183776	0.00909094	0.00606157	-0.0149437	-0.0424788	0.0211801	0.0286844	-0.000736435	-0.0404315	-0.0660155	-0.0647373	0.0510532	-0.00381001	0.0216357	-2.18501	0.00884651	-1.54431	0	0	0	0	-0	0	0	0	-0.1265	0	-0	0	0	0	0	0	-0	0	0.105	-0.015	0	0	-0	0	0	-0.098	0.1	0	-0	0	0	0	0	0	-0	0	0.05595	0	0	0	-0	0	0	0	0	0	-0	0	552.488	554.815	328.796	210.189	0.191185	-0.995525	-0.00572358	-0.0142362	1.78102
33	0.0118741	-0.0183826	0.00908644	0.0060446	-0.0149473	-0.0424697	0.0211797	0.028684	-0.000735358	-0.0450069	-0.0667588	-0.0604059	0.0513354	-0.00380882	0.0209626	-2.19912	0.00897124	-1.54473	0	0	0	0	-0	0	0	0	-0.1265	0	-0	0	0	0	0	0	-0	0	0.105	-0.015	0	0	-0	0	0	-0.098	0.1	0	-0	0	0	0	0	0	-0	0	0.05595	0	0	0	-0	0	0	0	0	0	-0	0	552.617	554.998	329.003	210.6	0.189988	-0.987949	-0.00559713	-0.014131	1.76713
34	0.0227545	-0.018385	0.00908402	0.00603626	-0.0149495	-0.0424651	0.0211811	0.0286859	-0.000735053	-0.0361626	-0.07088	-0.0522931	0.0510994	-0.00380817	0.0215237	-2.18862	0.00857508	-1.54478	0	0	0	0	-0	0	0	0	-0.1265	0	-0	0	0	0	0	0	-0	0	0.105	-0.015	0	0	-0	0	0	-0.098	0.1	0	-0	0	0	0	0	0	-0	0	0.05595	0	0	0	-0	0	0	0	0	0	-0	0	552.68	555.085	329.103	210.8	0.189443	-0.983974	-0.00552876	-0.0140757	1.7579
35	0.0283469	-0.0183862	0.00908246	0.00602951	-0.0149506	-0.0424619	0.0211805	0.0286842	-0.0007341	-0.0418448	-0.0646067	-0.0555948	0.0509734	-0.0038077	0.0218112	-2.18331	0.00835024	-1.54485	0	0	0	0	-0	0	0	0	-0.1265	0	-0	0	0	0	0	0	-0	0	0.105	-0.015	0	0	-0	0	0	-0.098	0.1	0	-0	0	0	0	0	0	-0	0	0.05595	0	0	0	-0	0	0	0	0	0	-0	0	552.725	555.148	329.177	210.946	0.189102	-0.981677	-0.00548043	-0.0140357	1.75297
36	0.0169604	-0.018389	0.00907974	0.00602071	-0.0149528	-0.0424571	0.0211795	0.0286848	-0.000733091	-0.0519955	-0.0654868	-0.0512755	0.0512177	-0.00380703	0.0212344	-2.1951	0.00852751	-1.5451	0	0	0	0	-0	0	0	0	-0.1265	0	-0	0	0	0	0	0	-0	0	0.105	-0.015	0	0	-0	0	0	-0.098	0.1	0	-0	0	0	0	0	0	-0	0	0.05595	0	0	0	-0	0	0	0	0	0	-0	0	552.789	555.24	329.285	211.157	0.188583	-0.978359	-0.00541554	-0.0139798	1.74678
37	0.0250488	-0.0183911	0.00907803	0.00601393	-0.0149545	-0.0424534	0.0211799	0.0286831	-0.000732892	-0.0525455	-0.0583684	-0.0512225	0.0510402	-0.00380653	0.0216504	-2.18731	0.00823214	-1.54515	0	0	0	0	-0	0	0	0	-0.1265	0	-0	0	0	0	0	0	-0	0	0.105	-0.015	0	0	-0	0	0	-0.098	0.1	0	-0	0	0	0	0	0	-0	0	0.05595	0	0	0	-0	0	0	0	0	0	-0	0	552.835	555.304	329.364	211.311	0.188211	-0.975962	-0.00536112	-0.0139365	1.74173
38	0.0207454	-0.0183931	0.00907604	0.0060075	-0.0149561	-0.0424499	0.0211796	0.0286832	-0.000732389	-0.0542404	-0.0554356	-0.0487896	0.0511294	-0.00380604	0.0214327	-2.19189	0.00825908	-1.5453	0	0	0	0	-0	0	0	0	-0.1265	0	-0	0	0	0	0	0	-0	0	0.105	-0.015	0	0	-0	0	0	-0.098	0.1	0	-0	0	0	0	0	0	-0	0	0.05595	0	0	0	-0	0	0	0	0	0	-0	0	552.879	555.364	329.44	211.46	0.187823	-0.973517	-0.00530799	-0.0138955	1.73685
39	0.0193139	-0.0183939	0.00907522	0.00600473	-0.0149567	-0.0424486	0.0211799	0.0286832	-0.000732545	-0.0534967	-0.0491196	-0.0443287	0.0511588	-0.00380586	0.0213605	-2.19344	0.00826142	-1.54536	0	0	0	0	-0	0	0	0	-0.1265	0	-0	0	0	0	0	0	-0	0	0.105	-0.015	0	0	-0	0	0	-0.098	0.1	0	-0	0	0	0	0	0	-0	0	0.05595	0	0	0	-0	0	0	0	0	0	-0	0	552.896	555.389	329.471	211.52	0.187651	-0.972154	-0.00528692	-0.0138776	1.73341
40	0.0159565	-0.0183957	0.00907372	0.00599951	-0.014958	-0.0424457	0.0211792	0.0286837	-0.000731493	-0.0458715	-0.0472889	-0.0462264	0.0512288	-0.00380549	0.0211908	-2.19703	0.00827458	-1.54548	0	0	0	0	-0	0	0	0	-0.1265	0	-0	0	0	0	0	0	-0	0	0.105	-0.015	0	0	-0	0	0	-0.098	0.1	0	-0	0	0	0	0	0	-0	0	0.05595	0	0	0	-0	0	0	0	0	0	-0	0	552.933	555.44	329.537	211.646	0.187303	-0.969976	-0.00524293	-0.0138431	1.72921
41	0.027203	-0.0184005	0.00907003	0.00598692	-0.0149614	-0.0424385	0.0211831	0.0286836	-0.000727207	-0.0497185	-0.0673328	-0.0357359	0.0509863	-0.0038046	0.0217718	-2.18637	0.00780969	-1.54563	0	0	0	0	-0	0	0	0	-0.1265	0	-0	0	0	0	0	0	-0	0	0.105	-0.015	0	0	-0	0	0	-0.098	0.1	0	-0	0	0	0	0	0	-0	0	0.05595	0	0	0	-0	0	0	0	0	0	-0	0	553.017	555.561	329.701	211.951	0.186597	-0.965726	-0.00514057	-0.0137565	1.72153
42	0.0285613	-0.0184013	0.00906767	0.00598136	-0.0149622	-0.0424351	0.0211791	0.0286837	-0.00073091	-0.0408994	-0.0615139	-0.0313666	0.0509511	-0.00380412	0.0218424	-2.18529	0.00768969	-1.54574	0	0	0	0	-0	0	0	0	-0.1265	0	-0	0	0	0	0	0	-0	0	0.105	-0.015	0	0	-0	0	0	-0.098	0.1	0	-0	0	0	0	0	0	-0	0	0.05595	0	0	0	-0	0	0	0	0	0	-0	0	553.057	555.618	329.781	212.099	0.186344	-0.96382	-0.00508992	-0.0137121	1.71685
43	0.0254384	-0.0184036	0.00906716	0.00597763	-0.0149641	-0.0424335	0.0211793	0.0286828	-0.000729753	-0.0381793	-0.0623392	-0.0300196	0.0510184	-0.00380391	0.0216845	-2.18853	0.00773346	-1.54581	0	0	0	0	-0	0	0	0	-0.1265	0	-0	0	0	0	0	0	-0	0	0.105	-0.015	0	0	-0	0	0	-0.098	0.1	0	-0	0	0	0	0	0	-0	0	0.05595	0	0	0	-0	0	0	0	0	0	-0	0	553.073	555.641	329.813	212.159	0.186221	-0.963165	-0.00506478	-0.0136918	1.71533
44	0.0284261	-0.0184073	0.00906407	0.00596829	-0.0149667	-0.0424279	0.0211791	0.0286843	-0.000729966	-0.027165	-0.0580519	-0.0249389	0.0509504	-0.00380321	0.0218405	-2.18598	0.00751793	-1.54598	0	0	0	0	-0	0	0	0	-0.1265	0	-0	0	0	0	0	0	-0	0	0.105	-0.015	0	0	-0	0	0	-0.098	0.1	0	-0	0	0	0	0	0	-0	0	0.05595	0	0	0	-0	0	0	0	0	0	-0	0	553.135	555.732	329.942	212.391	0.185754	-0.960578	-0.00498704	-0.0136239	1.71128
45	0.0304985	-0.0184132	0.00905992	0.00595492	-0.014971	-0.04242	0.0211811	0.0286852	-0.00072627	-0.0226691	-0.0537266	-0.0391537	0.0509013	-0.00380229	0.0219505	-2.18452	0.0072669	-1.54623	0	0	0	0	-0	0	0	0	-0.1265	0	-0	0	0	0	0	0	-0	0	0.105	-0.015	0	0	-0	0	0	-0.098	0.1	0	-0	0	0	0	0	0	-0	0	0.05595	0	0	0	-0	0	0	0	0	0	-0	0	553.213	555.847	330.127	212.712	0.185228	-0.957741	-0.00487324	-0.0135229	1.70643
46	0.0301802	-0.0184127	0.00905899	0.00595242	-0.0149708	-0.0424191	0.0211794	0.0286826	-0.000727377	-0.0238926	-0.0501601	-0.0427613	0.0509071	-0.00380205	0.0219355	-2.18492	0.00724734	-1.54627	0	0	0	0	-0	0	0	0	-0.1265	0	-0	0	0	0	0	0	-0	0	0.105	-0.015	0	0	-0	0	0	-0.098	0.1	0	-0	0	0	0	0	0	-0	0	0.05595	0	0	0	-0	0	0	0	0	0	-0	0	553.224	555.862	330.151	212.755	0.185279	-0.95794	-0.00485514	-0.0135051	1.70586
47	0.0266606	-0.0184145	0.009058	0.00595002	-0.0149723	-0.0424174	0.0211792	0.0286829	-0.000727524	-0.0293046	-0.0506794	-0.0454589	0.0509836	-0.00380184	0.0217574	-2.18855	0.00729711	-1.54634	0	0	0	0	-0	0	0	0	-0.1265	0	-0	0	0	0	0	0	-0	0	0.105	-0.015	0	0	-0	0	0	-0.098	0.1	0	-0	0	0	0	0	0	-0	0	0.05595	0	0	0	-0	0	0	0	0	0	-0	0	553.239	555.883	330.185	212.814	0.185194	-0.957617	-0.00483312	-0.0134869	1.70563
48	0.0262421	-0.0184152	0.00905746	0.00594802	-0.0149729	-0.0424163	0.0211794	0.0286828	-0.000727273	-0.0301256	-0.051537	-0.0509909	0.0509917	-0.00380169	0.0217367	-2.18905	0.0072798	-1.54638	0	0	0	0	-0	0	0	0	-0.1265	0	-0	0	0	0	0	0	-0	0	0.105	-0.015	0	0	-0	0	0	-0.098	0.1	0	-0	0	0	0	0	0	-0	0	0.05595	0	0	0	-0	0	0	0	0	0	-0	0	553.25	555.9	330.21	212.858	0.185157	-0.957547	-0.00481736	-0.0134726	1.7057
49	0.0225486	-0.0184171	0.00905611	0.00594385	-0.0149742	-0.0424138	0.0211803	0.0286841	-0.000726167	-0.0267745	-0.049821	-0.0621263	0.0510709	-0.0038014	0.0215498	-2.19293	0.00730607	-1.54649	0	0	0	0	-0	0	0	0	-0.1265	0	-0	0	0	0	0	0	-0	0	0.105	-0.015	0	0	-0	0	0	-0.098	0.1	0	-0	0	0	0	0	0	-0	0	0.05595	0	0	0	-0	0	0	0	0	0	-0	0	553.275	555.935	330.268	212.958	0.184967	-0.956483	-0.00478089	-0.013441	1.70384
50	0.0280935	-0.0184175	0.00905544	0.00594162	-0.0149746	-0.0424127	0.0211794	0.0286835	-0.000727003	-0.0186931	-0.0498137	-0.0578045	0.0509504	-0.00380124	0.0218337	-2.18748	0.00713927	-1.5465	0	0	0	0	-0	0	0	0	-0.1265	0	-0	0	0	0	0	0	-0	0	0.105	-0.015	0	0	-0	0	0	-0.098	0.1	0	-0	0	0	0	0	0	-0	0	0.05595	0	0	0	-0	0	0	0	0	0	-0	0	553.286	555.953	330.297	213.008	0.184934	-0.956338	-0.00476345	-0.013424	1.70349
51	0.03029	-0.01842	0.00905396	0.00593725	-0.0149765	-0.0424099	0.0211807	0.0286838	-0.000726086	-0.0111909	-0.0571064	-0.0534024	0.0509003	-0.00380091	0.0219469	-2.18549	0.00701633	-1.54657	0	0	0	0	-0	0	0	0	-0.1265	0	-0	0	0	0	0	0	-0	0	0.105	-0.015	0	0	-0	0	0	-0.098	0.1	0	-0	0	0	0	0	0	-0	0	0.05595	0	0	0	-0	0	0	0	0	0	-0	0	553.311	555.991	330.361	213.116	0.184895	-0.956581	-0.00472746	-0.0133891	1.70502
52	0.0423316	-0.0184226	0.00905172	0.0059307	-0.0149784	-0.042406	0.0211787	0.028684	-0.00072266	-0.0262061	-0.0735793	-0.0442509	0.0506341	-0.00380042	0.0225621	-2.17374	0.00662277	-1.54663	0	0	0	0	-0	0	0	0	-0.1265	0	-0	0	0	0	0	0	-0	0	0.105	-0.015	0	0	-0	0	0	-0.098	0.1	0	-0	0	0	0	0	0	-0	0	0.05595	0	0	0	-0	0	0	0	0	0	-0	0	553.348	556.046	330.455	213.27	0.18469	-0.955684	-0.00467262	-0.0133373	1.70395
53	0.0450572	-0.018424	0.00905056	0.00592748	-0.0149794	-0.042404	0.0211792	0.0286832	-0.00072543	-0.0346499	-0.0722978	-0.0444446	0.0505678	-0.00380013	0.0226998	-2.17116	0.0065078	-1.54668	0	0	0	0	-0	0	0	0	-0.1265	0	-0	0	0	0	0	0	-0	0	0.105	-0.015	0	0	-0	0	0	-0.098	0.1	0	-0	0	0	0	0	0	-0	0	0.05595	0	0	0	-0	0	0	0	0	0	-0	0	553.365	556.073	330.501	213.345	0.184686	-0.955835	-0.00464775	-0.0133103	1.70442
54	0.0459072	-0.0184301	0.00904673	0.00591656	-0.0149838	-0.0423974	0.0211789	0.0286822	-0.000724053	-0.0404299	-0.0787716	-0.0413561	0.0505456	-0.00379937	0.0227462	-2.1708	0.00630738	-1.54691	0	0	0	0	-0	0	0	0	-0.1265	0	-0	0	0	0	0	0	-0	0	0.105	-0.015	0	0	-0	0	0	-0.098	0.1	0	-0	0	0	0	0	0	-0	0	0.05595	0	0	0	-0	0	0	0	0	0	-0	0	553.426	556.167	330.67	213.606	0.184316	-0.954236	-0.00455823	-0.0132183	1.70288
55	0.0465645	-0.0184301	0.00904618	0.00591552	-0.014984	-0.0423971	0.021179	0.028682	-0.000724354	-0.0394749	-0.0785351	-0.0397036	0.0505301	-0.00379923	0.0227801	-2.17017	0.00628424	-1.54692	0	0	0	0	-0	0	0	0	-0.1265	0	-0	0	0	0	0	0	-0	0	0.105	-0.015	0	0	-0	0	0	-0.098	0.1	0	-0	0	0	0	0	0	-0	0	0.05595	0	0	0	-0	0	0	0	0	0	-0	0	553.428	556.17	330.676	213.616	0.184377	-0.954567	-0.0045505	-0.0132103	1.70273
56	0.048561	-0.0184305	0.00904585	0.00591489	-0.0149844	-0.0423967	0.021179	0.028682	-0.000724281	-0.0388959	-0.0786301	-0.0387971	0.0504844	-0.00379918	0.0228812	-2.16821	0.00622414	-1.54693	0	0	0	0	-0	0	0	0	-0.1265	0	-0	0	0	0	0	0	-0	0	0.105	-0.015	0	0	-0	0	0	-0.098	0.1	0	-0	0	0	0	0	0	-0	0	0.05595	0	0	0	-0	0	0	0	0	0	-0	0	553.432	556.177	330.688	213.634	0.184353	-0.954474	-0.00454408	-0.0132038	1.70266
57	0.0505246	-0.0184311	0.00904548	0.00591368	-0.0149848	-0.042396	0.0211791	0.0286821	-0.000724175	-0.0413841	-0.0768183	-0.0392134	0.050439	-0.00379909	0.0229807	-2.1663	0.00615869	-1.54694	0	0	0	0	-0	0	0	0	-0.1265	0	-0	0	0	0	0	0	-0	0	0.105	-0.015	0	0	-0	0	0	-0.098	0.1	0	-0	0	0	0	0	0	-0	0	0.05595	0	0	0	-0	0	0	0	0	0	-0	0	553.438	556.186	330.705	213.662	0.184351	-0.954556	-0.00453457	-0.0131942	1.703
58	0.0535968	-0.0184319	0.00904493	0.00591183	-0.0149854	-0.0423949	0.021179	0.0286819	-0.000723979	-0.041004	-0.0736412	-0.0400992	0.0503678	-0.00379896	0.0231362	-2.1633	0.00605784	-1.54696	0	0	0	0	-0	0	0	0	-0.1265	0	-0	0	0	0	0	0	-0	0	0.105	-0.015	0	0	-0	0	0	-0.098	0.1	0	-0	0	0	0	0	0	-0	0	0.05595	0	0	0	-0	0	0	0	0	0	-0	0	553.448	556.199	330.731	213.702	0.184304	-0.95443	-0.00451879	-0.0131796	1.703
59	0.0541522	-0.0184323	0.00904457	0.00591095	-0.0149857	-0.0423943	0.0211791	0.0286822	-0.000724002	-0.0377332	-0.0743697	-0.0377447	0.0503545	-0.00379889	0.0231644	-2.16278	0.00603098	-1.54697	0	0	0	0	-0	0	0	0	-0.1265	0	-0	0	0	0	0	0	-0	0	0.105	-0.015	0	0	-0	0	0	-0.098	0.1	0	-0	0	0	0	0	0	-0	0	0.05595	0	0	0	-0	0	0	0	0	0	-0	0	553.452	556.206	330.744	213.722	0.184292	-0.954435	-0.00451063	-0.0131719	1.70305
60	0.0563341	-0.0184326	0.00904438	0.00591017	-0.014986	-0.0423939	0.0211791	0.028682	-0.000723945	-0.0373762	-0.0774048	-0.0393319	0.0503038	-0.00379884	0.0232745	-2.16063	0.00596881	-1.54697	0	0	0	0	-0	0	0	0	-0.1265	0	-0	0	0	0	0	0	-0	0	0.105	-0.015	0	0	-0	0	0	-0.098	0.1	0	-0	0	0	0	0	0	-0	0	0.05595	0	0	0	-0	0	0	0	0	0	-0	0	553.455	556.21	330.754	213.737	0.18428	-0.954439	-0.00450437	-0.0131662	1.70314
61	0.056871	-0.0184333	0.00904384	0.00590895	-0.0149865	-0.0423931	0.0211789	0.0286821	-0.00072389	-0.0408238	-0.079071	-0.0410237	0.0502908	-0.00379874	0.0233019	-2.16015	0.00593327	-1.547	0	0	0	0	-0	0	0	0	-0.1265	0	-0	0	0	0	0	0	-0	0	0.105	-0.015	0	0	-0	0	0	-0.098	0.1	0	-0	0	0	0	0	0	-0	0	0.05595	0	0	0	-0	0	0	0	0	0	-0	0	553.462	556.222	330.775	213.77	0.184242	-0.954239	-0.00449396	-0.0131544	1.70288
62	0.0587927	-0.0184337	0.00904362	0.00590807	-0.0149868	-0.0423927	0.021179	0.0286819	-0.000723721	-0.0406831	-0.0782742	-0.0389418	0.0502458	-0.00379868	0.0233988	-2.15826	0.00587618	-1.54701	0	0	0	0	-0	0	0	0	-0.1265	0	-0	0	0	0	0	0	-0	0	0.105	-0.015	0	0	-0	0	0	-0.098	0.1	0	-0	0	0	0	0	0	-0	0	0.05595	0	0	0	-0	0	0	0	0	0	-0	0	553.466	556.228	330.786	213.786	0.184239	-0.95428	-0.00448757	-0.0131479	1.70298
63	0.059392	-0.0184339	0.00904341	0.00590751	-0.014987	-0.0423923	0.0211791	0.028682	-0.000723523	-0.039973	-0.075974	-0.0420514	0.0502315	-0.00379863	0.023429	-2.15769	0.00585346	-1.54702	0	0	0	0	-0	0	0	0	-0.1265	0	-0	0	0	0	0	0	-0	0	0.105	-0.015	0	0	-0	0	0	-0.098	0.1	0	-0	0	0	0	0	0	-0	0	0.05595	0	0	0	-0	0	0	0	0	0	-0	0	553.469	556.232	330.794	213.799	0.184226	-0.954271	-0.00448218	-0.0131432	1.70305
64	0.060483	-0.0184345	0.00904296	0.00590643	-0.0149874	-0.0423916	0.0211791	0.0286822	-0.000723664	-0.0386609	-0.0751266	-0.0378467	0.0502057	-0.00379855	0.0234841	-2.15665	0.00580863	-1.54704	0	0	0	0	-0	0	0	0	-0.1265	0	-0	0	0	0	0	0	-0	0	0.105	-0.015	0	0	-0	0	0	-0.098	0.1	0	-0	0	0	0	0	0	-0	0	0.05595	0	0	0	-0	0	0	0	0	0	-0	0	553.475	556.241	330.812	213.826	0.184191	-0.954134	-0.00447278	-0.0131333	1.70295
65	0.0611062	-0.0184354	0.00904243	0.00590456	-0.0149881	-0.0423905	0.0211791	0.0286821	-0.000723252	-0.0370763	-0.0739006	-0.0422105	0.0501905	-0.00379842	0.023516	-2.1561	0.00576571	-1.54707	0	0	0	0	-0	0	0	0	-0.1265	0	-0	0	0	0	0	0	-0	0	0.105	-0.015	0	0	-0	0	0	-0.098	0.1	0	-0	0	0	0	0	0	-0	0	0.05595	0	0	0	-0	0	0	0	0	0	-0	0	553.483	556.254	330.839	213.866	0.184206	-0.954499	-0.00445787	-0.0131182	1.70416
66	0.0610201	-0.0184359	0.00904203	0.00590376	-0.0149884	-0.04239	0.021179	0.0286821	-0.000723145	-0.0343162	-0.0723545	-0.046007	0.0501924	-0.00379835	0.0235119	-2.15623	0.00575378	-1.54709	0	0	0	0	-0	0	0	0	-0.1265	0	-0	0	0	0	0	0	-0	0	0.105	-0.015	0	0	-0	0	0	-0.098	0.1	0	-0	0	0	0	0	0	-0	0	0.05595	0	0	0	-0	0	0	0	0	0	-0	0	553.487	556.261	330.852	213.886	0.184179	-0.954334	-0.00445071	-0.0131103	1.70378
67	0.0618637	-0.0184368	0.00904139	0.0059018	-0.0149891	-0.0423888	0.021179	0.0286823	-0.000723095	-0.0398913	-0.0721434	-0.0442518	0.050172	-0.00379821	0.023555	-2.15547	0.00570246	-1.54713	0	0	0	0	-0	0	0	0	-0.1265	0	-0	0	0	0	0	0	-0	0	0.105	-0.015	0	0	-0	0	0	-0.098	0.1	0	-0	0	0	0	0	0	-0	0	0.05595	0	0	0	-0	0	0	0	0	0	-0	0	553.497	556.276	330.882	213.93	0.184173	-0.954526	-0.00443546	-0.0130938	1.70461
68	0.0590417	-0.0184373	0.00904103	0.00590079	-0.0149895	-0.0423882	0.0211789	0.0286819	-0.000723075	-0.0381981	-0.0727209	-0.0436225	0.0502382	-0.00379813	0.0234136	-2.15833	0.00575374	-1.54717	0	0	0	0	-0	0	0	0	-0.1265	0	-0	0	0	0	0	0	-0	0	0.105	-0.015	0	0	-0	0	0	-0.098	0.1	0	-0	0	0	0	0	0	-0	0	0.05595	0	0	0	-0	0	0	0	0	0	-0	0	553.501	556.282	330.896	213.952	0.184151	-0.954461	-0.00442637	-0.0130848	1.7045
69	0.0611279	-0.0184385	0.00904028	0.00589873	-0.0149904	-0.0423869	0.0211795	0.0286829	-0.000723074	-0.0315564	-0.0749265	-0.0390075	0.0501886	-0.00379798	0.023519	-2.15633	0.00566972	-1.5472	0	0	0	0	-0	0	0	0	-0.1265	0	-0	0	0	0	0	0	-0	0	0.105	-0.015	0	0	-0	0	0	-0.098	0.1	0	-0	0	0	0	0	0	-0	0	0.05595	0	0	0	-0	0	0	0	0	0	-0	0	553.511	556.298	330.929	214.001	0.184146	-0.954687	-0.00440898	-0.0130665	1.70545
70	0.0628518	-0.01844	0.00903931	0.00589539	-0.0149915	-0.042385	0.0211793	0.0286823	-0.00072282	-0.0328094	-0.0764272	-0.0449363	0.0501471	-0.00379773	0.0236065	-2.15474	0.00557782	-1.54726	0	0	0	0	-0	0	0	0	-0.1265	0	-0	0	0	0	0	0	-0	0	0.105	-0.015	0	0	-0	0	0	-0.098	0.1	0	-0	0	0	0	0	0	-0	0	0.05595	0	0	0	-0	0	0	0	0	0	-0	0	553.525	556.321	330.978	214.071	0.184174	-0.955436	-0.00438302	-0.0130387	1.70797
71	0.0669329	-0.0184427	0.00903744	0.00589167	-0.0149934	-0.0423824	0.0211791	0.0286822	-0.000722863	-0.0371076	-0.0809093	-0.0499004	0.0500499	-0.00379744	0.0238123	-2.15085	0.00540653	-1.54735	0	0	0	0	-0	0	0	0	-0.1265	0	-0	0	0	0	0	0	-0	0	0.105	-0.015	0	0	-0	0	0	-0.098	0.1	0	-0	0	0	0	0	0	-0	0	0.05595	0	0	0	-0	0	0	0	0	0	-0	0	553.544	556.355	331.05	214.172	0.184147	-0.955592	-0.00435233	-0.0129985	1.70908
72	0.0689565	-0.018444	0.00903667	0.00588904	-0.0149944	-0.042381	0.0211796	0.0286819	-0.000721902	-0.0392589	-0.0742487	-0.0519127	0.0500005	-0.00379724	0.0239143	-2.14892	0.00532211	-1.54739	0	0	0	0	-0	0	0	0	-0.1265	0	-0	0	0	0	0	0	-0	0	0.105	-0.015	0	0	-0	0	0	-0.098	0.1	0	-0	0	0	0	0	0	-0	0	0.05595	0	0	0	-0	0	0	0	0	0	-0	0	553.556	556.371	331.085	214.222	0.184128	-0.955777	-0.00433075	-0.0129769	1.70969
73	0.0695934	-0.0184447	0.00903592	0.00588758	-0.0149949	-0.04238	0.021179	0.0286821	-0.000721815	-0.0434985	-0.0738027	-0.0483013	0.0499849	-0.00379712	0.0239464	-2.14836	0.00527986	-1.54742	0	0	0	0	-0	0	0	0	-0.1265	0	-0	0	0	0	0	0	-0	0	0.105	-0.015	0	0	-0	0	0	-0.098	0.1	0	-0	0	0	0	0	0	-0	0	0.05595	0	0	0	-0	0	0	0	0	0	-0	0	553.562	556.382	331.111	214.258	0.184082	-0.955522	-0.00431667	-0.0129617	1.70914
74	0.071124	-0.0184454	0.00903551	0.0058862	-0.0149954	-0.0423792	0.0211788	0.0286818	-0.000721917	-0.0407969	-0.071589	-0.0467574	0.049948	-0.00379703	0.0240233	-2.14688	0.00522369	-1.54744	0	0	0	0	-0	0	0	0	-0.1265	0	-0	0	0	0	0	0	-0	0	0.105	-0.015	0	0	-0	0	0	-0.098	0.1	0	-0	0	0	0	0	0	-0	0	0.05595	0	0	0	-0	0	0	0	0	0	-0	0	553.568	556.391	331.131	214.285	0.184048	-0.955426	-0.00430558	-0.0129501	1.70906
75	0.0678871	-0.018446	0.00903518	0.00588525	-0.0149959	-0.0423787	0.0211788	0.0286817	-0.000721729	-0.0409799	-0.0712543	-0.0466197	0.0500254	-0.00379695	0.0238619	-2.15015	0.00528401	-1.54748	0	0	0	0	-0	0	0	0	-0.1265	0	-0	0	0	0	0	0	-0	0	0.105	-0.015	0	0	-0	0	0	-0.098	0.1	0	-0	0	0	0	0	0	-0	0	0.05595	0	0	0	-0	0	0	0	0	0	-0	0	553.572	556.397	331.146	214.305	0.184051	-0.955576	-0.00429745	-0.0129416	1.70954
76	0.0658877	-0.0184473	0.00903432	0.00588373	-0.0149967	-0.0423775	0.0211789	0.0286817	-0.000721581	-0.0398755	-0.0716545	-0.0488793	0.0500727	-0.00379684	0.023762	-2.15223	0.00529665	-1.54754	0	0	0	0	-0	0	0	0	-0.1265	0	-0	0	0	0	0	0	-0	0	0.105	-0.015	0	0	-0	0	0	-0.098	0.1	0	-0	0	0	0	0	0	-0	0	0.05595	0	0	0	-0	0	0	0	0	0	-0	0	553.58	556.41	331.178	214.35	0.184027	-0.955582	-0.00428309	-0.0129234	1.70993
77	0.0658653	-0.0184478	0.00903399	0.00588258	-0.0149972	-0.0423769	0.0211794	0.028682	-0.000721586	-0.0429574	-0.0662797	-0.0470157	0.0500727	-0.00379675	0.0237614	-2.1523	0.00528	-1.54756	0	0	0	0	-0	0	0	0	-0.1265	0	-0	0	0	0	0	0	-0	0	0.105	-0.015	0	0	-0	0	0	-0.098	0.1	0	-0	0	0	0	0	0	-0	0	0.05595	0	0	0	-0	0	0	0	0	0	-0	0	553.584	556.418	331.194	214.372	0.184067	-0.955958	-0.00427526	-0.0129137	1.71079
78	0.0634565	-0.018448	0.00903368	0.00588185	-0.0149973	-0.0423765	0.021179	0.0286816	-0.000721351	-0.0434157	-0.0702536	-0.0456528	0.0501298	-0.00379669	0.023641	-2.15474	0.00532314	-1.54759	0	0	0	0	-0	0	0	0	-0.1265	0	-0	0	0	0	0	0	-0	0	0.105	-0.015	0	0	-0	0	0	-0.098	0.1	0	-0	0	0	0	0	0	-0	0	0.05595	0	0	0	-0	0	0	0	0	0	-0	0	553.587	556.423	331.206	214.388	0.184059	-0.956042	-0.00426916	-0.0129065	1.71119
79	0.0646288	-0.0184491	0.00903306	0.00588028	-0.0149982	-0.0423754	0.0211794	0.0286825	-0.000721316	-0.0370307	-0.0742471	-0.0447316	0.0501016	-0.00379657	0.0237	-2.15363	0.00526757	-1.54763	0	0	0	0	-0	0	0	0	-0.1265	0	-0	0	0	0	0	0	-0	0	0.105	-0.015	0	0	-0	0	0	-0.098	0.1	0	-0	0	0	0	0	0	-0	0	0.05595	0	0	0	-0	0	0	0	0	0	-0	0	553.594	556.434	331.233	214.424	0.184067	-0.956343	-0.00425587	-0.0128913	1.71229
80	0.0697124	-0.0184504	0.0090323	0.00587778	-0.0149991	-0.0423739	0.021179	0.0286825	-0.000720922	-0.0437428	-0.0733586	-0.0410328	0.0499805	-0.0037964	0.0239554	-2.14865	0.0051078	-1.54766	0	0	0	0	-0	0	0	0	-0.1265	0	-0	0	0	0	0	0	-0	0	0.105	-0.015	0	0	-0	0	0	-0.098	0.1	0	-0	0	0	0	0	0	-0	0	0.05595	0	0	0	-0	0	0	0	0	0	-0	0	553.602	556.449	331.273	214.477	0.184161	-0.957426	-0.00423745	-0.0128683	1.71534
81	0.0629528	-0.0184527	0.00903092	0.00587485	-0.0150007	-0.0423719	0.0211787	0.028682	-0.000720441	-0.0376253	-0.0690503	-0.0446321	0.0501412	-0.00379618	0.0236181	-2.15555	0.00520217	-1.54778	0	0	0	0	-0	0	0	0	-0.1265	0	-0	0	0	0	0	0	-0	0	0.105	-0.015	0	0	-0	0	0	-0.098	0.1	0	-0	0	0	0	0	0	-0	0	0.05595	0	0	0	-0	0	0	0	0	0	-0	0	553.615	556.473	331.332	214.552	0.18415	-0.957595	-0.00421394	-0.0128349	1.71621
82	0.0621766	-0.0184538	0.00903014	0.00587314	-0.0150015	-0.0423708	0.0211788	0.0286816	-0.00072097	-0.0327421	-0.0618876	-0.0431823	0.0501581	-0.00379603	0.0235791	-2.15639	0.00518883	-1.54782	0	0	0	0	-0	0	0	0	-0.1265	0	-0	0	0	0	0	0	-0	0	0.105	-0.015	0	0	-0	0	0	-0.098	0.1	0	-0	0	0	0	0	0	-0	0	0.05595	0	0	0	-0	0	0	0	0	0	-0	0	553.622	556.485	331.361	214.589	0.184145	-0.957843	-0.00419832	-0.0128171	1.71705
83	0.0570301	-0.0184546	0.00902962	0.00587168	-0.0150022	-0.04237	0.0211794	0.0286819	-0.000719955	-0.0311844	-0.0555914	-0.0489035	0.0502791	-0.00379592	0.0233214	-2.16159	0.00528386	-1.54788	0	0	0	0	-0	0	0	0	-0.1265	0	-0	0	0	0	0	0	-0	0	0.105	-0.015	0	0	-0	0	0	-0.098	0.1	0	-0	0	0	0	0	0	-0	0	0.05595	0	0	0	-0	0	0	0	0	0	-0	0	553.628	556.493	331.383	214.617	0.184138	-0.958023	-0.00418662	-0.0128042	1.71772
84	0.0566425	-0.0184549	0.00902923	0.00587083	-0.0150024	-0.0423695	0.0211788	0.028682	-0.000720335	-0.0255175	-0.054782	-0.0514068	0.0502872	-0.00379585	0.0233018	-2.16202	0.00527527	-1.54791	0	0	0	0	-0	0	0	0	-0.1265	0	-0	0	0	0	0	0	-0	0	0.105	-0.015	0	0	-0	0	0	-0.098	0.1	0	-0	0	0	0	0	0	-0	0	0.05595	0	0	0	-0	0	0	0	0	0	-0	0	553.631	556.499	331.399	214.637	0.184154	-0.958238	-0.00417934	-0.0127948	1.71832
85	0.0557426	-0.0184564	0.00902851	0.00586863	-0.0150034	-0.0423682	0.021179	0.0286816	-0.00072058	-0.0275894	-0.0591848	-0.0546358	0.0503078	-0.00379569	0.0232572	-2.163	0.00525729	-1.54796	0	0	0	0	-0	0	0	0	-0.1265	0	-0	0	0	0	0	0	-0	0	0.105	-0.015	0	0	-0	0	0	-0.098	0.1	0	-0	0	0	0	0	0	-0	0	0.05595	0	0	0	-0	0	0	0	0	0	-0	0	553.639	556.514	331.435	214.682	0.184204	-0.958987	-0.00416475	-0.0127741	1.72071
86	0.0540267	-0.018457	0.00902806	0.00586753	-0.015004	-0.0423675	0.0211789	0.0286817	-0.000720158	-0.0297097	-0.0585593	-0.0512854	0.0503473	-0.00379558	0.0231713	-2.16476	0.00527708	-1.548	0	0	0	0	-0	0	0	0	-0.1265	0	-0	0	0	0	0	0	-0	0	0.105	-0.015	0	0	-0	0	0	-0.098	0.1	0	-0	0	0	0	0	0	-0	0	0.05595	0	0	0	-0	0	0	0	0	0	-0	0	553.644	556.521	331.453	214.704	0.184236	-0.959429	-0.00415597	-0.0127632	1.72195
87	0.0532001	-0.0184574	0.00902778	0.00586664	-0.0150043	-0.042367	0.0211789	0.0286817	-0.000720129	-0.032544	-0.0572149	-0.0522261	0.0503661	-0.00379551	0.0231299	-2.16562	0.0052814	-1.54802	0	0	0	0	-0	0	0	0	-0.1265	0	-0	0	0	0	0	0	-0	0	0.105	-0.015	0	0	-0	0	0	-0.098	0.1	0	-0	0	0	0	0	0	-0	0	0.05595	0	0	0	-0	0	0	0	0	0	-0	0	553.647	556.527	331.466	214.72	0.184255	-0.959697	-0.00415025	-0.0127553	1.72274
88	0.0508738	-0.0184586	0.00902711	0.00586507	-0.0150051	-0.042366	0.0211789	0.0286815	-0.000719692	-0.0292685	-0.0513382	-0.0549499	0.0504197	-0.00379539	0.0230132	-2.16801	0.00530227	-1.54808	0	0	0	0	-0	0	0	0	-0.1265	0	-0	0	0	0	0	0	-0	0	0.105	-0.015	0	0	-0	0	0	-0.098	0.1	0	-0	0	0	0	0	0	-0	0	0.05595	0	0	0	-0	0	0	0	0	0	-0	0	553.652	556.536	331.496	214.756	0.184325	-0.960499	-0.00413858	-0.0127384	1.7251
89	0.0545661	-0.018459	0.00902675	0.00586414	-0.0150055	-0.0423654	0.0211788	0.0286815	-0.000719897	-0.0308991	-0.0498442	-0.0556361	0.0503343	-0.00379531	0.0231995	-2.16435	0.00520226	-1.54808	0	0	0	0	-0	0	0	0	-0.1265	0	-0	0	0	0	0	0	-0	0	0.105	-0.015	0	0	-0	0	0	-0.098	0.1	0	-0	0	0	0	0	0	-0	0	0.05595	0	0	0	-0	0	0	0	0	0	-0	0	553.655	556.541	331.511	214.774	0.184354	-0.960861	-0.0041308	-0.0127293	1.72606
90	0.0569043	-0.0184595	0.00902651	0.00586352	-0.0150059	-0.042365	0.021179	0.0286817	-0.00071981	-0.033159	-0.0475175	-0.0588047	0.0502796	-0.00379527	0.0233173	-2.16204	0.00513726	-1.54808	0	0	0	0	-0	0	0	0	-0.1265	0	-0	0	0	0	0	0	-0	0	0.105	-0.015	0	0	-0	0	0	-0.098	0.1	0	-0	0	0	0	0	0	-0	0	0.05595	0	0	0	-0	0	0	0	0	0	-0	0	553.657	556.545	331.522	214.788	0.184362	-0.961037	-0.00412584	-0.0127227	1.72661
91	0.0547679	-0.0184603	0.00902599	0.0058622	-0.0150065	-0.0423642	0.0211788	0.0286823	-0.000719713	-0.040415	-0.04714	-0.0577754	0.0503291	-0.00379518	0.02321	-2.16423	0.00515934	-1.54813	0	0	0	0	-0	0	0	0	-0.1265	0	-0	0	0	0	0	0	-0	0	0.105	-0.015	0	0	-0	0	0	-0.098	0.1	0	-0	0	0	0	0	0	-0	0	0.05595	0	0	0	-0	0	0	0	0	0	-0	0	553.662	556.554	331.547	214.817	0.184359	-0.961211	-0.0041147	-0.0127085	1.7273
92	0.0526951	-0.0184608	0.00902573	0.0058615	-0.0150068	-0.0423638	0.0211789	0.0286816	-0.000719687	-0.0385434	-0.0486653	-0.0599821	0.050377	-0.00379513	0.0231058	-2.16633	0.00519307	-1.54816	0	0	0	0	-0	0	0	0	-0.1265	0	-0	0	0	0	0	0	-0	0	0.105	-0.015	0	0	-0	0	0	-0.098	0.1	0	-0	0	0	0	0	0	-0	0	0.05595	0	0	0	-0	0	0	0	0	0	-0	0	553.664	556.558	331.559	214.831	0.184356	-0.961258	-0.00410968	-0.0127008	1.72745
93	0.0512812	-0.0184612	0.00902545	0.00586105	-0.0150071	-0.0423634	0.021179	0.0286817	-0.000719653	-0.0418627	-0.0461167	-0.0580309	0.0504094	-0.00379508	0.0230347	-2.16776	0.00521504	-1.54818	0	0	0	0	-0	0	0	0	-0.1265	0	-0	0	0	0	0	0	-0	0	0.105	-0.015	0	0	-0	0	0	-0.098	0.1	0	-0	0	0	0	0	0	-0	0	0.05595	0	0	0	-0	0	0	0	0	0	-0	0	553.666	556.561	331.568	214.842	0.184389	-0.961647	-0.00410551	-0.0126955	1.72858
94	0.0511788	-0.0184619	0.00902503	0.00585996	-0.0150076	-0.0423628	0.0211788	0.0286814	-0.000719533	-0.0414157	-0.0473134	-0.0576693	0.0504115	-0.00379499	0.0230299	-2.16791	0.00519495	-1.54821	0	0	0	0	-0	0	0	0	-0.1265	0	-0	0	0	0	0	0	-0	0	0.105	-0.015	0	0	-0	0	0	-0.098	0.1	0	-0	0	0	0	0	0	-0	0	0.05595	0	0	0	-0	0	0	0	0	0	-0	0	553.669	556.569	331.589	214.866	0.184458	-0.962309	-0.0040997	-0.0126838	1.73044
95	0.0488733	-0.0184631	0.00902429	0.00585847	-0.0150085	-0.0423617	0.0211796	0.0286814	-0.000719606	-0.0418867	-0.0385317	-0.0563567	0.0504644	-0.00379489	0.022914	-2.17028	0.005214	-1.54826	0	0	0	0	-0	0	0	0	-0.1265	0	-0	0	0	0	0	0	-0	0	0.105	-0.015	0	0	-0	0	0	-0.098	0.1	0	-0	0	0	0	0	0	-0	0	0.05595	0	0	0	-0	0	0	0	0	0	-0	0	553.675	556.579	331.62	214.901	0.184441	-0.962393	-0.00408654	-0.0126662	1.73095
96	0.0485379	-0.0184647	0.00902335	0.00585617	-0.0150097	-0.0423602	0.0211785	0.0286821	-0.000719912	-0.0337155	-0.0323197	-0.0527662	0.0504716	-0.00379472	0.0228975	-2.17071	0.00517276	-1.54833	0	0	0	0	-0	0	0	0	-0.1265	0	-0	0	0	0	0	0	-0	0	0.105	-0.015	0	0	-0	0	0	-0.098	0.1	0	-0	0	0	0	0	0	-0	0	0.05595	0	0	0	-0	0	0	0	0	0	-0	0	553.681	556.592	331.664	214.952	0.184516	-0.963366	-0.00406665	-0.0126401	1.73376
97	0.0489299	-0.0184651	0.00902326	0.00585551	-0.01501	-0.0423599	0.0211788	0.0286816	-0.000719076	-0.0356931	-0.0329376	-0.0497835	0.0504625	-0.00379468	0.0229174	-2.17033	0.00515732	-1.54833	0	0	0	0	-0	0	0	0	-0.1265	0	-0	0	0	0	0	0	-0	0	0.105	-0.015	0	0	-0	0	0	-0.098	0.1	0	-0	0	0	0	0	0	-0	0	0.05595	0	0	0	-0	0	0	0	0	0	-0	0	553.682	556.594	331.671	214.959	0.184533	-0.963603	-0.00406287	-0.0126351	1.7343
98	0.0485823	-0.0184652	0.00902302	0.00585542	-0.01501	-0.0423598	0.0211788	0.0286814	-0.000719148	-0.0370177	-0.0318461	-0.050905	0.0504705	-0.00379465	0.0228999	-2.17069	0.00516046	-1.54834	0	0	0	0	-0	0	0	0	-0.1265	0	-0	0	0	0	0	0	-0	0	0.105	-0.015	0	0	-0	0	0	-0.098	0.1	0	-0	0	0	0	0	0	-0	0	0.05595	0	0	0	-0	0	0	0	0	0	-0	0	553.683	556.595	331.675	214.964	0.184539	-0.963702	-0.0040614	-0.0126328	1.73465
99	0.0504279	-0.0184656	0.00902283	0.00585497	-0.0150103	-0.0423595	0.0211788	0.0286815	-0.000719224	-0.0355515	-0.0299578	-0.0483266	0.0504281	-0.00379462	0.0229932	-2.16886	0.00510875	-1.54834	0	0	0	0	-0	0	0	0	-0.1265	0	-0	0	0	0	0	0	-0	0	0.105	-0.015	0	0	-0	0	0	-0.098	0.1	0	-0	0	0	0	0	0	-0	0	0.05595	0	0	0	-0	0	0	0	0	0	-0	0	553.685	556.598	331.684	214.975	0.184557	-0.963873	-0.0040581	-0.0126275	1.73512
100	0.0511074	-0.0184661	0.00902254	0.00585422	-0.0150106	-0.042359	0.0211789	0.0286816	-0.000718775	-0.0379462	-0.0335256	-0.0446262	0.0504122	-0.00379455	0.0230277	-2.16821	0.00507809	-1.54836	0	0	0	0	-0	0	0	0	-0.1265	0	-0	0	0	0	0	0	-0	0	0.105	-0.015	0	0	-0	0	0	-0.098	0.1	0	-0	0	0	0	0	0	-0	0	0.05595	0	0	0	-0	0	0	0	0	0	-0	0	553.688	556.604	331.698	214.99	0.184564	-0.964059	-0.00405323	-0.0126193	1.73579
