Stefan210/kinematic_calibration/src/kinematic_calibration/validation/experiments/experiments/anzahl_messungen/AB_C/larm_58/optimization_intermediate_results.csv
iteration	HeadPitch_offset	HeadYaw_offset	LElbowRoll_offset	LElbowYaw_offset	LShoulderPitch_offset	LShoulderRoll_offset	marker_transform_larm_tx	marker_transform_larm_ty	marker_transform_larm_tz	marker_transform_larm_rr	marker_transform_larm_rp	marker_transform_larm_ry	camera_transform_tx	camera_transform_ty	camera_transform_tz	camera_transform_rr	camera_transform_rp	camera_transform_ry	HeadPitch_transform_tx	HeadPitch_transform_ty	HeadPitch_transform_tz	HeadPitch_transform_rr	HeadPitch_transform_rp	HeadPitch_transform_ry	HeadYaw_transform_tx	HeadYaw_transform_ty	HeadYaw_transform_tz	HeadYaw_transform_rr	HeadYaw_transform_rp	HeadYaw_transform_ry	LElbowRoll_transform_tx	LElbowRoll_transform_ty	LElbowRoll_transform_tz	LElbowRoll_transform_rr	LElbowRoll_transform_rp	LElbowRoll_transform_ry	LElbowYaw_transform_tx	LElbowYaw_transform_ty	LElbowYaw_transform_tz	LElbowYaw_transform_rr	LElbowYaw_transform_rp	LElbowYaw_transform_ry	LShoulderPitch_transform_tx	LShoulderPitch_transform_ty	LShoulderPitch_transform_tz	LShoulderPitch_transform_rr	LShoulderPitch_transform_rp	LShoulderPitch_transform_ry	LShoulderRoll_transform_tx	LShoulderRoll_transform_ty	LShoulderRoll_transform_tz	LShoulderRoll_transform_rr	LShoulderRoll_transform_rp	LShoulderRoll_transform_ry	LWristYaw_transform_tx	LWristYaw_transform_ty	LWristYaw_transform_tz	LWristYaw_transform_rr	LWristYaw_transform_rp	LWristYaw_transform_ry	l_wrist_joint_transform_tx	l_wrist_joint_transform_ty	l_wrist_joint_transform_tz	l_wrist_joint_transform_rr	l_wrist_joint_transform_rp	l_wrist_joint_transform_ry	camera_fx	camera_fy	camera_cx	camera_cy	camera_D0	camera_D1	camera_D2	camera_D3	camera_D4	
0	0.0249164	-0.0307543	0.000853157	4.65819e-06	-0.000318322	-0.00310766	0.05071	0	0.01774	-2.26369	1.66533e-16	-1.5708	545.901	551.038	324.928	201.58	0.0255298	2.61142	-0.0636736	-0.0350419	0.213964
1	-0.0164904	0.00757199	0.0275902	0.00874111	0.000445784	0.0313269	0.0248877	-0.0298009	0.000966881	-1.3067e-05	-0.000329629	-0.0030166	0.0566157	0.000586171	0.015579	-2.19686	-0.000313918	-1.54741	0	0	0	0	-0	0	0	0	-0.1265	0	-0	0	0	0	0	0	-0	0	0.105	0.015	0	0	-0	0	0	0.098	0.1	0	-0	0	0	0	0	0	-0	0	0.05595	0	0	0	-0	0	0	0	0	0	-0	0	545.901	551.039	324.928	201.581	-0.0213523	2.59779	-0.108343	0.0367592	0.211272
2	-0.0159804	0.0255892	0.0317334	0.0169141	-0.0106439	0.0324792	0.0251513	-0.0300162	0.00151698	-7.96691e-05	-0.000383825	-0.00300788	0.0542031	-6.29531e-05	0.0199047	-2.20011	-0.00649703	-1.56681	0	0	0	0	-0	0	0	0	-0.1265	0	-0	0	0	0	0	0	-0	0	0.105	0.015	0	0	-0	0	0	0.098	0.1	0	-0	0	0	0	0	0	-0	0	0.05595	0	0	0	-0	0	0	0	0	0	-0	0	545.904	551.039	324.925	201.586	-0.19368	2.49105	-0.054356	0.00186206	0.178151
3	-0.0166719	0.0248027	0.0293464	0.0128155	-0.00843616	0.0334248	0.0250074	-0.0299804	0.00113962	-3.59445e-05	-0.000345686	-0.00301655	0.0560451	0.00034032	0.0168012	-2.1965	-0.00522064	-1.56673	0	0	0	0	-0	0	0	0	-0.1265	0	-0	0	0	0	0	0	-0	0	0.105	0.015	0	0	-0	0	0	0.098	0.1	0	-0	0	0	0	0	0	-0	0	0.05595	0	0	0	-0	0	0	0	0	0	-0	0	545.907	551.04	324.923	201.594	-0.464834	2.32535	-0.0297269	-0.00379542	0.128489
4	-0.0164447	0.0319934	0.0283099	0.0104909	-0.0110704	0.0333478	0.0249238	-0.0298928	0.000845779	3.8895e-06	-0.000331142	-0.00301653	0.0576829	0.000273251	0.0150496	-2.19693	-0.00686473	-1.57394	0	0	0	0	-0	0	0	0	-0.1265	0	-0	0	0	0	0	0	-0	0	0.105	0.015	0	0	-0	0	0	0.098	0.1	0	-0	0	0	0	0	0	-0	0	0.05595	0	0	0	-0	0	0	0	0	0	-0	0	545.916	551.04	324.92	201.605	-0.717857	2.04313	0.0111531	-0.0161359	0.0305559
5	-0.015981	0.0353415	0.0256948	0.0119761	-0.0121915	0.0327389	0.0247784	-0.0298203	0.000926458	-1.31243e-05	-0.000328368	-0.00300647	0.057936	0.000231165	0.0149741	-2.19861	-0.00732675	-1.57744	0	0	0	0	-0	0	0	0	-0.1265	0	-0	0	0	0	0	0	-0	0	0.105	0.015	0	0	-0	0	0	0.098	0.1	0	-0	0	0	0	0	0	-0	0	0.05595	0	0	0	-0	0	0	0	0	0	-0	0	545.937	551.036	324.918	201.621	-0.67854	1.61865	0.0197858	-0.0190627	-0.140808
6	-0.0154266	0.0355717	0.023134	0.0143875	-0.0121327	0.0316473	0.0246383	-0.0297679	0.00112971	-5.04427e-05	-0.000374204	-0.00300753	0.0571869	0.000183127	0.0160337	-2.20135	-0.00651071	-1.57748	0	0	0	0	-0	0	0	0	-0.1265	0	-0	0	0	0	0	0	-0	0	0.105	0.015	0	0	-0	0	0	0.098	0.1	0	-0	0	0	0	0	0	-0	0	0.05595	0	0	0	-0	0	0	0	0	0	-0	0	545.975	551.021	324.924	201.64	-0.452082	1.00537	0.0113551	-0.0176841	-0.392449
7	-0.0148243	0.0355894	0.0215493	0.0161976	-0.0121375	0.03076	0.0245528	-0.0297325	0.00128441	-0.000194251	-0.00044074	-0.00286887	0.056398	0.000113603	0.0171271	-2.20347	-0.00593469	-1.57717	0	0	0	0	-0	0	0	0	-0.1265	0	-0	0	0	0	0	0	-0	0	0.105	0.015	0	0	-0	0	0	0.098	0.1	0	-0	0	0	0	0	0	-0	0	0.05595	0	0	0	-0	0	0	0	0	0	-0	0	546.05	550.973	324.948	201.649	-0.2352	0.416484	0.0030803	-0.0164045	-0.600438
8	-0.0142761	0.0357141	0.0209275	0.0172186	-0.0122237	0.0303412	0.0245259	-0.0297168	0.00136849	-0.000208346	-0.000363757	-0.00258742	0.0559398	6.16861e-05	0.0177626	-2.20426	-0.00582502	-1.57701	0	0	0	0	-0	0	0	0	-0.1265	0	-0	0	0	0	0	0	-0	0	0.105	0.015	0	0	-0	0	0	0.098	0.1	0	-0	0	0	0	0	0	-0	0	0.05595	0	0	0	-0	0	0	0	0	0	-0	0	546.233	550.826	324.982	201.633	-0.123197	0.0665741	-0.000101185	-0.0160123	-0.610029
9	-0.0134503	0.0358198	0.0207405	0.0177097	-0.0122921	0.0301061	0.024519	-0.0297094	0.00140456	-0.000462409	0.000558465	-0.00423698	0.0556954	3.71753e-05	0.0181069	-2.20388	-0.0059295	-1.57699	0	0	0	0	-0	0	0	0	-0.1265	0	-0	0	0	0	0	0	-0	0	0.105	0.015	0	0	-0	0	0	0.098	0.1	0	-0	0	0	0	0	0	-0	0	0.05595	0	0	0	-0	0	0	0	0	0	-0	0	546.733	550.401	325.017	201.55	-0.0859649	-0.143914	0.000782952	-0.0160085	-0.307044
10	-0.0120521	0.0361024	0.0206035	0.018217	-0.0124837	0.0296736	0.0245061	-0.0296949	0.00143484	0.00281326	-0.0008128	-0.00191582	0.055334	1.34994e-05	0.0186253	-2.20284	-0.0062778	-1.57724	0	0	0	0	-0	0	0	0	-0.1265	0	-0	0	0	0	0	0	-0	0	0.105	0.015	0	0	-0	0	0	0.098	0.1	0	-0	0	0	0	0	0	-0	0	0.05595	0	0	0	-0	0	0	0	0	0	-0	0	547.972	549.296	325.086	201.295	-0.054593	-0.498615	0.00518688	-0.0161178	0.540962
11	-0.00554147	0.0366672	0.0203885	0.0190789	-0.0128747	0.0288405	0.024487	-0.0296697	0.0014828	0.00738019	0.0110058	-0.0164623	0.054581	-2.74143e-05	0.0198191	-2.19667	-0.00707693	-1.57797	0	0	0	0	-0	0	0	0	-0.1265	0	-0	0	0	0	0	0	-0	0	0.105	0.015	0	0	-0	0	0	0.098	0.1	0	-0	0	0	0	0	0	-0	0	0.05595	0	0	0	-0	0	0	0	0	0	-0	0	550.218	546.989	325.342	200.635	0.00503264	-1.20594	0.0139728	-0.0162937	2.28409
12	0.00611801	0.0370377	0.0202839	0.0195947	-0.0131281	0.0282984	0.0244668	-0.0296491	0.00151085	-0.00120196	0.0177538	-0.0275856	0.0539236	-5.56772e-05	0.0210033	-2.18496	-0.00770292	-1.57872	0	0	0	0	-0	0	0	0	-0.1265	0	-0	0	0	0	0	0	-0	0	0.105	0.015	0	0	-0	0	0	0.098	0.1	0	-0	0	0	0	0	0	-0	0	0.05595	0	0	0	-0	0	0	0	0	0	-0	0	551.532	545.323	325.67	200.053	0.0478602	-1.70343	0.0198417	-0.0163708	3.52423
13	-0.0410885	0.0374714	0.0201785	0.0202242	-0.0134696	0.0275244	0.0244176	-0.0296726	0.00154208	-0.0842419	0.0607162	-0.0388407	0.0543256	-9.15426e-05	0.0192042	-2.22981	-0.010121	-1.58037	0	0	0	0	-0	0	0	0	-0.1265	0	-0	0	0	0	0	0	-0	0	0.105	0.015	0	0	-0	0	0	0.098	0.1	0	-0	0	0	0	0	0	-0	0	0.05595	0	0	0	-0	0	0	0	0	0	-0	0	552.192	541.852	327.009	198.044	0.143397	-2.61865	0.0273207	-0.0161657	5.69922
14	-0.0186374	0.0376139	0.0202133	0.0203542	-0.0135752	0.0273176	0.024445	-0.0296157	0.00155318	-0.0846907	0.0701503	-0.0295784	0.0537198	-0.000106865	0.0206536	-2.20601	-0.010722	-1.58132	0	0	0	0	-0	0	0	0	-0.1265	0	-0	0	0	0	0	0	-0	0	0.105	0.015	0	0	-0	0	0	0.098	0.1	0	-0	0	0	0	0	0	-0	0	0.05595	0	0	0	-0	0	0	0	0	0	-0	0	551.99	540.554	327.564	197.112	0.178201	-2.89156	0.0292016	-0.0160948	6.26932
15	-0.0184089	0.0376219	0.0202279	0.0203556	-0.013585	0.0272679	0.024445	-0.0296148	0.00155022	-0.0834132	0.0611585	-0.0201386	0.0536658	-0.000110103	0.0206986	-2.20537	-0.0108633	-1.58148	0	0	0	0	-0	0	0	0	-0.1265	0	-0	0	0	0	0	0	-0	0	0.105	0.015	0	0	-0	0	0	0.098	0.1	0	-0	0	0	0	0	0	-0	0	0.05595	0	0	0	-0	0	0	0	0	0	-0	0	551.911	540.228	327.68	196.857	0.185962	-2.95002	0.0295486	-0.0160602	6.39282
16	-0.0118273	0.0376203	0.0202531	0.0203638	-0.0136099	0.0271598	0.0244541	-0.0296416	0.00155332	-0.0454821	0.076695	-0.0276216	0.0534853	-0.000114304	0.0211183	-2.19703	-0.0112998	-1.58209	0	0	0	0	-0	0	0	0	-0.1265	0	-0	0	0	0	0	0	-0	0	0.105	0.015	0	0	-0	0	0	0.098	0.1	0	-0	0	0	0	0	0	-0	0	0.05595	0	0	0	-0	0	0	0	0	0	-0	0	551.363	539.156	328.089	195.863	0.208352	-3.09252	0.0300731	-0.0159148	6.64991
17	-0.0151978	0.0376236	0.0202703	0.0203671	-0.0136212	0.027116	0.0244496	-0.0296175	0.00154658	-0.0482588	0.0628761	-0.00719306	0.0535388	-0.00011775	0.0209647	-2.19953	-0.0115277	-1.58226	0	0	0	0	-0	0	0	0	-0.1265	0	-0	0	0	0	0	0	-0	0	0.105	0.015	0	0	-0	0	0	0.098	0.1	0	-0	0	0	0	0	0	-0	0	0.05595	0	0	0	-0	0	0	0	0	0	-0	0	551.051	538.662	328.251	195.367	0.219347	-3.15009	0.0301763	-0.0158784	6.7287
18	-0.0173349	0.0376107	0.020278	0.0203614	-0.0136173	0.0271047	0.0244433	-0.0296119	0.00154936	-0.0480897	0.0648994	-0.0163771	0.0535805	-0.000118713	0.0208543	-2.2014	-0.0115884	-1.58227	0	0	0	0	-0	0	0	0	-0.1265	0	-0	0	0	0	0	0	-0	0	0.105	0.015	0	0	-0	0	0	0.098	0.1	0	-0	0	0	0	0	0	-0	0	0.05595	0	0	0	-0	0	0	0	0	0	-0	0	550.961	538.525	328.287	195.223	0.222103	-3.16348	0.0301626	-0.0158565	6.74847
19	-0.0142959	0.0376025	0.0202852	0.020357	-0.0136179	0.0270914	0.0244436	-0.0296128	0.00154862	-0.0423535	0.0665079	-0.00557346	0.0535153	-0.000119259	0.0210208	-2.19799	-0.0116034	-1.58236	0	0	0	0	-0	0	0	0	-0.1265	0	-0	0	0	0	0	0	-0	0	0.105	0.015	0	0	-0	0	0	0.098	0.1	0	-0	0	0	0	0	0	-0	0	0.05595	0	0	0	-0	0	0	0	0	0	-0	0	550.837	538.34	328.332	195.027	0.225405	-3.18009	0.0301734	-0.0158323	6.77162
20	-0.0116067	0.0375589	0.0203181	0.0203146	-0.0136116	0.0270479	0.0244458	-0.0296151	0.00154268	-0.0360366	0.0605491	0.0117669	0.0534641	-0.000120575	0.0211633	-2.19368	-0.0117542	-1.58261	0	0	0	0	-0	0	0	0	-0.1265	0	-0	0	0	0	0	0	-0	0	0.105	0.015	0	0	-0	0	0	0.098	0.1	0	-0	0	0	0	0	0	-0	0	0.05595	0	0	0	-0	0	0	0	0	0	-0	0	550.271	537.587	328.508	194.167	0.237482	-3.22925	0.030076	-0.0157293	6.81202
21	-0.0198448	0.037517	0.0203485	0.020277	-0.0136042	0.0270132	0.0244458	-0.0296139	0.00153304	-0.0139157	0.0322888	0.0279031	0.053646	-0.000122481	0.0207192	-2.20045	-0.01194	-1.58263	0	0	0	0	-0	0	0	0	-0.1265	0	-0	0	0	0	0	0	-0	0	0.105	0.015	0	0	-0	0	0	0.098	0.1	0	-0	0	0	0	0	0	-0	0	0.05595	0	0	0	-0	0	0	0	0	0	-0	0	549.755	536.952	328.611	193.39	0.247956	-3.26302	0.0298661	-0.015657	6.81674
22	-0.0214644	0.0374809	0.0203711	0.0202483	-0.0135965	0.026989	0.0244577	-0.0296136	0.00153726	-0.0102418	0.0633396	0.0198231	0.0536843	-0.000123986	0.0206278	-2.20096	-0.0119726	-1.58265	0	0	0	0	-0	0	0	0	-0.1265	0	-0	0	0	0	0	0	-0	0	0.105	0.015	0	0	-0	0	0	0.098	0.1	0	-0	0	0	0	0	0	-0	0	0.05595	0	0	0	-0	0	0	0	0	0	-0	0	549.368	536.492	328.648	192.8	0.255732	-3.28521	0.0296533	-0.0156079	6.81207
23	-0.038058	0.0374551	0.0203845	0.0202278	-0.0135919	0.0269694	0.0244513	-0.0296207	0.00153806	-0.0105687	0.0649036	-0.00530571	0.0540315	-0.00012494	0.0197341	-2.21671	-0.0121492	-1.58244	0	0	0	0	-0	0	0	0	-0.1265	0	-0	0	0	0	0	0	-0	0	0.105	0.015	0	0	-0	0	0	0.098	0.1	0	-0	0	0	0	0	0	-0	0	0.05595	0	0	0	-0	0	0	0	0	0	-0	0	549.077	536.15	328.652	192.353	0.261593	-3.30138	0.0294863	-0.0155775	6.80642
24	-0.0156575	0.0373948	0.0204205	0.0201778	-0.0135799	0.0269398	0.0244459	-0.0296118	0.00153571	-0.00375517	0.0503096	-0.00708796	0.0535985	-0.000125862	0.0209263	-2.19242	-0.0117945	-1.58266	0	0	0	0	-0	0	0	0	-0.1265	0	-0	0	0	0	0	0	-0	0	0.105	0.015	0	0	-0	0	0	0.098	0.1	0	-0	0	0	0	0	0	-0	0	0.05595	0	0	0	-0	0	0	0	0	0	-0	0	548.463	535.434	328.62	191.359	0.272094	-3.32715	0.0291517	-0.0155084	6.78596
25	-0.00862717	0.037365	0.0204346	0.0201593	-0.0135764	0.0269182	0.0244483	-0.0296158	0.00153407	0.00513236	0.0600906	0.0026745	0.0534404	-0.000127319	0.0213003	-2.18445	-0.0116206	-1.58267	0	0	0	0	-0	0	0	0	-0.1265	0	-0	0	0	0	0	0	-0	0	0.105	0.015	0	0	-0	0	0	0.098	0.1	0	-0	0	0	0	0	0	-0	0	0.05595	0	0	0	-0	0	0	0	0	0	-0	0	548.152	535.084	328.57	190.854	0.279218	-3.34606	0.0288936	-0.0154789	6.78107
26	-0.00616757	0.0372349	0.0205102	0.0200492	-0.013555	0.0268602	0.0244494	-0.0296173	0.00152163	-0.00211041	0.0698968	-0.0127717	0.0534229	-0.000127677	0.0213991	-2.17786	-0.0110798	-1.58225	0	0	0	0	-0	0	0	0	-0.1265	0	-0	0	0	0	0	0	-0	0	0.105	0.015	0	0	-0	0	0	0.098	0.1	0	-0	0	0	0	0	0	-0	0	0.05595	0	0	0	-0	0	0	0	0	0	-0	0	546.946	533.659	328.236	188.678	0.297617	-3.38004	0.028227	-0.0153801	6.7087
27	0.0027951	0.0372131	0.0205172	0.0200363	-0.0135622	0.0268227	0.0244487	-0.0296173	0.00151999	-0.0150961	0.0790084	-0.0296237	0.0532182	-0.000130868	0.0219041	-2.16782	-0.0107503	-1.58214	0	0	0	0	-0	0	0	0	-0.1265	0	-0	0	0	0	0	0	-0	0	0.105	0.015	0	0	-0	0	0	0.098	0.1	0	-0	0	0	0	0	0	-0	0	0.05595	0	0	0	-0	0	0	0	0	0	-0	0	546.566	533.276	328.079	188.063	0.311035	-3.42236	0.0277189	-0.0153626	6.72953
28	-0.0200246	0.0371161	0.020571	0.0199543	-0.0135519	0.0267833	0.0244579	-0.0296214	0.00151766	-0.0286721	0.0607326	-0.0186519	0.0537357	-0.000130899	0.0206758	-2.18755	-0.0102407	-1.58115	0	0	0	0	-0	0	0	0	-0.1265	0	-0	0	0	0	0	0	-0	0	0.105	0.015	0	0	-0	0	0	0.098	0.1	0	-0	0	0	0	0	0	-0	0	0.05595	0	0	0	-0	0	0	0	0	0	-0	0	545.674	532.283	327.511	186.415	0.328383	-3.4707	0.0270479	-0.0153448	6.73199
29	-0.0274642	0.0370804	0.0205855	0.0199185	-0.0135595	0.0267441	0.0244515	-0.029612	0.00151327	-0.037345	0.0809269	-0.0269145	0.0538675	-0.000132852	0.020292	-2.1935	-0.00983195	-1.58063	0	0	0	0	-0	0	0	0	-0.1265	0	-0	0	0	0	0	0	-0	0	0.105	0.015	0	0	-0	0	0	0.098	0.1	0	-0	0	0	0	0	0	-0	0	0.05595	0	0	0	-0	0	0	0	0	0	-0	0	545.178	531.792	327.159	185.578	0.344368	-3.52287	0.0264134	-0.0153402	6.76518
30	-0.0236283	0.0370555	0.0205882	0.0199114	-0.0135586	0.0267271	0.0244508	-0.0296118	0.00151452	-0.0394949	0.0950314	-0.0325584	0.0537823	-0.0001339	0.0205099	-2.18902	-0.00954669	-1.58043	0	0	0	0	-0	0	0	0	-0.1265	0	-0	0	0	0	0	0	-0	0	0.105	0.015	0	0	-0	0	0	0.098	0.1	0	-0	0	0	0	0	0	-0	0	0.05595	0	0	0	-0	0	0	0	0	0	-0	0	544.968	531.591	326.977	185.219	0.352176	-3.55042	0.0260844	-0.0153368	6.79142
31	-0.0285593	0.0370281	0.0206024	0.0198856	-0.013559	0.0267141	0.0244549	-0.0296151	0.00151131	-0.0420369	0.0804016	-0.0181662	0.0538849	-0.000133964	0.020247	-2.19305	-0.0092394	-1.58004	0	0	0	0	-0	0	0	0	-0.1265	0	-0	0	0	0	0	0	-0	0	0.105	0.015	0	0	-0	0	0	0.098	0.1	0	-0	0	0	0	0	0	-0	0	0.05595	0	0	0	-0	0	0	0	0	0	-0	0	544.688	531.311	326.707	184.724	0.359927	-3.57896	0.0257804	-0.0153471	6.8202
32	-0.0237032	0.0369492	0.0206535	0.0198003	-0.0135625	0.0266792	0.0244525	-0.0296182	0.00150785	-0.0606979	0.0750502	-0.0174086	0.0538026	-0.000132798	0.0205007	-2.18542	-0.00806074	-1.57898	0	0	0	0	-0	0	0	0	-0.1265	0	-0	0	0	0	0	0	-0	0	0.105	0.015	0	0	-0	0	0	0.098	0.1	0	-0	0	0	0	0	0	-0	0	0.05595	0	0	0	-0	0	0	0	0	0	-0	0	543.904	530.471	325.834	183.231	0.377027	-3.63352	0.025103	-0.0154048	6.85287
33	-0.0262806	0.0369365	0.0206497	0.0197916	-0.0135762	0.0266451	0.0244511	-0.0296111	0.00150569	-0.0645487	0.0809052	-0.0276209	0.0538368	-0.000134762	0.020395	-2.1873	-0.00772915	-1.57861	0	0	0	0	-0	0	0	0	-0.1265	0	-0	0	0	0	0	0	-0	0	0.105	0.015	0	0	-0	0	0	0.098	0.1	0	-0	0	0	0	0	0	-0	0	0.05595	0	0	0	-0	0	0	0	0	0	-0	0	543.65	530.252	325.564	182.812	0.389875	-3.67798	0.0245652	-0.0154085	6.89264
34	-0.0400577	0.0368983	0.0206662	0.0197594	-0.0135759	0.026632	0.024451	-0.0296098	0.00150496	-0.0661597	0.0837122	-0.0237627	0.05412	-0.000134527	0.019656	-2.2	-0.00729246	-1.57797	0	0	0	0	-0	0	0	0	-0.1265	0	-0	0	0	0	0	0	-0	0	0.105	0.015	0	0	-0	0	0	0.098	0.1	0	-0	0	0	0	0	0	-0	0	0.05595	0	0	0	-0	0	0	0	0	0	-0	0	543.314	529.942	325.145	182.225	0.400039	-3.71724	0.0241278	-0.0154359	6.93981
35	-0.0229939	0.0368549	0.0206942	0.0197057	-0.0135851	0.0266071	0.0244515	-0.0296101	0.00150163	-0.0759998	0.0880552	-0.0202626	0.0537837	-0.000133949	0.0205828	-2.18135	-0.00632492	-1.57727	0	0	0	0	-0	0	0	0	-0.1265	0	-0	0	0	0	0	0	-0	0	0.105	0.015	0	0	-0	0	0	0.098	0.1	0	-0	0	0	0	0	0	-0	0	0.05595	0	0	0	-0	0	0	0	0	0	-0	0	542.826	529.466	324.49	181.355	0.414234	-3.77064	0.0235577	-0.0154922	6.99884
36	-0.0527737	0.0367917	0.0207348	0.0196296	-0.0136018	0.0265686	0.0244544	-0.02961	0.00149506	-0.0752897	0.0889582	-0.0310943	0.0543962	-0.000132887	0.018985	-2.20879	-0.00519428	-1.57578	0	0	0	0	-0	0	0	0	-0.1265	0	-0	0	0	0	0	0	-0	0	0.105	0.015	0	0	-0	0	0	0.098	0.1	0	-0	0	0	0	0	0	-0	0	0.05595	0	0	0	-0	0	0	0	0	0	-0	0	542.119	528.77	323.454	180.074	0.434367	-3.84357	0.0227311	-0.0155944	7.07341
37	-0.0874469	0.0366667	0.020827	0.0194754	-0.013646	0.026494	0.0244557	-0.0296077	0.00148382	-0.0872643	0.101439	-0.0314627	0.0550561	-0.000129229	0.0170907	-2.23849	-0.00221769	-1.57274	0	0	0	0	-0	0	0	0	-0.1265	0	-0	0	0	0	0	0	-0	0	0.105	0.015	0	0	-0	0	0	0.098	0.1	0	-0	0	0	0	0	0	-0	0	0.05595	0	0	0	-0	0	0	0	0	0	-0	0	540.684	527.314	321.062	177.375	0.47231	-3.97921	0.0212014	-0.0158774	7.20771
38	-0.0266344	0.0365281	0.0209513	0.0192586	-0.0137558	0.0263711	0.0244837	-0.0296141	0.00154726	-0.0168066	0.011795	-0.0588539	0.054005	-0.000124471	0.0204616	-2.17097	0.00281968	-1.56826	0	0	0	0	-0	0	0	0	-0.1265	0	-0	0	0	0	0	0	-0	0	0.105	0.015	0	0	-0	0	0	0.098	0.1	0	-0	0	0	0	0	0	-0	0	0.05595	0	0	0	-0	0	0	0	0	0	-0	0	538.578	525.364	317.249	173.698	0.539941	-4.23967	0.0184317	-0.016381	7.51899
39	-0.0141983	0.0365508	0.0209167	0.0192372	-0.0138627	0.0262576	0.024456	-0.0295955	0.0014663	-0.015812	0.0140705	-0.0689026	0.053584	-0.000126885	0.0212202	-2.15786	0.00349889	-1.5672	0	0	0	0	-0	0	0	0	-0.1265	0	-0	0	0	0	0	0	-0	0	0.105	0.015	0	0	-0	0	0	0.098	0.1	0	-0	0	0	0	0	0	-0	0	0.05595	0	0	0	-0	0	0	0	0	0	-0	0	538.045	525.167	316.536	173.153	0.581357	-4.3866	0.0163818	-0.0164488	7.68256
40	0.0114358	0.0364703	0.0209616	0.0191597	-0.0138641	0.0262634	0.0244622	-0.0295983	0.00146	-0.0184912	0.0169587	-0.0844954	0.0530479	-0.000125114	0.0225838	-2.13072	0.00484255	-1.56549	0	0	0	0	-0	0	0	0	-0.1265	0	-0	0	0	0	0	0	-0	0	0.105	0.015	0	0	-0	0	0	0.098	0.1	0	-0	0	0	0	0	0	-0	0	0.05595	0	0	0	-0	0	0	0	0	0	-0	0	537.389	524.835	315.335	172.328	0.609385	-4.51605	0.0149319	-0.0166213	7.89771
41	0.00163979	0.0364293	0.021055	0.0190071	-0.0139638	0.0262273	0.0244782	-0.0296104	0.00145139	-0.0290679	0.00368125	-0.113646	0.053288	-0.00011986	0.0220518	-2.13736	0.00801032	-1.56204	0	0	0	0	-0	0	0	0	-0.1265	0	-0	0	0	0	0	0	-0	0	0.105	0.015	0	0	-0	0	0	0.098	0.1	0	-0	0	0	0	0	0	-0	0	0.05595	0	0	0	-0	0	0	0	0	0	-0	0	536.151	524.026	312.649	170.604	0.65633	-4.7245	0.012759	-0.0171038	8.2154
42	-0.00527419	0.0364197	0.0211184	0.0188813	-0.014088	0.0261603	0.0244688	-0.0296409	0.00148099	0.0308521	-0.0129687	-0.150112	0.0534452	-0.000117104	0.021718	-2.14211	0.0106794	-1.55926	0	0	0	0	-0	0	0	0	-0.1265	0	-0	0	0	0	0	0	-0	0	0.105	0.015	0	0	-0	0	0	0.098	0.1	0	-0	0	0	0	0	0	-0	0	0.05595	0	0	0	-0	0	0	0	0	0	-0	0	535.079	523.48	310.434	169.355	0.707706	-4.93711	0.0101758	-0.0175178	8.5166
43	-0.0434713	0.0364146	0.0211522	0.0188246	-0.0141976	0.0261147	0.0244695	-0.0295891	0.00143706	0.03562	-0.00954585	-0.134498	0.0542848	-0.000113815	0.0196981	-2.17865	0.0133313	-1.55734	0	0	0	0	-0	0	0	0	-0.1265	0	-0	0	0	0	0	0	-0	0	0.105	0.015	0	0	-0	0	0	0.098	0.1	0	-0	0	0	0	0	0	-0	0	0.05595	0	0	0	-0	0	0	0	0	0	-0	0	534.227	523.103	308.577	168.407	0.749129	-5.1058	0.00797381	-0.0178973	8.75342
44	-0.0491347	0.0364291	0.0212768	0.018682	-0.0143982	0.026069	0.0245116	-0.0295821	0.00142654	0.0476318	-0.0650369	-0.129739	0.0544215	-0.000107498	0.0193531	-2.18076	0.0183455	-1.5525	0	0	0	0	-0	0	0	0	-0.1265	0	-0	0	0	0	0	0	-0	0	0.105	0.015	0	0	-0	0	0	0.098	0.1	0	-0	0	0	0	0	0	-0	0	0.05595	0	0	0	-0	0	0	0	0	0	-0	0	532.593	522.256	304.547	166.482	0.819692	-5.42568	0.00455289	-0.0187917	9.25143
45	-0.0885648	0.0365458	0.0214105	0.0185366	-0.0147842	0.0259652	0.0245055	-0.0295799	0.00139015	0.0830623	-0.119868	-0.109466	0.05528	-9.56973e-05	0.0171871	-2.21612	0.0256833	-1.54682	0	0	0	0	-0	0	0	0	-0.1265	0	-0	0	0	0	0	0	-0	0	0.105	0.015	0	0	-0	0	0	0.098	0.1	0	-0	0	0	0	0	0	-0	0	0.05595	0	0	0	-0	0	0	0	0	0	-0	0	530.371	521.287	299.148	164.278	0.917338	-5.81068	-0.00083953	-0.0200789	9.75476
46	-0.0730787	0.0366293	0.0214512	0.0184729	-0.0150113	0.02585	0.0244814	-0.029577	0.00141051	0.0925605	-0.106873	-0.126661	0.0549445	-9.3413e-05	0.0181353	-2.20041	0.0266869	-1.54532	0	0	0	0	-0	0	0	0	-0.1265	0	-0	0	0	0	0	0	-0	0	0.105	0.015	0	0	-0	0	0	0.098	0.1	0	-0	0	0	0	0	0	-0	0	0.05595	0	0	0	-0	0	0	0	0	0	-0	0	529.812	521.308	298.067	164.007	0.964521	-5.95998	-0.00392562	-0.020398	9.90581
47	-0.0699268	0.0367025	0.0214729	0.0185088	-0.0152481	0.0258814	0.0245013	-0.029581	0.00142422	0.090066	-0.0727759	-0.106324	0.0549864	-7.7517e-05	0.0182062	-2.19501	0.0312883	-1.5406	0	0	0	0	-0	0	0	0	-0.1265	0	-0	0	0	0	0	0	-0	0	0.105	0.015	0	0	-0	0	0	0.098	0.1	0	-0	0	0	0	0	0	-0	0	0.05595	0	0	0	-0	0	0	0	0	0	-0	0	528.439	521.104	294.222	162.91	1.02271	-6.18136	-0.0079866	-0.0213739	10.1938
48	-0.0836143	0.0368425	0.0215145	0.0184725	-0.0155577	0.0258328	0.024501	-0.0295963	0.00140884	0.0887485	-0.0763483	-0.0634328	0.0552911	-6.25899e-05	0.0174532	-2.20767	0.0350147	-1.53778	0	0	0	0	-0	0	0	0	-0.1265	0	-0	0	0	0	0	0	-0	0	0.105	0.015	0	0	-0	0	0	0.098	0.1	0	-0	0	0	0	0	0	-0	0	0.05595	0	0	0	-0	0	0	0	0	0	-0	0	527.508	521.109	291.436	162.365	1.07322	-6.32864	-0.011922	-0.022108	10.3146
49	-0.0696578	0.0368644	0.0215208	0.0184806	-0.015655	0.0258078	0.0244789	-0.0295682	0.00141089	0.0921771	-0.0694035	-0.0502911	0.0550379	-5.79963e-05	0.0182563	-2.19356	0.0353942	-1.53644	0	0	0	0	-0	0	0	0	-0.1265	0	-0	0	0	0	0	0	-0	0	0.105	0.015	0	0	-0	0	0	0.098	0.1	0	-0	0	0	0	0	0	-0	0	0.05595	0	0	0	-0	0	0	0	0	0	-0	0	527.264	521.151	290.724	162.253	1.09358	-6.38476	-0.0135026	-0.0223256	10.3605
50	-0.077153	0.0369724	0.0215194	0.0185442	-0.015855	0.0258374	0.0245165	-0.0295585	0.00140398	0.0705957	-0.00336442	-0.0593325	0.0552383	-4.43129e-05	0.0177825	-2.20012	0.038668	-1.53372	0	0	0	0	-0	0	0	0	-0.1265	0	-0	0	0	0	0	0	-0	0	0.105	0.015	0	0	-0	0	0	0.098	0.1	0	-0	0	0	0	0	0	-0	0	0.05595	0	0	0	-0	0	0	0	0	0	-0	0	526.623	521.239	288.204	161.844	1.12418	-6.48215	-0.0160896	-0.022991	10.4578
