Stefan210/kinematic_calibration/src/kinematic_calibration/validation/experiments/experiments/single_point_vs_pose/marker_pose/rarm_210/optimization_intermediate_results.csv
iteration	HeadPitch_offset	HeadYaw_offset	RElbowRoll_offset	RElbowYaw_offset	RShoulderPitch_offset	RShoulderRoll_offset	marker_transform_rarm_tx	marker_transform_rarm_ty	marker_transform_rarm_tz	marker_transform_rarm_rr	marker_transform_rarm_rp	marker_transform_rarm_ry	camera_transform_tx	camera_transform_ty	camera_transform_tz	camera_transform_rr	camera_transform_rp	camera_transform_ry	HeadPitch_transform_tx	HeadPitch_transform_ty	HeadPitch_transform_tz	HeadPitch_transform_rr	HeadPitch_transform_rp	HeadPitch_transform_ry	HeadYaw_transform_tx	HeadYaw_transform_ty	HeadYaw_transform_tz	HeadYaw_transform_rr	HeadYaw_transform_rp	HeadYaw_transform_ry	RElbowRoll_transform_tx	RElbowRoll_transform_ty	RElbowRoll_transform_tz	RElbowRoll_transform_rr	RElbowRoll_transform_rp	RElbowRoll_transform_ry	RElbowYaw_transform_tx	RElbowYaw_transform_ty	RElbowYaw_transform_tz	RElbowYaw_transform_rr	RElbowYaw_transform_rp	RElbowYaw_transform_ry	RShoulderPitch_transform_tx	RShoulderPitch_transform_ty	RShoulderPitch_transform_tz	RShoulderPitch_transform_rr	RShoulderPitch_transform_rp	RShoulderPitch_transform_ry	RShoulderRoll_transform_tx	RShoulderRoll_transform_ty	RShoulderRoll_transform_tz	RShoulderRoll_transform_rr	RShoulderRoll_transform_rp	RShoulderRoll_transform_ry	RWristYaw_transform_tx	RWristYaw_transform_ty	RWristYaw_transform_tz	RWristYaw_transform_rr	RWristYaw_transform_rp	RWristYaw_transform_ry	r_wrist_joint_transform_tx	r_wrist_joint_transform_ty	r_wrist_joint_transform_tz	r_wrist_joint_transform_rr	r_wrist_joint_transform_rp	r_wrist_joint_transform_ry	camera_fx	camera_fy	camera_cx	camera_cy	camera_D0	camera_D1	camera_D2	camera_D3	camera_D4	
0	0.0230449	0.0294606	-0.0013508	-0.00116347	0.000678263	0.00258603	0.05071	0	0.01774	-2.26369	1.66533e-16	-1.5708	545.901	551.038	324.928	201.58	0.0255298	2.61142	-0.0636736	-0.0350419	0.213964
1	-0.0133054	-0.0317676	-0.014138	-0.0120787	-0.0132145	-0.0441337	0.0255312	0.036576	-0.00206582	-0.604644	0.269172	0.180293	0.0521643	0.00117712	0.0235953	-2.21138	0.0108913	-1.54113	0	0	0	0	-0	0	0	0	-0.1265	0	-0	0	0	0	0	0	-0	0	0.105	-0.015	0	0	-0	0	0	-0.098	0.1	0	-0	0	0	0	0	0	-0	0	0.05595	0	0	0	-0	0	0	0	0	0	-0	0	545.902	551.039	324.931	201.582	-0.0788942	2.55585	-0.0759176	-0.0665332	0.197165
2	-0.00854979	-0.0564421	-0.0371849	0.0194239	-0.0267561	-0.039192	0.0227608	0.0297509	-0.000277084	-0.870375	0.278475	0.0607572	0.0502184	0.00221401	0.0298063	-2.23126	0.0293325	-1.53067	0	0	0	0	-0	0	0	0	-0.1265	0	-0	0	0	0	0	0	-0	0	0.105	-0.015	0	0	-0	0	0	-0.098	0.1	0	-0	0	0	0	0	0	-0	0	0.05595	0	0	0	-0	0	0	0	0	0	-0	0	545.905	551.039	324.937	201.588	-0.205183	2.41264	0.0383012	-0.0265618	0.134432
3	-0.0134088	-0.0342098	-0.0323653	0.0113187	-0.013054	-0.0473252	0.0234674	0.0276903	-0.000648875	-1.06806	0.243957	0.0210876	0.0531449	0.00131393	0.0225868	-2.21041	0.0164446	-1.54735	0	0	0	0	-0	0	0	0	-0.1265	0	-0	0	0	0	0	0	-0	0	0.105	-0.015	0	0	-0	0	0	-0.098	0.1	0	-0	0	0	0	0	0	-0	0	0.05595	0	0	0	-0	0	0	0	0	0	-0	0	545.912	551.039	324.948	201.596	-0.551102	2.12317	-0.0189852	-0.000447789	0.0245889
4	-0.013727	-0.029916	-0.0269434	0.00224832	-0.0100589	-0.0523548	0.0234837	0.0282479	-0.000304391	-1.23011	0.178847	0.08093	0.0551714	-0.0002251	0.0185804	-2.20814	0.0148707	-1.54757	0	0	0	0	-0	0	0	0	-0.1265	0	-0	0	0	0	0	0	-0	0	0.105	-0.015	0	0	-0	0	0	-0.098	0.1	0	-0	0	0	0	0	0	-0	0	0.05595	0	0	0	-0	0	0	0	0	0	-0	0	545.92	551.039	324.958	201.607	-0.795226	1.73909	0.0291106	0.0249503	-0.16071
5	-0.0145323	-0.0199037	-0.0134317	-0.00604843	-0.0059532	-0.055139	0.0229164	0.0296528	0.000479886	-1.477	0.125918	0.202508	0.0560747	-0.00218908	0.0156554	-2.20426	0.012409	-1.54824	0	0	0	0	-0	0	0	0	-0.1265	0	-0	0	0	0	0	0	-0	0	0.105	-0.015	0	0	-0	0	0	-0.098	0.1	0	-0	0	0	0	0	0	-0	0	0.05595	0	0	0	-0	0	0	0	0	0	-0	0	545.935	551.035	324.968	201.616	-0.688385	1.25122	0.0195515	0.0196431	-0.456713
6	-0.0142181	-0.0206879	0.00205699	-0.00458113	-0.013116	-0.0457535	0.0220207	0.0292912	0.000201387	-1.69422	0.138371	0.253244	0.0543811	-0.00308396	0.0172216	-2.20591	0.0154402	-1.53954	0	0	0	0	-0	0	0	0	-0.1265	0	-0	0	0	0	0	0	-0	0	0.105	-0.015	0	0	-0	0	0	-0.098	0.1	0	-0	0	0	0	0	0	-0	0	0.05595	0	0	0	-0	0	0	0	0	0	-0	0	545.953	551.026	324.972	201.619	-0.361825	0.884006	0.0079792	0.00124258	-0.720603
7	-0.0141911	-0.020794	0.00558521	-0.000211123	-0.0149547	-0.0427606	0.0217467	0.0286277	-0.000437941	-1.7045	0.150233	0.229853	0.0535028	-0.00334116	0.0180229	-2.20616	0.016708	-1.5372	0	0	0	0	-0	0	0	0	-0.1265	0	-0	0	0	0	0	0	-0	0	0.105	-0.015	0	0	-0	0	0	-0.098	0.1	0	-0	0	0	0	0	0	-0	0	0.05595	0	0	0	-0	0	0	0	0	0	-0	0	545.984	551.008	324.976	201.619	-0.168756	0.619942	2.883e-05	-0.0091675	-0.863766
8	-0.0142061	-0.0206289	0.00590915	0.000364775	-0.0149229	-0.0427599	0.0217456	0.0285961	-0.00047168	-1.70548	0.151321	0.226312	0.0531629	-0.00333183	0.0183919	-2.20634	0.0164156	-1.53741	0	0	0	0	-0	0	0	0	-0.1265	0	-0	0	0	0	0	0	-0	0	0.105	-0.015	0	0	-0	0	0	-0.098	0.1	0	-0	0	0	0	0	0	-0	0	0.05595	0	0	0	-0	0	0	0	0	0	-0	0	546.066	550.96	324.989	201.62	-0.0907625	0.464285	-0.00423676	-0.0119253	-0.816419
9	-0.0141829	-0.0205525	0.00598845	0.000399591	-0.0149215	-0.0427834	0.0217418	0.0285887	-0.000472759	-1.70516	0.151434	0.22537	0.0529768	-0.00331616	0.0185937	-2.20655	0.0161731	-1.53773	0	0	0	0	-0	0	0	0	-0.1265	0	-0	0	0	0	0	0	-0	0	0.105	-0.015	0	0	-0	0	0	-0.098	0.1	0	-0	0	0	0	0	0	-0	0	0.05595	0	0	0	-0	0	0	0	0	0	-0	0	546.295	550.824	325.027	201.621	-0.0493262	0.286921	-0.00490137	-0.0125081	-0.580203
10	-0.0140927	-0.0204495	0.0060725	0.000375435	-0.0149169	-0.0428081	0.0217343	0.0285836	-0.000473088	-1.7043	0.151413	0.224743	0.0527332	-0.00329474	0.0188485	-2.20675	0.0157832	-1.53827	0	0	0	0	-0	0	0	0	-0.1265	0	-0	0	0	0	0	0	-0	0	0.105	-0.015	0	0	-0	0	0	-0.098	0.1	0	-0	0	0	0	0	0	-0	0	0.05595	0	0	0	-0	0	0	0	0	0	-0	0	546.883	550.471	325.12	201.623	-0.00246425	0.0422269	-0.004622	-0.0129474	-0.213568
11	-0.0131173	-0.0203642	0.00613382	0.000385457	-0.0149178	-0.0427158	0.0217193	0.0285821	-0.000479994	-1.70283	0.151317	0.224787	0.0524591	-0.00326592	0.0191442	-2.20594	0.0152255	-1.53901	0	0	0	0	-0	0	0	0	-0.1265	0	-0	0	0	0	0	0	-0	0	0.105	-0.015	0	0	-0	0	0	-0.098	0.1	0	-0	0	0	0	0	0	-0	0	0.05595	0	0	0	-0	0	0	0	0	0	-0	0	548.161	549.746	325.326	201.649	0.0237832	-0.122833	-0.00283272	-0.0133893	0.048564
12	-0.0148851	-0.0203172	0.00615536	0.000443292	-0.014914	-0.0424907	0.0216986	0.0285853	-0.000494072	-1.70099	0.151164	0.225683	0.0522818	-0.00323523	0.0192271	-2.20793	0.0146103	-1.53998	0	0	0	0	-0	0	0	0	-0.1265	0	-0	0	0	0	0	0	-0	0	0.105	-0.015	0	0	-0	0	0	-0.098	0.1	0	-0	0	0	0	0	0	-0	0	0.05595	0	0	0	-0	0	0	0	0	0	-0	0	550.156	548.955	325.708	201.822	0.0116955	-0.112951	0.00045924	-0.0136727	0.0578083
13	-0.0288041	-0.0202916	0.00616117	0.000486711	-0.0149022	-0.0423045	0.0216839	0.028588	-0.000503885	-1.6997	0.151058	0.22642	0.0523641	-0.00320512	0.0186685	-2.22321	0.0140205	-1.54149	0	0	0	0	-0	0	0	0	-0.1265	0	-0	0	0	0	0	0	-0	0	0.105	-0.015	0	0	-0	0	0	-0.098	0.1	0	-0	0	0	0	0	0	-0	0	0.05595	0	0	0	-0	0	0	0	0	0	-0	0	552.319	549.375	326.4	202.476	-0.011338	-0.0348147	0.0029772	-0.0135819	-0.0403521
14	-0.0465711	-0.0203107	0.0061676	0.000488524	-0.0149155	-0.0422065	0.0216781	0.028586	-0.000504606	-1.6994	0.151046	0.226306	0.0524654	-0.00316833	0.0180032	-2.24513	0.0122529	-1.54437	0	0	0	0	-0	0	0	0	-0.1265	0	-0	0	0	0	0	0	-0	0	0.105	-0.015	0	0	-0	0	0	-0.098	0.1	0	-0	0	0	0	0	0	-0	0	0.05595	0	0	0	-0	0	0	0	0	0	-0	0	554.926	552.133	328.101	204.294	-0.0318736	0.056546	0.00386572	-0.0128039	-0.167904
15	-0.0234167	-0.0204407	0.00616969	0.00044275	-0.0150113	-0.0420945	0.0216737	0.0285806	-0.000499595	-1.69956	0.151017	0.225711	0.0517479	-0.0031217	0.0196008	-2.23019	0.00633454	-1.54995	0	0	0	0	-0	0	0	0	-0.1265	0	-0	0	0	0	0	0	-0	0	0.105	-0.015	0	0	-0	0	0	-0.098	0.1	0	-0	0	0	0	0	0	-0	0	0.05595	0	0	0	-0	0	0	0	0	0	-0	0	558.409	556.852	332.296	208.059	-0.0572946	0.193982	0.00447535	-0.0108481	-0.381031
16	-0.0406858	-0.0204613	0.00616013	0.000420158	-0.0150301	-0.0420713	0.0216735	0.0285793	-0.00049823	-1.69965	0.150953	0.225598	0.0520251	-0.00311316	0.0187417	-2.24848	0.00610182	-1.55089	0	0	0	0	-0	0	0	0	-0.1265	0	-0	0	0	0	0	0	-0	0	0.105	-0.015	0	0	-0	0	0	-0.098	0.1	0	-0	0	0	0	0	0	-0	0	0.05595	0	0	0	-0	0	0	0	0	0	-0	0	558.839	557.385	332.847	208.568	-0.0628331	0.228015	0.00475339	-0.0104651	-0.445903
17	-0.0548123	-0.0205378	0.0061557	0.000390796	-0.0150856	-0.0420259	0.0216717	0.0285779	-0.000495715	-1.6997	0.150919	0.22546	0.0521903	-0.00309941	0.0181245	-2.26598	0.00388412	-1.55363	0	0	0	0	-0	0	0	0	-0.1265	0	-0	0	0	0	0	0	-0	0	0.105	-0.015	0	0	-0	0	0	-0.098	0.1	0	-0	0	0	0	0	0	-0	0	0.05595	0	0	0	-0	0	0	0	0	0	-0	0	559.954	558.95	334.854	210.21	-0.0722743	0.287877	0.00509648	-0.00953488	-0.551758
18	-0.0358577	-0.0206091	0.00614642	0.00035691	-0.0151393	-0.0419882	0.0216704	0.0285771	-0.000493236	-1.69973	0.150861	0.225398	0.0517834	-0.00308984	0.0191942	-2.24962	0.00136325	-1.55584	0	0	0	0	-0	0	0	0	-0.1265	0	-0	0	0	0	0	0	-0	0	0.105	-0.015	0	0	-0	0	0	-0.098	0.1	0	-0	0	0	0	0	0	-0	0	0.05595	0	0	0	-0	0	0	0	0	0	-0	0	560.697	560.016	336.627	211.498	-0.079508	0.335048	0.00547128	-0.00865534	-0.640528
19	-0.058817	-0.0206586	0.00613803	0.000333509	-0.0151775	-0.0419638	0.0216695	0.0285768	-0.000491659	-1.69976	0.150814	0.225391	0.0521804	-0.00308468	0.0180441	-2.27418	0.00024169	-1.55746	0	0	0	0	-0	0	0	0	-0.1265	0	-0	0	0	0	0	0	-0	0	0.105	-0.015	0	0	-0	0	0	-0.098	0.1	0	-0	0	0	0	0	0	-0	0	0.05595	0	0	0	-0	0	0	0	0	0	-0	0	561.106	560.61	337.84	212.31	-0.0839108	0.363851	0.00576067	-0.0080348	-0.696925
20	-0.0508466	-0.0207469	0.0061267	0.00029796	-0.015244	-0.0419286	0.0216681	0.0285768	-0.000489184	-1.69976	0.150754	0.225417	0.0519845	-0.0030798	0.0185122	-2.26855	-0.00263514	-1.56021	0	0	0	0	-0	0	0	0	-0.1265	0	-0	0	0	0	0	0	-0	0	0.105	-0.015	0	0	-0	0	0	-0.098	0.1	0	-0	0	0	0	0	0	-0	0	0.05595	0	0	0	-0	0	0	0	0	0	-0	0	561.625	561.447	340.066	213.506	-0.0900905	0.409097	0.00609682	-0.00695102	-0.788493
21	-0.0466281	-0.0207558	0.00612097	0.00028629	-0.0152529	-0.0419258	0.021668	0.028577	-0.000488627	-1.69977	0.150724	0.225456	0.0519022	-0.00307819	0.0187344	-2.26444	-0.00277726	-1.56035	0	0	0	0	-0	0	0	0	-0.1265	0	-0	0	0	0	0	0	-0	0	0.105	-0.015	0	0	-0	0	0	-0.098	0.1	0	-0	0	0	0	0	0	-0	0	0.05595	0	0	0	-0	0	0	0	0	0	-0	0	561.655	561.467	340.156	213.559	-0.0908008	0.409168	0.00624869	-0.00683162	-0.788279
22	-0.0488886	-0.0207676	0.00611959	0.000281311	-0.0152618	-0.04192	0.0216677	0.0285771	-0.00048833	-1.69975	0.150714	0.225471	0.051939	-0.00307762	0.0186235	-2.26703	-0.00312879	-1.56073	0	0	0	0	-0	0	0	0	-0.1265	0	-0	0	0	0	0	0	-0	0	0.105	-0.015	0	0	-0	0	0	-0.098	0.1	0	-0	0	0	0	0	0	-0	0	0.05595	0	0	0	-0	0	0	0	0	0	-0	0	561.722	561.559	340.463	213.733	-0.0916129	0.415081	0.00632028	-0.00668373	-0.800661
23	-0.0454102	-0.0208006	0.0061152	0.000268163	-0.0152866	-0.041908	0.0216672	0.0285772	-0.00048745	-1.69974	0.150692	0.225496	0.0518643	-0.00307679	0.0188185	-2.26436	-0.00418767	-1.56178	0	0	0	0	-0	0	0	0	-0.1265	0	-0	0	0	0	0	0	-0	0	0.105	-0.015	0	0	-0	0	0	-0.098	0.1	0	-0	0	0	0	0	0	-0	0	0.05595	0	0	0	-0	0	0	0	0	0	-0	0	561.866	561.8	341.301	214.155	-0.093605	0.430831	0.00644982	-0.0062769	-0.834219
24	-0.0333569	-0.0208321	0.00610995	0.000254138	-0.015311	-0.0418972	0.0216668	0.0285774	-0.000486587	-1.69974	0.150665	0.225532	0.0516291	-0.0030759	0.0194555	-2.25299	-0.005221	-1.56279	0	0	0	0	-0	0	0	0	-0.1265	0	-0	0	0	0	0	0	-0	0	0.105	-0.015	0	0	-0	0	0	-0.098	0.1	0	-0	0	0	0	0	0	-0	0	0.05595	0	0	0	-0	0	0	0	0	0	-0	0	561.982	561.996	342.065	214.511	-0.0953569	0.443419	0.00659741	-0.00588536	-0.861337
25	-0.0195446	-0.0208862	0.006102	0.000232845	-0.015353	-0.0418802	0.0216661	0.0285778	-0.000485246	-1.69972	0.150626	0.225594	0.0513453	-0.00307535	0.0201842	-2.24019	-0.00702034	-1.56462	0	0	0	0	-0	0	0	0	-0.1265	0	-0	0	0	0	0	0	-0	0	0.105	-0.015	0	0	-0	0	0	-0.098	0.1	0	-0	0	0	0	0	0	-0	0	0.05595	0	0	0	-0	0	0	0	0	0	-0	0	562.149	562.31	343.474	215.044	-0.0982825	0.466494	0.00677401	-0.00518129	-0.911808
26	-0.0116291	-0.0209144	0.00609591	0.000219128	-0.0153759	-0.0418713	0.0216656	0.0285782	-0.00048453	-1.69971	0.150596	0.225652	0.0511759	-0.00307468	0.0205956	-2.23274	-0.00781137	-1.5655	0	0	0	0	-0	0	0	0	-0.1265	0	-0	0	0	0	0	0	-0	0	0.105	-0.015	0	0	-0	0	0	-0.098	0.1	0	-0	0	0	0	0	0	-0	0	0.05595	0	0	0	-0	0	0	0	0	0	-0	0	562.22	562.421	344.111	215.294	-0.099691	0.474505	0.00694654	-0.00482891	-0.929312
27	-0.00924058	-0.0209182	0.00609408	0.000215908	-0.0153792	-0.0418706	0.0216656	0.0285784	-0.00048439	-1.69971	0.150588	0.225672	0.0511247	-0.00307429	0.020718	-2.23038	-0.00786616	-1.56558	0	0	0	0	-0	0	0	0	-0.1265	0	-0	0	0	0	0	0	-0	0	0.105	-0.015	0	0	-0	0	0	-0.098	0.1	0	-0	0	0	0	0	0	-0	0	0.05595	0	0	0	-0	0	0	0	0	0	-0	0	562.226	562.426	344.15	215.31	-0.0998911	0.474085	0.00699576	-0.0047894	-0.927886
28	-0.0165068	-0.0209231	0.00609355	0.000213581	-0.0153831	-0.0418688	0.0216655	0.0285784	-0.000484251	-1.69971	0.150584	0.225681	0.0512741	-0.00307427	0.0203478	-2.23775	-0.00798673	-1.56569	0	0	0	0	-0	0	0	0	-0.1265	0	-0	0	0	0	0	0	-0	0	0.105	-0.015	0	0	-0	0	0	-0.098	0.1	0	-0	0	0	0	0	0	-0	0	0.05595	0	0	0	-0	0	0	0	0	0	-0	0	562.24	562.447	344.284	215.365	-0.100058	0.475557	0.00701995	-0.00472306	-0.931462
29	-0.0125349	-0.020926	0.00609293	0.000212246	-0.0153855	-0.0418678	0.0216654	0.0285785	-0.000484184	-1.69971	0.150581	0.225688	0.0511915	-0.00307421	0.0205516	-2.23383	-0.00808602	-1.5658	0	0	0	0	-0	0	0	0	-0.1265	0	-0	0	0	0	0	0	-0	0	0.105	-0.015	0	0	-0	0	0	-0.098	0.1	0	-0	0	0	0	0	0	-0	0	0.05595	0	0	0	-0	0	0	0	0	0	-0	0	562.246	562.456	344.351	215.392	-0.100179	0.476211	0.00703906	-0.00468687	-0.932928
30	-0.00885773	-0.0209299	0.00609229	0.000210491	-0.0153885	-0.0418666	0.0216654	0.0285785	-0.00048408	-1.6997	0.150577	0.225694	0.0511152	-0.00307424	0.0207403	-2.23022	-0.00821941	-1.56596	0	0	0	0	-0	0	0	0	-0.1265	0	-0	0	0	0	0	0	-0	0	0.105	-0.015	0	0	-0	0	0	-0.098	0.1	0	-0	0	0	0	0	0	-0	0	0.05595	0	0	0	-0	0	0	0	0	0	-0	0	562.254	562.472	344.449	215.431	-0.100374	0.477749	0.00705636	-0.0046372	-0.936415
31	-0.0188991	-0.0209453	0.00609029	0.000204557	-0.0154003	-0.0418623	0.0216652	0.0285787	-0.000483702	-1.6997	0.150567	0.225713	0.0513214	-0.00307445	0.0202297	-2.24054	-0.00865298	-1.56639	0	0	0	0	-0	0	0	0	-0.1265	0	-0	0	0	0	0	0	-0	0	0.105	-0.015	0	0	-0	0	0	-0.098	0.1	0	-0	0	0	0	0	0	-0	0	0.05595	0	0	0	-0	0	0	0	0	0	-0	0	562.287	562.542	344.856	215.577	-0.101081	0.484047	0.00710119	-0.00443607	-0.950916
32	-0.0133646	-0.0209541	0.00608849	0.000200719	-0.0154074	-0.0418597	0.021665	0.0285788	-0.000483507	-1.69969	0.150559	0.225731	0.0512061	-0.00307436	0.0205143	-2.23513	-0.00891224	-1.56668	0	0	0	0	-0	0	0	0	-0.1265	0	-0	0	0	0	0	0	-0	0	0.105	-0.015	0	0	-0	0	0	-0.098	0.1	0	-0	0	0	0	0	0	-0	0	0.05595	0	0	0	-0	0	0	0	0	0	-0	0	562.303	562.57	345.052	215.648	-0.101442	0.48608	0.00715155	-0.00432846	-0.955485
33	-0.0156727	-0.0209814	0.00608483	0.000189875	-0.0154288	-0.0418525	0.0216647	0.0285791	-0.000482831	-1.69968	0.15054	0.225769	0.0512497	-0.00307472	0.0204009	-2.23785	-0.00979352	-1.5676	0	0	0	0	-0	0	0	0	-0.1265	0	-0	0	0	0	0	0	-0	0	0.105	-0.015	0	0	-0	0	0	-0.098	0.1	0	-0	0	0	0	0	0	-0	0	0.05595	0	0	0	-0	0	0	0	0	0	-0	0	562.357	562.69	345.8	215.869	-0.102708	0.497175	0.00721786	-0.00395547	-0.981049
34	-0.0152044	-0.0210342	0.00607697	0.000169123	-0.0154711	-0.0418396	0.0216642	0.0285797	-0.000481607	-1.69965	0.150504	0.225851	0.0512339	-0.0030751	0.0204356	-2.23797	-0.0115389	-1.56941	0	0	0	0	-0	0	0	0	-0.1265	0	-0	0	0	0	0	0	-0	0	0.105	-0.015	0	0	-0	0	0	-0.098	0.1	0	-0	0	0	0	0	0	-0	0	0.05595	0	0	0	-0	0	0	0	0	0	-0	0	562.46	562.918	347.254	216.184	-0.105312	0.518123	0.00732319	-0.00321385	-1.02857
35	-0.0205637	-0.0210421	0.00607329	0.000163769	-0.0154788	-0.041838	0.021664	0.02858	-0.000481468	-1.69965	0.150488	0.225892	0.0513426	-0.00307435	0.0201629	-2.24339	-0.0115978	-1.56943	0	0	0	0	-0	0	0	0	-0.1265	0	-0	0	0	0	0	0	-0	0	0.105	-0.015	0	0	-0	0	0	-0.098	0.1	0	-0	0	0	0	0	0	-0	0	0.05595	0	0	0	-0	0	0	0	0	0	-0	0	562.474	562.913	347.312	216.209	-0.10563	0.51567	0.0074447	-0.00314408	-1.02175
36	-0.0207105	-0.0210455	0.00607283	0.000162055	-0.0154816	-0.0418365	0.0216639	0.0285801	-0.000481384	-1.69965	0.150484	0.225904	0.0513444	-0.00307438	0.0201556	-2.2436	-0.0117181	-1.56955	0	0	0	0	-0	0	0	0	-0.1265	0	-0	0	0	0	0	0	-0	0	0.105	-0.015	0	0	-0	0	0	-0.098	0.1	0	-0	0	0	0	0	0	-0	0	0.05595	0	0	0	-0	0	0	0	0	0	-0	0	562.48	562.918	347.413	216.25	-0.105691	0.516099	0.00747388	-0.00309241	-1.02313
37	-0.0228819	-0.021047	0.0060724	0.000161137	-0.0154828	-0.0418362	0.0216639	0.0285801	-0.000481337	-1.69965	0.150482	0.225909	0.0513881	-0.00307434	0.0200442	-2.2458	-0.011748	-1.56956	0	0	0	0	-0	0	0	0	-0.1265	0	-0	0	0	0	0	0	-0	0	0.105	-0.015	0	0	-0	0	0	-0.098	0.1	0	-0	0	0	0	0	0	-0	0	0.05595	0	0	0	-0	0	0	0	0	0	-0	0	562.482	562.92	347.44	216.261	-0.105732	0.516158	0.00748626	-0.00307562	-1.02329
38	-0.0209604	-0.0210504	0.00607195	0.000159746	-0.0154854	-0.0418351	0.0216638	0.0285802	-0.000481257	-1.69964	0.15048	0.225915	0.0513496	-0.00307447	0.0201429	-2.24394	-0.0118553	-1.56969	0	0	0	0	-0	0	0	0	-0.1265	0	-0	0	0	0	0	0	-0	0	0.105	-0.015	0	0	-0	0	0	-0.098	0.1	0	-0	0	0	0	0	0	-0	0	0.05595	0	0	0	-0	0	0	0	0	0	-0	0	562.484	562.927	347.528	216.296	-0.105846	0.517259	0.00750215	-0.00303158	-1.02606
39	-0.0229414	-0.0210517	0.00607158	0.000159091	-0.0154865	-0.0418348	0.0216638	0.0285802	-0.000481227	-1.69964	0.150478	0.225919	0.0513894	-0.00307445	0.0200412	-2.24594	-0.0118814	-1.5697	0	0	0	0	-0	0	0	0	-0.1265	0	-0	0	0	0	0	0	-0	0	0.105	-0.015	0	0	-0	0	0	-0.098	0.1	0	-0	0	0	0	0	0	-0	0	0.05595	0	0	0	-0	0	0	0	0	0	-0	0	562.486	562.929	347.552	216.305	-0.105905	0.517467	0.00751257	-0.00301698	-1.02649
40	-0.018346	-0.0210541	0.00607129	0.000158067	-0.0154883	-0.0418341	0.0216638	0.0285802	-0.000481165	-1.69964	0.150476	0.225923	0.0512972	-0.00307453	0.0202775	-2.24138	-0.0119612	-1.56983	0	0	0	0	-0	0	0	0	-0.1265	0	-0	0	0	0	0	0	-0	0	0.105	-0.015	0	0	-0	0	0	-0.098	0.1	0	-0	0	0	0	0	0	-0	0	0.05595	0	0	0	-0	0	0	0	0	0	-0	0	562.488	562.934	347.615	216.33	-0.105957	0.51805	0.00752328	-0.00298547	-1.02807
41	-0.0167187	-0.0210577	0.00607072	0.000156597	-0.0154912	-0.0418331	0.0216637	0.0285803	-0.000481082	-1.69964	0.150473	0.22593	0.0512638	-0.00307464	0.0203608	-2.23982	-0.0120704	-1.56997	0	0	0	0	-0	0	0	0	-0.1265	0	-0	0	0	0	0	0	-0	0	0.105	-0.015	0	0	-0	0	0	-0.098	0.1	0	-0	0	0	0	0	0	-0	0	0.05595	0	0	0	-0	0	0	0	0	0	-0	0	562.491	562.943	347.707	216.364	-0.106105	0.519301	0.00753979	-0.00293887	-1.03109
42	-0.0198329	-0.0210613	0.00607016	0.000154941	-0.0154941	-0.0418323	0.0216637	0.0285803	-0.000480984	-1.69964	0.15047	0.225936	0.0513271	-0.00307472	0.0202014	-2.24299	-0.012172	-1.57004	0	0	0	0	-0	0	0	0	-0.1265	0	-0	0	0	0	0	0	-0	0	0.105	-0.015	0	0	-0	0	0	-0.098	0.1	0	-0	0	0	0	0	0	-0	0	0.05595	0	0	0	-0	0	0	0	0	0	-0	0	562.495	562.952	347.794	216.396	-0.106181	0.51998	0.0075559	-0.00289302	-1.03294
43	-0.0238338	-0.021063	0.00606977	0.000154173	-0.0154955	-0.0418318	0.0216636	0.0285803	-0.000480948	-1.69964	0.150468	0.225941	0.0514076	-0.0030747	0.0199961	-2.24701	-0.0122114	-1.57003	0	0	0	0	-0	0	0	0	-0.1265	0	-0	0	0	0	0	0	-0	0	0.105	-0.015	0	0	-0	0	0	-0.098	0.1	0	-0	0	0	0	0	0	-0	0	0.05595	0	0	0	-0	0	0	0	0	0	-0	0	562.497	562.956	347.83	216.409	-0.106258	0.520368	0.00756735	-0.00287275	-1.0338
44	-0.0233616	-0.0210658	0.00606939	0.000153073	-0.0154976	-0.0418311	0.0216636	0.0285804	-0.000480883	-1.69963	0.150466	0.225945	0.0513977	-0.00307478	0.0200204	-2.24659	-0.012297	-1.57013	0	0	0	0	-0	0	0	0	-0.1265	0	-0	0	0	0	0	0	-0	0	0.105	-0.015	0	0	-0	0	0	-0.098	0.1	0	-0	0	0	0	0	0	-0	0	0.05595	0	0	0	-0	0	0	0	0	0	-0	0	562.5	562.963	347.901	216.434	-0.106348	0.521194	0.00757852	-0.00283664	-1.03587
45	-0.0271301	-0.0210668	0.00606911	0.000152524	-0.0154984	-0.0418309	0.0216636	0.0285804	-0.000480857	-1.69963	0.150465	0.225948	0.0514731	-0.00307475	0.0198269	-2.25037	-0.0123172	-1.57011	0	0	0	0	-0	0	0	0	-0.1265	0	-0	0	0	0	0	0	-0	0	0.105	-0.015	0	0	-0	0	0	-0.098	0.1	0	-0	0	0	0	0	0	-0	0	0.05595	0	0	0	-0	0	0	0	0	0	-0	0	562.502	562.965	347.92	216.441	-0.106393	0.521348	0.00758628	-0.00282497	-1.03619
46	-0.0245357	-0.0210673	0.00606902	0.000152282	-0.0154989	-0.0418307	0.0216636	0.0285804	-0.000480845	-1.69963	0.150465	0.22595	0.0514212	-0.00307475	0.0199604	-2.24778	-0.0123347	-1.57015	0	0	0	0	-0	0	0	0	-0.1265	0	-0	0	0	0	0	0	-0	0	0.105	-0.015	0	0	-0	0	0	-0.098	0.1	0	-0	0	0	0	0	0	-0	0	0.05595	0	0	0	-0	0	0	0	0	0	-0	0	562.503	562.966	347.934	216.446	-0.106405	0.521408	0.00758995	-0.00281794	-1.03636
47	-0.0231381	-0.0210684	0.00606886	0.00015181	-0.0154997	-0.0418303	0.0216636	0.0285804	-0.000480819	-1.69963	0.150464	0.225952	0.0513931	-0.00307477	0.0200323	-2.2464	-0.0123704	-1.57021	0	0	0	0	-0	0	0	0	-0.1265	0	-0	0	0	0	0	0	-0	0	0.105	-0.015	0	0	-0	0	0	-0.098	0.1	0	-0	0	0	0	0	0	-0	0	0.05595	0	0	0	-0	0	0	0	0	0	-0	0	562.505	562.97	347.963	216.456	-0.106459	0.521848	0.00759543	-0.00280316	-1.0374
48	-0.0196687	-0.021069	0.00606873	0.000151457	-0.0155003	-0.0418301	0.0216635	0.0285804	-0.000480801	-1.69963	0.150463	0.225953	0.0513235	-0.00307476	0.0202106	-2.24294	-0.0123896	-1.57027	0	0	0	0	-0	0	0	0	-0.1265	0	-0	0	0	0	0	0	-0	0	0.105	-0.015	0	0	-0	0	0	-0.098	0.1	0	-0	0	0	0	0	0	-0	0	0.05595	0	0	0	-0	0	0	0	0	0	-0	0	562.506	562.971	347.977	216.461	-0.106481	0.521956	0.00759963	-0.00279512	-1.03766
49	-0.0158853	-0.0210702	0.00606855	0.000151006	-0.0155012	-0.0418298	0.0216635	0.0285804	-0.000480776	-1.69963	0.150462	0.225956	0.0512468	-0.00307481	0.0204047	-2.23918	-0.0124294	-1.57036	0	0	0	0	-0	0	0	0	-0.1265	0	-0	0	0	0	0	0	-0	0	0.105	-0.015	0	0	-0	0	0	-0.098	0.1	0	-0	0	0	0	0	0	-0	0	0.05595	0	0	0	-0	0	0	0	0	0	-0	0	562.506	562.973	348.009	216.472	-0.106518	0.522298	0.00760507	-0.00277898	-1.03853
50	-0.0114173	-0.0210721	0.00606828	0.000150255	-0.0155027	-0.0418294	0.0216635	0.0285805	-0.00048073	-1.69963	0.150461	0.225959	0.0511552	-0.00307485	0.0206337	-2.23474	-0.0124868	-1.57047	0	0	0	0	-0	0	0	0	-0.1265	0	-0	0	0	0	0	0	-0	0	0.105	-0.015	0	0	-0	0	0	-0.098	0.1	0	-0	0	0	0	0	0	-0	0	0.05595	0	0	0	-0	0	0	0	0	0	-0	0	562.509	562.979	348.056	216.488	-0.10658	0.522867	0.00761195	-0.00275491	-1.03994
51	-0.0109175	-0.0210748	0.00606788	0.000149159	-0.0155048	-0.0418287	0.0216635	0.0285805	-0.000480667	-1.69963	0.150459	0.225963	0.0511444	-0.00307492	0.0206592	-2.23428	-0.0125674	-1.57056	0	0	0	0	-0	0	0	0	-0.1265	0	-0	0	0	0	0	0	-0	0	0.105	-0.015	0	0	-0	0	0	-0.098	0.1	0	-0	0	0	0	0	0	-0	0	0.05595	0	0	0	-0	0	0	0	0	0	-0	0	562.512	562.987	348.124	216.511	-0.106691	0.52378	0.00762272	-0.00271988	-1.04213
52	-0.0147778	-0.0210774	0.00606745	0.000147946	-0.0155069	-0.0418281	0.0216634	0.0285805	-0.000480598	-1.69963	0.150457	0.225968	0.051224	-0.00307495	0.0204621	-2.23818	-0.0126431	-1.57059	0	0	0	0	-0	0	0	0	-0.1265	0	-0	0	0	0	0	0	-0	0	0.105	-0.015	0	0	-0	0	0	-0.098	0.1	0	-0	0	0	0	0	0	-0	0	0.05595	0	0	0	-0	0	0	0	0	0	-0	0	562.516	562.994	348.189	216.532	-0.106768	0.524387	0.007634	-0.00268582	-1.04366
53	-0.0172272	-0.0210782	0.00606721	0.000147626	-0.0155075	-0.0418278	0.0216634	0.0285805	-0.000480587	-1.69963	0.150456	0.225971	0.0512737	-0.00307492	0.0203366	-2.24064	-0.0126584	-1.57058	0	0	0	0	-0	0	0	0	-0.1265	0	-0	0	0	0	0	0	-0	0	0.105	-0.015	0	0	-0	0	0	-0.098	0.1	0	-0	0	0	0	0	0	-0	0	0.05595	0	0	0	-0	0	0	0	0	0	-0	0	562.517	562.996	348.202	216.537	-0.106819	0.524572	0.00764076	-0.0026773	-1.04401
54	-0.0191925	-0.0210792	0.00606706	0.000147178	-0.0155083	-0.0418275	0.0216634	0.0285806	-0.000480562	-1.69963	0.150455	0.225973	0.0513135	-0.00307495	0.0202358	-2.24262	-0.01269	-1.57059	0	0	0	0	-0	0	0	0	-0.1265	0	-0	0	0	0	0	0	-0	0	0.105	-0.015	0	0	-0	0	0	-0.098	0.1	0	-0	0	0	0	0	0	-0	0	0.05595	0	0	0	-0	0	0	0	0	0	-0	0	562.518	562.998	348.229	216.546	-0.106862	0.524916	0.00764549	-0.00266351	-1.04483
55	-0.017461	-0.0210807	0.00606684	0.000146487	-0.0155095	-0.0418271	0.0216634	0.0285806	-0.000480524	-1.69962	0.150453	0.225976	0.0512784	-0.00307499	0.0203247	-2.24091	-0.0127374	-1.57066	0	0	0	0	-0	0	0	0	-0.1265	0	-0	0	0	0	0	0	-0	0	0.105	-0.015	0	0	-0	0	0	-0.098	0.1	0	-0	0	0	0	0	0	-0	0	0.05595	0	0	0	-0	0	0	0	0	0	-0	0	562.52	563.001	348.269	216.559	-0.106902	0.525268	0.00765282	-0.00264325	-1.04576
56	-0.0198385	-0.0210815	0.00606667	0.000146064	-0.0155102	-0.0418269	0.0216634	0.0285806	-0.000480502	-1.69962	0.150453	0.225978	0.0513266	-0.00307499	0.0202029	-2.2433	-0.0127603	-1.57065	0	0	0	0	-0	0	0	0	-0.1265	0	-0	0	0	0	0	0	-0	0	0.105	-0.015	0	0	-0	0	0	-0.098	0.1	0	-0	0	0	0	0	0	-0	0	0.05595	0	0	0	-0	0	0	0	0	0	-0	0	562.521	563.003	348.288	216.565	-0.106934	0.52543	0.00765798	-0.00263235	-1.04614
57	-0.0224756	-0.0210822	0.00606654	0.000145836	-0.0155107	-0.0418267	0.0216634	0.0285806	-0.000480491	-1.69962	0.150452	0.225979	0.0513797	-0.00307499	0.0200675	-2.24595	-0.0127774	-1.57064	0	0	0	0	-0	0	0	0	-0.1265	0	-0	0	0	0	0	0	-0	0	0.105	-0.015	0	0	-0	0	0	-0.098	0.1	0	-0	0	0	0	0	0	-0	0	0.05595	0	0	0	-0	0	0	0	0	0	-0	0	562.522	563.005	348.303	216.57	-0.106971	0.525689	0.00766106	-0.00262452	-1.04672
58	-0.0240185	-0.0210834	0.00606637	0.000145381	-0.0155117	-0.0418265	0.0216633	0.0285806	-0.000480462	-1.69962	0.150451	0.225981	0.0514104	-0.00307502	0.0199883	-2.24751	-0.012816	-1.57066	0	0	0	0	-0	0	0	0	-0.1265	0	-0	0	0	0	0	0	-0	0	0.105	-0.015	0	0	-0	0	0	-0.098	0.1	0	-0	0	0	0	0	0	-0	0	0.05595	0	0	0	-0	0	0	0	0	0	-0	0	562.524	563.01	348.335	216.58	-0.107016	0.526123	0.0076644	-0.0026081	-1.04778
59	-0.0218822	-0.0210852	0.00606613	0.000144567	-0.0155132	-0.041826	0.0216633	0.0285806	-0.000480414	-1.69962	0.15045	0.225984	0.0513675	-0.00307504	0.0200984	-2.2454	-0.012873	-1.57074	0	0	0	0	-0	0	0	0	-0.1265	0	-0	0	0	0	0	0	-0	0	0.105	-0.015	0	0	-0	0	0	-0.098	0.1	0	-0	0	0	0	0	0	-0	0	0.05595	0	0	0	-0	0	0	0	0	0	-0	0	562.527	563.016	348.383	216.595	-0.107073	0.526605	0.00767154	-0.00258379	-1.04898
60	-0.0239219	-0.0210862	0.0060659	0.000144106	-0.015514	-0.0418257	0.0216633	0.0285807	-0.000480392	-1.69962	0.150449	0.225986	0.0514083	-0.00307504	0.0199937	-2.24745	-0.0129008	-1.57075	0	0	0	0	-0	0	0	0	-0.1265	0	-0	0	0	0	0	0	-0	0	0.105	-0.015	0	0	-0	0	0	-0.098	0.1	0	-0	0	0	0	0	0	-0	0	0.05595	0	0	0	-0	0	0	0	0	0	-0	0	562.528	563.018	348.406	216.603	-0.107127	0.526916	0.00767758	-0.00257077	-1.04967
61	-0.0203352	-0.021087	0.00606576	0.000143787	-0.0155146	-0.0418255	0.0216633	0.0285807	-0.000480376	-1.69962	0.150448	0.225988	0.0513365	-0.00307505	0.0201781	-2.24387	-0.0129216	-1.57082	0	0	0	0	-0	0	0	0	-0.1265	0	-0	0	0	0	0	0	-0	0	0.105	-0.015	0	0	-0	0	0	-0.098	0.1	0	-0	0	0	0	0	0	-0	0	0.05595	0	0	0	-0	0	0	0	0	0	-0	0	562.529	563.02	348.423	216.608	-0.107168	0.527181	0.00768159	-0.00256142	-1.05027
62	-0.0222994	-0.0210875	0.00606566	0.000143591	-0.015515	-0.0418253	0.0216633	0.0285807	-0.000480368	-1.69962	0.150448	0.22599	0.0513758	-0.00307505	0.0200772	-2.24585	-0.0129371	-1.57081	0	0	0	0	-0	0	0	0	-0.1265	0	-0	0	0	0	0	0	-0	0	0.105	-0.015	0	0	-0	0	0	-0.098	0.1	0	-0	0	0	0	0	0	-0	0	0.05595	0	0	0	-0	0	0	0	0	0	-0	0	562.53	563.021	348.436	216.612	-0.10719	0.527308	0.00768507	-0.00255448	-1.05057
63	-0.0243928	-0.0210885	0.00606552	0.000143122	-0.0155158	-0.0418251	0.0216633	0.0285807	-0.000480339	-1.69962	0.150447	0.225991	0.0514176	-0.00307506	0.0199698	-2.24796	-0.0129716	-1.57081	0	0	0	0	-0	0	0	0	-0.1265	0	-0	0	0	0	0	0	-0	0	0.105	-0.015	0	0	-0	0	0	-0.098	0.1	0	-0	0	0	0	0	0	-0	0	0.05595	0	0	0	-0	0	0	0	0	0	-0	0	562.532	563.025	348.465	216.621	-0.10723	0.527669	0.0076888	-0.00253989	-1.05145
64	-0.0245574	-0.0210901	0.0060653	0.000142438	-0.0155171	-0.0418247	0.0216633	0.0285807	-0.000480299	-1.69962	0.150446	0.225994	0.0514207	-0.00307509	0.0199615	-2.24814	-0.013022	-1.57086	0	0	0	0	-0	0	0	0	-0.1265	0	-0	0	0	0	0	0	-0	0	0.105	-0.015	0	0	-0	0	0	-0.098	0.1	0	-0	0	0	0	0	0	-0	0	0.05595	0	0	0	-0	0	0	0	0	0	-0	0	562.535	563.03	348.507	216.634	-0.107286	0.528153	0.00769431	-0.00251831	-1.05264
65	-0.0231258	-0.0210905	0.00606514	0.000142219	-0.0155175	-0.0418246	0.0216632	0.0285807	-0.00048029	-1.69962	0.150445	0.225995	0.0513921	-0.00307507	0.0200352	-2.24672	-0.0130287	-1.57089	0	0	0	0	-0	0	0	0	-0.1265	0	-0	0	0	0	0	0	-0	0	0.105	-0.015	0	0	-0	0	0	-0.098	0.1	0	-0	0	0	0	0	0	-0	0	0.05595	0	0	0	-0	0	0	0	0	0	-0	0	562.535	563.031	348.513	216.636	-0.107307	0.528174	0.00769807	-0.00251417	-1.05264
66	-0.0247057	-0.021091	0.0060651	0.000142065	-0.0155178	-0.0418245	0.0216632	0.0285807	-0.000480281	-1.69962	0.150445	0.225996	0.0514237	-0.00307508	0.019954	-2.2483	-0.0130429	-1.57088	0	0	0	0	-0	0	0	0	-0.1265	0	-0	0	0	0	0	0	-0	0	0.105	-0.015	0	0	-0	0	0	-0.098	0.1	0	-0	0	0	0	0	0	-0	0	0.05595	0	0	0	-0	0	0	0	0	0	-0	0	562.536	563.032	348.524	216.64	-0.107317	0.528284	0.00769963	-0.00250823	-1.05294
67	-0.0227781	-0.0210916	0.00606501	0.000141754	-0.0155183	-0.0418244	0.0216632	0.0285807	-0.000480262	-1.69962	0.150444	0.225997	0.0513851	-0.00307509	0.0200532	-2.24638	-0.0130636	-1.57093	0	0	0	0	-0	0	0	0	-0.1265	0	-0	0	0	0	0	0	-0	0	0.105	-0.015	0	0	-0	0	0	-0.098	0.1	0	-0	0	0	0	0	0	-0	0	0.05595	0	0	0	-0	0	0	0	0	0	-0	0	562.537	563.034	348.542	216.645	-0.107333	0.528438	0.00770192	-0.00249928	-1.05334
68	-0.0255336	-0.0210926	0.00606485	0.000141388	-0.0155191	-0.0418241	0.0216632	0.0285808	-0.000480243	-1.69962	0.150444	0.225999	0.0514403	-0.00307512	0.0199116	-2.24915	-0.0130947	-1.57093	0	0	0	0	-0	0	0	0	-0.1265	0	-0	0	0	0	0	0	-0	0	0.105	-0.015	0	0	-0	0	0	-0.098	0.1	0	-0	0	0	0	0	0	-0	0	0.05595	0	0	0	-0	0	0	0	0	0	-0	0	562.538	563.037	348.567	216.653	-0.107386	0.528851	0.00770601	-0.00248602	-1.05429
69	-0.022223	-0.0210941	0.00606462	0.000140819	-0.0155203	-0.0418237	0.0216632	0.0285808	-0.00048021	-1.69962	0.150443	0.226001	0.0513741	-0.00307514	0.020082	-2.24586	-0.0131396	-1.57102	0	0	0	0	-0	0	0	0	-0.1265	0	-0	0	0	0	0	0	-0	0	0.105	-0.015	0	0	-0	0	0	-0.098	0.1	0	-0	0	0	0	0	0	-0	0	0.05595	0	0	0	-0	0	0	0	0	0	-0	0	562.541	563.042	348.605	216.664	-0.107455	0.529402	0.00771111	-0.00246653	-1.05558
70	-0.0247565	-0.0210962	0.00606429	0.000139974	-0.0155219	-0.0418231	0.0216632	0.0285808	-0.000480164	-1.69962	0.150441	0.226005	0.0514245	-0.00307517	0.019952	-2.24843	-0.0132056	-1.57105	0	0	0	0	-0	0	0	0	-0.1265	0	-0	0	0	0	0	0	-0	0	0.105	-0.015	0	0	-0	0	0	-0.098	0.1	0	-0	0	0	0	0	0	-0	0	0.05595	0	0	0	-0	0	0	0	0	0	-0	0	562.545	563.049	348.66	216.68	-0.107567	0.530245	0.00771989	-0.0024383	-1.05752
71	-0.0223048	-0.0210973	0.00606407	0.000139392	-0.0155229	-0.0418229	0.0216632	0.0285808	-0.000480132	-1.69962	0.15044	0.226008	0.0513753	-0.00307516	0.0200783	-2.24599	-0.0132373	-1.57112	0	0	0	0	-0	0	0	0	-0.1265	0	-0	0	0	0	0	0	-0	0	0.105	-0.015	0	0	-0	0	0	-0.098	0.1	0	-0	0	0	0	0	0	-0	0	0.05595	0	0	0	-0	0	0	0	0	0	-0	0	562.546	563.052	348.686	216.688	-0.10759	0.530351	0.00772561	-0.0024234	-1.05781
72	-0.0212284	-0.0210995	0.00606376	0.000138528	-0.0155246	-0.0418223	0.0216631	0.0285808	-0.000480083	-1.69962	0.150438	0.226012	0.0513536	-0.00307523	0.0201336	-2.24494	-0.0133064	-1.5712	0	0	0	0	-0	0	0	0	-0.1265	0	-0	0	0	0	0	0	-0	0	0.105	-0.015	0	0	-0	0	0	-0.098	0.1	0	-0	0	0	0	0	0	-0	0	0.05595	0	0	0	-0	0	0	0	0	0	-0	0	562.548	563.057	348.745	216.705	-0.107665	0.531043	0.0077331	-0.00239387	-1.05954
73	-0.0253097	-0.0211009	0.00606349	0.000137877	-0.0155258	-0.041822	0.0216631	0.0285809	-0.000480051	-1.69961	0.150437	0.226015	0.0514358	-0.00307524	0.0199241	-2.24904	-0.0133454	-1.57119	0	0	0	0	-0	0	0	0	-0.1265	0	-0	0	0	0	0	0	-0	0	0.105	-0.015	0	0	-0	0	0	-0.098	0.1	0	-0	0	0	0	0	0	-0	0	0.05595	0	0	0	-0	0	0	0	0	0	-0	0	562.549	563.06	348.776	216.714	-0.107713	0.531296	0.00774099	-0.00237665	-1.06014
74	-0.0294397	-0.0211018	0.00606332	0.000137509	-0.0155265	-0.0418218	0.0216631	0.0285809	-0.000480032	-1.69961	0.150436	0.226017	0.0515176	-0.00307525	0.0197116	-2.25318	-0.0133749	-1.57116	0	0	0	0	-0	0	0	0	-0.1265	0	-0	0	0	0	0	0	-0	0	0.105	-0.015	0	0	-0	0	0	-0.098	0.1	0	-0	0	0	0	0	0	-0	0	0.05595	0	0	0	-0	0	0	0	0	0	-0	0	562.551	563.062	348.799	216.721	-0.107752	0.531541	0.00774567	-0.00236424	-1.06071
75	-0.030921	-0.021102	0.00606325	0.000137398	-0.0155268	-0.0418217	0.0216631	0.0285809	-0.000480029	-1.69961	0.150436	0.226018	0.0515463	-0.00307523	0.0196352	-2.25467	-0.0133812	-1.57115	0	0	0	0	-0	0	0	0	-0.1265	0	-0	0	0	0	0	0	-0	0	0.105	-0.015	0	0	-0	0	0	-0.098	0.1	0	-0	0	0	0	0	0	-0	0	0.05595	0	0	0	-0	0	0	0	0	0	-0	0	562.551	563.063	348.804	216.722	-0.107758	0.531521	0.007748	-0.0023612	-1.06067
76	-0.0332818	-0.0211024	0.00606321	0.000137157	-0.015527	-0.0418216	0.0216631	0.0285809	-0.000480014	-1.69961	0.150435	0.226019	0.0515925	-0.00307524	0.0195136	-2.25703	-0.0133938	-1.57113	0	0	0	0	-0	0	0	0	-0.1265	0	-0	0	0	0	0	0	-0	0	0.105	-0.015	0	0	-0	0	0	-0.098	0.1	0	-0	0	0	0	0	0	-0	0	0.05595	0	0	0	-0	0	0	0	0	0	-0	0	562.552	563.064	348.813	216.725	-0.107766	0.531596	0.00774945	-0.00235622	-1.06087
77	-0.0301914	-0.021103	0.00606311	0.000136961	-0.0155275	-0.0418215	0.0216631	0.0285809	-0.000480003	-1.69961	0.150435	0.22602	0.0515321	-0.00307525	0.019673	-2.25395	-0.0134101	-1.57119	0	0	0	0	-0	0	0	0	-0.1265	0	-0	0	0	0	0	0	-0	0	0.105	-0.015	0	0	-0	0	0	-0.098	0.1	0	-0	0	0	0	0	0	-0	0	0.05595	0	0	0	-0	0	0	0	0	0	-0	0	562.553	563.066	348.828	216.729	-0.107798	0.531855	0.00775122	-0.00234877	-1.06146
78	-0.0287161	-0.0211032	0.00606306	0.000136836	-0.0155277	-0.0418214	0.0216631	0.0285809	-0.000479997	-1.69961	0.150435	0.22602	0.0515028	-0.00307524	0.019749	-2.25248	-0.0134182	-1.57121	0	0	0	0	-0	0	0	0	-0.1265	0	-0	0	0	0	0	0	-0	0	0.105	-0.015	0	0	-0	0	0	-0.098	0.1	0	-0	0	0	0	0	0	-0	0	0.05595	0	0	0	-0	0	0	0	0	0	-0	0	562.553	563.067	348.835	216.731	-0.107805	0.531877	0.0077531	-0.00234479	-1.06152
79	-0.0261993	-0.0211038	0.00606298	0.000136581	-0.0155282	-0.0418213	0.0216631	0.0285809	-0.000479982	-1.69961	0.150434	0.226021	0.051453	-0.00307526	0.0198786	-2.24997	-0.0134363	-1.57127	0	0	0	0	-0	0	0	0	-0.1265	0	-0	0	0	0	0	0	-0	0	0.105	-0.015	0	0	-0	0	0	-0.098	0.1	0	-0	0	0	0	0	0	-0	0	0.05595	0	0	0	-0	0	0	0	0	0	-0	0	562.554	563.068	348.851	216.736	-0.107831	0.532098	0.00775516	-0.00233665	-1.06206
80	-0.0280635	-0.0211047	0.00606283	0.000136227	-0.0155289	-0.041821	0.0216631	0.0285809	-0.000479962	-1.69961	0.150434	0.226023	0.0514898	-0.00307527	0.0197828	-2.25185	-0.0134655	-1.57127	0	0	0	0	-0	0	0	0	-0.1265	0	-0	0	0	0	0	0	-0	0	0.105	-0.015	0	0	-0	0	0	-0.098	0.1	0	-0	0	0	0	0	0	-0	0	0.05595	0	0	0	-0	0	0	0	0	0	-0	0	562.556	563.071	348.874	216.742	-0.107873	0.532428	0.00775847	-0.00232449	-1.06282
81	-0.026374	-0.0211052	0.00606276	0.000135963	-0.0155293	-0.0418209	0.021663	0.0285809	-0.000479948	-1.69961	0.150433	0.226024	0.0514563	-0.00307527	0.0198698	-2.25016	-0.0134788	-1.57131	0	0	0	0	-0	0	0	0	-0.1265	0	-0	0	0	0	0	0	-0	0	0.105	-0.015	0	0	-0	0	0	-0.098	0.1	0	-0	0	0	0	0	0	-0	0	0.05595	0	0	0	-0	0	0	0	0	0	-0	0	562.556	563.072	348.886	216.746	-0.107871	0.532399	0.00776101	-0.0023181	-1.06281
82	-0.0254802	-0.0211054	0.0060627	0.000135901	-0.0155294	-0.0418209	0.021663	0.0285809	-0.000479946	-1.69961	0.150433	0.226024	0.0514385	-0.00307527	0.0199158	-2.24927	-0.0134812	-1.57132	0	0	0	0	-0	0	0	0	-0.1265	0	-0	0	0	0	0	0	-0	0	0.105	-0.015	0	0	-0	0	0	-0.098	0.1	0	-0	0	0	0	0	0	-0	0	0.05595	0	0	0	-0	0	0	0	0	0	-0	0	562.556	563.073	348.888	216.747	-0.107885	0.532458	0.00776223	-0.00231652	-1.06292
83	-0.0244704	-0.0211055	0.00606267	0.000135803	-0.0155296	-0.0418209	0.021663	0.0285809	-0.00047994	-1.69961	0.150433	0.226025	0.0514183	-0.00307527	0.0199677	-2.24826	-0.0134865	-1.57134	0	0	0	0	-0	0	0	0	-0.1265	0	-0	0	0	0	0	0	-0	0	0.105	-0.015	0	0	-0	0	0	-0.098	0.1	0	-0	0	0	0	0	0	-0	0	0.05595	0	0	0	-0	0	0	0	0	0	-0	0	562.557	563.073	348.893	216.748	-0.10789	0.532503	0.00776288	-0.00231401	-1.06303
84	-0.0240274	-0.0211058	0.00606265	0.000135679	-0.0155298	-0.0418208	0.021663	0.0285809	-0.000479933	-1.69961	0.150433	0.226025	0.0514094	-0.00307527	0.0199906	-2.24782	-0.0134951	-1.57136	0	0	0	0	-0	0	0	0	-0.1265	0	-0	0	0	0	0	0	-0	0	0.105	-0.015	0	0	-0	0	0	-0.098	0.1	0	-0	0	0	0	0	0	-0	0	0.05595	0	0	0	-0	0	0	0	0	0	-0	0	562.557	563.074	348.901	216.75	-0.107899	0.532579	0.00776397	-0.00231023	-1.06322
85	-0.0248386	-0.0211063	0.00606256	0.000135534	-0.0155301	-0.0418207	0.021663	0.028581	-0.000479926	-1.69961	0.150432	0.226026	0.0514256	-0.00307528	0.0199489	-2.24864	-0.0135086	-1.57136	0	0	0	0	-0	0	0	0	-0.1265	0	-0	0	0	0	0	0	-0	0	0.105	-0.015	0	0	-0	0	0	-0.098	0.1	0	-0	0	0	0	0	0	-0	0	0.05595	0	0	0	-0	0	0	0	0	0	-0	0	562.558	563.075	348.912	216.753	-0.107932	0.532814	0.00776587	-0.00230457	-1.06374
86	-0.0218138	-0.0211068	0.0060625	0.000135258	-0.0155306	-0.0418205	0.021663	0.028581	-0.00047991	-1.69961	0.150432	0.226027	0.0513651	-0.00307527	0.0201046	-2.24562	-0.0135263	-1.57142	0	0	0	0	-0	0	0	0	-0.1265	0	-0	0	0	0	0	0	-0	0	0.105	-0.015	0	0	-0	0	0	-0.098	0.1	0	-0	0	0	0	0	0	-0	0	0.05595	0	0	0	-0	0	0	0	0	0	-0	0	562.559	563.078	348.928	216.758	-0.107944	0.532921	0.00776817	-0.00229627	-1.06403
87	-0.0224264	-0.0211077	0.00606236	0.000134932	-0.0155313	-0.0418203	0.021663	0.028581	-0.00047989	-1.69961	0.150431	0.226028	0.0513772	-0.0030753	0.0200731	-2.24625	-0.0135551	-1.57144	0	0	0	0	-0	0	0	0	-0.1265	0	-0	0	0	0	0	0	-0	0	0.105	-0.015	0	0	-0	0	0	-0.098	0.1	0	-0	0	0	0	0	0	-0	0	0.05595	0	0	0	-0	0	0	0	0	0	-0	0	562.56	563.081	348.951	216.764	-0.107977	0.533217	0.0077707	-0.00228408	-1.06476
88	-0.0200272	-0.021109	0.00606219	0.000134342	-0.0155324	-0.0418199	0.021663	0.028581	-0.000479858	-1.69961	0.15043	0.226031	0.0513289	-0.00307531	0.0201966	-2.24387	-0.013595	-1.57152	0	0	0	0	-0	0	0	0	-0.1265	0	-0	0	0	0	0	0	-0	0	0.105	-0.015	0	0	-0	0	0	-0.098	0.1	0	-0	0	0	0	0	0	-0	0	0.05595	0	0	0	-0	0	0	0	0	0	-0	0	562.563	563.085	348.986	216.774	-0.108035	0.533657	0.0077762	-0.00226617	-1.0658
89	-0.0187634	-0.0211094	0.00606204	0.0001342	-0.0155327	-0.0418199	0.021663	0.028581	-0.000479854	-1.69961	0.15043	0.226032	0.0513033	-0.0030753	0.0202614	-2.24261	-0.0135996	-1.57154	0	0	0	0	-0	0	0	0	-0.1265	0	-0	0	0	0	0	0	-0	0	0.105	-0.015	0	0	-0	0	0	-0.098	0.1	0	-0	0	0	0	0	0	-0	0	0.05595	0	0	0	-0	0	0	0	0	0	-0	0	562.563	563.085	348.991	216.775	-0.108071	0.533803	0.00777919	-0.00226275	-1.06605
90	-0.0212887	-0.0211097	0.006062	0.000134051	-0.015533	-0.0418198	0.021663	0.028581	-0.000479845	-1.69961	0.150429	0.226033	0.0513544	-0.00307531	0.0201319	-2.24514	-0.013613	-1.57152	0	0	0	0	-0	0	0	0	-0.1265	0	-0	0	0	0	0	0	-0	0	0.105	-0.015	0	0	-0	0	0	-0.098	0.1	0	-0	0	0	0	0	0	-0	0	0.05595	0	0	0	-0	0	0	0	0	0	-0	0	562.564	563.086	349	216.778	-0.108074	0.533841	0.00778063	-0.00225782	-1.06618
91	-0.0181163	-0.0211103	0.00606191	0.000133847	-0.0155334	-0.0418197	0.021663	0.028581	-0.000479833	-1.69961	0.150429	0.226034	0.0512903	-0.00307531	0.0202948	-2.24197	-0.0136278	-1.57158	0	0	0	0	-0	0	0	0	-0.1265	0	-0	0	0	0	0	0	-0	0	0.105	-0.015	0	0	-0	0	0	-0.098	0.1	0	-0	0	0	0	0	0	-0	0	0.05595	0	0	0	-0	0	0	0	0	0	-0	0	562.565	563.088	349.014	216.782	-0.108097	0.534034	0.00778215	-0.00225042	-1.06663
92	-0.0202917	-0.0211106	0.00606186	0.000133699	-0.0155336	-0.0418196	0.021663	0.028581	-0.000479826	-1.69961	0.150429	0.226035	0.0513342	-0.00307531	0.0201832	-2.24415	-0.013638	-1.57156	0	0	0	0	-0	0	0	0	-0.1265	0	-0	0	0	0	0	0	-0	0	0.105	-0.015	0	0	-0	0	0	-0.098	0.1	0	-0	0	0	0	0	0	-0	0	0.05595	0	0	0	-0	0	0	0	0	0	-0	0	562.565	563.089	349.022	216.784	-0.108111	0.534107	0.00778412	-0.00224646	-1.0668
93	-0.0216973	-0.0211108	0.00606182	0.000133618	-0.0155338	-0.0418195	0.021663	0.028581	-0.000479822	-1.69961	0.150429	0.226035	0.0513624	-0.00307531	0.0201111	-2.24556	-0.0136454	-1.57155	0	0	0	0	-0	0	0	0	-0.1265	0	-0	0	0	0	0	0	-0	0	0.105	-0.015	0	0	-0	0	0	-0.098	0.1	0	-0	0	0	0	0	0	-0	0	0.05595	0	0	0	-0	0	0	0	0	0	-0	0	562.566	563.09	349.027	216.786	-0.108119	0.53416	0.00778511	-0.0022436	-1.06693
94	-0.0185007	-0.0211112	0.00606175	0.000133416	-0.0155342	-0.0418194	0.021663	0.028581	-0.000479811	-1.69961	0.150428	0.226036	0.051298	-0.00307532	0.0202753	-2.24237	-0.0136572	-1.57161	0	0	0	0	-0	0	0	0	-0.1265	0	-0	0	0	0	0	0	-0	0	0.105	-0.015	0	0	-0	0	0	-0.098	0.1	0	-0	0	0	0	0	0	-0	0	0.05595	0	0	0	-0	0	0	0	0	0	-0	0	562.567	563.091	349.039	216.789	-0.108149	0.534384	0.00778705	-0.00223749	-1.06743
95	-0.0190663	-0.0211119	0.00606166	0.000133173	-0.0155347	-0.0418192	0.021663	0.028581	-0.000479797	-1.69961	0.150428	0.226037	0.0513092	-0.00307533	0.0202462	-2.24294	-0.0136785	-1.57162	0	0	0	0	-0	0	0	0	-0.1265	0	-0	0	0	0	0	0	-0	0	0.105	-0.015	0	0	-0	0	0	-0.098	0.1	0	-0	0	0	0	0	0	-0	0	0.05595	0	0	0	-0	0	0	0	0	0	-0	0	562.567	563.093	349.056	216.794	-0.108166	0.534549	0.00778919	-0.00222852	-1.06786
96	-0.0161785	-0.0211122	0.00606159	0.000132942	-0.015535	-0.0418191	0.0216629	0.028581	-0.000479786	-1.69961	0.150427	0.226038	0.0512507	-0.00307533	0.0203944	-2.24006	-0.0136865	-1.57167	0	0	0	0	-0	0	0	0	-0.1265	0	-0	0	0	0	0	0	-0	0	0.105	-0.015	0	0	-0	0	0	-0.098	0.1	0	-0	0	0	0	0	0	-0	0	0.05595	0	0	0	-0	0	0	0	0	0	-0	0	562.568	563.094	349.065	216.796	-0.108182	0.534622	0.00779176	-0.00222365	-1.06802
97	-0.0147188	-0.021113	0.00606148	0.000132689	-0.0155356	-0.041819	0.0216629	0.028581	-0.000479771	-1.69961	0.150427	0.226039	0.0512207	-0.00307535	0.0204692	-2.23861	-0.0137081	-1.57171	0	0	0	0	-0	0	0	0	-0.1265	0	-0	0	0	0	0	0	-0	0	0.105	-0.015	0	0	-0	0	0	-0.098	0.1	0	-0	0	0	0	0	0	-0	0	0.05595	0	0	0	-0	0	0	0	0	0	-0	0	562.569	563.096	349.084	216.802	-0.108204	0.534833	0.00779373	-0.00221387	-1.06855
98	-0.0156133	-0.0211131	0.00606141	0.000132585	-0.0155357	-0.0418189	0.0216629	0.0285811	-0.000479767	-1.69961	0.150427	0.22604	0.051239	-0.00307534	0.0204234	-2.2395	-0.013712	-1.57171	0	0	0	0	-0	0	0	0	-0.1265	0	-0	0	0	0	0	0	-0	0	0.105	-0.015	0	0	-0	0	0	-0.098	0.1	0	-0	0	0	0	0	0	-0	0	0.05595	0	0	0	-0	0	0	0	0	0	-0	0	562.569	563.096	349.087	216.802	-0.108219	0.534877	0.00779535	-0.00221196	-1.06862
99	-0.0157041	-0.0211133	0.0060614	0.000132489	-0.0155359	-0.0418189	0.0216629	0.0285811	-0.000479761	-1.69961	0.150426	0.22604	0.0512408	-0.00307534	0.0204188	-2.2396	-0.0137185	-1.57171	0	0	0	0	-0	0	0	0	-0.1265	0	-0	0	0	0	0	0	-0	0	0.105	-0.015	0	0	-0	0	0	-0.098	0.1	0	-0	0	0	0	0	0	-0	0	0.05595	0	0	0	-0	0	0	0	0	0	-0	0	562.569	563.097	349.092	216.804	-0.108217	0.534885	0.007796	-0.00220923	-1.06867
100	-0.0143061	-0.0211136	0.00606136	0.000132357	-0.0155361	-0.0418188	0.0216629	0.0285811	-0.000479753	-1.69961	0.150426	0.226041	0.0512122	-0.00307535	0.0204905	-2.2382	-0.0137268	-1.57174	0	0	0	0	-0	0	0	0	-0.1265	0	-0	0	0	0	0	0	-0	0	0.105	-0.015	0	0	-0	0	0	-0.098	0.1	0	-0	0	0	0	0	0	-0	0	0.05595	0	0	0	-0	0	0	0	0	0	-0	0	562.57	563.098	349.1	216.806	-0.108233	0.535009	0.00779714	-0.00220507	-1.06896
