Stefan210/kinematic_calibration/src/kinematic_calibration/validation/experiments/experiments/impact_noise/bad_precision/larm_noise_9_pixel_rk_true/optimization_intermediate_results.csv
iteration	HeadPitch_offset	HeadYaw_offset	LElbowRoll_offset	LElbowYaw_offset	LShoulderPitch_offset	LShoulderRoll_offset	marker_transform_larm_tx	marker_transform_larm_ty	marker_transform_larm_tz	marker_transform_larm_rr	marker_transform_larm_rp	marker_transform_larm_ry	camera_transform_tx	camera_transform_ty	camera_transform_tz	camera_transform_rr	camera_transform_rp	camera_transform_ry	HeadPitch_transform_tx	HeadPitch_transform_ty	HeadPitch_transform_tz	HeadPitch_transform_rr	HeadPitch_transform_rp	HeadPitch_transform_ry	HeadYaw_transform_tx	HeadYaw_transform_ty	HeadYaw_transform_tz	HeadYaw_transform_rr	HeadYaw_transform_rp	HeadYaw_transform_ry	LElbowRoll_transform_tx	LElbowRoll_transform_ty	LElbowRoll_transform_tz	LElbowRoll_transform_rr	LElbowRoll_transform_rp	LElbowRoll_transform_ry	LElbowYaw_transform_tx	LElbowYaw_transform_ty	LElbowYaw_transform_tz	LElbowYaw_transform_rr	LElbowYaw_transform_rp	LElbowYaw_transform_ry	LShoulderPitch_transform_tx	LShoulderPitch_transform_ty	LShoulderPitch_transform_tz	LShoulderPitch_transform_rr	LShoulderPitch_transform_rp	LShoulderPitch_transform_ry	LShoulderRoll_transform_tx	LShoulderRoll_transform_ty	LShoulderRoll_transform_tz	LShoulderRoll_transform_rr	LShoulderRoll_transform_rp	LShoulderRoll_transform_ry	LWristYaw_transform_tx	LWristYaw_transform_ty	LWristYaw_transform_tz	LWristYaw_transform_rr	LWristYaw_transform_rp	LWristYaw_transform_ry	l_wrist_joint_transform_tx	l_wrist_joint_transform_ty	l_wrist_joint_transform_tz	l_wrist_joint_transform_rr	l_wrist_joint_transform_rp	l_wrist_joint_transform_ry	camera_fx	camera_fy	camera_cx	camera_cy	camera_D0	camera_D1	camera_D2	camera_D3	camera_D4	
0	0.0249164	-0.0307543	0.000853157	4.65819e-06	-0.000318322	-0.00310766	0.05071	0	0.01774	-2.26369	1.66533e-16	-1.5708	545.901	551.038	324.928	201.58	0.0255298	2.61142	-0.0636736	-0.0350419	0.213964
1	-0.0159955	-0.005655	0.0463128	0.0153554	0.0215715	0.0219381	0.0270974	-0.0308986	0.00102552	-1.60832e-05	-0.000328381	-0.00285505	0.0556093	-0.00285716	0.0132356	-2.19825	0.00929788	-1.53363	0	0	0	0	-0	0	0	0	-0.1265	0	-0	0	0	0	0	0	-0	0	0.105	0.015	0	0	-0	0	0	0.098	0.1	0	-0	0	0	0	0	0	-0	0	0.05595	0	0	0	-0	0	0	0	0	0	-0	0	545.901	551.039	324.928	201.581	-0.00651748	2.60191	-0.0895202	0.0202219	0.212066
2	-0.0150479	0.00394168	0.0504828	0.00866868	0.0154451	0.0197389	0.0269377	-0.0312398	0.000483871	5.98889e-05	-0.000262379	-0.00291365	0.0556896	-0.00287264	0.0142907	-2.20235	0.00678484	-1.54551	0	0	0	0	-0	0	0	0	-0.1265	0	-0	0	0	0	0	0	-0	0	0.105	0.015	0	0	-0	0	0	0.098	0.1	0	-0	0	0	0	0	0	-0	0	0.05595	0	0	0	-0	0	0	0	0	0	-0	0	545.909	551.039	324.925	201.593	-0.313876	2.37166	-0.0340721	-0.00979839	0.140385
3	-0.0148473	0.00736313	0.0482156	0.00568081	0.0127654	0.0175502	0.0266237	-0.031226	0.000190777	0.000102762	-0.000250257	-0.00299935	0.0559527	-0.00270313	0.0137778	-2.20294	0.00714763	-1.55084	0	0	0	0	-0	0	0	0	-0.1265	0	-0	0	0	0	0	0	-0	0	0.105	0.015	0	0	-0	0	0	0.098	0.1	0	-0	0	0	0	0	0	-0	0	0.05595	0	0	0	-0	0	0	0	0	0	-0	0	545.923	551.039	324.922	201.606	-0.536814	2.06103	0.00731134	-0.0229609	0.0337143
4	-0.0147231	0.0104785	0.0464662	0.00569576	0.00941092	0.0145846	0.0264074	-0.0311417	0.000111451	0.000122031	-0.00020789	-0.00304901	0.0559577	-0.00279747	0.0136805	-2.20323	0.0069412	-1.55538	0	0	0	0	-0	0	0	0	-0.1265	0	-0	0	0	0	0	0	-0	0	0.105	0.015	0	0	-0	0	0	0.098	0.1	0	-0	0	0	0	0	0	-0	0	0.05595	0	0	0	-0	0	0	0	0	0	-0	0	545.952	551.036	324.915	201.621	-0.585088	1.57731	0.0280265	-0.028122	-0.152648
5	-0.0148356	0.0141428	0.0450442	0.00631266	0.00653758	0.012642	0.0262727	-0.0310466	0.000108354	3.50054e-05	5.92079e-05	-0.00302896	0.0555736	-0.00292414	0.0141333	-2.20381	0.00566804	-1.55953	0	0	0	0	-0	0	0	0	-0.1265	0	-0	0	0	0	0	0	-0	0	0.105	0.015	0	0	-0	0	0	0.098	0.1	0	-0	0	0	0	0	0	-0	0	0.05595	0	0	0	-0	0	0	0	0	0	-0	0	545.998	551.029	324.906	201.629	-0.50985	1.01087	0.0350595	-0.0306673	-0.395909
6	-0.0150927	0.0174781	0.0437448	0.00661667	0.00420569	0.0116476	0.026181	-0.0309627	9.5933e-05	0.000435337	-7.15475e-05	-0.00351499	0.0552554	-0.00298886	0.0145856	-2.20432	0.00394633	-1.56276	0	0	0	0	-0	0	0	0	-0.1265	0	-0	0	0	0	0	0	-0	0	0.105	0.015	0	0	-0	0	0	0.098	0.1	0	-0	0	0	0	0	0	-0	0	0.05595	0	0	0	-0	0	0	0	0	0	-0	0	546.063	551.021	324.901	201.629	-0.426675	0.59457	0.0360701	-0.0324544	-0.61026
7	-0.0136926	0.0200371	0.0427984	0.00651318	0.00251626	0.0111967	0.026125	-0.0309079	5.46977e-05	0.00145182	-0.00162054	-0.00217824	0.0551197	-0.00300365	0.0149078	-2.20294	0.00237046	-1.56517	0	0	0	0	-0	0	0	0	-0.1265	0	-0	0	0	0	0	0	-0	0	0.105	0.015	0	0	-0	0	0	0.098	0.1	0	-0	0	0	0	0	0	-0	0	0.05595	0	0	0	-0	0	0	0	0	0	-0	0	546.185	551.031	324.896	201.64	-0.392118	0.425543	0.0359689	-0.0338198	-0.665865
8	-0.020285	0.0210409	0.0423315	0.00612455	0.00185458	0.0110866	0.0261034	-0.0308832	2.17103e-06	-0.00242649	-0.000643986	0.00124314	0.0551305	-0.00297761	0.0147217	-2.21003	0.00166813	-1.56627	0	0	0	0	-0	0	0	0	-0.1265	0	-0	0	0	0	0	0	-0	0	0.105	0.015	0	0	-0	0	0	0.098	0.1	0	-0	0	0	0	0	0	-0	0	0.05595	0	0	0	-0	0	0	0	0	0	-0	0	546.523	551.105	324.89	201.714	-0.375578	0.287077	0.0368297	-0.0346119	-0.458084
9	-0.0277894	0.0215385	0.0420201	0.00570127	0.00154538	0.0110825	0.0260915	-0.0308665	-4.20361e-05	-0.00525872	0.000518158	0.00565467	0.0550686	-0.00294874	0.0145583	-2.21854	0.00136376	-1.56674	0	0	0	0	-0	0	0	0	-0.1265	0	-0	0	0	0	0	0	-0	0	0.105	0.015	0	0	-0	0	0	0.098	0.1	0	-0	0	0	0	0	0	-0	0	0.05595	0	0	0	-0	0	0	0	0	0	-0	0	547.336	551.427	324.799	201.949	-0.354328	0.0578595	0.0384603	-0.0351133	0.0601229
10	-0.0360292	0.0218134	0.0417897	0.00536521	0.001364	0.0111061	0.0260877	-0.0308619	-7.18645e-05	-0.0187722	0.00723686	0.0237198	0.0550516	-0.00292187	0.0142992	-2.22763	0.00132615	-1.56683	0	0	0	0	-0	0	0	0	-0.1265	0	-0	0	0	0	0	0	-0	0	0.105	0.015	0	0	-0	0	0	0.098	0.1	0	-0	0	0	0	0	0	-0	0	0.05595	0	0	0	-0	0	0	0	0	0	-0	0	548.038	551.791	324.6	202.165	-0.336882	-0.125977	0.0395656	-0.0354372	0.487943
11	-0.0365241	0.0219506	0.0416223	0.00515716	0.00125806	0.0111469	0.0260837	-0.0308515	-9.78668e-05	-0.0127926	0.00447816	0.0134208	0.0549989	-0.00289768	0.0143615	-2.2285	0.00126403	-1.5669	0	0	0	0	-0	0	0	0	-0.1265	0	-0	0	0	0	0	0	-0	0	0.105	0.015	0	0	-0	0	0	0.098	0.1	0	-0	0	0	0	0	0	-0	0	0.05595	0	0	0	-0	0	0	0	0	0	-0	0	548.32	551.951	324.488	202.247	-0.326748	-0.215497	0.0399547	-0.0356321	0.678779
12	-0.0402555	0.0220893	0.0414707	0.00498752	0.00117459	0.011179	0.0260924	-0.0308597	-0.000115167	-0.0368453	-0.0150191	0.00113402	0.0549133	-0.00288161	0.0143386	-2.23324	0.00181255	-1.56635	0	0	0	0	-0	0	0	0	-0.1265	0	-0	0	0	0	0	0	-0	0	0.105	0.015	0	0	-0	0	0	0.098	0.1	0	-0	0	0	0	0	0	-0	0	0.05595	0	0	0	-0	0	0	0	0	0	-0	0	549.223	552.623	323.931	202.567	-0.312464	-0.38033	0.0407384	-0.0358372	1.10088
13	-0.0411488	0.0223419	0.0413412	0.00489783	0.00111381	0.0111649	0.0260855	-0.0308465	-0.000120391	-0.043016	-0.0316828	-0.0131077	0.0547914	-0.00287419	0.0144609	-2.23526	0.00299732	-1.56532	0	0	0	0	-0	0	0	0	-0.1265	0	-0	0	0	0	0	0	-0	0	0.105	0.015	0	0	-0	0	0	0.098	0.1	0	-0	0	0	0	0	0	-0	0	0.05595	0	0	0	-0	0	0	0	0	0	-0	0	550.321	553.616	322.876	202.953	-0.304216	-0.498874	0.0412469	-0.0360225	1.44201
14	-0.0404124	0.0224852	0.0412701	0.00480503	0.00104046	0.0111892	0.0260776	-0.0308394	-0.000130994	-0.0341493	-0.0209393	-0.0131945	0.0547453	-0.00286011	0.0145601	-2.2348	0.00312592	-1.56526	0	0	0	0	-0	0	0	0	-0.1265	0	-0	0	0	0	0	0	-0	0	0.105	0.015	0	0	-0	0	0	0.098	0.1	0	-0	0	0	0	0	0	-0	0	0.05595	0	0	0	-0	0	0	0	0	0	-0	0	550.535	553.813	322.654	203.023	-0.297527	-0.557052	0.0413477	-0.03611	1.57602
15	-0.0263785	0.0225626	0.0411905	0.00474138	0.00100046	0.0112287	0.02607	-0.0308366	-0.000134752	-0.0543886	-0.0143637	-0.00829049	0.0544533	-0.00285096	0.0154466	-2.2216	0.0041529	-1.5641	0	0	0	0	-0	0	0	0	-0.1265	0	-0	0	0	0	0	0	-0	0	0.105	0.015	0	0	-0	0	0	0.098	0.1	0	-0	0	0	0	0	0	-0	0	0.05595	0	0	0	-0	0	0	0	0	0	-0	0	551.31	554.559	321.7	203.318	-0.287363	-0.670259	0.0414295	-0.0361984	1.8881
16	-0.0309499	0.0225721	0.0411567	0.00456707	0.000940099	0.0112499	0.0260707	-0.0308319	-0.000152289	-0.04989	-0.0021748	-0.00686026	0.0544745	-0.00284249	0.0152634	-2.22645	0.00442005	-1.56376	0	0	0	0	-0	0	0	0	-0.1265	0	-0	0	0	0	0	0	-0	0	0.105	0.015	0	0	-0	0	0	0.098	0.1	0	-0	0	0	0	0	0	-0	0	0.05595	0	0	0	-0	0	0	0	0	0	-0	0	551.533	554.767	321.421	203.4	-0.277656	-0.733584	0.0412302	-0.0362078	2.02396
17	-0.0404637	0.0225956	0.0410962	0.00448799	0.000895145	0.0112767	0.0260682	-0.0308292	-0.000160965	-0.0428816	-0.00412854	0.00193818	0.0545773	-0.00283271	0.0148051	-2.23632	0.00491142	-1.56334	0	0	0	0	-0	0	0	0	-0.1265	0	-0	0	0	0	0	0	-0	0	0.105	0.015	0	0	-0	0	0	0.098	0.1	0	-0	0	0	0	0	0	-0	0	0.05595	0	0	0	-0	0	0	0	0	0	-0	0	551.816	555.05	321.023	203.512	-0.269137	-0.807493	0.0411675	-0.0362566	2.21096
18	-0.0284009	0.0226208	0.0410381	0.00441397	0.000862662	0.0112994	0.0260718	-0.0308267	-0.000165259	-0.0386701	0.0145809	0.00811855	0.054344	-0.00282612	0.0155359	-2.22473	0.00554477	-1.56252	0	0	0	0	-0	0	0	0	-0.1265	0	-0	0	0	0	0	0	-0	0	0.105	0.015	0	0	-0	0	0	0.098	0.1	0	-0	0	0	0	0	0	-0	0	0.05595	0	0	0	-0	0	0	0	0	0	-0	0	552.22	555.456	320.399	203.677	-0.25915	-0.898193	0.0410596	-0.036297	2.45069
19	-0.0351246	0.022689	0.0409815	0.00437389	0.000837001	0.0113116	0.0260655	-0.0308297	-0.000154693	-0.00766341	-0.0133362	-0.00789249	0.0543821	-0.00282233	0.01525	-2.23207	0.00678543	-1.56139	0	0	0	0	-0	0	0	0	-0.1265	0	-0	0	0	0	0	0	-0	0	0.105	0.015	0	0	-0	0	0	0.098	0.1	0	-0	0	0	0	0	0	-0	0	0.05595	0	0	0	-0	0	0	0	0	0	-0	0	552.77	556.02	319.409	203.909	-0.248083	-1.0097	0.0409202	-0.0363472	2.7672
20	-0.0204731	0.022699	0.0408924	0.00454827	0.000810874	0.0113714	0.0260682	-0.0308165	-0.000142105	-0.00889674	-0.00483124	-0.000177835	0.0541241	-0.00281636	0.0161034	-2.21803	0.008012	-1.55997	0	0	0	0	-0	0	0	0	-0.1265	0	-0	0	0	0	0	0	-0	0	0.105	0.015	0	0	-0	0	0	0.098	0.1	0	-0	0	0	0	0	0	-0	0	0.05595	0	0	0	-0	0	0	0	0	0	-0	0	553.297	556.544	318.327	204.141	-0.238104	-1.13639	0.040989	-0.0364054	3.14232
21	-0.0323143	0.022726	0.0408698	0.00444358	0.000776463	0.0113831	0.0260678	-0.0308139	-0.000153419	-0.00621995	0.00633804	0.00196876	0.0542711	-0.00281336	0.0155103	-2.23012	0.00866686	-1.55948	0	0	0	0	-0	0	0	0	-0.1265	0	-0	0	0	0	0	0	-0	0	0.105	0.015	0	0	-0	0	0	0.098	0.1	0	-0	0	0	0	0	0	-0	0	0.05595	0	0	0	-0	0	0	0	0	0	-0	0	553.518	556.763	317.854	204.232	-0.227911	-1.21895	0.0407858	-0.0364171	3.35494
22	-0.0240188	0.0227547	0.0408333	0.00439611	0.000752068	0.0113952	0.0260689	-0.030815	-0.000158406	-0.0138702	-0.00143809	0.0142514	0.0540984	-0.00280965	0.0160141	-2.22217	0.00936328	-1.55859	0	0	0	0	-0	0	0	0	-0.1265	0	-0	0	0	0	0	0	-0	0	0.105	0.015	0	0	-0	0	0	0.098	0.1	0	-0	0	0	0	0	0	-0	0	0.05595	0	0	0	-0	0	0	0	0	0	-0	0	553.809	557.045	317.181	204.354	-0.216733	-1.32201	0.0406439	-0.0364353	3.6383
23	-0.0473077	0.0228177	0.0407886	0.0043912	0.000735178	0.011405	0.0260692	-0.0308106	-0.00015904	-0.0108614	0.0125274	0.0061145	0.0544195	-0.00280762	0.0148168	-2.24591	0.0109228	-1.55757	0	0	0	0	-0	0	0	0	-0.1265	0	-0	0	0	0	0	0	-0	0	0.105	0.015	0	0	-0	0	0	0.098	0.1	0	-0	0	0	0	0	0	-0	0	0.05595	0	0	0	-0	0	0	0	0	0	-0	0	554.216	557.429	316.126	204.522	-0.203053	-1.45897	0.0405113	-0.03645	4.03356
24	-0.036814	0.0228733	0.0407806	0.00424583	0.000703382	0.0113959	0.0260709	-0.0308172	-0.000167944	-0.00485458	0.0110089	-0.0177059	0.0541991	-0.0028081	0.0154599	-2.23575	0.0117748	-1.55646	0	0	0	0	-0	0	0	0	-0.1265	0	-0	0	0	0	0	0	-0	0	0.105	0.015	0	0	-0	0	0	0.098	0.1	0	-0	0	0	0	0	0	-0	0	0.05595	0	0	0	-0	0	0	0	0	0	-0	0	554.525	557.707	315.289	204.641	-0.187985	-1.58559	0.0402508	-0.0364396	4.37912
25	-0.0244802	0.0229727	0.040727	0.00430854	0.000680106	0.0114053	0.0260779	-0.0308154	-0.000160447	0.0118755	0.0345964	-0.0150612	0.0539599	-0.00280591	0.0161902	-2.22386	0.0131952	-1.5548	0	0	0	0	-0	0	0	0	-0.1265	0	-0	0	0	0	0	0	-0	0	0.105	0.015	0	0	-0	0	0	0.098	0.1	0	-0	0	0	0	0	0	-0	0	0.05595	0	0	0	-0	0	0	0	0	0	-0	0	554.941	558.074	313.972	204.795	-0.171928	-1.75741	0.0401871	-0.036448	4.89283
26	-0.00975812	0.0231404	0.0406845	0.00433111	0.000649649	0.0113997	0.0260777	-0.0308157	-0.000154028	0.000470294	0.0184826	-0.0380302	0.0536769	-0.00280329	0.0170362	-2.2094	0.0141849	-1.55348	0	0	0	0	-0	0	0	0	-0.1265	0	-0	0	0	0	0	0	-0	0	0.105	0.015	0	0	-0	0	0	0.098	0.1	0	-0	0	0	0	0	0	-0	0	0.05595	0	0	0	-0	0	0	0	0	0	-0	0	555.23	558.331	312.914	204.881	-0.157077	-1.91399	0.0401374	-0.0364584	5.361
27	-0.0152743	0.0232648	0.0406364	0.00444421	0.000661094	0.0114191	0.0260728	-0.0308046	-0.000140498	-0.00944971	0.00270543	-0.0488166	0.0537068	-0.00280409	0.0168084	-2.21532	0.017294	-1.55055	0	0	0	0	-0	0	0	0	-0.1265	0	-0	0	0	0	0	0	-0	0	0.105	0.015	0	0	-0	0	0	0.098	0.1	0	-0	0	0	0	0	0	-0	0	0.05595	0	0	0	-0	0	0	0	0	0	-0	0	555.812	558.776	310.428	205.023	-0.128756	-2.21291	0.0398731	-0.0364078	6.2719
28	-0.00715109	0.0233352	0.040564	0.00460336	0.000664627	0.0114756	0.0260914	-0.0308159	-0.000117369	-0.00575098	0.0121465	-0.00722284	0.053519	-0.00280111	0.0173136	-2.20748	0.0203822	-1.54712	0	0	0	0	-0	0	0	0	-0.1265	0	-0	0	0	0	0	0	-0	0	0.105	0.015	0	0	-0	0	0	0.098	0.1	0	-0	0	0	0	0	0	-0	0	0.05595	0	0	0	-0	0	0	0	0	0	-0	0	556.3	559.074	307.749	205.106	-0.0906384	-2.61885	0.0396564	-0.0363347	7.50454
29	0.0143232	0.023383	0.0405062	0.00488571	0.000698616	0.0114486	0.0260793	-0.0307988	-8.16074e-05	0.0179992	0.0127866	-0.022337	0.0531126	-0.00282269	0.0184982	-2.18604	0.0226795	-1.54383	0	0	0	0	-0	0	0	0	-0.1265	0	-0	0	0	0	0	0	-0	0	0.105	0.015	0	0	-0	0	0	0.098	0.1	0	-0	0	0	0	0	0	-0	0	0.05595	0	0	0	-0	0	0	0	0	0	-0	0	556.583	559.221	305.521	205.097	-0.0540494	-3.01072	0.0393523	-0.0362848	8.71892
30	0.0124414	0.023418	0.040515	0.00478943	0.000654281	0.011459	0.0260744	-0.030783	-8.99534e-05	0.00628432	0.00337977	-0.02494	0.0531016	-0.00281522	0.018449	-2.18794	0.0237551	-1.54262	0	0	0	0	-0	0	0	0	-0.1265	0	-0	0	0	0	0	0	-0	0	0.105	0.015	0	0	-0	0	0	0.098	0.1	0	-0	0	0	0	0	0	-0	0	0.05595	0	0	0	-0	0	0	0	0	0	-0	0	556.709	559.277	304.536	205.068	-0.0309943	-3.23103	0.0391193	-0.0362284	9.36496
31	-0.0228148	0.0233596	0.0404047	0.00495248	0.000689746	0.0115521	0.0260735	-0.0307776	-6.0368e-05	-0.0225845	0.0148769	-0.00575245	0.0536877	-0.00280673	0.016651	-2.22305	0.0296392	-1.53822	0	0	0	0	-0	0	0	0	-0.1265	0	-0	0	0	0	0	0	-0	0	0.105	0.015	0	0	-0	0	0	0.098	0.1	0	-0	0	0	0	0	0	-0	0	0.05595	0	0	0	-0	0	0	0	0	0	-0	0	557.013	559.278	300.466	204.963	0.0448871	-3.98923	0.0381992	-0.0360583	11.6626
32	-0.0542317	0.0231972	0.0403372	0.00486464	0.000702278	0.0115777	0.0261205	-0.0307771	-5.45821e-05	-0.00771443	0.0618484	0.0219897	0.0540893	-0.00281063	0.0150859	-2.25415	0.0360429	-1.53363	0	0	0	0	-0	0	0	0	-0.1265	0	-0	0	0	0	0	0	-0	0	0.105	0.015	0	0	-0	0	0	0.098	0.1	0	-0	0	0	0	0	0	-0	0	0.05595	0	0	0	-0	0	0	0	0	0	-0	0	557.179	559.081	296.179	204.766	0.145706	-4.957	0.0367972	-0.0359834	14.5863
33	-0.0473192	0.0231493	0.0402937	0.00495815	0.000707802	0.0113916	0.0260888	-0.030755	-4.36167e-05	0.000974384	0.076057	0.024351	0.053961	-0.00284039	0.0154591	-2.24703	0.0372537	-1.53219	0	0	0	0	-0	0	0	0	-0.1265	0	-0	0	0	0	0	0	-0	0	0.105	0.015	0	0	-0	0	0	0.098	0.1	0	-0	0	0	0	0	0	-0	0	0.05595	0	0	0	-0	0	0	0	0	0	-0	0	557.129	559.041	295.239	204.654	0.172127	-5.21872	0.0362526	-0.0362381	15.4189
34	-0.0816102	0.0231204	0.0401391	0.00503134	0.000746794	0.0114431	0.0260777	-0.0307481	-3.51419e-05	0.027512	0.0848764	0.0331451	0.0544432	-0.00281919	0.0136672	-2.2808	0.042948	-1.52929	0	0	0	0	-0	0	0	0	-0.1265	0	-0	0	0	0	0	0	-0	0	0.105	0.015	0	0	-0	0	0	0.098	0.1	0	-0	0	0	0	0	0	-0	0	0.05595	0	0	0	-0	0	0	0	0	0	-0	0	556.806	558.716	291.746	204.347	0.274919	-6.19452	0.0344595	-0.0363086	18.3252
35	-0.0544205	0.0229575	0.0401841	0.0046556	0.000735735	0.0113766	0.0260922	-0.0307548	-6.57052e-05	0.0536134	0.114552	0.0257949	0.0539678	-0.00282443	0.015262	-2.25333	0.0439003	-1.52589	0	0	0	0	-0	0	0	0	-0.1265	0	-0	0	0	0	0	0	-0	0	0.105	0.015	0	0	-0	0	0	0.098	0.1	0	-0	0	0	0	0	0	-0	0	0.05595	0	0	0	-0	0	0	0	0	0	-0	0	556.69	558.495	290.083	204.143	0.342368	-6.77263	0.0331914	-0.0365601	19.9803
36	-0.037351	0.022793	0.0402229	0.00453437	0.000755994	0.0112293	0.0260753	-0.0307443	-6.91732e-05	0.0317082	0.108889	0.0203499	0.0536372	-0.00284858	0.0162442	-2.23608	0.0446771	-1.52339	0	0	0	0	-0	0	0	0	-0.1265	0	-0	0	0	0	0	0	-0	0	0.105	0.015	0	0	-0	0	0	0.098	0.1	0	-0	0	0	0	0	0	-0	0	0.05595	0	0	0	-0	0	0	0	0	0	-0	0	556.549	558.303	288.91	204.002	0.392162	-7.19772	0.0321374	-0.0368649	21.2107
37	-0.0615924	0.0227037	0.0401487	0.0044095	0.000750804	0.0112403	0.0260728	-0.0307411	-7.61597e-05	0.0547456	0.118157	0.0384166	0.053975	-0.00283532	0.0150166	-2.26022	0.0476014	-1.52253	0	0	0	0	-0	0	0	0	-0.1265	0	-0	0	0	0	0	0	-0	0	0.105	0.015	0	0	-0	0	0	0.098	0.1	0	-0	0	0	0	0	0	-0	0	0.05595	0	0	0	-0	0	0	0	0	0	-0	0	556.274	557.989	287.414	203.878	0.458444	-7.79444	0.0311351	-0.0371549	22.9251
38	-0.0651766	0.0225652	0.0400936	0.00428724	0.000779136	0.0112377	0.0260682	-0.0307499	-6.71677e-05	0.0914533	0.11108	0.0194617	0.053962	-0.00283307	0.0149017	-2.26383	0.0494824	-1.52089	0	0	0	0	-0	0	0	0	-0.1265	0	-0	0	0	0	0	0	-0	0	0.105	0.015	0	0	-0	0	0	0.098	0.1	0	-0	0	0	0	0	0	-0	0	0.05595	0	0	0	-0	0	0	0	0	0	-0	0	555.948	557.6	286.076	203.847	0.528521	-8.41211	0.0300503	-0.0375326	24.6888
39	-0.0593845	0.0224434	0.0399268	0.00440468	0.000830414	0.0113114	0.0260649	-0.0307288	-6.13002e-05	0.0640136	0.110557	0.0103728	0.0538639	-0.00281544	0.0152428	-2.25849	0.0510354	-1.51879	0	0	0	0	-0	0	0	0	-0.1265	0	-0	0	0	0	0	0	-0	0	0.105	0.015	0	0	-0	0	0	0.098	0.1	0	-0	0	0	0	0	0	-0	0	0.05595	0	0	0	-0	0	0	0	0	0	-0	0	555.294	557.005	284.657	204.076	0.612674	-9.18644	0.0288441	-0.038001	26.9384
40	-0.0630969	0.022299	0.0399055	0.00433804	0.000886041	0.0113586	0.0260711	-0.0307173	-6.14904e-05	0.0678291	0.125366	0.0232147	0.0538876	-0.00280772	0.0150923	-2.26249	0.0518259	-1.51822	0	0	0	0	-0	0	0	0	-0.1265	0	-0	0	0	0	0	0	-0	0	0.105	0.015	0	0	-0	0	0	0.098	0.1	0	-0	0	0	0	0	0	-0	0	0.05595	0	0	0	-0	0	0	0	0	0	-0	0	555.061	556.728	284.178	204.194	0.653766	-9.52372	0.0281859	-0.0383226	27.8602
41	-0.0472991	0.0221737	0.0398513	0.00435816	0.000945625	0.0114395	0.0260722	-0.0307093	-5.94207e-05	0.0677498	0.141093	0.0194437	0.0536336	-0.00279664	0.0159722	-2.24718	0.0516545	-1.51665	0	0	0	0	-0	0	0	0	-0.1265	0	-0	0	0	0	0	0	-0	0	0.105	0.015	0	0	-0	0	0	0.098	0.1	0	-0	0	0	0	0	0	-0	0	0.05595	0	0	0	-0	0	0	0	0	0	-0	0	554.721	556.357	283.663	204.444	0.700076	-9.93621	0.0275401	-0.0386461	29.0441
42	-0.036298	0.0220554	0.0398792	0.00428219	0.000988508	0.011494	0.0260734	-0.0307119	-6.47071e-05	0.0590659	0.134931	0.0157081	0.0534281	-0.00279188	0.0165997	-2.23644	0.0512739	-1.51568	0	0	0	0	-0	0	0	0	-0.1265	0	-0	0	0	0	0	0	-0	0	0.105	0.015	0	0	-0	0	0	0.098	0.1	0	-0	0	0	0	0	0	-0	0	0.05595	0	0	0	-0	0	0	0	0	0	-0	0	554.614	556.186	283.466	204.554	0.723572	-10.1191	0.0271314	-0.0388441	29.5348
43	-0.0657897	0.0219152	0.0398607	0.00428872	0.00107073	0.0115649	0.026074	-0.0307194	-6.66878e-05	0.0847727	0.131707	0.0258371	0.053903	-0.0027866	0.0150394	-2.26703	0.0535648	-1.51639	0	0	0	0	-0	0	0	0	-0.1265	0	-0	0	0	0	0	0	-0	0	0.105	0.015	0	0	-0	0	0	0.098	0.1	0	-0	0	0	0	0	0	-0	0	0.05595	0	0	0	-0	0	0	0	0	0	-0	0	554.122	555.574	282.936	205.176	0.781296	-10.6938	0.0267062	-0.0392009	31.3034
44	-0.0848751	0.02178	0.039981	0.0041221	0.00113061	0.0115629	0.0260887	-0.0307261	-7.86685e-05	0.0703882	0.112028	0.018967	0.0541281	-0.00279813	0.0140698	-2.28673	0.0548741	-1.51692	0	0	0	0	-0	0	0	0	-0.1265	0	-0	0	0	0	0	0	-0	0	0.105	0.015	0	0	-0	0	0	0.098	0.1	0	-0	0	0	0	0	0	-0	0	0.05595	0	0	0	-0	0	0	0	0	0	-0	0	553.982	555.204	282.711	205.496	0.813243	-10.9879	0.026573	-0.039434	32.1989
45	-0.0858909	0.0216946	0.0399731	0.00414792	0.00115062	0.011558	0.0260845	-0.0307223	-7.47768e-05	0.0841837	0.113362	0.0262337	0.0541294	-0.00280208	0.0140276	-2.28806	0.0551133	-1.51674	0	0	0	0	-0	0	0	0	-0.1265	0	-0	0	0	0	0	0	-0	0	0.105	0.015	0	0	-0	0	0	0.098	0.1	0	-0	0	0	0	0	0	-0	0	0.05595	0	0	0	-0	0	0	0	0	0	-0	0	553.897	555.064	282.617	205.641	0.826753	-11.1085	0.0264618	-0.0396253	32.5583
46	-0.0716745	0.0216349	0.0399134	0.00423184	0.00123021	0.0116312	0.026079	-0.0307456	-6.42782e-05	0.0360914	0.122892	0.0224757	0.0539485	-0.00279344	0.0147685	-2.27498	0.0547146	-1.51562	0	0	0	0	-0	0	0	0	-0.1265	0	-0	0	0	0	0	0	-0	0	0.105	0.015	0	0	-0	0	0	0.098	0.1	0	-0	0	0	0	0	0	-0	0	0.05595	0	0	0	-0	0	0	0	0	0	-0	0	553.475	554.558	282.364	206.313	0.862523	-11.5168	0.0265042	-0.0398428	33.8981
47	-0.0731553	0.0216145	0.0399005	0.00424918	0.00125504	0.011661	0.0260858	-0.0307236	-6.4183e-05	0.0396699	0.122129	0.0328234	0.0539591	-0.00279283	0.0146995	-2.27666	0.0548422	-1.5156	0	0	0	0	-0	0	0	0	-0.1265	0	-0	0	0	0	0	0	-0	0	0.105	0.015	0	0	-0	0	0	0.098	0.1	0	-0	0	0	0	0	0	-0	0	0.05595	0	0	0	-0	0	0	0	0	0	-0	0	553.428	554.477	282.32	206.41	0.868798	-11.5768	0.0265648	-0.039887	34.0822
48	-0.0858286	0.021603	0.039846	0.0043011	0.00130575	0.0117211	0.026094	-0.0307241	-6.37869e-05	0.0387936	0.132125	0.00951502	0.0541598	-0.00278586	0.0139909	-2.29001	0.0557014	-1.51617	0	0	0	0	-0	0	0	0	-0.1265	0	-0	0	0	0	0	0	-0	0	0.105	0.015	0	0	-0	0	0	0.098	0.1	0	-0	0	0	0	0	0	-0	0	0.05595	0	0	0	-0	0	0	0	0	0	-0	0	553.176	554.177	282.21	206.821	0.887266	-11.7953	0.026646	-0.0400104	34.8076
49	-0.0866034	0.021565	0.0398443	0.00432793	0.00134894	0.0117185	0.026091	-0.0307193	-5.58452e-05	0.0319846	0.136687	0.0211854	0.0541669	-0.00279296	0.013942	-2.29112	0.0558792	-1.51606	0	0	0	0	-0	0	0	0	-0.1265	0	-0	0	0	0	0	0	-0	0	0.105	0.015	0	0	-0	0	0	0.098	0.1	0	-0	0	0	0	0	0	-0	0	0.05595	0	0	0	-0	0	0	0	0	0	-0	0	553.052	554.021	282.155	207.031	0.898324	-11.906	0.0265538	-0.0401476	35.1642
50	-0.0889757	0.0215113	0.0398056	0.00442119	0.00143292	0.0117933	0.0260993	-0.0307278	-5.02695e-05	0.0130424	0.125823	0.00019318	0.0542477	-0.0027842	0.0137416	-2.29502	0.0562539	-1.51599	0	0	0	0	-0	0	0	0	-0.1265	0	-0	0	0	0	0	0	-0	0	0.105	0.015	0	0	-0	0	0	0.098	0.1	0	-0	0	0	0	0	0	-0	0	0.05595	0	0	0	-0	0	0	0	0	0	-0	0	552.479	553.417	282.019	207.972	0.933209	-12.3358	0.0265847	-0.0403589	36.646
51	-0.0858784	0.0214984	0.0397727	0.00449904	0.00146932	0.0118104	0.0260947	-0.030717	-4.00518e-05	0.0210162	0.12994	-0.00522063	0.054207	-0.00278767	0.0139046	-2.29215	0.056176	-1.51573	0	0	0	0	-0	0	0	0	-0.1265	0	-0	0	0	0	0	0	-0	0	0.105	0.015	0	0	-0	0	0	0.098	0.1	0	-0	0	0	0	0	0	-0	0	0.05595	0	0	0	-0	0	0	0	0	0	-0	0	552.388	553.332	281.991	208.109	0.940269	-12.4005	0.0264956	-0.0404725	36.8475
52	-0.0767541	0.0214831	0.0397487	0.00453887	0.00152312	0.0118814	0.0260945	-0.0307201	-3.31122e-05	0.0390609	0.125613	-0.0176098	0.0541083	-0.00277897	0.0143576	-2.28392	0.05578	-1.51513	0	0	0	0	-0	0	0	0	-0.1265	0	-0	0	0	0	0	0	-0	0	0.105	0.015	0	0	-0	0	0	0.098	0.1	0	-0	0	0	0	0	0	-0	0	0.05595	0	0	0	-0	0	0	0	0	0	-0	0	552.048	552.99	281.917	208.66	0.959749	-12.6358	0.0264711	-0.0405843	37.6575
53	-0.0763047	0.0214925	0.0397063	0.00456387	0.00154396	0.0119396	0.0260943	-0.0307137	-3.4047e-05	0.0340734	0.11778	-0.0119562	0.0541067	-0.00277187	0.014374	-2.28374	0.0557729	-1.51508	0	0	0	0	-0	0	0	0	-0.1265	0	-0	0	0	0	0	0	-0	0	0.105	0.015	0	0	-0	0	0	0.098	0.1	0	-0	0	0	0	0	0	-0	0	0.05595	0	0	0	-0	0	0	0	0	0	-0	0	551.947	552.894	281.896	208.818	0.965782	-12.7038	0.0265026	-0.0406287	37.8769
54	-0.0555461	0.0214545	0.039697	0.00461525	0.00160561	0.0120007	0.0260904	-0.0307361	-2.16402e-05	0.0773276	0.105325	-0.0215833	0.0538396	-0.00276791	0.0154486	-2.26398	0.0547224	-1.51381	0	0	0	0	-0	0	0	0	-0.1265	0	-0	0	0	0	0	0	-0	0	0.105	0.015	0	0	-0	0	0	0.098	0.1	0	-0	0	0	0	0	0	-0	0	0.05595	0	0	0	-0	0	0	0	0	0	-0	0	551.577	552.517	281.838	209.444	0.986992	-12.9605	0.0264134	-0.0407687	38.7769
55	-0.0393187	0.0213753	0.0397314	0.00466506	0.00167502	0.0120556	0.0261044	-0.0307273	-2.5808e-05	0.0900815	0.118846	-0.00707606	0.0536185	-0.00276691	0.0162694	-2.2492	0.0540048	-1.51266	0	0	0	0	-0	0	0	0	-0.1265	0	-0	0	0	0	0	0	-0	0	0.105	0.015	0	0	-0	0	0	0.098	0.1	0	-0	0	0	0	0	0	-0	0	0.05595	0	0	0	-0	0	0	0	0	0	-0	0	551.12	551.995	281.708	210.341	1.0161	-13.3232	0.0264025	-0.0409649	40.0799
56	-0.0352885	0.0213749	0.0397344	0.00470284	0.00169631	0.0120651	0.0261031	-0.0307203	-2.30141e-05	0.0873575	0.113827	-0.0191466	0.0535414	-0.002773	0.016491	-2.24541	0.0538186	-1.51237	0	0	0	0	-0	0	0	0	-0.1265	0	-0	0	0	0	0	0	-0	0	0.105	0.015	0	0	-0	0	0	0.098	0.1	0	-0	0	0	0	0	0	-0	0	0.05595	0	0	0	-0	0	0	0	0	0	-0	0	551.041	551.913	281.691	210.477	1.02396	-13.3857	0.0262393	-0.0410856	40.2685
57	-0.037853	0.0213818	0.0397069	0.00472833	0.00171999	0.0121062	0.0261019	-0.030717	-2.11978e-05	0.0843075	0.107228	-0.0277621	0.0535925	-0.00276861	0.0163417	-2.2483	0.0539989	-1.51249	0	0	0	0	-0	0	0	0	-0.1265	0	-0	0	0	0	0	0	-0	0	0.105	0.015	0	0	-0	0	0	0.098	0.1	0	-0	0	0	0	0	0	-0	0	0.05595	0	0	0	-0	0	0	0	0	0	-0	0	550.922	551.806	281.67	210.669	1.03086	-13.463	0.0262024	-0.0411541	40.5266
58	-0.0456615	0.0213761	0.0396809	0.00475401	0.00175263	0.0121573	0.0261019	-0.0307146	-2.07226e-05	0.0844653	0.0967566	-0.024702	0.0537377	-0.0027634	0.0158992	-2.25658	0.0544987	-1.51287	0	0	0	0	-0	0	0	0	-0.1265	0	-0	0	0	0	0	0	-0	0	0.105	0.015	0	0	-0	0	0	0.098	0.1	0	-0	0	0	0	0	0	-0	0	0.05595	0	0	0	-0	0	0	0	0	0	-0	0	550.747	551.646	281.644	210.956	1.04007	-13.5736	0.0261496	-0.0412258	40.9114
59	-0.0384895	0.0213526	0.0396771	0.00477876	0.0017963	0.0122076	0.0261009	-0.0307188	-2.10079e-05	0.102357	0.0921396	-0.0189618	0.0536441	-0.00276028	0.0162532	-2.25008	0.0541488	-1.5124	0	0	0	0	-0	0	0	0	-0.1265	0	-0	0	0	0	0	0	-0	0	0.105	0.015	0	0	-0	0	0	0.098	0.1	0	-0	0	0	0	0	0	-0	0	0.05595	0	0	0	-0	0	0	0	0	0	-0	0	550.505	551.403	281.61	211.376	1.05358	-13.7368	0.0260758	-0.0413248	41.4907
60	-0.0346135	0.0213435	0.0396704	0.0047828	0.00181732	0.0122448	0.0261046	-0.0307162	-2.25374e-05	0.0980021	0.107803	-0.0255445	0.0535837	-0.00275797	0.0164558	-2.2465	0.0539381	-1.51214	0	0	0	0	-0	0	0	0	-0.1265	0	-0	0	0	0	0	0	-0	0	0.105	0.015	0	0	-0	0	0	0.098	0.1	0	-0	0	0	0	0	0	-0	0	0.05595	0	0	0	-0	0	0	0	0	0	-0	0	550.407	551.301	281.592	211.552	1.06024	-13.8072	0.02603	-0.0413812	41.7256
61	-0.0300848	0.0212886	0.0396734	0.0048464	0.00187772	0.0122897	0.0261102	-0.03072	-2.2514e-05	0.0899471	0.124457	-0.0420654	0.0535496	-0.00275693	0.0166428	-2.24305	0.0538132	-1.51174	0	0	0	0	-0	0	0	0	-0.1265	0	-0	0	0	0	0	0	-0	0	0.105	0.015	0	0	-0	0	0	0.098	0.1	0	-0	0	0	0	0	0	-0	0	0.05595	0	0	0	-0	0	0	0	0	0	-0	0	550.025	550.921	281.533	212.23	1.08117	-14.0695	0.0258936	-0.0415509	42.6806
62	-0.045917	0.021259	0.0396824	0.00490218	0.00191995	0.0123124	0.0261094	-0.0307221	-1.26335e-05	0.0773437	0.120091	-0.0385667	0.0538263	-0.00276071	0.0157763	-2.25944	0.0548419	-1.51248	0	0	0	0	-0	0	0	0	-0.1265	0	-0	0	0	0	0	0	-0	0	0.105	0.015	0	0	-0	0	0	0.098	0.1	0	-0	0	0	0	0	0	-0	0	0.05595	0	0	0	-0	0	0	0	0	0	-0	0	549.826	550.724	281.49	212.572	1.09391	-14.2062	0.025721	-0.0416877	43.157
63	-0.043163	0.0212511	0.0397004	0.00489312	0.00193792	0.0123447	0.026111	-0.0307234	-1.62974e-05	0.0859518	0.109984	-0.0239033	0.053785	-0.00275954	0.0159164	-2.25712	0.0547257	-1.51225	0	0	0	0	-0	0	0	0	-0.1265	0	-0	0	0	0	0	0	-0	0	0.105	0.015	0	0	-0	0	0	0.098	0.1	0	-0	0	0	0	0	0	-0	0	0.05595	0	0	0	-0	0	0	0	0	0	-0	0	549.686	550.571	281.453	212.835	1.1033	-14.3118	0.0256789	-0.0417631	43.527
64	-0.0433156	0.0212262	0.0396948	0.00492699	0.00196798	0.012375	0.0261134	-0.0307256	-1.08274e-05	0.0979737	0.12073	-0.0266932	0.0538041	-0.00275869	0.0158852	-2.25782	0.0548259	-1.51216	0	0	0	0	-0	0	0	0	-0.1265	0	-0	0	0	0	0	0	-0	0	0.105	0.015	0	0	-0	0	0	0.098	0.1	0	-0	0	0	0	0	0	-0	0	0.05595	0	0	0	-0	0	0	0	0	0	-0	0	549.498	550.384	281.406	213.167	1.11433	-14.4416	0.0255876	-0.0418744	43.9912
65	-0.0437065	0.0212235	0.0396595	0.00496869	0.00198602	0.0124087	0.0261113	-0.0307215	-5.28822e-06	0.0919	0.114672	-0.0303409	0.0538197	-0.00275555	0.0158535	-2.25845	0.0549018	-1.51214	0	0	0	0	-0	0	0	0	-0.1265	0	-0	0	0	0	0	0	-0	0	0.105	0.015	0	0	-0	0	0	0.098	0.1	0	-0	0	0	0	0	0	-0	0	0.05595	0	0	0	-0	0	0	0	0	0	-0	0	549.409	550.311	281.384	213.308	1.11921	-14.4968	0.0255571	-0.041939	44.1788
66	-0.0447409	0.0211958	0.0396409	0.00502175	0.00203357	0.0124695	0.0261188	-0.0307302	-4.74243e-06	0.100004	0.113099	-0.00491247	0.0538743	-0.00274895	0.0157461	-2.26036	0.055091	-1.51209	0	0	0	0	-0	0	0	0	-0.1265	0	-0	0	0	0	0	0	-0	0	0.105	0.015	0	0	-0	0	0	0.098	0.1	0	-0	0	0	0	0	0	-0	0	0.05595	0	0	0	-0	0	0	0	0	0	-0	0	549.088	550.032	281.313	213.859	1.13556	-14.7054	0.0254057	-0.042059	44.9453
67	-0.0512602	0.021124	0.0396543	0.00514663	0.00211185	0.0125013	0.0261288	-0.0307351	6.28976e-06	0.0880721	0.0963961	0.014194	0.0540232	-0.00275393	0.0153291	-2.26811	0.0557479	-1.51218	0	0	0	0	-0	0	0	0	-0.1265	0	-0	0	0	0	0	0	-0	0	0.105	0.015	0	0	-0	0	0	0.098	0.1	0	-0	0	0	0	0	0	-0	0	0.05595	0	0	0	-0	0	0	0	0	0	-0	0	548.65	549.644	281.19	214.638	1.1613	-15.0143	0.0250213	-0.0423082	46.0837
68	-0.0491398	0.0210996	0.0396583	0.00526243	0.00216157	0.0125224	0.0261316	-0.0307278	2.18365e-05	0.0929732	0.121557	0.0178002	0.0540112	-0.0027595	0.015415	-2.26663	0.0558178	-1.5119	0	0	0	0	-0	0	0	0	-0.1265	0	-0	0	0	0	0	0	-0	0	0.105	0.015	0	0	-0	0	0	0.098	0.1	0	-0	0	0	0	0	0	-0	0	0.05595	0	0	0	-0	0	0	0	0	0	-0	0	548.403	549.44	281.107	215.034	1.17638	-15.1732	0.0247179	-0.0424949	46.6458
69	-0.0547675	0.0210804	0.0396394	0.00540732	0.00223485	0.0126042	0.0261372	-0.0307294	4.65675e-05	0.0849962	0.150372	0.0379731	0.054159	-0.00275333	0.0150303	-2.27359	0.0564017	-1.51204	0	0	0	0	-0	0	0	0	-0.1265	0	-0	0	0	0	0	0	-0	0	0.105	0.015	0	0	-0	0	0	0.098	0.1	0	-0	0	0	0	0	0	-0	0	0.05595	0	0	0	-0	0	0	0	0	0	-0	0	547.884	549.046	280.978	215.872	1.20374	-15.5093	0.0242876	-0.0427124	47.8844
70	-0.0419074	0.0211153	0.0395558	0.005577	0.00228352	0.0127207	0.0261414	-0.0307225	6.49454e-05	0.0797012	0.18582	0.0512085	0.054008	-0.00274228	0.0156734	-2.26145	0.0558131	-1.51128	0	0	0	0	-0	0	0	0	-0.1265	0	-0	0	0	0	0	0	-0	0	0.105	0.015	0	0	-0	0	0	0.098	0.1	0	-0	0	0	0	0	0	-0	0	0.05595	0	0	0	-0	0	0	0	0	0	-0	0	547.562	548.854	280.899	216.319	1.21833	-15.6802	0.023998	-0.0428448	48.4922
71	-0.023667	0.0211517	0.0395077	0.00571195	0.00233939	0.0128187	0.0261319	-0.0307297	7.54725e-05	0.0995414	0.182565	0.0369479	0.0537486	-0.00273741	0.0166198	-2.24375	0.0548636	-1.51023	0	0	0	0	-0	0	0	0	-0.1265	0	-0	0	0	0	0	0	-0	0	0.105	0.015	0	0	-0	0	0	0.098	0.1	0	-0	0	0	0	0	0	-0	0	0.05595	0	0	0	-0	0	0	0	0	0	-0	0	547.316	548.706	280.837	216.662	1.23024	-15.81	0.0237026	-0.0429585	48.9464
72	-0.0220823	0.0211552	0.0395378	0.00568695	0.00235856	0.0128628	0.0261279	-0.0307254	6.65669e-05	0.0976571	0.177505	0.0272919	0.0537096	-0.00273368	0.0167089	-2.24241	0.0547528	-1.51009	0	0	0	0	-0	0	0	0	-0.1265	0	-0	0	0	0	0	0	-0	0	0.105	0.015	0	0	-0	0	0	0.098	0.1	0	-0	0	0	0	0	0	-0	0	0.05595	0	0	0	-0	0	0	0	0	0	-0	0	547.234	548.639	280.806	216.805	1.23693	-15.8689	0.0235943	-0.0429905	49.1337
73	-0.0240204	0.0211508	0.0395322	0.0056722	0.00237234	0.0129155	0.0261256	-0.030725	5.83932e-05	0.0904693	0.187402	0.0176031	0.0537465	-0.00272637	0.0165959	-2.24468	0.0548652	-1.51014	0	0	0	0	-0	0	0	0	-0.1265	0	-0	0	0	0	0	0	-0	0	0.105	0.015	0	0	-0	0	0	0.098	0.1	0	-0	0	0	0	0	0	-0	0	0.05595	0	0	0	-0	0	0	0	0	0	-0	0	547.124	548.547	280.776	217.002	1.24378	-15.9432	0.0234987	-0.0430317	49.3903
74	-0.0265953	0.0211278	0.0395359	0.00565696	0.00239415	0.0129607	0.0261277	-0.0307302	5.41501e-05	0.102019	0.193612	0.0299657	0.0537995	-0.00272259	0.0164419	-2.24772	0.0550507	-1.51019	0	0	0	0	-0	0	0	0	-0.1265	0	-0	0	0	0	0	0	-0	0	0.105	0.015	0	0	-0	0	0	0.098	0.1	0	-0	0	0	0	0	0	-0	0	0.05595	0	0	0	-0	0	0	0	0	0	-0	0	546.977	548.404	280.739	217.291	1.25302	-16.0505	0.0233893	-0.0431061	49.7797
75	-0.0286086	0.0211112	0.0395244	0.00565601	0.00240439	0.012986	0.026127	-0.0307291	5.33055e-05	0.0990723	0.190652	0.0395386	0.0538337	-0.00272183	0.0163318	-2.24994	0.0551975	-1.51024	0	0	0	0	-0	0	0	0	-0.1265	0	-0	0	0	0	0	0	-0	0	0.105	0.015	0	0	-0	0	0	0.098	0.1	0	-0	0	0	0	0	0	-0	0	0.05595	0	0	0	-0	0	0	0	0	0	-0	0	546.914	548.344	280.721	217.413	1.25786	-16.0972	0.0233126	-0.0431709	49.9351
76	-0.017739	0.0210988	0.03951	0.00564919	0.00241724	0.0130185	0.0261261	-0.0307285	5.23964e-05	0.0975341	0.193823	0.0477439	0.0536634	-0.00271846	0.016908	-2.23936	0.0545656	-1.50959	0	0	0	0	-0	0	0	0	-0.1265	0	-0	0	0	0	0	0	-0	0	0.105	0.015	0	0	-0	0	0	0.098	0.1	0	-0	0	0	0	0	0	-0	0	0.05595	0	0	0	-0	0	0	0	0	0	-0	0	546.828	548.264	280.696	217.58	1.26309	-16.1579	0.0232667	-0.0432251	50.1525
77	-0.0305347	0.021081	0.0395138	0.00563491	0.002435	0.0130502	0.0261274	-0.0307328	5.08579e-05	0.0862718	0.192678	0.0567275	0.0538881	-0.00271616	0.0162077	-2.25254	0.0553879	-1.51021	0	0	0	0	-0	0	0	0	-0.1265	0	-0	0	0	0	0	0	-0	0	0.105	0.015	0	0	-0	0	0	0.098	0.1	0	-0	0	0	0	0	0	-0	0	0.05595	0	0	0	-0	0	0	0	0	0	-0	0	546.712	548.142	280.661	217.823	1.27024	-16.2458	0.0232192	-0.0432916	50.4804
78	-0.0380628	0.021045	0.0395286	0.00564045	0.00246236	0.0130739	0.0261273	-0.0307329	4.88961e-05	0.0935657	0.192731	0.0632003	0.054023	-0.00271648	0.0157794	-2.26064	0.0559409	-1.51049	0	0	0	0	-0	0	0	0	-0.1265	0	-0	0	0	0	0	0	-0	0	0.105	0.015	0	0	-0	0	0	0.098	0.1	0	-0	0	0	0	0	0	-0	0	0.05595	0	0	0	-0	0	0	0	0	0	-0	0	546.546	547.964	280.604	218.174	1.28057	-16.3758	0.0231417	-0.0434029	50.9746
79	-0.037705	0.0210045	0.0395316	0.00566898	0.00250443	0.0131195	0.0261309	-0.0307412	4.81975e-05	0.112049	0.196055	0.0767692	0.0540423	-0.00271332	0.0157627	-2.2611	0.0560444	-1.51033	0	0	0	0	-0	0	0	0	-0.1265	0	-0	0	0	0	0	0	-0	0	0.105	0.015	0	0	-0	0	0	0.098	0.1	0	-0	0	0	0	0	0	-0	0	0.05595	0	0	0	-0	0	0	0	0	0	-0	0	546.3	547.712	280.532	218.674	1.2955	-16.5696	0.0230495	-0.0435432	51.7111
80	-0.0339061	0.0209804	0.0395206	0.00571161	0.00253078	0.0131424	0.0261314	-0.0307393	5.31183e-05	0.124869	0.200531	0.0841649	0.0539893	-0.0027149	0.0159586	-2.25766	0.0559051	-1.51001	0	0	0	0	-0	0	0	0	-0.1265	0	-0	0	0	0	0	0	-0	0	0.105	0.015	0	0	-0	0	0	0.098	0.1	0	-0	0	0	0	0	0	-0	0	0.05595	0	0	0	-0	0	0	0	0	0	-0	0	546.188	547.613	280.49	218.887	1.30356	-16.6533	0.0229143	-0.0436614	52.0064
81	-0.0421662	0.0209666	0.0395049	0.00574449	0.00256018	0.0131834	0.0261349	-0.0307383	5.63362e-05	0.133923	0.214807	0.0849209	0.0541375	-0.00271183	0.0154919	-2.26639	0.0565022	-1.51038	0	0	0	0	-0	0	0	0	-0.1265	0	-0	0	0	0	0	0	-0	0	0.105	0.015	0	0	-0	0	0	0.098	0.1	0	-0	0	0	0	0	0	-0	0	0.05595	0	0	0	-0	0	0	0	0	0	-0	0	546.035	547.482	280.433	219.175	1.31276	-16.7639	0.0227988	-0.0437625	52.4155
82	-0.0368946	0.0209614	0.0394965	0.00578337	0.00258815	0.0132161	0.0261358	-0.0307402	6.16489e-05	0.136696	0.22041	0.101431	0.0540665	-0.00271169	0.0157613	-2.26149	0.0562757	-1.51	0	0	0	0	-0	0	0	0	-0.1265	0	-0	0	0	0	0	0	-0	0	0.105	0.015	0	0	-0	0	0	0.098	0.1	0	-0	0	0	0	0	0	-0	0	0.05595	0	0	0	-0	0	0	0	0	0	-0	0	545.907	547.378	280.387	219.402	1.3207	-16.8522	0.0226564	-0.0438593	52.7358
83	-0.0333477	0.0209327	0.0394859	0.00585419	0.00263673	0.0132652	0.0261429	-0.0307435	6.59442e-05	0.12287	0.201557	0.105697	0.0540457	-0.00270863	0.0159058	-2.25875	0.0562441	-1.50964	0	0	0	0	-0	0	0	0	-0.1265	0	-0	0	0	0	0	0	-0	0	0.105	0.015	0	0	-0	0	0	0.098	0.1	0	-0	0	0	0	0	0	-0	0	0.05595	0	0	0	-0	0	0	0	0	0	-0	0	545.631	547.159	280.288	219.905	1.33585	-17.0443	0.0224074	-0.0440122	53.47
84	-0.0510307	0.0208937	0.0394852	0.0059863	0.00271208	0.0133206	0.0261245	-0.0307621	8.50808e-05	0.0675125	0.246631	0.0972234	0.0543747	-0.00271134	0.014887	-2.27756	0.0576138	-1.5104	0	0	0	0	-0	0	0	0	-0.1265	0	-0	0	0	0	0	0	-0	0	0.105	0.015	0	0	-0	0	0	0.098	0.1	0	-0	0	0	0	0	0	-0	0	0.05595	0	0	0	-0	0	0	0	0	0	-0	0	545.234	546.84	280.147	220.611	1.35933	-17.3324	0.0219801	-0.0442636	54.5663
85	-0.0554541	0.0207653	0.0395371	0.00602318	0.0027566	0.0133879	0.0261494	-0.0307664	8.3992e-05	0.0890725	0.257761	0.0801225	0.054444	-0.0027122	0.014632	-2.2826	0.0580055	-1.51037	0	0	0	0	-0	0	0	0	-0.1265	0	-0	0	0	0	0	0	-0	0	0.105	0.015	0	0	-0	0	0	0.098	0.1	0	-0	0	0	0	0	0	-0	0	0.05595	0	0	0	-0	0	0	0	0	0	-0	0	545.097	546.648	280.073	220.985	1.37015	-17.4757	0.0220618	-0.0442878	55.1097
86	-0.0448747	0.020791	0.039511	0.00611408	0.00280285	0.0134251	0.0261591	-0.0307623	0.000100114	0.088753	0.280915	0.106943	0.05433	-0.00271098	0.015151	-2.27325	0.0576879	-1.50955	0	0	0	0	-0	0	0	0	-0.1265	0	-0	0	0	0	0	0	-0	0	0.105	0.015	0	0	-0	0	0	0.098	0.1	0	-0	0	0	0	0	0	-0	0	0.05595	0	0	0	-0	0	0	0	0	0	-0	0	544.688	546.332	279.885	221.734	1.39678	-17.7933	0.0215436	-0.0446577	56.3239
87	-0.0432132	0.0208613	0.0394316	0.00626392	0.00284836	0.0135105	0.0261476	-0.0307491	0.000112502	0.0808358	0.287086	0.113769	0.0543148	-0.00271122	0.0152347	-2.27182	0.0577429	-1.50948	0	0	0	0	-0	0	0	0	-0.1265	0	-0	0	0	0	0	0	-0	0	0.105	0.015	0	0	-0	0	0	0.098	0.1	0	-0	0	0	0	0	0	-0	0	0.05595	0	0	0	-0	0	0	0	0	0	-0	0	544.595	546.293	279.846	221.852	1.40319	-17.8473	0.0213875	-0.0448069	56.4824
88	-0.035486	0.0208733	0.0394091	0.00629272	0.00289493	0.0136014	0.0261469	-0.0307463	0.00010986	0.0802009	0.297809	0.102594	0.0542073	-0.00270389	0.0156403	-2.26438	0.0573167	-1.509	0	0	0	0	-0	0	0	0	-0.1265	0	-0	0	0	0	0	0	-0	0	0.105	0.015	0	0	-0	0	0	0.098	0.1	0	-0	0	0	0	0	0	-0	0	0.05595	0	0	0	-0	0	0	0	0	0	-0	0	544.485	546.229	279.806	222.022	1.40946	-17.9141	0.0212833	-0.0448273	56.6979
89	-0.0340201	0.0208916	0.0394172	0.00627781	0.002923	0.0136567	0.0261458	-0.0307466	0.000106364	0.0818173	0.308001	0.0987336	0.0541921	-0.00269827	0.0157055	-2.26332	0.0572553	-1.50885	0	0	0	0	-0	0	0	0	-0.1265	0	-0	0	0	0	0	0	-0	0	0.105	0.015	0	0	-0	0	0	0.098	0.1	0	-0	0	0	0	0	0	-0	0	0.05595	0	0	0	-0	0	0	0	0	0	-0	0	544.34	546.125	279.755	222.267	1.41835	-18.0072	0.0210849	-0.0449039	57.0277
90	-0.0146587	0.0208803	0.0394084	0.00629921	0.00295491	0.0137177	0.0261442	-0.0307701	0.000116254	0.119842	0.297034	0.0928998	0.0539096	-0.00269135	0.0167247	-2.24454	0.0561241	-1.50765	0	0	0	0	-0	0	0	0	-0.1265	0	-0	0	0	0	0	0	-0	0	0.105	0.015	0	0	-0	0	0	0.098	0.1	0	-0	0	0	0	0	0	-0	0	0.05595	0	0	0	-0	0	0	0	0	0	-0	0	544.137	545.97	279.69	222.624	1.42943	-18.14	0.0208834	-0.0450023	57.5254
91	-0.0193349	0.0208209	0.0394194	0.00632621	0.00297385	0.0137419	0.0261492	-0.030757	0.000110534	0.113776	0.285265	0.0992039	0.0539934	-0.00269338	0.016456	-2.24965	0.0565577	-1.50771	0	0	0	0	-0	0	0	0	-0.1265	0	-0	0	0	0	0	0	-0	0	0.105	0.015	0	0	-0	0	0	0.098	0.1	0	-0	0	0	0	0	0	-0	0	0.05595	0	0	0	-0	0	0	0	0	0	-0	0	544.006	545.861	279.607	222.897	1.43811	-18.2387	0.0207289	-0.0451169	57.9007
92	-0.0250603	0.0208473	0.0394004	0.0063346	0.00298213	0.0137769	0.026147	-0.0307537	0.000109891	0.105688	0.278992	0.0964149	0.0540851	-0.00268978	0.0161478	-2.25558	0.0569385	-1.50802	0	0	0	0	-0	0	0	0	-0.1265	0	-0	0	0	0	0	0	-0	0	0.105	0.015	0	0	-0	0	0	0.098	0.1	0	-0	0	0	0	0	0	-0	0	0.05595	0	0	0	-0	0	0	0	0	0	-0	0	543.943	545.816	279.58	223.01	1.44347	-18.2855	0.020613	-0.0451935	58.049
93	-0.0326342	0.0208528	0.0393844	0.00634249	0.00299969	0.0138181	0.0261444	-0.0307526	0.00010959	0.0947375	0.288102	0.0936345	0.0542141	-0.00268544	0.015728	-2.26341	0.0574514	-1.50841	0	0	0	0	-0	0	0	0	-0.1265	0	-0	0	0	0	0	0	-0	0	0.105	0.015	0	0	-0	0	0	0.098	0.1	0	-0	0	0	0	0	0	-0	0	0.05595	0	0	0	-0	0	0	0	0	0	-0	0	543.855	545.753	279.545	223.167	1.44885	-18.3442	0.0205129	-0.0452491	58.2566
94	-0.0214582	0.0208313	0.0393772	0.00635247	0.00302214	0.0138597	0.0261515	-0.0307623	0.000108758	0.0747687	0.277165	0.0778142	0.0540505	-0.00268131	0.0163145	-2.25261	0.0568102	-1.50768	0	0	0	0	-0	0	0	0	-0.1265	0	-0	0	0	0	0	0	-0	0	0.105	0.015	0	0	-0	0	0	0.098	0.1	0	-0	0	0	0	0	0	-0	0	0.05595	0	0	0	-0	0	0	0	0	0	-0	0	543.734	545.656	279.501	223.399	1.45566	-18.4275	0.0204046	-0.0453068	58.569
95	-0.0280495	0.0208082	0.0393919	0.00641363	0.00306713	0.0138834	0.0261543	-0.0307635	0.00011274	0.0733202	0.273551	0.0966863	0.0541862	-0.0026855	0.0159186	-2.25997	0.0574589	-1.50784	0	0	0	0	-0	0	0	0	-0.1265	0	-0	0	0	0	0	0	-0	0	0.105	0.015	0	0	-0	0	0	0.098	0.1	0	-0	0	0	0	0	0	-0	0	0.05595	0	0	0	-0	0	0	0	0	0	-0	0	543.489	545.449	279.375	223.877	1.47045	-18.6058	0.0200879	-0.0455218	59.2679
96	-0.0291334	0.0208269	0.0393844	0.00644843	0.00308417	0.0139175	0.0261516	-0.0307594	0.000118162	0.0766562	0.278725	0.106257	0.0541992	-0.00268715	0.015867	-2.2612	0.0575775	-1.50788	0	0	0	0	-0	0	0	0	-0.1265	0	-0	0	0	0	0	0	-0	0	0.105	0.015	0	0	-0	0	0	0.098	0.1	0	-0	0	0	0	0	0	-0	0	0.05595	0	0	0	-0	0	0	0	0	0	-0	0	543.449	545.421	279.354	223.948	1.47505	-18.6392	0.0199922	-0.0456046	59.3593
97	-0.027978	0.0208413	0.0393588	0.00646161	0.00310098	0.0139696	0.0261496	-0.0307582	0.000119735	0.084709	0.280293	0.102776	0.054187	-0.00268142	0.0159239	-2.26022	0.0575376	-1.5078	0	0	0	0	-0	0	0	0	-0.1265	0	-0	0	0	0	0	0	-0	0	0.105	0.015	0	0	-0	0	0	0.098	0.1	0	-0	0	0	0	0	0	-0	0	0.05595	0	0	0	-0	0	0	0	0	0	-0	0	543.389	545.383	279.325	224.048	1.47862	-18.6779	0.01995	-0.0456359	59.4871
98	-0.013808	0.0208144	0.0393445	0.00650604	0.00314391	0.0140316	0.0261573	-0.030757	0.000133565	0.0636254	0.321403	0.109425	0.0539942	-0.00267576	0.016648	-2.24673	0.0568012	-1.50683	0	0	0	0	-0	0	0	0	-0.1265	0	-0	0	0	0	0	0	-0	0	0.105	0.015	0	0	-0	0	0	0.098	0.1	0	-0	0	0	0	0	0	-0	0	0.05595	0	0	0	-0	0	0	0	0	0	-0	0	543.167	545.212	279.224	224.467	1.48997	-18.8278	0.0197444	-0.0457449	60.0747
99	-0.0161159	0.0207806	0.039292	0.0066681	0.00321202	0.0141347	0.0261649	-0.0307538	0.000145892	0.0513836	0.361322	0.112158	0.0540874	-0.00267063	0.0164509	-2.24998	0.0572346	-1.50676	0	0	0	0	-0	0	0	0	-0.1265	0	-0	0	0	0	0	0	-0	0	0.105	0.015	0	0	-0	0	0	0.098	0.1	0	-0	0	0	0	0	0	-0	0	0.05595	0	0	0	-0	0	0	0	0	0	-0	0	542.819	544.963	279.097	225.067	1.5064	-19.0476	0.0194142	-0.045913	60.9385
100	-0.038665	0.0208132	0.0392371	0.00681427	0.00327266	0.0142367	0.0261617	-0.0307578	0.000157761	0.0502318	0.377073	0.123214	0.0544836	-0.0026678	0.0151997	-2.27303	0.0588463	-1.50801	0	0	0	0	-0	0	0	0	-0.1265	0	-0	0	0	0	0	0	-0	0	0.105	0.015	0	0	-0	0	0	0.098	0.1	0	-0	0	0	0	0	0	-0	0	0.05595	0	0	0	-0	0	0	0	0	0	-0	0	542.612	544.832	279.022	225.38	1.51785	-19.1683	0.0191148	-0.0460668	61.3641
