Stefan210/kinematic_calibration/src/kinematic_calibration/validation/experiments/experiments/impact_noise/outlier/larm_randomize_20_measurements_rk_false/optimization_intermediate_results.csv
iteration	HeadPitch_offset	HeadYaw_offset	LElbowRoll_offset	LElbowYaw_offset	LShoulderPitch_offset	LShoulderRoll_offset	marker_transform_larm_tx	marker_transform_larm_ty	marker_transform_larm_tz	marker_transform_larm_rr	marker_transform_larm_rp	marker_transform_larm_ry	camera_transform_tx	camera_transform_ty	camera_transform_tz	camera_transform_rr	camera_transform_rp	camera_transform_ry	HeadPitch_transform_tx	HeadPitch_transform_ty	HeadPitch_transform_tz	HeadPitch_transform_rr	HeadPitch_transform_rp	HeadPitch_transform_ry	HeadYaw_transform_tx	HeadYaw_transform_ty	HeadYaw_transform_tz	HeadYaw_transform_rr	HeadYaw_transform_rp	HeadYaw_transform_ry	LElbowRoll_transform_tx	LElbowRoll_transform_ty	LElbowRoll_transform_tz	LElbowRoll_transform_rr	LElbowRoll_transform_rp	LElbowRoll_transform_ry	LElbowYaw_transform_tx	LElbowYaw_transform_ty	LElbowYaw_transform_tz	LElbowYaw_transform_rr	LElbowYaw_transform_rp	LElbowYaw_transform_ry	LShoulderPitch_transform_tx	LShoulderPitch_transform_ty	LShoulderPitch_transform_tz	LShoulderPitch_transform_rr	LShoulderPitch_transform_rp	LShoulderPitch_transform_ry	LShoulderRoll_transform_tx	LShoulderRoll_transform_ty	LShoulderRoll_transform_tz	LShoulderRoll_transform_rr	LShoulderRoll_transform_rp	LShoulderRoll_transform_ry	LWristYaw_transform_tx	LWristYaw_transform_ty	LWristYaw_transform_tz	LWristYaw_transform_rr	LWristYaw_transform_rp	LWristYaw_transform_ry	l_wrist_joint_transform_tx	l_wrist_joint_transform_ty	l_wrist_joint_transform_tz	l_wrist_joint_transform_rr	l_wrist_joint_transform_rp	l_wrist_joint_transform_ry	camera_fx	camera_fy	camera_cx	camera_cy	camera_D0	camera_D1	camera_D2	camera_D3	camera_D4	
0	0.0249164	-0.0307543	0.000853157	4.65819e-06	-0.000318322	-0.00310766	0.05071	0	0.01774	-2.26369	1.66533e-16	-1.5708	545.901	551.038	324.928	201.58	0.0255298	2.61142	-0.0636736	-0.0350419	0.213964
1	-0.0201761	0.0801292	0.125773	0.16518	0.0791033	-0.0247995	0.0356623	-0.0402919	0.0143953	-0.00161537	-0.0016264	-0.00273561	0.0216002	-0.00744388	0.030486	-2.18418	-0.0309612	-1.76869	0	0	0	0	-0	0	0	0	-0.1265	0	-0	0	0	0	0	0	-0	0	0.105	0.015	0	0	-0	0	0	0.098	0.1	0	-0	0	0	0	0	0	-0	0	0.05595	0	0	0	-0	0	0	0	0	0	-0	0	545.9	551.037	324.928	201.578	0.119173	2.64129	0.150396	-0.0915221	0.219776
2	-0.0222341	0.294999	0.0731906	0.238722	0.0301084	0.0611914	0.0334214	-0.0385899	0.0298792	-0.00417439	-0.00394373	-0.00284656	0.0137316	0.0215551	0.0513177	-2.13876	-0.142624	-2.05237	0	0	0	0	-0	0	0	0	-0.1265	0	-0	0	0	0	0	0	-0	0	0.105	0.015	0	0	-0	0	0	0.098	0.1	0	-0	0	0	0	0	0	-0	0	0.05595	0	0	0	-0	0	0	0	0	0	-0	0	545.9	551.037	324.928	201.578	0.135341	2.64615	0.272322	0.0352047	0.220459
3	-0.0276986	0.616377	-0.0364507	0.337677	-0.012496	0.142824	0.0239556	-0.0334603	0.0443926	-0.00696926	-0.00697884	-0.00358915	0.0446498	0.0651563	0.0351153	-1.9702	-0.292059	-2.4963	0	0	0	0	-0	0	0	0	-0.1265	0	-0	0	0	0	0	0	-0	0	0.105	0.015	0	0	-0	0	0	0.098	0.1	0	-0	0	0	0	0	0	-0	0	0.05595	0	0	0	-0	0	0	0	0	0	-0	0	545.9	551.037	324.928	201.579	0.122871	2.64311	0.301585	0.196919	0.219854
4	-0.0252227	0.70869	-0.0908747	0.36748	-0.0107108	0.147475	0.0193242	-0.0310979	0.044309	-0.00736794	-0.00778323	-0.00397115	0.0741893	0.0330915	0.0124554	-1.92842	-0.320546	-2.61465	0	0	0	0	-0	0	0	0	-0.1265	0	-0	0	0	0	0	0	-0	0	0.105	0.015	0	0	-0	0	0	0.098	0.1	0	-0	0	0	0	0	0	-0	0	0.05595	0	0	0	-0	0	0	0	0	0	-0	0	545.9	551.037	324.928	201.581	0.0995068	2.63928	0.168958	0.251538	0.219372
5	-0.0307418	0.767796	-0.122639	0.35775	-0.0308993	0.161778	0.0186173	-0.0307291	0.0421716	-0.00716108	-0.0077348	-0.00402771	0.0761825	0.0269044	0.00348918	-1.84792	-0.332029	-2.71365	0	0	0	0	-0	0	0	0	-0.1265	0	-0	0	0	0	0	0	-0	0	0.105	0.015	0	0	-0	0	0	0.098	0.1	0	-0	0	0	0	0	0	-0	0	0.05595	0	0	0	-0	0	0	0	0	0	-0	0	545.9	551.036	324.929	201.585	0.0247219	2.61561	0.0368821	0.254455	0.21406
6	-0.0306902	0.791096	-0.129487	0.368466	-0.0420972	0.157346	0.0177598	-0.0305551	0.0429484	-0.00728793	-0.00794786	-0.00410716	0.0762501	0.0254346	0.00341887	-1.83242	-0.338709	-2.73629	0	0	0	0	-0	0	0	0	-0.1265	0	-0	0	0	0	0	0	-0	0	0.105	0.015	0	0	-0	0	0	0.098	0.1	0	-0	0	0	0	0	0	-0	0	0.05595	0	0	0	-0	0	0	0	0	0	-0	0	545.901	551.035	324.925	201.599	-0.245945	2.50223	0.0808611	0.215838	0.183172
7	-0.0322782	0.797229	-0.132476	0.359944	-0.0414692	0.162964	0.0182509	-0.0305816	0.0419614	-0.00723544	-0.00787991	-0.00411359	0.0790539	0.0204225	-0.000564704	-1.81909	-0.335349	-2.75605	0	0	0	0	-0	0	0	0	-0.1265	0	-0	0	0	0	0	0	-0	0	0.105	0.015	0	0	-0	0	0	0.098	0.1	0	-0	0	0	0	0	0	-0	0	0.05595	0	0	0	-0	0	0	0	0	0	-0	0	545.901	551.031	324.925	201.631	-0.735509	2.27033	0.0909004	0.177176	0.11569
8	-0.0314102	0.820669	-0.143678	0.366518	-0.0451332	0.165515	0.0176122	-0.0306612	0.04223	-0.00715142	-0.00813642	-0.00396979	0.0815919	0.0174964	-0.00365177	-1.79706	-0.34409	-2.79246	0	0	0	0	-0	0	0	0	-0.1265	0	-0	0	0	0	0	0	-0	0	0.105	0.015	0	0	-0	0	0	0.098	0.1	0	-0	0	0	0	0	0	-0	0	0.05595	0	0	0	-0	0	0	0	0	0	-0	0	545.893	551.016	324.949	201.705	-1.16184	1.91872	0.138131	0.122222	-0.00324398
9	-0.0323492	0.831598	-0.148479	0.361182	-0.041155	0.170124	0.0179238	-0.0306809	0.0415906	-0.00624498	-0.00706822	-0.00365642	0.0834946	0.0153959	-0.00610048	-1.78347	-0.344601	-2.81988	0	0	0	0	-0	0	0	0	-0.1265	0	-0	0	0	0	0	0	-0	0	0.105	0.015	0	0	-0	0	0	0.098	0.1	0	-0	0	0	0	0	0	-0	0	0.05595	0	0	0	-0	0	0	0	0	0	-0	0	545.874	550.96	325.068	201.898	-1.08752	1.38548	0.121024	0.117961	-0.198268
10	-0.0341301	0.842263	-0.153362	0.367901	-0.0421256	0.170647	0.0175672	-0.0306344	0.0420668	-0.00714073	-0.00706168	-0.00224482	0.0838337	0.0155762	-0.00674853	-1.7761	-0.349944	-2.83551	0	0	0	0	-0	0	0	0	-0.1265	0	-0	0	0	0	0	0	-0	0	0.105	0.015	0	0	-0	0	0	0.098	0.1	0	-0	0	0	0	0	0	-0	0	0.05595	0	0	0	-0	0	0	0	0	0	-0	0	545.805	550.78	325.418	202.462	-0.952161	0.769241	0.12205	0.112203	-0.23613
11	-0.0315254	0.841814	-0.152874	0.367973	-0.039847	0.171525	0.0177452	-0.030624	0.0421075	-0.0080706	-0.00729922	0.000488389	0.0838899	0.0159297	-0.00669715	-1.77625	-0.346015	-2.84002	0	0	0	0	-0	0	0	0	-0.1265	0	-0	0	0	0	0	0	-0	0	0.105	0.015	0	0	-0	0	0	0.098	0.1	0	-0	0	0	0	0	0	-0	0	0.05595	0	0	0	-0	0	0	0	0	0	-0	0	545.647	550.218	326.394	204.206	-0.719947	-0.0167806	0.107517	0.117642	0.161054
12	-0.040606	0.842724	-0.153238	0.371645	-0.0398331	0.171153	0.0176438	-0.0306277	0.0425016	0.000397047	0.00631411	-0.0210345	0.0836824	0.0166133	-0.00743115	-1.78497	-0.358371	-2.84356	0	0	0	0	-0	0	0	0	-0.1265	0	-0	0	0	0	0	0	-0	0	0.105	0.015	0	0	-0	0	0	0.098	0.1	0	-0	0	0	0	0	0	-0	0	0.05595	0	0	0	-0	0	0	0	0	0	-0	0	545.282	548.524	328.696	209.576	-0.476177	-1.37825	0.105353	0.118169	2.04464
13	-0.0811852	0.844101	-0.155855	0.373668	-0.0401803	0.173967	0.0176658	-0.0304138	0.0426535	-0.0084468	0.0458828	-0.0554586	0.0836818	0.0159948	-0.0111482	-1.81999	-0.401189	-2.8503	0	0	0	0	-0	0	0	0	-0.1265	0	-0	0	0	0	0	0	-0	0	0.105	0.015	0	0	-0	0	0	0.098	0.1	0	-0	0	0	0	0	0	-0	0	0.05595	0	0	0	-0	0	0	0	0	0	-0	0	544.107	543.513	334.709	226.193	0.208418	-4.64009	0.071361	0.138564	7.21719
14	-0.152029	0.842812	-0.158595	0.384323	-0.0430242	0.176805	0.0175501	-0.0301032	0.0437155	0.00276536	0.0907372	-0.0751612	0.0830748	0.0146146	-0.0176399	-1.92322	-0.478484	-2.84254	0	0	0	0	-0	0	0	0	-0.1265	0	-0	0	0	0	0	0	-0	0	0.105	0.015	0	0	-0	0	0	0.098	0.1	0	-0	0	0	0	0	0	-0	0	0.05595	0	0	0	-0	0	0	0	0	0	-0	0	538.174	530.01	340.521	276.626	2.02546	-14.338	-0.00425599	0.209351	24.3018
15	-0.159631	0.814863	-0.144445	0.4036	-0.0421109	0.17844	0.0175173	-0.0302084	0.0467532	-0.0438822	-0.00267174	-0.182215	0.081068	0.0249287	-0.0130687	-2.0389	-0.477569	-2.78229	0	0	0	0	-0	0	0	0	-0.1265	0	-0	0	0	0	0	0	-0	0	0.105	0.015	0	0	-0	0	0	0.098	0.1	0	-0	0	0	0	0	0	-0	0	0.05595	0	0	0	-0	0	0	0	0	0	-0	0	529.454	514.492	327.847	321.444	6.4629	-30.6517	-0.0730119	0.439491	28.5081
16	-0.156535	0.828364	-0.121819	0.405152	-0.0353336	0.180164	0.0163367	-0.0302034	0.0488861	-0.00784793	0.0334393	-0.170692	0.0839358	0.0219682	-0.0140896	-2.01145	-0.503248	-2.82528	0	0	0	0	-0	0	0	0	-0.1265	0	-0	0	0	0	0	0	-0	0	0.105	0.015	0	0	-0	0	0	0.098	0.1	0	-0	0	0	0	0	0	-0	0	0.05595	0	0	0	-0	0	0	0	0	0	-0	0	526.778	510.2	342.351	320.218	8.12162	-41.7289	0.0295435	0.459806	24.3104
17	-0.13969	0.787944	-0.116838	0.404505	-0.0040269	0.187189	0.0172101	-0.0308477	0.0489639	0.042323	0.0728165	-0.136229	0.0827396	0.0303176	-0.0102495	-2.06227	-0.488277	-2.78274	0	0	0	0	-0	0	0	0	-0.1265	0	-0	0	0	0	0	0	-0	0	0.105	0.015	0	0	-0	0	0	0.098	0.1	0	-0	0	0	0	0	0	-0	0	0.05595	0	0	0	-0	0	0	0	0	0	-0	0	517.753	507.443	342.149	331.295	10.8579	-46.6152	-0.000361203	0.651	24.1411
18	-0.131903	0.805896	-0.104881	0.393037	-0.00705081	0.184762	0.0165504	-0.0306795	0.0490639	-0.020031	0.0491824	-0.147797	0.0842828	0.0297344	-0.00889206	-2.05482	-0.487067	-2.80193	0	0	0	0	-0	0	0	0	-0.1265	0	-0	0	0	0	0	0	-0	0	0.105	0.015	0	0	-0	0	0	0.098	0.1	0	-0	0	0	0	0	0	-0	0	0.05595	0	0	0	-0	0	0	0	0	0	-0	0	505.275	503.973	343.614	333.29	11.0597	-49.564	0.0337321	0.566272	22.7623
19	-0.197998	0.786266	-0.0948254	0.39078	0.003499	0.185709	0.0171463	-0.031077	0.0495329	-0.0934906	0.0882633	-0.129587	0.0822216	0.0304937	-0.013161	-2.11368	-0.545496	-2.75627	0	0	0	0	-0	0	0	0	-0.1265	0	-0	0	0	0	0	0	-0	0	0.105	0.015	0	0	-0	0	0	0.098	0.1	0	-0	0	0	0	0	0	-0	0	0.05595	0	0	0	-0	0	0	0	0	0	-0	0	492.861	499.882	343.536	339.507	11.6488	-49.3699	0.062905	0.615249	22.8801
20	-0.257567	0.793833	-0.0919743	0.377349	0.0024222	0.187854	0.017255	-0.0311701	0.0486434	-0.0895571	0.0996339	-0.0777079	0.0826152	0.0294041	-0.0187629	-2.14023	-0.60856	-2.7515	0	0	0	0	-0	0	0	0	-0.1265	0	-0	0	0	0	0	0	-0	0	0.105	0.015	0	0	-0	0	0	0.098	0.1	0	-0	0	0	0	0	0	-0	0	0.05595	0	0	0	-0	0	0	0	0	0	-0	0	483.464	497.509	344.354	341.962	11.3494	-48.0064	0.0950039	0.571454	22.6272
21	-0.18953	0.78121	-0.0859089	0.376768	0.0085731	0.185956	0.017643	-0.0314867	0.0493879	-0.212655	0.0995799	-0.037298	0.0831656	0.0282434	-0.0132117	-2.13254	-0.545968	-2.74828	0	0	0	0	-0	0	0	0	-0.1265	0	-0	0	0	0	0	0	-0	0	0.105	0.015	0	0	-0	0	0	0.098	0.1	0	-0	0	0	0	0	0	-0	0	0.05595	0	0	0	-0	0	0	0	0	0	-0	0	469.459	493.438	344.158	346.854	11.035	-44.9683	0.118846	0.557761	22.5419
22	-0.195882	0.792099	-0.0873419	0.358446	0.00773859	0.190544	0.0178727	-0.0315958	0.0476428	-0.264406	0.0967736	-0.0489994	0.0844523	0.0276722	-0.015195	-2.1257	-0.559674	-2.76547	0	0	0	0	-0	0	0	0	-0.1265	0	-0	0	0	0	0	0	-0	0	0.105	0.015	0	0	-0	0	0	0.098	0.1	0	-0	0	0	0	0	0	-0	0	0.05595	0	0	0	-0	0	0	0	0	0	-0	0	466.493	492.677	344.786	348.266	10.788	-43.8592	0.139482	0.53207	22.303
23	-0.140325	0.780926	-0.0830431	0.363312	0.0128406	0.187454	0.0178301	-0.0316376	0.0483161	-0.192265	0.103183	-0.0525348	0.0846703	0.0260663	-0.0107854	-2.12378	-0.509963	-2.76061	0	0	0	0	-0	0	0	0	-0.1265	0	-0	0	0	0	0	0	-0	0	0.105	0.015	0	0	-0	0	0	0.098	0.1	0	-0	0	0	0	0	0	-0	0	0.05595	0	0	0	-0	0	0	0	0	0	-0	0	454.364	489.199	345.357	354.048	10.219	-39.393	0.156223	0.516238	21.3386
24	-0.138623	0.791057	-0.0849112	0.343582	0.0119139	0.192038	0.018437	-0.0316775	0.0466586	-0.219193	0.0793866	0.008355	0.0863279	0.0247681	-0.0124027	-2.11819	-0.516591	-2.77908	0	0	0	0	-0	0	0	0	-0.1265	0	-0	0	0	0	0	0	-0	0	0.105	0.015	0	0	-0	0	0	0.098	0.1	0	-0	0	0	0	0	0	-0	0	0.05595	0	0	0	-0	0	0	0	0	0	-0	0	447.575	486.958	345.984	357.179	9.74443	-36.8679	0.175177	0.481914	19.8541
25	-0.115083	0.786142	-0.0837181	0.345561	0.0151717	0.190255	0.0182688	-0.031676	0.0469302	-0.261458	0.0547756	0.000226994	0.0861553	0.0244655	-0.0104573	-2.11715	-0.496195	-2.77751	0	0	0	0	-0	0	0	0	-0.1265	0	-0	0	0	0	0	0	-0	0	0.105	0.015	0	0	-0	0	0	0.098	0.1	0	-0	0	0	0	0	0	-0	0	0.05595	0	0	0	-0	0	0	0	0	0	-0	0	444.403	486.189	346.803	359.684	9.60927	-35.2903	0.185683	0.485787	19.2016
26	-0.0968613	0.792279	-0.0846905	0.334408	0.0151485	0.193426	0.018538	-0.0319123	0.0464621	-0.124018	0.0384767	-0.0248212	0.0877145	0.0220442	-0.0107834	-2.11486	-0.486895	-2.79224	0	0	0	0	-0	0	0	0	-0.1265	0	-0	0	0	0	0	0	-0	0	0.105	0.015	0	0	-0	0	0	0.098	0.1	0	-0	0	0	0	0	0	-0	0	0.05595	0	0	0	-0	0	0	0	0	0	-0	0	433.128	481.903	347.478	365.778	8.72493	-29.9764	0.198367	0.44552	15.6092
27	-0.141214	0.792581	-0.0831914	0.324194	0.0174273	0.194165	0.018917	-0.0318748	0.0454142	-0.112496	0.00990444	-0.035887	0.0879268	0.0208438	-0.0158771	-2.13562	-0.535708	-2.7928	0	0	0	0	-0	0	0	0	-0.1265	0	-0	0	0	0	0	0	-0	0	0.105	0.015	0	0	-0	0	0	0.098	0.1	0	-0	0	0	0	0	0	-0	0	0.05595	0	0	0	-0	0	0	0	0	0	-0	0	427.828	479.131	349.654	369.969	8.22232	-26.033	0.217136	0.441409	12.5195
28	-0.0390098	0.796647	-0.0855087	0.323722	0.0165864	0.195025	0.0186675	-0.0315859	0.0454184	-0.120562	-0.0202933	-0.0259592	0.0909874	0.014038	-0.0103824	-2.11608	-0.451313	-2.82491	0	0	0	0	-0	0	0	0	-0.1265	0	-0	0	0	0	0	0	-0	0	0.105	0.015	0	0	-0	0	0	0.098	0.1	0	-0	0	0	0	0	0	-0	0	0.05595	0	0	0	-0	0	0	0	0	0	-0	0	407.83	464.621	352.185	382.322	5.80915	-11.9546	0.208956	0.379832	0.00082739
29	-0.047296	0.8055	-0.0849339	0.307385	0.0130447	0.197178	0.0196123	-0.0316936	0.0449343	-0.232983	-0.0870494	0.0168876	0.093405	0.00826156	-0.0138739	-2.13789	-0.4701	-2.84939	0	0	0	0	-0	0	0	0	-0.1265	0	-0	0	0	0	0	0	-0	0	0.105	0.015	0	0	-0	0	0	0.098	0.1	0	-0	0	0	0	0	0	-0	0	0.05595	0	0	0	-0	0	0	0	0	0	-0	0	398.25	455.481	354.067	394.957	3.70132	-4.68813	0.199659	0.308664	-3.32479
30	-0.102834	0.799266	-0.0863675	0.31545	0.00921716	0.195757	0.0195447	-0.0313839	0.0455565	-0.187171	-0.0849611	-0.0464318	0.0932495	0.00356477	-0.0207058	-2.18699	-0.53453	-2.8418	0	0	0	0	-0	0	0	0	-0.1265	0	-0	0	0	0	0	0	-0	0	0.105	0.015	0	0	-0	0	0	0.098	0.1	0	-0	0	0	0	0	0	-0	0	0.05595	0	0	0	-0	0	0	0	0	0	-0	0	390.461	448.143	355.822	407.188	2.44637	-0.745495	0.19204	0.285245	-4.27671
31	-0.116317	0.822158	-0.094315	0.299453	0.00385257	0.204556	0.0196438	-0.0312271	0.0438618	-0.249282	0.0159601	-0.25777	0.0949873	0.00100937	-0.0238036	-2.22353	-0.538623	-2.84807	0	0	0	0	-0	0	0	0	-0.1265	0	-0	0	0	0	0	0	-0	0	0.105	0.015	0	0	-0	0	0	0.098	0.1	0	-0	0	0	0	0	0	-0	0	0.05595	0	0	0	-0	0	0	0	0	0	-0	0	367.959	433.461	344.391	423.212	2.20109	-1.62654	0.191434	0.180823	-3.35958
32	-0.111664	0.789406	-0.0991931	0.320079	0.00776994	0.202617	0.0198672	-0.0311514	0.0453533	-0.249734	0.0160485	-0.257875	0.0933363	0.00240277	-0.0222741	-2.25468	-0.550478	-2.80149	0	0	0	0	-0	0	0	0	-0.1265	0	-0	0	0	0	0	0	-0	0	0.105	0.015	0	0	-0	0	0	0.098	0.1	0	-0	0	0	0	0	0	-0	0	0.05595	0	0	0	-0	0	0	0	0	0	-0	0	367.916	433.457	344.496	423.212	2.46833	-1.13855	0.239618	0.262753	-3.16837
33	-0.113973	0.823118	-0.096089	0.288311	0.00239707	0.208723	0.0199764	-0.0311334	0.0429748	-0.249215	0.0162119	-0.258278	0.0958337	-0.00031197	-0.0249788	-2.2214	-0.547125	-2.85427	0	0	0	0	-0	0	0	0	-0.1265	0	-0	0	0	0	0	0	-0	0	0.105	0.015	0	0	-0	0	0	0.098	0.1	0	-0	0	0	0	0	0	-0	0	0.05595	0	0	0	-0	0	0	0	0	0	-0	0	367.847	433.448	344.535	423.243	2.04451	-1.10119	0.198917	0.193838	-3.06204
34	-0.110925	0.788267	-0.0962043	0.324304	0.00704071	0.20019	0.0196457	-0.0310199	0.0458932	-0.249462	0.0161523	-0.258325	0.0934162	0.000824795	-0.0229389	-2.25538	-0.550341	-2.80001	0	0	0	0	-0	0	0	0	-0.1265	0	-0	0	0	0	0	0	-0	0	0.105	0.015	0	0	-0	0	0	0.098	0.1	0	-0	0	0	0	0	0	-0	0	0.05595	0	0	0	-0	0	0	0	0	0	-0	0	367.805	433.446	344.604	423.256	2.19155	-0.772247	0.229644	0.253746	-2.94347
35	-0.113225	0.822649	-0.0971951	0.290039	0.00101	0.209554	0.0199325	-0.0310449	0.0431751	-0.249243	0.016337	-0.258371	0.0961016	-0.00176541	-0.0256218	-2.22121	-0.548592	-2.85501	0	0	0	0	-0	0	0	0	-0.1265	0	-0	0	0	0	0	0	-0	0	0.105	0.015	0	0	-0	0	0	0.098	0.1	0	-0	0	0	0	0	0	-0	0	0.05595	0	0	0	-0	0	0	0	0	0	-0	0	367.722	433.435	344.644	423.295	1.82379	-0.711961	0.193966	0.192866	-2.8612
36	-0.110506	0.787556	-0.0953245	0.326763	0.00594299	0.199881	0.0195552	-0.0309374	0.0462102	-0.249845	0.0159026	-0.25841	0.093701	-0.000683449	-0.0236417	-2.25589	-0.551464	-2.80014	0	0	0	0	-0	0	0	0	-0.1265	0	-0	0	0	0	0	0	-0	0	0.105	0.015	0	0	-0	0	0	0.098	0.1	0	-0	0	0	0	0	0	-0	0	0.05595	0	0	0	-0	0	0	0	0	0	-0	0	367.672	433.431	344.713	423.316	1.93573	-0.396846	0.221076	0.245799	-2.77975
37	-0.112921	0.821951	-0.0971471	0.292428	-0.000122014	0.209505	0.0198692	-0.0309544	0.0434595	-0.249491	0.0161593	-0.258052	0.0962743	-0.00307701	-0.0261385	-2.22188	-0.549093	-2.8548	0	0	0	0	-0	0	0	0	-0.1265	0	-0	0	0	0	0	0	-0	0	0.105	0.015	0	0	-0	0	0	0.098	0.1	0	-0	0	0	0	0	0	-0	0	0.05595	0	0	0	-0	0	0	0	0	0	-0	0	367.575	433.417	344.74	423.369	1.61126	-0.363255	0.186867	0.187652	-2.75512
38	-0.109959	0.786302	-0.0947812	0.329465	0.004932	0.199738	0.0194957	-0.0308761	0.0465182	-0.249687	0.0159111	-0.258188	0.0938913	-0.0019241	-0.0241386	-2.25719	-0.551905	-2.7991	0	0	0	0	-0	0	0	0	-0.1265	0	-0	0	0	0	0	0	-0	0	0.105	0.015	0	0	-0	0	0	0.098	0.1	0	-0	0	0	0	0	0	-0	0	0.05595	0	0	0	-0	0	0	0	0	0	-0	0	367.517	433.411	344.809	423.398	1.71644	-0.0491584	0.213738	0.239435	-2.70696
39	-0.112668	0.822	-0.0968492	0.293915	-0.00126683	0.209428	0.0198325	-0.0308888	0.0436647	-0.250021	0.0162457	-0.257449	0.0964149	-0.00413963	-0.026516	-2.22208	-0.548621	-2.85526	0	0	0	0	-0	0	0	0	-0.1265	0	-0	0	0	0	0	0	-0	0	0.105	0.015	0	0	-0	0	0	0.098	0.1	0	-0	0	0	0	0	0	-0	0	0.05595	0	0	0	-0	0	0	0	0	0	-0	0	367.405	433.394	344.811	423.466	1.43163	-0.0649675	0.17979	0.181099	-2.73418
40	-0.110103	0.787918	-0.0952584	0.330155	0.00392851	0.20014	0.0194138	-0.0308212	0.0465934	-0.250213	0.0158979	-0.257462	0.094054	-0.00270035	-0.0245398	-2.25546	-0.550528	-2.80135	0	0	0	0	-0	0	0	0	-0.1265	0	-0	0	0	0	0	0	-0	0	0.105	0.015	0	0	-0	0	0	0.098	0.1	0	-0	0	0	0	0	0	-0	0	0.05595	0	0	0	-0	0	0	0	0	0	-0	0	367.388	433.392	344.827	423.476	1.57517	0.0963893	0.203569	0.22884	-2.68933
41	-0.112323	0.818485	-0.096517	0.297328	-0.00139949	0.208879	0.0198321	-0.0309021	0.0439835	-0.25003	0.0162493	-0.257434	0.096176	-0.00438153	-0.0264438	-2.22533	-0.549708	-2.8498	0	0	0	0	-0	0	0	0	-0.1265	0	-0	0	0	0	0	0	-0	0	0.105	0.015	0	0	-0	0	0	0.098	0.1	0	-0	0	0	0	0	0	-0	0	0.05595	0	0	0	-0	0	0	0	0	0	-0	0	367.356	433.387	344.828	423.494	1.41021	0.0510651	0.184585	0.188128	-2.71428
42	-0.110104	0.788274	-0.0935937	0.329514	0.00334769	0.200351	0.0194373	-0.0308532	0.0466753	-0.250044	0.015558	-0.257274	0.094194	-0.00337237	-0.0248311	-2.25522	-0.551498	-2.80243	0	0	0	0	-0	0	0	0	-0.1265	0	-0	0	0	0	0	0	-0	0	0.105	0.015	0	0	-0	0	0	0.098	0.1	0	-0	0	0	0	0	0	-0	0	0.05595	0	0	0	-0	0	0	0	0	0	-0	0	367.301	433.38	344.874	423.527	1.48034	0.291758	0.203658	0.227654	-2.69106
43	-0.112933	0.81845	-0.0957678	0.298839	-0.00175121	0.208729	0.0197682	-0.030878	0.0441967	-0.249946	0.0160673	-0.257211	0.0962186	-0.00502783	-0.0267414	-2.22578	-0.549179	-2.84962	0	0	0	0	-0	0	0	0	-0.1265	0	-0	0	0	0	0	0	-0	0	0.105	0.015	0	0	-0	0	0	0.098	0.1	0	-0	0	0	0	0	0	-0	0	0.05595	0	0	0	-0	0	0	0	0	0	-0	0	367.229	433.368	344.862	423.574	1.28952	0.244236	0.178464	0.18224	-2.7344
44	-0.110494	0.787591	-0.0934105	0.330866	0.00283399	0.200424	0.0194313	-0.0308373	0.0468226	-0.250491	0.015657	-0.257181	0.0942211	-0.00384693	-0.0250281	-2.25638	-0.551632	-2.80136	0	0	0	0	-0	0	0	0	-0.1265	0	-0	0	0	0	0	0	-0	0	0.105	0.015	0	0	-0	0	0	0.098	0.1	0	-0	0	0	0	0	0	-0	0	0.05595	0	0	0	-0	0	0	0	0	0	-0	0	367.188	433.362	344.892	423.599	1.38845	0.448839	0.200176	0.224534	-2.70619
45	-0.112802	0.817244	-0.0950797	0.300094	-0.00206842	0.208404	0.019783	-0.030874	0.0443628	-0.25023	0.0159548	-0.257284	0.096194	-0.00533557	-0.0267728	-2.22719	-0.549332	-2.84795	0	0	0	0	-0	0	0	0	-0.1265	0	-0	0	0	0	0	0	-0	0	0.105	0.015	0	0	-0	0	0	0.098	0.1	0	-0	0	0	0	0	0	-0	0	0.05595	0	0	0	-0	0	0	0	0	0	-0	0	367.161	433.358	344.885	423.618	1.2371	0.370757	0.178631	0.182609	-2.75315
46	-0.110657	0.78912	-0.093226	0.330194	0.00238522	0.200738	0.0194073	-0.030833	0.0468118	-0.250438	0.0156372	-0.257429	0.0943309	-0.00417333	-0.0252092	-2.25477	-0.550808	-2.8037	0	0	0	0	-0	0	0	0	-0.1265	0	-0	0	0	0	0	0	-0	0	0.105	0.015	0	0	-0	0	0	0.098	0.1	0	-0	0	0	0	0	0	-0	0	0.05595	0	0	0	-0	0	0	0	0	0	-0	0	367.138	433.354	344.899	423.632	1.33412	0.508853	0.196196	0.219468	-2.72227
47	-0.112674	0.816047	-0.0949471	0.30174	-0.00209599	0.208167	0.0197539	-0.0308837	0.0445075	-0.250428	0.016057	-0.257551	0.0961049	-0.00555254	-0.0268143	-2.22828	-0.549014	-2.84597	0	0	0	0	-0	0	0	0	-0.1265	0	-0	0	0	0	0	0	-0	0	0.105	0.015	0	0	-0	0	0	0.098	0.1	0	-0	0	0	0	0	0	-0	0	0.05595	0	0	0	-0	0	0	0	0	0	-0	0	367.093	433.346	344.885	423.663	1.19462	0.452027	0.177091	0.182285	-2.76084
48	-0.110629	0.789737	-0.0929678	0.329847	0.00194998	0.201013	0.0194118	-0.0308405	0.0468084	-0.250598	0.0158213	-0.257804	0.0943875	-0.00448426	-0.0253413	-2.25429	-0.550628	-2.80454	0	0	0	0	-0	0	0	0	-0.1265	0	-0	0	0	0	0	0	-0	0	0.105	0.015	0	0	-0	0	0	0.098	0.1	0	-0	0	0	0	0	0	-0	0	0.05595	0	0	0	-0	0	0	0	0	0	-0	0	367.067	433.343	344.898	423.68	1.28497	0.588651	0.19434	0.217124	-2.7323
49	-0.112637	0.815387	-0.0945991	0.302863	-0.00222149	0.207973	0.0197335	-0.0308836	0.0446288	-0.250619	0.0160181	-0.257921	0.0960634	-0.00577386	-0.0268614	-2.22908	-0.54868	-2.84477	0	0	0	0	-0	0	0	0	-0.1265	0	-0	0	0	0	0	0	-0	0	0.105	0.015	0	0	-0	0	0	0.098	0.1	0	-0	0	0	0	0	0	-0	0	0.05595	0	0	0	-0	0	0	0	0	0	-0	0	367.016	433.334	344.88	423.716	1.15377	0.529599	0.175711	0.181292	-2.77318
50	-0.110583	0.789726	-0.0926755	0.330022	0.00165167	0.201105	0.0194177	-0.0308439	0.0468509	-0.250939	0.0157435	-0.257812	0.0944182	-0.00473573	-0.0254262	-2.2545	-0.550463	-2.80452	0	0	0	0	-0	0	0	0	-0.1265	0	-0	0	0	0	0	0	-0	0	0.105	0.015	0	0	-0	0	0	0.098	0.1	0	-0	0	0	0	0	0	-0	0	0.05595	0	0	0	-0	0	0	0	0	0	-0	0	366.987	433.329	344.893	423.735	1.2404	0.668859	0.192908	0.215537	-2.74592
51	-0.112433	0.813771	-0.0938883	0.304278	-0.002231	0.207596	0.0197433	-0.0308898	0.0447967	-0.250734	0.0157628	-0.257784	0.0960044	-0.00590029	-0.0268184	-2.23082	-0.548937	-2.84245	0	0	0	0	-0	0	0	0	-0.1265	0	-0	0	0	0	0	0	-0	0	0.105	0.015	0	0	-0	0	0	0.098	0.1	0	-0	0	0	0	0	0	-0	0	0.05595	0	0	0	-0	0	0	0	0	0	-0	0	366.968	433.326	344.886	423.749	1.13174	0.604352	0.177249	0.183282	-2.78379
52	-0.1109	0.791842	-0.0925874	0.328546	0.00127837	0.201591	0.019402	-0.0308464	0.0467648	-0.250884	0.0154635	-0.257831	0.0945425	-0.00497854	-0.0256107	-2.25233	-0.549821	-2.8077	0	0	0	0	-0	0	0	0	-0.1265	0	-0	0	0	0	0	0	-0	0	0.105	0.015	0	0	-0	0	0	0.098	0.1	0	-0	0	0	0	0	0	-0	0	0.05595	0	0	0	-0	0	0	0	0	0	-0	0	366.952	433.323	344.891	423.76	1.20523	0.695455	0.189622	0.210827	-2.75911
53	-0.112397	0.812378	-0.0938244	0.306133	-0.00210616	0.207342	0.0197072	-0.0309017	0.0449494	-0.250841	0.0156425	-0.257836	0.0958816	-0.00599571	-0.0268151	-2.23211	-0.548752	-2.84003	0	0	0	0	-0	0	0	0	-0.1265	0	-0	0	0	0	0	0	-0	0	0.105	0.015	0	0	-0	0	0	0.098	0.1	0	-0	0	0	0	0	0	-0	0	0.05595	0	0	0	-0	0	0	0	0	0	-0	0	366.919	433.318	344.879	423.783	1.11083	0.650669	0.176682	0.184027	-2.78812
54	-0.111049	0.792972	-0.0924294	0.327521	0.000904634	0.20202	0.0194149	-0.0308613	0.0466979	-0.250965	0.0153238	-0.257825	0.0946042	-0.00519813	-0.0257405	-2.25134	-0.549784	-2.80923	0	0	0	0	-0	0	0	0	-0.1265	0	-0	0	0	0	0	0	-0	0	0.105	0.015	0	0	-0	0	0	0.098	0.1	0	-0	0	0	0	0	0	-0	0	0.05595	0	0	0	-0	0	0	0	0	0	-0	0	366.902	433.315	344.884	423.795	1.17606	0.737444	0.188417	0.208788	-2.76549
55	-0.1125	0.811443	-0.093534	0.307487	-0.0020767	0.20712	0.0196801	-0.030906	0.0450811	-0.250829	0.0156703	-0.25751	0.0958042	-0.0061126	-0.0268317	-2.23318	-0.548693	-2.8383	0	0	0	0	-0	0	0	0	-0.1265	0	-0	0	0	0	0	0	-0	0	0.105	0.015	0	0	-0	0	0	0.098	0.1	0	-0	0	0	0	0	0	-0	0	0.05595	0	0	0	-0	0	0	0	0	0	-0	0	366.865	433.308	344.87	423.822	1.08904	0.696999	0.176285	0.184198	-2.79332
56	-0.1111	0.793536	-0.0922404	0.327023	0.000642868	0.202288	0.0194255	-0.0308714	0.046679	-0.251031	0.0155086	-0.257653	0.0946478	-0.00538366	-0.0258302	-2.25091	-0.549695	-2.81001	0	0	0	0	-0	0	0	0	-0.1265	0	-0	0	0	0	0	0	-0	0	0.105	0.015	0	0	-0	0	0	0.098	0.1	0	-0	0	0	0	0	0	-0	0	0.05595	0	0	0	-0	0	0	0	0	0	-0	0	366.845	433.305	344.873	423.836	1.14842	0.782055	0.187474	0.207314	-2.77213
57	-0.11242	0.810893	-0.0932791	0.308376	-0.00211911	0.206973	0.0196634	-0.0309083	0.0451747	-0.250959	0.0156274	-0.257599	0.0957679	-0.00623728	-0.0268449	-2.23383	-0.548411	-2.83728	0	0	0	0	-0	0	0	0	-0.1265	0	-0	0	0	0	0	0	-0	0	0.105	0.015	0	0	-0	0	0	0.098	0.1	0	-0	0	0	0	0	0	-0	0	0.05595	0	0	0	-0	0	0	0	0	0	-0	0	366.803	433.298	344.856	423.867	1.06572	0.742048	0.175592	0.18375	-2.80065
58	-0.111191	0.793679	-0.0920606	0.326947	0.000441285	0.202404	0.0194326	-0.0308768	0.0466915	-0.251107	0.015363	-0.257627	0.0946693	-0.00554025	-0.0258978	-2.25096	-0.549675	-2.81016	0	0	0	0	-0	0	0	0	-0.1265	0	-0	0	0	0	0	0	-0	0	0.105	0.015	0	0	-0	0	0	0.098	0.1	0	-0	0	0	0	0	0	-0	0	0.05595	0	0	0	-0	0	0	0	0	0	-0	0	366.781	433.294	344.86	423.883	1.12215	0.828156	0.186646	0.206236	-2.78016
59	-0.112558	0.810671	-0.0930749	0.308863	-0.00222162	0.206891	0.0196546	-0.0309087	0.0452322	-0.25129	0.0154838	-0.257598	0.0957532	-0.00636359	-0.0268889	-2.23428	-0.548288	-2.83678	0	0	0	0	-0	0	0	0	-0.1265	0	-0	0	0	0	0	0	-0	0	0.105	0.015	0	0	-0	0	0	0.098	0.1	0	-0	0	0	0	0	0	-0	0	0.05595	0	0	0	-0	0	0	0	0	0	-0	0	366.734	433.285	344.838	423.917	1.04184	0.785155	0.174651	0.182817	-2.81049
60	-0.111219	0.793466	-0.091881	0.327214	0.000293432	0.202394	0.019438	-0.0308787	0.0467289	-0.251373	0.0152793	-0.257659	0.0946734	-0.00566846	-0.0259354	-2.2514	-0.549621	-2.80979	0	0	0	0	-0	0	0	0	-0.1265	0	-0	0	0	0	0	0	-0	0	0.105	0.015	0	0	-0	0	0	0.098	0.1	0	-0	0	0	0	0	0	-0	0	0.05595	0	0	0	-0	0	0	0	0	0	-0	0	366.709	433.281	344.842	423.935	1.09774	0.874923	0.185962	0.205534	-2.78988
61	-0.112458	0.809703	-0.0926076	0.309627	-0.00224411	0.206664	0.019666	-0.0309128	0.0453274	-0.251189	0.0154652	-0.257616	0.0957265	-0.00643995	-0.0268659	-2.23539	-0.548491	-2.83542	0	0	0	0	-0	0	0	0	-0.1265	0	-0	0	0	0	0	0	-0	0	0.105	0.015	0	0	-0	0	0	0.098	0.1	0	-0	0	0	0	0	0	-0	0	0.05595	0	0	0	-0	0	0	0	0	0	-0	0	366.692	433.278	344.833	423.949	1.02791	0.830166	0.175591	0.183924	-2.81667
62	-0.111332	0.794805	-0.0918575	0.326294	7.28631e-05	0.202675	0.019428	-0.0308781	0.0466733	-0.251381	0.0153191	-0.257608	0.0947538	-0.00581052	-0.0260381	-2.25005	-0.549069	-2.81181	0	0	0	0	-0	0	0	0	-0.1265	0	-0	0	0	0	0	0	-0	0	0.105	0.015	0	0	-0	0	0	0.098	0.1	0	-0	0	0	0	0	0	-0	0	0.05595	0	0	0	-0	0	0	0	0	0	-0	0	366.678	433.276	344.834	423.959	1.07643	0.889931	0.183822	0.202467	-2.79902
63	-0.112465	0.808858	-0.0926391	0.310769	-0.00218676	0.206513	0.0196456	-0.0309175	0.0454165	-0.251264	0.0154581	-0.257438	0.0956531	-0.00648753	-0.0268605	-2.23625	-0.548382	-2.83392	0	0	0	0	-0	0	0	0	-0.1265	0	-0	0	0	0	0	0	-0	0	0.105	0.015	0	0	-0	0	0	0.098	0.1	0	-0	0	0	0	0	0	-0	0	0.05595	0	0	0	-0	0	0	0	0	0	-0	0	366.648	433.27	344.82	423.981	1.01568	0.856986	0.175157	0.184304	-2.82074
64	-0.111471	0.795483	-0.0917709	0.325627	-0.000158913	0.20291	0.0194396	-0.0308864	0.0466265	-0.251283	0.0153146	-0.257476	0.0947896	-0.00593404	-0.0261153	-2.24952	-0.549076	-2.81272	0	0	0	0	-0	0	0	0	-0.1265	0	-0	0	0	0	0	0	-0	0	0.105	0.015	0	0	-0	0	0	0.098	0.1	0	-0	0	0	0	0	0	-0	0	0.05595	0	0	0	-0	0	0	0	0	0	-0	0	366.633	433.268	344.82	423.993	1.05954	0.91445	0.183085	0.201205	-2.80436
65	-0.112476	0.808269	-0.0924801	0.311611	-0.00217642	0.206364	0.0196299	-0.0309191	0.045496	-0.251014	0.0154716	-0.257579	0.0956082	-0.00655104	-0.0268611	-2.23696	-0.548281	-2.83283	0	0	0	0	-0	0	0	0	-0.1265	0	-0	0	0	0	0	0	-0	0	0.105	0.015	0	0	-0	0	0	0.098	0.1	0	-0	0	0	0	0	0	-0	0	0.05595	0	0	0	-0	0	0	0	0	0	-0	0	366.599	433.262	344.804	424.018	1.00289	0.884395	0.174899	0.184375	-2.82516
66	-0.111494	0.795813	-0.0916561	0.325298	-0.000320956	0.203058	0.0194486	-0.0308923	0.0466119	-0.251115	0.0153545	-0.25755	0.0948162	-0.00604076	-0.0261649	-2.24933	-0.549001	-2.81316	0	0	0	0	-0	0	0	0	-0.1265	0	-0	0	0	0	0	0	-0	0	0.105	0.015	0	0	-0	0	0	0.098	0.1	0	-0	0	0	0	0	0	-0	0	0.05595	0	0	0	-0	0	0	0	0	0	-0	0	366.582	433.259	344.804	424.031	1.04329	0.941208	0.182539	0.200305	-2.80954
67	-0.112268	0.807934	-0.0923311	0.312153	-0.00220829	0.20627	0.01962	-0.03092	0.045552	-0.250962	0.0155886	-0.257735	0.0955919	-0.006624	-0.0268521	-2.23736	-0.547939	-2.83222	0	0	0	0	-0	0	0	0	-0.1265	0	-0	0	0	0	0	0	-0	0	0.105	0.015	0	0	-0	0	0	0.098	0.1	0	-0	0	0	0	0	0	-0	0	0.05595	0	0	0	-0	0	0	0	0	0	-0	0	366.544	433.252	344.785	424.059	0.988753	0.911541	0.174459	0.184045	-2.83055
68	-0.111331	0.795877	-0.091543	0.325251	-0.000445496	0.203119	0.0194547	-0.0308955	0.0466191	-0.251086	0.0154275	-0.257735	0.0948341	-0.00613345	-0.0261825	-2.24936	-0.548774	-2.81324	0	0	0	0	-0	0	0	0	-0.1265	0	-0	0	0	0	0	0	-0	0	0.105	0.015	0	0	-0	0	0	0.098	0.1	0	-0	0	0	0	0	0	-0	0	0.05595	0	0	0	-0	0	0	0	0	0	-0	0	366.525	433.248	344.784	424.074	1.02751	0.969505	0.182073	0.199659	-2.81518
69	-0.11225	0.807817	-0.0922079	0.312432	-0.00227998	0.206223	0.0196152	-0.0309199	0.0455854	-0.251102	0.0156096	-0.258202	0.0955883	-0.00670247	-0.0268696	-2.23764	-0.547742	-2.83194	0	0	0	0	-0	0	0	0	-0.1265	0	-0	0	0	0	0	0	-0	0	0.105	0.015	0	0	-0	0	0	0.098	0.1	0	-0	0	0	0	0	0	-0	0	0.05595	0	0	0	-0	0	0	0	0	0	-0	0	366.483	433.24	344.762	424.106	0.973819	0.938003	0.173853	0.183384	-2.83718
70	-0.111123	0.795699	-0.0914269	0.325444	-0.00053689	0.203101	0.019459	-0.0308967	0.0466443	-0.251135	0.0154539	-0.258357	0.0948409	-0.00621168	-0.026182	-2.24965	-0.548526	-2.81296	0	0	0	0	-0	0	0	0	-0.1265	0	-0	0	0	0	0	0	-0	0	0.105	0.015	0	0	-0	0	0	0.098	0.1	0	-0	0	0	0	0	0	-0	0	0.05595	0	0	0	-0	0	0	0	0	0	-0	0	366.46	433.237	344.76	424.123	1.01245	0.99888	0.181697	0.199253	-2.8214
71	-0.112106	0.807908	-0.0921116	0.312468	-0.00238638	0.206217	0.0196146	-0.0309183	0.0455975	-0.250898	0.0158188	-0.258514	0.095604	-0.00678414	-0.0268826	-2.23769	-0.547391	-2.83202	0	0	0	0	-0	0	0	0	-0.1265	0	-0	0	0	0	0	0	-0	0	0.105	0.015	0	0	-0	0	0	0.098	0.1	0	-0	0	0	0	0	0	-0	0	0.05595	0	0	0	-0	0	0	0	0	0	-0	0	366.413	433.228	344.734	424.16	0.95846	0.963353	0.173098	0.182419	-2.84508
72	-0.111026	0.795299	-0.0913116	0.325859	-0.00059634	0.203014	0.0194615	-0.0308958	0.0466858	-0.251057	0.015662	-0.258425	0.0948324	-0.00627518	-0.026179	-2.25025	-0.548412	-2.81231	0	0	0	0	-0	0	0	0	-0.1265	0	-0	0	0	0	0	0	-0	0	0.105	0.015	0	0	-0	0	0	0.098	0.1	0	-0	0	0	0	0	0	-0	0	0.05595	0	0	0	-0	0	0	0	0	0	-0	0	366.388	433.224	344.732	424.178	0.99833	1.0291	0.181436	0.199101	-2.82825
73	-0.111978	0.807424	-0.0918036	0.312747	-0.00243442	0.2061	0.0196279	-0.0309208	0.0456413	-0.250979	0.0158433	-0.258416	0.0956054	-0.00684291	-0.0268707	-2.23831	-0.547458	-2.8314	0	0	0	0	-0	0	0	0	-0.1265	0	-0	0	0	0	0	0	-0	0	0.105	0.015	0	0	-0	0	0	0.098	0.1	0	-0	0	0	0	0	0	-0	0	0.05595	0	0	0	-0	0	0	0	0	0	-0	0	366.371	433.22	344.722	424.192	0.947709	0.993261	0.173565	0.182847	-2.84926
74	-0.111055	0.796049	-0.0913097	0.325411	-0.000720059	0.203142	0.0194525	-0.0308929	0.0466602	-0.251033	0.0157458	-0.258447	0.09488	-0.00635867	-0.0262337	-2.24951	-0.547982	-2.81344	0	0	0	0	-0	0	0	0	-0.1265	0	-0	0	0	0	0	0	-0	0	0.105	0.015	0	0	-0	0	0	0.098	0.1	0	-0	0	0	0	0	0	-0	0	0.05595	0	0	0	-0	0	0	0	0	0	-0	0	366.357	433.218	344.72	424.203	0.984753	1.03896	0.180019	0.197139	-2.83471
75	-0.111877	0.806992	-0.0918757	0.31335	-0.00242643	0.206032	0.0196178	-0.0309221	0.0456846	-0.251049	0.0160464	-0.258489	0.0955709	-0.00687231	-0.0268597	-2.23877	-0.547267	-2.83062	0	0	0	0	-0	0	0	0	-0.1265	0	-0	0	0	0	0	0	-0	0	0.105	0.015	0	0	-0	0	0	0.098	0.1	0	-0	0	0	0	0	0	-0	0	0.05595	0	0	0	-0	0	0	0	0	0	-0	0	366.327	433.212	344.703	424.226	0.93977	1.0094	0.173186	0.182906	-2.85272
76	-0.111077	0.796368	-0.0912595	0.325081	-0.000856546	0.203248	0.0194603	-0.0308966	0.0466362	-0.251084	0.0159223	-0.258436	0.0948988	-0.00642834	-0.0262688	-2.24933	-0.547932	-2.81384	0	0	0	0	-0	0	0	0	-0.1265	0	-0	0	0	0	0	0	-0	0	0.105	0.015	0	0	-0	0	0	0.098	0.1	0	-0	0	0	0	0	0	-0	0	0.05595	0	0	0	-0	0	0	0	0	0	-0	0	366.311	433.209	344.7	424.238	0.974609	1.0547	0.179607	0.196437	-2.83863
77	-0.111886	0.806714	-0.0917973	0.313773	-0.00244094	0.205957	0.0196101	-0.0309221	0.0457243	-0.251016	0.0161316	-0.258258	0.0955509	-0.00691348	-0.0268634	-2.23918	-0.547182	-2.83007	0	0	0	0	-0	0	0	0	-0.1265	0	-0	0	0	0	0	0	-0	0	0.105	0.015	0	0	-0	0	0	0.098	0.1	0	-0	0	0	0	0	0	-0	0	0.05595	0	0	0	-0	0	0	0	0	0	-0	0	366.278	433.203	344.681	424.264	0.931441	1.02606	0.172948	0.182777	-2.85625
78	-0.111172	0.796456	-0.0911865	0.324977	-0.000947206	0.203304	0.0194661	-0.0308991	0.0466343	-0.251122	0.0159158	-0.25823	0.094908	-0.00648892	-0.0263011	-2.24943	-0.547978	-2.8139	0	0	0	0	-0	0	0	0	-0.1265	0	-0	0	0	0	0	0	-0	0	0.105	0.015	0	0	-0	0	0	0.098	0.1	0	-0	0	0	0	0	0	-0	0	0.05595	0	0	0	-0	0	0	0	0	0	-0	0	366.26	433.2	344.678	424.277	0.964759	1.07224	0.179344	0.195988	-2.84221
79	-0.11199	0.806617	-0.0917203	0.31399	-0.00248337	0.205923	0.0196059	-0.0309217	0.0457485	-0.251045	0.0159729	-0.258282	0.0955439	-0.00696325	-0.0268849	-2.23947	-0.547158	-2.8298	0	0	0	0	-0	0	0	0	-0.1265	0	-0	0	0	0	0	0	-0	0	0.105	0.015	0	0	-0	0	0	0.098	0.1	0	-0	0	0	0	0	0	-0	0	0.05595	0	0	0	-0	0	0	0	0	0	-0	0	366.222	433.193	344.656	424.307	0.922043	1.04262	0.172582	0.182356	-2.86026
80	-0.111189	0.796347	-0.0911133	0.325081	-0.00101203	0.203303	0.01947	-0.0309	0.0466488	-0.251085	0.0158233	-0.258247	0.0949098	-0.00654141	-0.0263163	-2.24971	-0.547972	-2.81367	0	0	0	0	-0	0	0	0	-0.1265	0	-0	0	0	0	0	0	-0	0	0.105	0.015	0	0	-0	0	0	0.098	0.1	0	-0	0	0	0	0	0	-0	0	0.05595	0	0	0	-0	0	0	0	0	0	-0	0	366.203	433.189	344.652	424.322	0.955083	1.09115	0.179154	0.195732	-2.84578
81	-0.112239	0.806692	-0.0916608	0.314009	-0.00255625	0.205925	0.019605	-0.0309205	0.045756	-0.251011	0.0158917	-0.258327	0.0955466	-0.00701968	-0.0269281	-2.23966	-0.547243	-2.82978	0	0	0	0	-0	0	0	0	-0.1265	0	-0	0	0	0	0	0	-0	0	0.105	0.015	0	0	-0	0	0	0.098	0.1	0	-0	0	0	0	0	0	-0	0	0.05595	0	0	0	-0	0	0	0	0	0	-0	0	366.16	433.181	344.626	424.355	0.911804	1.05885	0.17208	0.181666	-2.86491
82	-0.111277	0.796045	-0.091036	0.32538	-0.00105191	0.203244	0.0194723	-0.0308994	0.0466782	-0.251084	0.0157968	-0.258387	0.0948998	-0.00658508	-0.0263287	-2.25026	-0.548056	-2.81313	0	0	0	0	-0	0	0	0	-0.1265	0	-0	0	0	0	0	0	-0	0	0.105	0.015	0	0	-0	0	0	0.098	0.1	0	-0	0	0	0	0	0	-0	0	0.05595	0	0	0	-0	0	0	0	0	0	-0	0	366.138	433.177	344.622	424.372	0.94569	1.11134	0.179044	0.195671	-2.84944
83	-0.112086	0.806228	-0.0914004	0.314277	-0.00258179	0.205819	0.0196161	-0.0309227	0.0457951	-0.250984	0.0158643	-0.258376	0.095546	-0.00706068	-0.0269103	-2.24023	-0.547299	-2.82917	0	0	0	0	-0	0	0	0	-0.1265	0	-0	0	0	0	0	0	-0	0	0.105	0.015	0	0	-0	0	0	0.098	0.1	0	-0	0	0	0	0	0	-0	0	0.05595	0	0	0	-0	0	0	0	0	0	-0	0	366.122	433.174	344.612	424.385	0.904539	1.08103	0.172618	0.182185	-2.86656
84	-0.111197	0.795873	-0.0907596	0.32553	-0.00111911	0.203161	0.0194752	-0.0308992	0.0467123	-0.250991	0.0156838	-0.258599	0.094917	-0.0066717	-0.0263436	-2.25057	-0.547946	-2.81295	0	0	0	0	-0	0	0	0	-0.1265	0	-0	0	0	0	0	0	-0	0	0.105	0.015	0	0	-0	0	0	0.098	0.1	0	-0	0	0	0	0	0	-0	0	0.05595	0	0	0	-0	0	0	0	0	0	-0	0	366.085	433.168	344.603	424.414	0.929597	1.14194	0.178709	0.195185	-2.85496
85	-0.111998	0.806201	-0.0912697	0.314426	-0.00266351	0.205793	0.0196144	-0.0309215	0.0458207	-0.250983	0.0157437	-0.258538	0.0955604	-0.00714697	-0.0269291	-2.24037	-0.547008	-2.82913	0	0	0	0	-0	0	0	0	-0.1265	0	-0	0	0	0	0	0	-0	0	0.105	0.015	0	0	-0	0	0	0.098	0.1	0	-0	0	0	0	0	0	-0	0	0.05595	0	0	0	-0	0	0	0	0	0	-0	0	366.067	433.164	344.592	424.428	0.88785	1.10906	0.17186	0.181321	-2.87358
86	-0.111303	0.796448	-0.0909079	0.325262	-0.00123254	0.203304	0.0194673	-0.0308966	0.0466881	-0.251056	0.0156151	-0.258564	0.0949402	-0.0067294	-0.0263915	-2.25006	-0.547636	-2.8137	0	0	0	0	-0	0	0	0	-0.1265	0	-0	0	0	0	0	0	-0	0	0.105	0.015	0	0	-0	0	0	0.098	0.1	0	-0	0	0	0	0	0	-0	0	0.05595	0	0	0	-0	0	0	0	0	0	-0	0	366.053	433.162	344.588	424.439	0.919697	1.14767	0.177476	0.193651	-2.86029
87	-0.11209	0.806012	-0.0913869	0.314761	-0.00268896	0.205776	0.0196079	-0.0309221	0.0458378	-0.250965	0.0157557	-0.258764	0.0955316	-0.00716772	-0.0269393	-2.24068	-0.546999	-2.82865	0	0	0	0	-0	0	0	0	-0.1265	0	-0	0	0	0	0	0	-0	0	0.105	0.015	0	0	-0	0	0	0.098	0.1	0	-0	0	0	0	0	0	-0	0	0.05595	0	0	0	-0	0	0	0	0	0	-0	0	366.023	433.156	344.569	424.463	0.882641	1.11815	0.171489	0.18121	-2.87635
88	-0.111408	0.796613	-0.0908981	0.325087	-0.00132551	0.203367	0.0194726	-0.030899	0.0466725	-0.251046	0.0156408	-0.258731	0.0949441	-0.00677129	-0.0264199	-2.25007	-0.547698	-2.81382	0	0	0	0	-0	0	0	0	-0.1265	0	-0	0	0	0	0	0	-0	0	0.105	0.015	0	0	-0	0	0	0.098	0.1	0	-0	0	0	0	0	0	-0	0	0.05595	0	0	0	-0	0	0	0	0	0	-0	0	366.007	433.153	344.564	424.475	0.913644	1.15757	0.177261	0.193266	-2.86282
89	-0.11202	0.80592	-0.0913588	0.314951	-0.00271576	0.20575	0.0196035	-0.0309215	0.0458551	-0.250832	0.0157737	-0.258661	0.0955253	-0.00719726	-0.0269382	-2.24089	-0.54685	-2.8284	0	0	0	0	-0	0	0	0	-0.1265	0	-0	0	0	0	0	0	-0	0	0.105	0.015	0	0	-0	0	0	0.098	0.1	0	-0	0	0	0	0	0	-0	0	0.05595	0	0	0	-0	0	0	0	0	0	-0	0	365.973	433.147	344.542	424.502	0.877169	1.1279	0.171282	0.180987	-2.87864
90	-0.11128	0.796577	-0.0908568	0.325103	-0.00137661	0.203386	0.0194764	-0.0309001	0.046677	-0.250978	0.0157118	-0.258736	0.0949503	-0.00680707	-0.0264187	-2.25021	-0.54757	-2.81372	0	0	0	0	-0	0	0	0	-0.1265	0	-0	0	0	0	0	0	-0	0	0.105	0.015	0	0	-0	0	0	0.098	0.1	0	-0	0	0	0	0	0	-0	0	0.05595	0	0	0	-0	0	0	0	0	0	-0	0	365.956	433.143	344.537	424.516	0.907668	1.16917	0.177188	0.193094	-2.86463
91	-0.1119	0.805974	-0.0913276	0.314975	-0.00276339	0.205757	0.0196019	-0.0309207	0.0458605	-0.250928	0.0158344	-0.2585	0.0955344	-0.00723521	-0.0269405	-2.24095	-0.54663	-2.82841	0	0	0	0	-0	0	0	0	-0.1265	0	-0	0	0	0	0	0	-0	0	0.105	0.015	0	0	-0	0	0	0.098	0.1	0	-0	0	0	0	0	0	-0	0	0.05595	0	0	0	-0	0	0	0	0	0	-0	0	365.918	433.136	344.512	424.546	0.87065	1.1377	0.170967	0.180513	-2.88105
92	-0.111152	0.796362	-0.0908101	0.325305	-0.0014054	0.203354	0.0194784	-0.0308998	0.0466965	-0.251014	0.0157032	-0.258529	0.0949486	-0.00683726	-0.02641	-2.25056	-0.54747	-2.81335	0	0	0	0	-0	0	0	0	-0.1265	0	-0	0	0	0	0	0	-0	0	0.105	0.015	0	0	-0	0	0	0.098	0.1	0	-0	0	0	0	0	0	-0	0	0.05595	0	0	0	-0	0	0	0	0	0	-0	0	365.898	433.133	344.506	424.561	0.901645	1.18224	0.177187	0.193093	-2.86613
93	-0.111977	0.806186	-0.0913093	0.314822	-0.00283832	0.205797	0.0196029	-0.0309191	0.0458513	-0.25106	0.0158701	-0.258268	0.0955505	-0.00728062	-0.0269693	-2.24095	-0.546567	-2.82863	0	0	0	0	-0	0	0	0	-0.1265	0	-0	0	0	0	0	0	-0	0	0.105	0.015	0	0	-0	0	0	0.098	0.1	0	-0	0	0	0	0	0	-0	0	0.05595	0	0	0	-0	0	0	0	0	0	-0	0	365.855	433.124	344.477	424.595	0.863217	1.14727	0.170522	0.179784	-2.88385
94	-0.111093	0.795966	-0.0907636	0.32569	-0.00141324	0.203274	0.019479	-0.030898	0.0467301	-0.251128	0.0157912	-0.258271	0.0949364	-0.00686081	-0.0263997	-2.25115	-0.547464	-2.81268	0	0	0	0	-0	0	0	0	-0.1265	0	-0	0	0	0	0	0	-0	0	0.105	0.015	0	0	-0	0	0	0.098	0.1	0	-0	0	0	0	0	0	-0	0	0.05595	0	0	0	-0	0	0	0	0	0	-0	0	365.833	433.12	344.471	424.612	0.895719	1.19677	0.177265	0.193281	-2.86749
95	-0.11191	0.805868	-0.0910881	0.314929	-0.00287516	0.205725	0.0196153	-0.0309203	0.0458744	-0.251125	0.0159202	-0.258305	0.0955575	-0.00731957	-0.0269652	-2.24141	-0.546695	-2.82824	0	0	0	0	-0	0	0	0	-0.1265	0	-0	0	0	0	0	0	-0	0	0.105	0.015	0	0	-0	0	0	0.098	0.1	0	-0	0	0	0	0	0	-0	0	0.05595	0	0	0	-0	0	0	0	0	0	-0	0	365.817	433.117	344.46	424.625	0.856735	1.16534	0.170956	0.180126	-2.88422
96	-0.111239	0.796551	-0.0907902	0.325353	-0.00149517	0.203368	0.0194701	-0.0308944	0.0467091	-0.25121	0.0158441	-0.25843	0.0949696	-0.00691737	-0.0264524	-2.25064	-0.54725	-2.81351	0	0	0	0	-0	0	0	0	-0.1265	0	-0	0	0	0	0	0	-0	0	0.105	0.015	0	0	-0	0	0	0.098	0.1	0	-0	0	0	0	0	0	-0	0	0.05595	0	0	0	-0	0	0	0	0	0	-0	0	365.804	433.115	344.456	424.635	0.886944	1.20066	0.176208	0.191807	-2.87088
97	-0.111952	0.805596	-0.0911949	0.315328	-0.00286947	0.205701	0.019608	-0.0309203	0.0458993	-0.250988	0.0158509	-0.258504	0.0955313	-0.00733377	-0.0269687	-2.24176	-0.546674	-2.82769	0	0	0	0	-0	0	0	0	-0.1265	0	-0	0	0	0	0	0	-0	0	0.105	0.015	0	0	-0	0	0	0.098	0.1	0	-0	0	0	0	0	0	-0	0	0.05595	0	0	0	-0	0	0	0	0	0	-0	0	365.777	433.11	344.437	424.657	0.8527	1.17275	0.170714	0.180184	-2.88492
98	-0.111284	0.796775	-0.0907745	0.325107	-0.00158641	0.203446	0.0194759	-0.0308966	0.0466891	-0.251099	0.0157626	-0.258522	0.0949813	-0.00696002	-0.0264787	-2.25056	-0.54727	-2.81376	0	0	0	0	-0	0	0	0	-0.1265	0	-0	0	0	0	0	0	-0	0	0.105	0.015	0	0	-0	0	0	0.098	0.1	0	-0	0	0	0	0	0	-0	0	0.05595	0	0	0	-0	0	0	0	0	0	-0	0	365.763	433.107	344.433	424.668	0.881525	1.20818	0.176016	0.191389	-2.87171
99	-0.11196	0.805441	-0.0911687	0.315587	-0.00287987	0.205667	0.0196021	-0.0309199	0.0459224	-0.251094	0.015793	-0.258408	0.0955198	-0.00735883	-0.0269727	-2.24204	-0.546627	-2.82733	0	0	0	0	-0	0	0	0	-0.1265	0	-0	0	0	0	0	0	-0	0	0.105	0.015	0	0	-0	0	0	0.098	0.1	0	-0	0	0	0	0	0	-0	0	0.05595	0	0	0	-0	0	0	0	0	0	-0	0	365.733	433.101	344.412	424.692	0.848238	1.18076	0.170596	0.180095	-2.88547
100	-0.111269	0.79681	-0.090738	0.325046	-0.00164107	0.203487	0.01948	-0.0308983	0.0466875	-0.251167	0.0157162	-0.258482	0.0949889	-0.00699693	-0.0264921	-2.25065	-0.547254	-2.81375	0	0	0	0	-0	0	0	0	-0.1265	0	-0	0	0	0	0	0	-0	0	0.105	0.015	0	0	-0	0	0	0.098	0.1	0	-0	0	0	0	0	0	-0	0	0.05595	0	0	0	-0	0	0	0	0	0	-0	0	365.717	433.099	344.407	424.704	0.876176	1.21734	0.175948	0.191174	-2.87204
