Stefan210/kinematic_calibration/src/kinematic_calibration/validation/experiments/experiments/impact_noise/outlier/larm_randomize_10_measurements_rk_false/optimization_intermediate_results.csv
iteration	HeadPitch_offset	HeadYaw_offset	LElbowRoll_offset	LElbowYaw_offset	LShoulderPitch_offset	LShoulderRoll_offset	marker_transform_larm_tx	marker_transform_larm_ty	marker_transform_larm_tz	marker_transform_larm_rr	marker_transform_larm_rp	marker_transform_larm_ry	camera_transform_tx	camera_transform_ty	camera_transform_tz	camera_transform_rr	camera_transform_rp	camera_transform_ry	HeadPitch_transform_tx	HeadPitch_transform_ty	HeadPitch_transform_tz	HeadPitch_transform_rr	HeadPitch_transform_rp	HeadPitch_transform_ry	HeadYaw_transform_tx	HeadYaw_transform_ty	HeadYaw_transform_tz	HeadYaw_transform_rr	HeadYaw_transform_rp	HeadYaw_transform_ry	LElbowRoll_transform_tx	LElbowRoll_transform_ty	LElbowRoll_transform_tz	LElbowRoll_transform_rr	LElbowRoll_transform_rp	LElbowRoll_transform_ry	LElbowYaw_transform_tx	LElbowYaw_transform_ty	LElbowYaw_transform_tz	LElbowYaw_transform_rr	LElbowYaw_transform_rp	LElbowYaw_transform_ry	LShoulderPitch_transform_tx	LShoulderPitch_transform_ty	LShoulderPitch_transform_tz	LShoulderPitch_transform_rr	LShoulderPitch_transform_rp	LShoulderPitch_transform_ry	LShoulderRoll_transform_tx	LShoulderRoll_transform_ty	LShoulderRoll_transform_tz	LShoulderRoll_transform_rr	LShoulderRoll_transform_rp	LShoulderRoll_transform_ry	LWristYaw_transform_tx	LWristYaw_transform_ty	LWristYaw_transform_tz	LWristYaw_transform_rr	LWristYaw_transform_rp	LWristYaw_transform_ry	l_wrist_joint_transform_tx	l_wrist_joint_transform_ty	l_wrist_joint_transform_tz	l_wrist_joint_transform_rr	l_wrist_joint_transform_rp	l_wrist_joint_transform_ry	camera_fx	camera_fy	camera_cx	camera_cy	camera_D0	camera_D1	camera_D2	camera_D3	camera_D4	
0	0.0249164	-0.0307543	0.000853157	4.65819e-06	-0.000318322	-0.00310766	0.05071	0	0.01774	-2.26369	1.66533e-16	-1.5708	545.901	551.038	324.928	201.58	0.0255298	2.61142	-0.0636736	-0.0350419	0.213964
1	-0.00950885	0.056741	0.0323808	-0.0199635	0.123581	-0.016263	0.030884	-0.0273076	0.00156311	-9.31024e-05	-0.000369162	-0.00203729	0.0456336	-0.00131111	0.0151514	-2.22311	-0.0357347	-1.69979	0	0	0	0	-0	0	0	0	-0.1265	0	-0	0	0	0	0	0	-0	0	0.105	0.015	0	0	-0	0	0	0.098	0.1	0	-0	0	0	0	0	0	-0	0	0.05595	0	0	0	-0	0	0	0	0	0	-0	0	545.902	551.037	324.929	201.58	0.0448142	2.61975	0.0355283	0.1612	0.215993
2	-0.00613173	0.118227	0.0115788	0.0915971	0.102286	-0.0165929	0.0295283	-0.0276335	0.0134723	-0.00138097	-0.00185109	-0.00223058	0.0400066	0.00406562	0.0265062	-2.23082	-0.0889772	-1.75558	0	0	0	0	-0	0	0	0	-0.1265	0	-0	0	0	0	0	0	-0	0	0.105	0.015	0	0	-0	0	0	0.098	0.1	0	-0	0	0	0	0	0	-0	0	0.05595	0	0	0	-0	0	0	0	0	0	-0	0	545.908	551.035	324.925	201.586	-0.138312	2.55226	0.130895	0.100306	0.200299
3	-0.0097108	0.16054	0.0120076	0.100717	0.0954034	0.0112223	0.0299844	-0.0271839	0.0145361	-0.00152948	-0.00194361	-0.00210098	0.0447142	0.00972043	0.021853	-2.20766	-0.120709	-1.83334	0	0	0	0	-0	0	0	0	-0.1265	0	-0	0	0	0	0	0	-0	0	0.105	0.015	0	0	-0	0	0	0.098	0.1	0	-0	0	0	0	0	0	-0	0	0.05595	0	0	0	-0	0	0	0	0	0	-0	0	545.923	551.024	324.921	201.6	-0.529494	2.44895	0.137252	0.127251	0.182201
4	-0.00727338	0.170433	-0.00371321	0.173733	0.101403	0.000945275	0.0284512	-0.0262807	0.0218977	-0.00236557	-0.00288575	-0.00213236	0.0460923	0.0107831	0.0212286	-2.21326	-0.136582	-1.84151	0	0	0	0	-0	0	0	0	-0.1265	0	-0	0	0	0	0	0	-0	0	0.105	0.015	0	0	-0	0	0	0.098	0.1	0	-0	0	0	0	0	0	-0	0	0.05595	0	0	0	-0	0	0	0	0	0	-0	0	545.948	551.008	324.912	201.623	-1.15452	2.27999	0.229924	0.0576419	0.151907
5	-0.00896028	0.218798	-0.0187487	0.161822	0.0939117	0.0206022	0.0280285	-0.0255096	0.0212071	-0.00237618	-0.00285277	-0.00213421	0.0514468	0.017048	0.0162533	-2.19028	-0.182081	-1.9227	0	0	0	0	-0	0	0	0	-0.1265	0	-0	0	0	0	0	0	-0	0	0.105	0.015	0	0	-0	0	0	0.098	0.1	0	-0	0	0	0	0	0	-0	0	0.05595	0	0	0	-0	0	0	0	0	0	-0	0	546.015	550.958	324.905	201.687	-1.91702	2.05278	0.314395	0.0344311	0.113214
6	-0.00623707	0.249734	-0.0451262	0.212385	0.101566	0.0108684	0.0257412	-0.0240865	0.0261337	-0.00320782	-0.00394664	-0.00226893	0.0557831	0.0194703	0.0113202	-2.18459	-0.220749	-1.96511	0	0	0	0	-0	0	0	0	-0.1265	0	-0	0	0	0	0	0	-0	0	0.105	0.015	0	0	-0	0	0	0.098	0.1	0	-0	0	0	0	0	0	-0	0	0.05595	0	0	0	-0	0	0	0	0	0	-0	0	546.23	550.791	324.862	201.944	-2.81487	1.81933	0.428641	-0.0463271	0.107311
7	-0.00622555	0.311087	-0.070834	0.201029	0.105724	0.0253998	0.0246059	-0.0232548	0.0256235	-0.00335445	-0.00362813	-0.00203016	0.0625703	0.0250926	0.00449827	-2.15318	-0.278968	-2.06989	0	0	0	0	-0	0	0	0	-0.1265	0	-0	0	0	0	0	0	-0	0	0.105	0.015	0	0	-0	0	0	0.098	0.1	0	-0	0	0	0	0	0	-0	0	0.05595	0	0	0	-0	0	0	0	0	0	-0	0	546.913	550.24	324.733	203.082	-3.1399	1.65543	0.462722	-0.0607258	0.194735
8	-0.00399337	0.325777	-0.0885891	0.238699	0.114957	0.0163755	0.0228098	-0.0225043	0.028777	-0.00372006	-0.00421734	-0.00385387	0.0676322	0.021803	-0.00291031	-2.14856	-0.296258	-2.09118	0	0	0	0	-0	0	0	0	-0.1265	0	-0	0	0	0	0	0	-0	0	0.105	0.015	0	0	-0	0	0	0.098	0.1	0	-0	0	0	0	0	0	-0	0	0.05595	0	0	0	-0	0	0	0	0	0	-0	0	548.879	548.502	324.12	207.291	-3.63512	2.44417	0.476953	-0.0933292	0.823199
9	-0.00535099	0.373908	-0.111308	0.225821	0.116444	0.0281813	0.0218471	-0.0221596	0.0276253	-0.00608367	-0.0106345	-0.00331735	0.0724869	0.0238788	-0.00851512	-2.13493	-0.337361	-2.17058	0	0	0	0	-0	0	0	0	-0.1265	0	-0	0	0	0	0	0	-0	0	0.105	0.015	0	0	-0	0	0	0.098	0.1	0	-0	0	0	0	0	0	-0	0	0.05595	0	0	0	-0	0	0	0	0	0	-0	0	554.323	543.637	322.059	221.477	-3.68309	2.54454	0.451469	-0.0858333	2.29949
10	0.022197	0.383154	-0.127181	0.265521	0.11152	0.0292485	0.0202833	-0.0213759	0.0307024	-0.0521612	0.0173482	0.0232748	0.0762764	0.0182406	-0.0117841	-2.15543	-0.312305	-2.17216	0	0	0	0	-0	0	0	0	-0.1265	0	-0	0	0	0	0	0	-0	0	0.105	0.015	0	0	-0	0	0	0.098	0.1	0	-0	0	0	0	0	0	-0	0	0.05595	0	0	0	-0	0	0	0	0	0	-0	0	564.671	532.982	314.074	256.805	-3.87917	2.99502	0.393216	-0.0715402	4.44666
11	0.0133705	0.429949	-0.164136	0.293138	0.107396	0.0529181	0.0181734	-0.0204361	0.032738	-0.0584879	0.0160777	-0.0965712	0.0819	0.0172999	-0.0194827	-2.20242	-0.323555	-2.22171	0	0	0	0	-0	0	0	0	-0.1265	0	-0	0	0	0	0	0	-0	0	0.105	0.015	0	0	-0	0	0	0.098	0.1	0	-0	0	0	0	0	0	-0	0	0.05595	0	0	0	-0	0	0	0	0	0	-0	0	575.919	518.547	297.284	303.493	-3.56071	2.5623	0.266701	-0.00343182	7.71126
12	-0.0208199	0.394349	-0.166475	0.341361	0.106582	0.0491826	0.0164053	-0.020564	0.0367741	-0.138324	-0.0609406	-0.0501209	0.0796574	0.0148064	-0.0227819	-2.25196	-0.280535	-2.12891	0	0	0	0	-0	0	0	0	-0.1265	0	-0	0	0	0	0	0	-0	0	0.105	0.015	0	0	-0	0	0	0.098	0.1	0	-0	0	0	0	0	0	-0	0	0.05595	0	0	0	-0	0	0	0	0	0	-0	0	579.334	499.375	277.563	302.641	-3.85568	5.96164	0.291048	0.0647886	-1.82959
13	0.00885999	0.377973	-0.158064	0.339919	0.134674	0.0527155	0.0163602	-0.0215228	0.0375797	-0.106797	-0.0528732	-0.0572005	0.0817222	0.0174905	-0.0257159	-2.24354	-0.269232	-2.13762	0	0	0	0	-0	0	0	0	-0.1265	0	-0	0	0	0	0	0	-0	0	0.105	0.015	0	0	-0	0	0	0.098	0.1	0	-0	0	0	0	0	0	-0	0	0.05595	0	0	0	-0	0	0	0	0	0	-0	0	579.521	496.414	273.745	316.784	-3.73995	4.57626	0.236853	0.0757374	3.91496
14	0.00428783	0.324992	-0.162894	0.369244	0.133436	0.0528647	0.0155162	-0.0216885	0.0393131	-0.0960428	-0.0523417	-0.0641861	0.0786165	0.0179533	-0.0228061	-2.28095	-0.22209	-2.04392	0	0	0	0	-0	0	0	0	-0.1265	0	-0	0	0	0	0	0	-0	0	0.105	0.015	0	0	-0	0	0	0.098	0.1	0	-0	0	0	0	0	0	-0	0	0.05595	0	0	0	-0	0	0	0	0	0	-0	0	578.915	495.822	271.161	316.369	-3.5666	3.02378	0.230242	0.0858515	5.53564
15	-0.0204198	0.344567	-0.158438	0.353723	0.151958	0.0516941	0.0157519	-0.0220591	0.0390468	-0.106475	-0.0529356	-0.0777967	0.079479	0.0201478	-0.0298593	-2.27955	-0.271149	-2.09734	0	0	0	0	-0	0	0	0	-0.1265	0	-0	0	0	0	0	0	-0	0	0.105	0.015	0	0	-0	0	0	0.098	0.1	0	-0	0	0	0	0	0	-0	0	0.05595	0	0	0	-0	0	0	0	0	0	-0	0	578.919	493.939	272.714	321.819	-3.51667	2.95902	0.216594	0.0747113	5.99878
16	-0.0197198	0.345947	-0.160821	0.354362	0.149621	0.0541369	0.0154462	-0.0225033	0.0387814	-0.106381	-0.0529591	-0.0778562	0.0787521	0.0193064	-0.0280462	-2.28932	-0.261328	-2.0863	0	0	0	0	-0	0	0	0	-0.1265	0	-0	0	0	0	0	0	-0	0	0.105	0.015	0	0	-0	0	0	0.098	0.1	0	-0	0	0	0	0	0	-0	0	0.05595	0	0	0	-0	0	0	0	0	0	-0	0	578.919	493.939	272.714	321.819	-3.51718	2.95883	0.215774	0.0767599	5.99873
17	-0.0197057	0.344723	-0.162319	0.355531	0.147752	0.0552602	0.0157015	-0.0221284	0.038936	-0.106455	-0.052935	-0.0778065	0.0792072	0.0188835	-0.0282963	-2.29046	-0.25944	-2.08408	0	0	0	0	-0	0	0	0	-0.1265	0	-0	0	0	0	0	0	-0	0	0.105	0.015	0	0	-0	0	0	0.098	0.1	0	-0	0	0	0	0	0	-0	0	0.05595	0	0	0	-0	0	0	0	0	0	-0	0	578.919	493.939	272.714	321.819	-3.51785	2.9586	0.215806	0.0768036	5.99866
18	-0.0198166	0.341882	-0.166231	0.359021	0.144591	0.0572794	0.0155764	-0.022063	0.0390301	-0.106471	-0.0529615	-0.0778126	0.0791889	0.0189373	-0.0279755	-2.29171	-0.256576	-2.07865	0	0	0	0	-0	0	0	0	-0.1265	0	-0	0	0	0	0	0	-0	0	0.105	0.015	0	0	-0	0	0	0.098	0.1	0	-0	0	0	0	0	0	-0	0	0.05595	0	0	0	-0	0	0	0	0	0	-0	0	578.919	493.939	272.714	321.819	-3.51956	2.95798	0.215297	0.0772266	5.99847
19	-0.0201205	0.338681	-0.169582	0.363618	0.14338	0.0580615	0.0154042	-0.0219759	0.0392642	-0.106502	-0.0530052	-0.0778206	0.0792394	0.0192244	-0.0283098	-2.28998	-0.256877	-2.07625	0	0	0	0	-0	0	0	0	-0.1265	0	-0	0	0	0	0	0	-0	0	0.105	0.015	0	0	-0	0	0	0.098	0.1	0	-0	0	0	0	0	0	-0	0	0.05595	0	0	0	-0	0	0	0	0	0	-0	0	578.919	493.939	272.714	321.819	-3.52198	2.95707	0.214879	0.0768699	5.9982
20	-0.0201586	0.333654	-0.173449	0.371506	0.143297	0.0587163	0.0150862	-0.0219146	0.039717	-0.106544	-0.0530861	-0.0778425	0.0790848	0.0194573	-0.0283786	-2.29107	-0.254559	-2.06925	0	0	0	0	-0	0	0	0	-0.1265	0	-0	0	0	0	0	0	-0	0	0.105	0.015	0	0	-0	0	0	0.098	0.1	0	-0	0	0	0	0	0	-0	0	0.05595	0	0	0	-0	0	0	0	0	0	-0	0	578.919	493.938	272.714	321.819	-3.52788	2.95465	0.213	0.0771969	5.99748
21	-0.0202119	0.326974	-0.173918	0.378504	0.146684	0.0573221	0.0148278	-0.0219158	0.0402451	-0.106585	-0.053164	-0.0778625	0.0788684	0.0197758	-0.0289244	-2.29143	-0.253054	-2.06264	0	0	0	0	-0	0	0	0	-0.1265	0	-0	0	0	0	0	0	-0	0	0.105	0.015	0	0	-0	0	0	0.098	0.1	0	-0	0	0	0	0	0	-0	0	0.05595	0	0	0	-0	0	0	0	0	0	-0	0	578.919	493.938	272.713	321.819	-3.53884	2.9489	0.210941	0.0771034	5.99568
22	-0.0199959	0.317423	-0.173917	0.383287	0.150752	0.0564389	0.0146706	-0.021969	0.0406067	-0.106605	-0.0532136	-0.0778803	0.078526	0.0200846	-0.0291483	-2.29504	-0.248053	-2.05059	0	0	0	0	-0	0	0	0	-0.1265	0	-0	0	0	0	0	0	-0	0	0.105	0.015	0	0	-0	0	0	0.098	0.1	0	-0	0	0	0	0	0	-0	0	0.05595	0	0	0	-0	0	0	0	0	0	-0	0	578.919	493.938	272.712	321.819	-3.5511	2.93538	0.207717	0.0775793	5.99126
23	-0.0200782	0.312928	-0.17387	0.384523	0.15468	0.0553525	0.0145906	-0.0220291	0.0407578	-0.106608	-0.0532422	-0.0778886	0.0784057	0.0204341	-0.0297414	-2.29452	-0.247859	-2.04764	0	0	0	0	-0	0	0	0	-0.1265	0	-0	0	0	0	0	0	-0	0	0.105	0.015	0	0	-0	0	0	0.098	0.1	0	-0	0	0	0	0	0	-0	0	0.05595	0	0	0	-0	0	0	0	0	0	-0	0	578.92	493.936	272.71	321.82	-3.55282	2.90358	0.20587	0.0771716	5.98046
24	-0.0198608	0.307185	-0.175244	0.386387	0.156675	0.0554495	0.0145027	-0.0220517	0.0408636	-0.106617	-0.0532807	-0.0778921	0.078268	0.020598	-0.0297808	-2.29751	-0.244342	-2.03962	0	0	0	0	-0	0	0	0	-0.1265	0	-0	0	0	0	0	0	-0	0	0.105	0.015	0	0	-0	0	0	0.098	0.1	0	-0	0	0	0	0	0	-0	0	0.05595	0	0	0	-0	0	0	0	0	0	-0	0	578.924	493.931	272.701	321.823	-3.54024	2.82148	0.202805	0.0772996	5.95455
25	-0.0200424	0.308023	-0.175984	0.385836	0.158579	0.0544794	0.0144466	-0.022065	0.0408786	-0.106544	-0.0532876	-0.0779349	0.078394	0.0207487	-0.0303463	-2.29495	-0.247402	-2.04351	0	0	0	0	-0	0	0	0	-0.1265	0	-0	0	0	0	0	0	-0	0	0.105	0.015	0	0	-0	0	0	0.098	0.1	0	-0	0	0	0	0	0	-0	0	0.05595	0	0	0	-0	0	0	0	0	0	-0	0	578.929	493.921	272.689	321.833	-3.51873	2.72188	0.201599	0.0763211	5.92685
26	-0.0195875	0.303028	-0.17738	0.387811	0.159586	0.0546555	0.014358	-0.0220558	0.0409744	-0.106536	-0.0533113	-0.0779151	0.0783017	0.0207564	-0.0301598	-2.29901	-0.243315	-2.03502	0	0	0	0	-0	0	0	0	-0.1265	0	-0	0	0	0	0	0	-0	0	0.105	0.015	0	0	-0	0	0	0.098	0.1	0	-0	0	0	0	0	0	-0	0	0.05595	0	0	0	-0	0	0	0	0	0	-0	0	578.935	493.906	272.669	321.85	-3.49737	2.60982	0.198495	0.0765571	5.90713
27	-0.0199312	0.306425	-0.17768	0.386605	0.161025	0.0533861	0.01432	-0.0220579	0.0409687	-0.106454	-0.0533646	-0.0778773	0.0784952	0.0208644	-0.0307996	-2.29484	-0.248394	-2.04295	0	0	0	0	-0	0	0	0	-0.1265	0	-0	0	0	0	0	0	-0	0	0.105	0.015	0	0	-0	0	0	0.098	0.1	0	-0	0	0	0	0	0	-0	0	0.05595	0	0	0	-0	0	0	0	0	0	-0	0	578.942	493.88	272.643	321.883	-3.47582	2.51494	0.198161	0.0754662	5.90782
28	-0.019575	0.299917	-0.178909	0.389359	0.161608	0.0540333	0.0142349	-0.0220429	0.0410928	-0.106408	-0.0532883	-0.0778511	0.0783035	0.020836	-0.0303634	-2.30113	-0.242192	-2.03086	0	0	0	0	-0	0	0	0	-0.1265	0	-0	0	0	0	0	0	-0	0	0.105	0.015	0	0	-0	0	0	0.098	0.1	0	-0	0	0	0	0	0	-0	0	0.05595	0	0	0	-0	0	0	0	0	0	-0	0	578.951	493.84	272.6	321.935	-3.46046	2.41543	0.195007	0.0763383	5.94438
29	-0.0200751	0.305649	-0.178476	0.387252	0.162852	0.0525731	0.0142369	-0.0220559	0.0410574	-0.106257	-0.0528825	-0.0775049	0.0785267	0.0209888	-0.031146	-2.29455	-0.249484	-2.04333	0	0	0	0	-0	0	0	0	-0.1265	0	-0	0	0	0	0	0	-0	0	0.105	0.015	0	0	-0	0	0	0.098	0.1	0	-0	0	0	0	0	0	-0	0	0.05595	0	0	0	-0	0	0	0	0	0	-0	0	578.962	493.776	272.545	322.025	-3.44748	2.34852	0.195981	0.0752898	6.01937
30	-0.0195235	0.303206	-0.180925	0.388762	0.160986	0.0547191	0.0142026	-0.0220205	0.0410448	-0.106262	-0.0528881	-0.0775062	0.0784243	0.020766	-0.0302841	-2.30046	-0.243604	-2.03457	0	0	0	0	-0	0	0	0	-0.1265	0	-0	0	0	0	0	0	-0	0	0.105	0.015	0	0	-0	0	0	0.098	0.1	0	-0	0	0	0	0	0	-0	0	0.05595	0	0	0	-0	0	0	0	0	0	-0	0	578.962	493.776	272.545	322.025	-3.44828	2.34812	0.194453	0.0765816	6.01941
31	-0.0200374	0.304246	-0.178449	0.388117	0.163142	0.0524367	0.0142151	-0.0220414	0.041117	-0.106264	-0.0528899	-0.0775062	0.0784825	0.0210439	-0.0311543	-2.29507	-0.248827	-2.04159	0	0	0	0	-0	0	0	0	-0.1265	0	-0	0	0	0	0	0	-0	0	0.105	0.015	0	0	-0	0	0	0.098	0.1	0	-0	0	0	0	0	0	-0	0	0.05595	0	0	0	-0	0	0	0	0	0	-0	0	578.962	493.776	272.545	322.025	-3.44826	2.34795	0.195958	0.0753836	6.01957
32	-0.019534	0.302553	-0.180656	0.389107	0.161451	0.0545501	0.0141902	-0.0220365	0.0410792	-0.106262	-0.0528915	-0.0775079	0.0783904	0.0208025	-0.0303417	-2.30045	-0.243485	-2.03398	0	0	0	0	-0	0	0	0	-0.1265	0	-0	0	0	0	0	0	-0	0	0.105	0.015	0	0	-0	0	0	0.098	0.1	0	-0	0	0	0	0	0	-0	0	0.05595	0	0	0	-0	0	0	0	0	0	-0	0	578.962	493.776	272.545	322.025	-3.44887	2.34763	0.194443	0.0766	6.0196
33	-0.0200086	0.302838	-0.178905	0.388691	0.16311	0.05283	0.0142055	-0.0220347	0.0411389	-0.106267	-0.0528928	-0.0775063	0.0784525	0.0210984	-0.0311095	-2.29575	-0.24781	-2.03951	0	0	0	0	-0	0	0	0	-0.1265	0	-0	0	0	0	0	0	-0	0	0.105	0.015	0	0	-0	0	0	0.098	0.1	0	-0	0	0	0	0	0	-0	0	0.05595	0	0	0	-0	0	0	0	0	0	-0	0	578.962	493.776	272.545	322.025	-3.44887	2.34756	0.195487	0.0755782	6.01965
34	-0.019611	0.30228	-0.18026	0.389114	0.162071	0.0542123	0.0141856	-0.022056	0.0410971	-0.10626	-0.0528933	-0.0775097	0.0783736	0.0208699	-0.0304959	-2.29972	-0.244101	-2.03455	0	0	0	0	-0	0	0	0	-0.1265	0	-0	0	0	0	0	0	-0	0	0.105	0.015	0	0	-0	0	0	0.098	0.1	0	-0	0	0	0	0	0	-0	0	0.05595	0	0	0	-0	0	0	0	0	0	-0	0	578.962	493.776	272.545	322.025	-3.44919	2.34739	0.194596	0.0764414	6.01967
35	-0.0199445	0.302617	-0.178856	0.38871	0.163267	0.0528707	0.0142032	-0.0220492	0.0411391	-0.106265	-0.0528937	-0.0775078	0.0784292	0.0210651	-0.0310495	-2.29636	-0.247253	-2.03872	0	0	0	0	-0	0	0	0	-0.1265	0	-0	0	0	0	0	0	-0	0	0.105	0.015	0	0	-0	0	0	0.098	0.1	0	-0	0	0	0	0	0	-0	0	0.05595	0	0	0	-0	0	0	0	0	0	-0	0	578.962	493.776	272.545	322.025	-3.44929	2.34722	0.195417	0.0756648	6.01975
36	-0.0196382	0.302	-0.180037	0.389111	0.162348	0.0540293	0.0141889	-0.0220564	0.0411072	-0.106261	-0.052894	-0.0775097	0.0783729	0.0208986	-0.0305667	-2.29949	-0.244262	-2.03463	0	0	0	0	-0	0	0	0	-0.1265	0	-0	0	0	0	0	0	-0	0	0.105	0.015	0	0	-0	0	0	0.098	0.1	0	-0	0	0	0	0	0	-0	0	0.05595	0	0	0	-0	0	0	0	0	0	-0	0	578.963	493.776	272.545	322.026	-3.44958	2.34704	0.19462	0.0763563	6.01978
37	-0.0199085	0.302269	-0.17892	0.388786	0.163333	0.052949	0.014201	-0.0220539	0.0411397	-0.106264	-0.0528936	-0.0775085	0.0784136	0.0210597	-0.0310145	-2.29676	-0.246823	-2.03799	0	0	0	0	-0	0	0	0	-0.1265	0	-0	0	0	0	0	0	-0	0	0.105	0.015	0	0	-0	0	0	0.098	0.1	0	-0	0	0	0	0	0	-0	0	0.05595	0	0	0	-0	0	0	0	0	0	-0	0	578.963	493.776	272.545	322.026	-3.44967	2.34685	0.195259	0.0757329	6.01987
38	-0.0196591	0.301652	-0.179942	0.389151	0.162565	0.0539361	0.0141893	-0.0220574	0.0411145	-0.106261	-0.0528941	-0.0775099	0.0783678	0.020931	-0.03062	-2.29934	-0.244323	-2.03451	0	0	0	0	-0	0	0	0	-0.1265	0	-0	0	0	0	0	0	-0	0	0.105	0.015	0	0	-0	0	0	0.098	0.1	0	-0	0	0	0	0	0	-0	0	0.05595	0	0	0	-0	0	0	0	0	0	-0	0	578.963	493.776	272.545	322.026	-3.44994	2.34666	0.194566	0.0763089	6.0199
39	-0.0198858	0.301908	-0.17898	0.388858	0.163433	0.0530098	0.0141988	-0.022058	0.0411412	-0.106263	-0.0528947	-0.0775088	0.0783992	0.0210658	-0.0309984	-2.29703	-0.246498	-2.03737	0	0	0	0	-0	0	0	0	-0.1265	0	-0	0	0	0	0	0	-0	0	0.105	0.015	0	0	-0	0	0	0.098	0.1	0	-0	0	0	0	0	0	-0	0	0.05595	0	0	0	-0	0	0	0	0	0	-0	0	578.963	493.776	272.545	322.026	-3.45001	2.34644	0.195119	0.0757818	6.02
40	-0.0196724	0.301296	-0.179888	0.389198	0.162765	0.0538794	0.0141889	-0.0220593	0.0411206	-0.106261	-0.0528951	-0.0775102	0.0783603	0.0209605	-0.0306604	-2.29927	-0.244313	-2.03429	0	0	0	0	-0	0	0	0	-0.1265	0	-0	0	0	0	0	0	-0	0	0.105	0.015	0	0	-0	0	0	0.098	0.1	0	-0	0	0	0	0	0	-0	0	0.05595	0	0	0	-0	0	0	0	0	0	-0	0	578.963	493.776	272.544	322.026	-3.45026	2.34625	0.194498	0.0762812	6.02004
41	-0.0198707	0.301573	-0.179016	0.388914	0.163554	0.0530466	0.014197	-0.0220619	0.0411433	-0.106263	-0.0528956	-0.0775101	0.0783865	0.0210761	-0.0309934	-2.29724	-0.246251	-2.03686	0	0	0	0	-0	0	0	0	-0.1265	0	-0	0	0	0	0	0	-0	0	0.105	0.015	0	0	-0	0	0	0.098	0.1	0	-0	0	0	0	0	0	-0	0	0.05595	0	0	0	-0	0	0	0	0	0	-0	0	578.963	493.776	272.544	322.026	-3.45031	2.346	0.195005	0.0758141	6.02016
42	-0.0196793	0.300961	-0.179851	0.389241	0.162943	0.0538411	0.0141881	-0.0220616	0.0411256	-0.106261	-0.0528956	-0.0775113	0.078352	0.0209852	-0.0306904	-2.29925	-0.24426	-2.03403	0	0	0	0	-0	0	0	0	-0.1265	0	-0	0	0	0	0	0	-0	0	0.105	0.015	0	0	-0	0	0	0.098	0.1	0	-0	0	0	0	0	0	-0	0	0.05595	0	0	0	-0	0	0	0	0	0	-0	0	578.963	493.775	272.544	322.026	-3.45054	2.3458	0.194429	0.0762651	6.0202
43	-0.019857	0.301002	-0.179241	0.389093	0.163547	0.0532272	0.0141942	-0.0220593	0.0411469	-0.106263	-0.052896	-0.0775102	0.0783749	0.0211003	-0.030975	-2.29752	-0.245833	-2.03601	0	0	0	0	-0	0	0	0	-0.1265	0	-0	0	0	0	0	0	-0	0	0.105	0.015	0	0	-0	0	0	0.098	0.1	0	-0	0	0	0	0	0	-0	0	0.05595	0	0	0	-0	0	0	0	0	0	-0	0	578.963	493.775	272.544	322.026	-3.45056	2.3457	0.194787	0.0758902	6.02025
44	-0.0196988	0.300317	-0.179865	0.389388	0.163187	0.0538444	0.0141852	-0.0220645	0.0411356	-0.106261	-0.0528969	-0.0775112	0.0783362	0.0210369	-0.0307397	-2.29919	-0.244153	-2.0335	0	0	0	0	-0	0	0	0	-0.1265	0	-0	0	0	0	0	0	-0	0	0.105	0.015	0	0	-0	0	0	0.098	0.1	0	-0	0	0	0	0	0	-0	0	0.05595	0	0	0	-0	0	0	0	0	0	-0	0	578.963	493.775	272.544	322.026	-3.45088	2.34538	0.194301	0.0762563	6.02032
45	-0.0198461	0.300451	-0.179269	0.389202	0.163766	0.053269	0.0141905	-0.0220668	0.0411529	-0.106263	-0.052897	-0.0775109	0.0783538	0.0211272	-0.0309833	-2.29772	-0.245535	-2.0353	0	0	0	0	-0	0	0	0	-0.1265	0	-0	0	0	0	0	0	-0	0	0.105	0.015	0	0	-0	0	0	0.098	0.1	0	-0	0	0	0	0	0	-0	0	0.05595	0	0	0	-0	0	0	0	0	0	-0	0	578.963	493.775	272.544	322.027	-3.4509	2.34527	0.194655	0.0759257	6.02037
46	-0.0197153	0.300286	-0.179687	0.389312	0.163446	0.053699	0.014185	-0.0220734	0.0411387	-0.106261	-0.0528967	-0.0775119	0.0783297	0.0210518	-0.0307864	-2.299	-0.244344	-2.03372	0	0	0	0	-0	0	0	0	-0.1265	0	-0	0	0	0	0	0	-0	0	0.105	0.015	0	0	-0	0	0	0.098	0.1	0	-0	0	0	0	0	0	-0	0	0.05595	0	0	0	-0	0	0	0	0	0	-0	0	578.963	493.775	272.544	322.027	-3.45102	2.34515	0.194375	0.0761968	6.0204
47	-0.0198211	0.300418	-0.179221	0.389155	0.163838	0.0532533	0.0141912	-0.0220713	0.041151	-0.106262	-0.0528967	-0.0775113	0.0783477	0.0211125	-0.0309638	-2.29793	-0.245365	-2.03509	0	0	0	0	-0	0	0	0	-0.1265	0	-0	0	0	0	0	0	-0	0	0.105	0.015	0	0	-0	0	0	0.098	0.1	0	-0	0	0	0	0	0	-0	0	0.05595	0	0	0	-0	0	0	0	0	0	-0	0	578.963	493.775	272.544	322.027	-3.45107	2.34496	0.19464	0.0759424	6.02048
48	-0.0197204	0.300223	-0.1796	0.389275	0.163542	0.0536241	0.0141869	-0.0220733	0.0411401	-0.106261	-0.0528966	-0.0775117	0.0783303	0.0210577	-0.0308072	-2.29894	-0.244395	-2.03377	0	0	0	0	-0	0	0	0	-0.1265	0	-0	0	0	0	0	0	-0	0	0.105	0.015	0	0	-0	0	0	0.098	0.1	0	-0	0	0	0	0	0	-0	0	0.05595	0	0	0	-0	0	0	0	0	0	-0	0	578.963	493.775	272.544	322.027	-3.45117	2.34483	0.194378	0.0761639	6.02051
49	-0.0198083	0.300326	-0.179233	0.389159	0.163864	0.0532658	0.0141909	-0.0220725	0.0411501	-0.106262	-0.0528965	-0.0775111	0.0783435	0.0211091	-0.0309526	-2.29806	-0.245235	-2.03488	0	0	0	0	-0	0	0	0	-0.1265	0	-0	0	0	0	0	0	-0	0	0.105	0.015	0	0	-0	0	0	0.098	0.1	0	-0	0	0	0	0	0	-0	0	0.05595	0	0	0	-0	0	0	0	0	0	-0	0	578.963	493.775	272.544	322.027	-3.45119	2.34462	0.194583	0.0759592	6.02061
50	-0.0197256	0.300126	-0.179568	0.389275	0.163613	0.0535872	0.0141872	-0.0220734	0.0411416	-0.106261	-0.0528966	-0.0775116	0.0783291	0.0210667	-0.0308235	-2.2989	-0.244417	-2.03374	0	0	0	0	-0	0	0	0	-0.1265	0	-0	0	0	0	0	0	-0	0	0.105	0.015	0	0	-0	0	0	0.098	0.1	0	-0	0	0	0	0	0	-0	0	0.05595	0	0	0	-0	0	0	0	0	0	-0	0	578.963	493.775	272.544	322.027	-3.45127	2.34448	0.194353	0.0761468	6.02065
51	-0.0197999	0.30022	-0.179251	0.389174	0.163898	0.0532793	0.0141902	-0.0220735	0.0411502	-0.106262	-0.0528968	-0.0775116	0.0783394	0.0211105	-0.0309475	-2.29815	-0.245137	-2.03469	0	0	0	0	-0	0	0	0	-0.1265	0	-0	0	0	0	0	0	-0	0	0.105	0.015	0	0	-0	0	0	0.098	0.1	0	-0	0	0	0	0	0	-0	0	0.05595	0	0	0	-0	0	0	0	0	0	-0	0	578.963	493.775	272.544	322.027	-3.45128	2.34424	0.194532	0.0759728	6.02075
52	-0.0197286	0.300019	-0.179552	0.389286	0.163677	0.053566	0.014187	-0.0220738	0.0411433	-0.106261	-0.0528967	-0.0775119	0.078327	0.0210755	-0.030836	-2.29888	-0.244415	-2.03368	0	0	0	0	-0	0	0	0	-0.1265	0	-0	0	0	0	0	0	-0	0	0.105	0.015	0	0	-0	0	0	0.098	0.1	0	-0	0	0	0	0	0	-0	0	0.05595	0	0	0	-0	0	0	0	0	0	-0	0	578.963	493.775	272.544	322.027	-3.45135	2.3441	0.194325	0.0761373	6.0208
53	-0.0197937	0.300118	-0.179264	0.38919	0.163938	0.0532881	0.0141896	-0.0220747	0.0411507	-0.106262	-0.0528966	-0.0775114	0.0783357	0.0211134	-0.0309461	-2.29821	-0.245061	-2.03454	0	0	0	0	-0	0	0	0	-0.1265	0	-0	0	0	0	0	0	-0	0	0.105	0.015	0	0	-0	0	0	0.098	0.1	0	-0	0	0	0	0	0	-0	0	0.05595	0	0	0	-0	0	0	0	0	0	-0	0	578.963	493.775	272.543	322.027	-3.45133	2.34383	0.19449	0.0759822	6.02092
54	-0.0197299	0.299914	-0.179543	0.389299	0.163735	0.0535522	0.0141866	-0.0220744	0.0411448	-0.106261	-0.0528968	-0.0775114	0.0783245	0.0210831	-0.0308455	-2.29888	-0.244399	-2.03359	0	0	0	0	-0	0	0	0	-0.1265	0	-0	0	0	0	0	0	-0	0	0.105	0.015	0	0	-0	0	0	0.098	0.1	0	-0	0	0	0	0	0	-0	0	0.05595	0	0	0	-0	0	0	0	0	0	-0	0	578.963	493.775	272.543	322.027	-3.45139	2.34367	0.194297	0.076132	6.02097
55	-0.0197904	0.300028	-0.17927	0.389203	0.163979	0.053291	0.014189	-0.0220757	0.0411515	-0.106261	-0.0528967	-0.077512	0.0783325	0.0211169	-0.030947	-2.29825	-0.245005	-2.03441	0	0	0	0	-0	0	0	0	-0.1265	0	-0	0	0	0	0	0	-0	0	0.105	0.015	0	0	-0	0	0	0.098	0.1	0	-0	0	0	0	0	0	-0	0	0.05595	0	0	0	-0	0	0	0	0	0	-0	0	578.963	493.774	272.543	322.028	-3.45136	2.34338	0.194457	0.0759878	6.02111
56	-0.0197304	0.299819	-0.179538	0.389312	0.163784	0.0535432	0.0141862	-0.0220751	0.0411462	-0.10626	-0.0528969	-0.0775122	0.0783221	0.0210893	-0.0308523	-2.29889	-0.244374	-2.03351	0	0	0	0	-0	0	0	0	-0.1265	0	-0	0	0	0	0	0	-0	0	0.105	0.015	0	0	-0	0	0	0.098	0.1	0	-0	0	0	0	0	0	-0	0	0.05595	0	0	0	-0	0	0	0	0	0	-0	0	578.963	493.774	272.543	322.028	-3.45141	2.3432	0.19427	0.0761295	6.02117
57	-0.0197878	0.299954	-0.179272	0.389212	0.164018	0.0532895	0.0141885	-0.0220767	0.0411521	-0.106261	-0.0528977	-0.077511	0.07833	0.0211202	-0.0309493	-2.29828	-0.244967	-2.03432	0	0	0	0	-0	0	0	0	-0.1265	0	-0	0	0	0	0	0	-0	0	0.105	0.015	0	0	-0	0	0	0.098	0.1	0	-0	0	0	0	0	0	-0	0	0.05595	0	0	0	-0	0	0	0	0	0	-0	0	578.963	493.774	272.543	322.028	-3.45136	2.34288	0.19443	0.0759902	6.02133
58	-0.0197294	0.299736	-0.179537	0.389326	0.163824	0.0535385	0.0141857	-0.0220756	0.0411473	-0.106261	-0.0528983	-0.0775111	0.0783199	0.0210941	-0.0308568	-2.2989	-0.244345	-2.03342	0	0	0	0	-0	0	0	0	-0.1265	0	-0	0	0	0	0	0	-0	0	0.105	0.015	0	0	-0	0	0	0.098	0.1	0	-0	0	0	0	0	0	-0	0	0.05595	0	0	0	-0	0	0	0	0	0	-0	0	578.963	493.774	272.543	322.028	-3.45141	2.34268	0.194243	0.0761291	6.0214
59	-0.0197857	0.29979	-0.179322	0.389263	0.164029	0.0533268	0.0141875	-0.022076	0.0411538	-0.106262	-0.0528984	-0.0775109	0.0783266	0.0211284	-0.0309478	-2.29834	-0.244868	-2.0341	0	0	0	0	-0	0	0	0	-0.1265	0	-0	0	0	0	0	0	-0	0	0.105	0.015	0	0	-0	0	0	0.098	0.1	0	-0	0	0	0	0	0	-0	0	0.05595	0	0	0	-0	0	0	0	0	0	-0	0	578.963	493.774	272.543	322.028	-3.45138	2.34256	0.194372	0.0760061	6.02145
60	-0.0197326	0.299541	-0.179541	0.389373	0.163894	0.0535405	0.0141846	-0.0220766	0.0411504	-0.106262	-0.0528988	-0.077511	0.0783146	0.0211076	-0.0308681	-2.29891	-0.244292	-2.03324	0	0	0	0	-0	0	0	0	-0.1265	0	-0	0	0	0	0	0	-0	0	0.105	0.015	0	0	-0	0	0	0.098	0.1	0	-0	0	0	0	0	0	-0	0	0.05595	0	0	0	-0	0	0	0	0	0	-0	0	578.963	493.774	272.543	322.028	-3.45144	2.34224	0.1942	0.0761306	6.02158
61	-0.0197838	0.299634	-0.179319	0.389293	0.1641	0.0533289	0.0141865	-0.0220781	0.041156	-0.106262	-0.0528986	-0.0775107	0.0783209	0.0211365	-0.0309529	-2.29839	-0.244797	-2.03392	0	0	0	0	-0	0	0	0	-0.1265	0	-0	0	0	0	0	0	-0	0	0.105	0.015	0	0	-0	0	0	0.098	0.1	0	-0	0	0	0	0	0	-0	0	0.05595	0	0	0	-0	0	0	0	0	0	-0	0	578.963	493.774	272.543	322.028	-3.45142	2.3421	0.194335	0.0760124	6.02164
62	-0.0197323	0.29941	-0.179528	0.389391	0.163963	0.0535314	0.0141841	-0.0220781	0.0411524	-0.106261	-0.0528989	-0.0775105	0.0783106	0.0211153	-0.0308759	-2.29893	-0.244249	-2.0331	0	0	0	0	-0	0	0	0	-0.1265	0	-0	0	0	0	0	0	-0	0	0.105	0.015	0	0	-0	0	0	0.098	0.1	0	-0	0	0	0	0	0	-0	0	0.05595	0	0	0	-0	0	0	0	0	0	-0	0	578.963	493.774	272.543	322.029	-3.45147	2.34175	0.194171	0.0761297	6.02178
63	-0.0197816	0.29953	-0.179307	0.389304	0.16416	0.0533208	0.014186	-0.0220797	0.0411573	-0.106261	-0.0528986	-0.0775107	0.0783172	0.0211414	-0.0309574	-2.29842	-0.244751	-2.0338	0	0	0	0	-0	0	0	0	-0.1265	0	-0	0	0	0	0	0	-0	0	0.105	0.015	0	0	-0	0	0	0.098	0.1	0	-0	0	0	0	0	0	-0	0	0.05595	0	0	0	-0	0	0	0	0	0	-0	0	578.963	493.774	272.542	322.029	-3.45143	2.3416	0.194309	0.0760134	6.02185
64	-0.0197309	0.299315	-0.17952	0.389403	0.164013	0.0535232	0.0141836	-0.0220791	0.0411537	-0.106261	-0.0528989	-0.0775102	0.0783077	0.0211202	-0.0308807	-2.29896	-0.244211	-2.033	0	0	0	0	-0	0	0	0	-0.1265	0	-0	0	0	0	0	0	-0	0	0.105	0.015	0	0	-0	0	0	0.098	0.1	0	-0	0	0	0	0	0	-0	0	0.05595	0	0	0	-0	0	0	0	0	0	-0	0	578.963	493.773	272.542	322.029	-3.45147	2.3412	0.194145	0.0761292	6.02201
65	-0.0197799	0.299463	-0.179296	0.389308	0.164207	0.0533092	0.0141856	-0.0220808	0.0411582	-0.106261	-0.0528986	-0.0775106	0.0783148	0.0211448	-0.0309617	-2.29844	-0.244726	-2.03373	0	0	0	0	-0	0	0	0	-0.1265	0	-0	0	0	0	0	0	-0	0	0.105	0.015	0	0	-0	0	0	0.098	0.1	0	-0	0	0	0	0	0	-0	0	0.05595	0	0	0	-0	0	0	0	0	0	-0	0	578.963	493.773	272.542	322.029	-3.45141	2.34103	0.194289	0.0760117	6.0221
66	-0.0197312	0.299375	-0.179487	0.389369	0.164048	0.0534927	0.0141839	-0.0220806	0.0411531	-0.10626	-0.0528983	-0.0775104	0.0783082	0.021118	-0.0308857	-2.29892	-0.244261	-2.0331	0	0	0	0	-0	0	0	0	-0.1265	0	-0	0	0	0	0	0	-0	0	0.105	0.015	0	0	-0	0	0	0.098	0.1	0	-0	0	0	0	0	0	-0	0	0.05595	0	0	0	-0	0	0	0	0	0	-0	0	578.963	493.773	272.542	322.029	-3.45143	2.34089	0.194164	0.0761177	6.02215
67	-0.0197765	0.299544	-0.17929	0.389278	0.164195	0.0532994	0.0141861	-0.0220808	0.0411566	-0.106261	-0.0528979	-0.0775107	0.078317	0.021138	-0.0309574	-2.29845	-0.244743	-2.0338	0	0	0	0	-0	0	0	0	-0.1265	0	-0	0	0	0	0	0	-0	0	0.105	0.015	0	0	-0	0	0	0.098	0.1	0	-0	0	0	0	0	0	-0	0	0.05595	0	0	0	-0	0	0	0	0	0	-0	0	578.963	493.773	272.542	322.029	-3.45133	2.3406	0.194297	0.0760088	6.0223
68	-0.0197317	0.299429	-0.179488	0.389354	0.164031	0.0534839	0.0141842	-0.0220796	0.0411523	-0.10626	-0.052898	-0.0775109	0.0783107	0.0211149	-0.0308852	-2.29891	-0.244289	-2.03317	0	0	0	0	-0	0	0	0	-0.1265	0	-0	0	0	0	0	0	-0	0	0.105	0.015	0	0	-0	0	0	0.098	0.1	0	-0	0	0	0	0	0	-0	0	0.05595	0	0	0	-0	0	0	0	0	0	-0	0	578.963	493.773	272.542	322.03	-3.45134	2.34044	0.194166	0.0761125	6.02236
69	-0.0197762	0.299591	-0.179298	0.38927	0.164177	0.0532978	0.014186	-0.0220802	0.0411559	-0.10626	-0.0528965	-0.0775103	0.0783187	0.0211349	-0.0309552	-2.29845	-0.244758	-2.03385	0	0	0	0	-0	0	0	0	-0.1265	0	-0	0	0	0	0	0	-0	0	0.105	0.015	0	0	-0	0	0	0.098	0.1	0	-0	0	0	0	0	0	-0	0	0.05595	0	0	0	-0	0	0	0	0	0	-0	0	578.963	493.773	272.542	322.03	-3.45123	2.34012	0.194294	0.076008	6.02253
70	-0.0197325	0.299454	-0.179497	0.389353	0.164016	0.0534839	0.014184	-0.0220789	0.041152	-0.10626	-0.0528966	-0.0775109	0.0783121	0.0211136	-0.0308845	-2.29891	-0.244302	-2.0332	0	0	0	0	-0	0	0	0	-0.1265	0	-0	0	0	0	0	0	-0	0	0.105	0.015	0	0	-0	0	0	0.098	0.1	0	-0	0	0	0	0	0	-0	0	0.05595	0	0	0	-0	0	0	0	0	0	-0	0	578.963	493.773	272.542	322.03	-3.45123	2.33994	0.19416	0.0761115	6.0226
71	-0.0197764	0.299622	-0.179303	0.389267	0.164168	0.0532957	0.0141858	-0.0220798	0.0411556	-0.10626	-0.0528974	-0.0775112	0.0783199	0.0211333	-0.0309548	-2.29844	-0.244775	-2.03388	0	0	0	0	-0	0	0	0	-0.1265	0	-0	0	0	0	0	0	-0	0	0.105	0.015	0	0	-0	0	0	0.098	0.1	0	-0	0	0	0	0	0	-0	0	0.05595	0	0	0	-0	0	0	0	0	0	-0	0	578.963	493.773	272.542	322.03	-3.4511	2.33958	0.194293	0.0760066	6.02279
72	-0.0197319	0.299463	-0.179508	0.389358	0.164005	0.0534872	0.0141837	-0.0220784	0.041152	-0.10626	-0.0528979	-0.0775113	0.0783129	0.0211128	-0.0308833	-2.29891	-0.244303	-2.0332	0	0	0	0	-0	0	0	0	-0.1265	0	-0	0	0	0	0	0	-0	0	0.105	0.015	0	0	-0	0	0	0.098	0.1	0	-0	0	0	0	0	0	-0	0	0.05595	0	0	0	-0	0	0	0	0	0	-0	0	578.963	493.773	272.541	322.03	-3.45111	2.33938	0.194152	0.0761127	6.02287
73	-0.0197768	0.299647	-0.179305	0.389264	0.164166	0.0532907	0.0141856	-0.0220797	0.0411556	-0.10626	-0.0528979	-0.0775113	0.0783209	0.0211326	-0.030956	-2.29842	-0.244796	-2.03392	0	0	0	0	-0	0	0	0	-0.1265	0	-0	0	0	0	0	0	-0	0	0.105	0.015	0	0	-0	0	0	0.098	0.1	0	-0	0	0	0	0	0	-0	0	0.05595	0	0	0	-0	0	0	0	0	0	-0	0	578.963	493.772	272.541	322.031	-3.45097	2.33898	0.194292	0.0760038	6.02308
74	-0.0197301	0.299461	-0.179521	0.389366	0.163996	0.0534928	0.0141834	-0.0220779	0.0411522	-0.10626	-0.0528982	-0.0775109	0.0783133	0.0211121	-0.0308812	-2.29892	-0.244292	-2.03319	0	0	0	0	-0	0	0	0	-0.1265	0	-0	0	0	0	0	0	-0	0	0.105	0.015	0	0	-0	0	0	0.098	0.1	0	-0	0	0	0	0	0	-0	0	0.05595	0	0	0	-0	0	0	0	0	0	-0	0	578.963	493.772	272.541	322.031	-3.45098	2.33875	0.19414	0.0761156	6.02318
75	-0.0197778	0.299671	-0.179302	0.389259	0.164168	0.0532821	0.0141855	-0.0220796	0.0411557	-0.106259	-0.052898	-0.0775114	0.078322	0.0211324	-0.0309586	-2.2984	-0.244823	-2.03397	0	0	0	0	-0	0	0	0	-0.1265	0	-0	0	0	0	0	0	-0	0	0.105	0.015	0	0	-0	0	0	0.098	0.1	0	-0	0	0	0	0	0	-0	0	0.05595	0	0	0	-0	0	0	0	0	0	-0	0	578.963	493.772	272.541	322.031	-3.45083	2.33831	0.194292	0.0759992	6.02341
76	-0.0197275	0.299452	-0.179537	0.389377	0.163987	0.053501	0.0141829	-0.0220776	0.0411524	-0.106259	-0.0528984	-0.0775117	0.0783135	0.0211112	-0.0308781	-2.29895	-0.244271	-2.03315	0	0	0	0	-0	0	0	0	-0.1265	0	-0	0	0	0	0	0	-0	0	0.105	0.015	0	0	-0	0	0	0.098	0.1	0	-0	0	0	0	0	0	-0	0	0.05595	0	0	0	-0	0	0	0	0	0	-0	0	578.963	493.772	272.541	322.031	-3.45084	2.33805	0.194124	0.0761204	6.02352
77	-0.0197779	0.299569	-0.179318	0.389298	0.164179	0.0532924	0.0141847	-0.022079	0.0411576	-0.106259	-0.0528988	-0.0775116	0.07832	0.0211381	-0.0309603	-2.29842	-0.244779	-2.03385	0	0	0	0	-0	0	0	0	-0.1265	0	-0	0	0	0	0	0	-0	0	0.105	0.015	0	0	-0	0	0	0.098	0.1	0	-0	0	0	0	0	0	-0	0	0.05595	0	0	0	-0	0	0	0	0	0	-0	0	578.963	493.772	272.541	322.031	-3.45078	2.33789	0.194262	0.0760046	6.02361
78	-0.0197296	0.299459	-0.179514	0.389368	0.164022	0.0534817	0.0141827	-0.022079	0.0411529	-0.106259	-0.0528986	-0.0775118	0.0783127	0.0211126	-0.0308844	-2.29892	-0.244304	-2.03319	0	0	0	0	-0	0	0	0	-0.1265	0	-0	0	0	0	0	0	-0	0	0.105	0.015	0	0	-0	0	0	0.098	0.1	0	-0	0	0	0	0	0	-0	0	0.05595	0	0	0	-0	0	0	0	0	0	-0	0	578.963	493.772	272.541	322.031	-3.45079	2.33774	0.194133	0.0761134	6.02367
79	-0.0197751	0.299608	-0.179312	0.389283	0.164179	0.0532872	0.0141847	-0.0220795	0.041157	-0.106259	-0.0528983	-0.0775113	0.0783206	0.0211341	-0.0309575	-2.29844	-0.24478	-2.03387	0	0	0	0	-0	0	0	0	-0.1265	0	-0	0	0	0	0	0	-0	0	0.105	0.015	0	0	-0	0	0	0.098	0.1	0	-0	0	0	0	0	0	-0	0	0.05595	0	0	0	-0	0	0	0	0	0	-0	0	578.964	493.772	272.54	322.032	-3.4507	2.33746	0.194266	0.0760046	6.02382
80	-0.0197295	0.299477	-0.179512	0.389363	0.164018	0.0534754	0.0141828	-0.0220785	0.0411529	-0.106259	-0.0528982	-0.0775117	0.0783139	0.0211116	-0.030885	-2.29891	-0.244316	-2.03322	0	0	0	0	-0	0	0	0	-0.1265	0	-0	0	0	0	0	0	-0	0	0.105	0.015	0	0	-0	0	0	0.098	0.1	0	-0	0	0	0	0	0	-0	0	0.05595	0	0	0	-0	0	0	0	0	0	-0	0	578.964	493.771	272.54	322.032	-3.4507	2.3373	0.194132	0.07611	6.02389
81	-0.0197727	0.299627	-0.179316	0.38928	0.164173	0.053286	0.0141846	-0.0220793	0.0411568	-0.106259	-0.0528978	-0.0775116	0.0783214	0.0211325	-0.0309563	-2.29844	-0.244784	-2.03389	0	0	0	0	-0	0	0	0	-0.1265	0	-0	0	0	0	0	0	-0	0	0.105	0.015	0	0	-0	0	0	0.098	0.1	0	-0	0	0	0	0	0	-0	0	0.05595	0	0	0	-0	0	0	0	0	0	-0	0	578.964	493.771	272.54	322.032	-3.4506	2.33699	0.194262	0.0760046	6.02406
82	-0.0197284	0.29948	-0.179518	0.389367	0.164013	0.0534753	0.0141826	-0.0220781	0.041153	-0.106259	-0.0528982	-0.0775118	0.0783145	0.0211115	-0.030885	-2.29891	-0.244318	-2.03323	0	0	0	0	-0	0	0	0	-0.1265	0	-0	0	0	0	0	0	-0	0	0.105	0.015	0	0	-0	0	0	0.098	0.1	0	-0	0	0	0	0	0	-0	0	0.05595	0	0	0	-0	0	0	0	0	0	-0	0	578.964	493.771	272.54	322.032	-3.45061	2.33681	0.194124	0.0761097	6.02414
83	-0.0197733	0.299642	-0.179319	0.389279	0.164172	0.0532835	0.0141844	-0.0220792	0.0411568	-0.106259	-0.0528972	-0.0775127	0.078322	0.0211319	-0.0309567	-2.29844	-0.244795	-2.03391	0	0	0	0	-0	0	0	0	-0.1265	0	-0	0	0	0	0	0	-0	0	0.105	0.015	0	0	-0	0	0	0.098	0.1	0	-0	0	0	0	0	0	-0	0	0.05595	0	0	0	-0	0	0	0	0	0	-0	0	578.964	493.771	272.54	322.032	-3.45049	2.33645	0.194258	0.0760034	6.02433
84	-0.019728	0.299474	-0.179528	0.389373	0.164009	0.0534784	0.0141823	-0.0220777	0.0411532	-0.106259	-0.0528977	-0.0775128	0.0783148	0.0211114	-0.0308842	-2.29892	-0.244312	-2.03321	0	0	0	0	-0	0	0	0	-0.1265	0	-0	0	0	0	0	0	-0	0	0.105	0.015	0	0	-0	0	0	0.098	0.1	0	-0	0	0	0	0	0	-0	0	0.05595	0	0	0	-0	0	0	0	0	0	-0	0	578.964	493.771	272.54	322.032	-3.4505	2.33625	0.194113	0.0761113	6.02442
85	-0.0197744	0.299657	-0.179319	0.389276	0.164175	0.0532779	0.0141842	-0.0220792	0.0411569	-0.106259	-0.0528976	-0.0775126	0.0783227	0.0211318	-0.0309585	-2.29842	-0.244812	-2.03394	0	0	0	0	-0	0	0	0	-0.1265	0	-0	0	0	0	0	0	-0	0	0.105	0.015	0	0	-0	0	0	0.098	0.1	0	-0	0	0	0	0	0	-0	0	0.05595	0	0	0	-0	0	0	0	0	0	-0	0	578.964	493.771	272.54	322.033	-3.45037	2.33586	0.194255	0.0760005	6.02463
86	-0.0197267	0.299463	-0.17954	0.389382	0.164004	0.0534841	0.0141819	-0.0220774	0.0411534	-0.106259	-0.0528978	-0.077513	0.0783148	0.0211111	-0.0308824	-2.29893	-0.244296	-2.03318	0	0	0	0	-0	0	0	0	-0.1265	0	-0	0	0	0	0	0	-0	0	0.105	0.015	0	0	-0	0	0	0.098	0.1	0	-0	0	0	0	0	0	-0	0	0.05595	0	0	0	-0	0	0	0	0	0	-0	0	578.964	493.771	272.54	322.033	-3.45038	2.33563	0.194099	0.0761145	6.02473
87	-0.0197742	0.299558	-0.179341	0.389314	0.16418	0.0532934	0.0141835	-0.0220785	0.0411585	-0.106259	-0.0528978	-0.077513	0.0783208	0.0211371	-0.030959	-2.29845	-0.244763	-2.03381	0	0	0	0	-0	0	0	0	-0.1265	0	-0	0	0	0	0	0	-0	0	0.105	0.015	0	0	-0	0	0	0.098	0.1	0	-0	0	0	0	0	0	-0	0	0.05595	0	0	0	-0	0	0	0	0	0	-0	0	578.964	493.771	272.539	322.033	-3.45033	2.33549	0.194224	0.0760077	6.02482
88	-0.0197277	0.29933	-0.179544	0.389421	0.164044	0.0534888	0.0141809	-0.0220781	0.0411558	-0.10626	-0.0528971	-0.0775133	0.078311	0.0211188	-0.0308874	-2.29896	-0.244247	-2.03304	0	0	0	0	-0	0	0	0	-0.1265	0	-0	0	0	0	0	0	-0	0	0.105	0.015	0	0	-0	0	0	0.098	0.1	0	-0	0	0	0	0	0	-0	0	0.05595	0	0	0	-0	0	0	0	0	0	-0	0	578.964	493.77	272.539	322.033	-3.45034	2.33511	0.194066	0.0761192	6.02499
89	-0.0197743	0.299466	-0.179332	0.389333	0.164229	0.0532881	0.0141828	-0.0220799	0.0411603	-0.10626	-0.0528967	-0.0775127	0.0783176	0.0211425	-0.0309643	-2.29847	-0.244734	-2.03372	0	0	0	0	-0	0	0	0	-0.1265	0	-0	0	0	0	0	0	-0	0	0.105	0.015	0	0	-0	0	0	0.098	0.1	0	-0	0	0	0	0	0	-0	0	0.05595	0	0	0	-0	0	0	0	0	0	-0	0	578.964	493.77	272.539	322.033	-3.45029	2.33494	0.194203	0.0760087	6.02508
90	-0.0197283	0.299373	-0.179516	0.389393	0.164078	0.0534649	0.0141811	-0.0220797	0.0411556	-0.10626	-0.0528965	-0.077513	0.0783111	0.0211176	-0.0308922	-2.29893	-0.244288	-2.03311	0	0	0	0	-0	0	0	0	-0.1265	0	-0	0	0	0	0	0	-0	0	0.105	0.015	0	0	-0	0	0	0.098	0.1	0	-0	0	0	0	0	0	-0	0	0.05595	0	0	0	-0	0	0	0	0	0	-0	0	578.964	493.77	272.539	322.033	-3.4503	2.3348	0.194084	0.0761102	6.02514
91	-0.019771	0.299532	-0.179327	0.389308	0.164221	0.0532804	0.0141831	-0.02208	0.041159	-0.106259	-0.052897	-0.077513	0.0783193	0.021137	-0.0309608	-2.29847	-0.244746	-2.03378	0	0	0	0	-0	0	0	0	-0.1265	0	-0	0	0	0	0	0	-0	0	0.105	0.015	0	0	-0	0	0	0.098	0.1	0	-0	0	0	0	0	0	-0	0	0.05595	0	0	0	-0	0	0	0	0	0	-0	0	578.964	493.77	272.539	322.034	-3.4502	2.33452	0.194212	0.0760065	6.0253
92	-0.0197246	0.299279	-0.179538	0.389431	0.164072	0.0534777	0.0141804	-0.0220783	0.0411569	-0.10626	-0.0528973	-0.0775136	0.07831	0.0211207	-0.0308899	-2.29898	-0.244225	-2.03298	0	0	0	0	-0	0	0	0	-0.1265	0	-0	0	0	0	0	0	-0	0	0.105	0.015	0	0	-0	0	0	0.098	0.1	0	-0	0	0	0	0	0	-0	0	0.05595	0	0	0	-0	0	0	0	0	0	-0	0	578.964	493.77	272.539	322.034	-3.4502	2.33405	0.194044	0.0761175	6.02552
93	-0.019772	0.299452	-0.179321	0.38933	0.164258	0.0532725	0.0141824	-0.0220805	0.0411608	-0.10626	-0.052897	-0.0775135	0.0783171	0.0211429	-0.0309675	-2.29847	-0.244736	-2.03371	0	0	0	0	-0	0	0	0	-0.1265	0	-0	0	0	0	0	0	-0	0	0.105	0.015	0	0	-0	0	0	0.098	0.1	0	-0	0	0	0	0	0	-0	0	0.05595	0	0	0	-0	0	0	0	0	0	-0	0	578.964	493.77	272.539	322.034	-3.45012	2.33385	0.194189	0.0760048	6.02564
94	-0.0197242	0.299328	-0.179528	0.389407	0.164089	0.0534673	0.0141805	-0.0220794	0.0411562	-0.106259	-0.0528969	-0.0775137	0.0783106	0.0211187	-0.0308916	-2.29896	-0.244255	-2.03305	0	0	0	0	-0	0	0	0	-0.1265	0	-0	0	0	0	0	0	-0	0	0.105	0.015	0	0	-0	0	0	0.098	0.1	0	-0	0	0	0	0	0	-0	0	0.05595	0	0	0	-0	0	0	0	0	0	-0	0	578.964	493.77	272.539	322.034	-3.45013	2.33367	0.194053	0.0761136	6.02572
95	-0.0197716	0.299538	-0.179321	0.389302	0.164244	0.0532641	0.0141827	-0.0220803	0.0411594	-0.10626	-0.0528976	-0.0775129	0.0783199	0.0211381	-0.0309661	-2.29845	-0.244774	-2.03381	0	0	0	0	-0	0	0	0	-0.1265	0	-0	0	0	0	0	0	-0	0	0.105	0.015	0	0	-0	0	0	0.098	0.1	0	-0	0	0	0	0	0	-0	0	0.05595	0	0	0	-0	0	0	0	0	0	-0	0	578.964	493.769	272.538	322.035	-3.45	2.33333	0.194201	0.0759995	6.02592
96	-0.0197236	0.299376	-0.179542	0.389399	0.164064	0.0534697	0.0141806	-0.0220785	0.0411554	-0.10626	-0.0528979	-0.0775128	0.0783127	0.0211153	-0.0308885	-2.29896	-0.244267	-2.03309	0	0	0	0	-0	0	0	0	-0.1265	0	-0	0	0	0	0	0	-0	0	0.105	0.015	0	0	-0	0	0	0.098	0.1	0	-0	0	0	0	0	0	-0	0	0.05595	0	0	0	-0	0	0	0	0	0	-0	0	578.964	493.769	272.538	322.035	-3.45001	2.33313	0.194051	0.0761132	6.02601
97	-0.0197709	0.299469	-0.17935	0.389336	0.164229	0.0532836	0.0141821	-0.0220791	0.0411604	-0.10626	-0.052898	-0.0775128	0.0783191	0.0211412	-0.0309639	-2.29848	-0.244729	-2.03371	0	0	0	0	-0	0	0	0	-0.1265	0	-0	0	0	0	0	0	-0	0	0.105	0.015	0	0	-0	0	0	0.098	0.1	0	-0	0	0	0	0	0	-0	0	0.05595	0	0	0	-0	0	0	0	0	0	-0	0	578.964	493.769	272.538	322.035	-3.44995	2.333	0.194172	0.0760077	6.02609
98	-0.0197254	0.299278	-0.179549	0.389432	0.164089	0.0534742	0.0141797	-0.0220787	0.0411573	-0.10626	-0.0528973	-0.0775133	0.0783103	0.0211219	-0.0308932	-2.29897	-0.244239	-2.03299	0	0	0	0	-0	0	0	0	-0.1265	0	-0	0	0	0	0	0	-0	0	0.105	0.015	0	0	-0	0	0	0.098	0.1	0	-0	0	0	0	0	0	-0	0	0.05595	0	0	0	-0	0	0	0	0	0	-0	0	578.964	493.769	272.538	322.035	-3.44996	2.33267	0.194025	0.076116	6.02625
99	-0.0197702	0.299402	-0.179348	0.389353	0.164262	0.0532831	0.0141815	-0.0220801	0.0411617	-0.10626	-0.0528975	-0.0775132	0.0783166	0.021145	-0.0309669	-2.2985	-0.244703	-2.03364	0	0	0	0	-0	0	0	0	-0.1265	0	-0	0	0	0	0	0	-0	0	0.105	0.015	0	0	-0	0	0	0.098	0.1	0	-0	0	0	0	0	0	-0	0	0.05595	0	0	0	-0	0	0	0	0	0	-0	0	578.964	493.769	272.538	322.035	-3.4499	2.33253	0.194155	0.0760103	6.02633
100	-0.0197239	0.299214	-0.179547	0.389446	0.164117	0.0534727	0.0141793	-0.0220793	0.0411584	-0.10626	-0.0528971	-0.0775137	0.0783084	0.0211253	-0.0308958	-2.29898	-0.244213	-2.03292	0	0	0	0	-0	0	0	0	-0.1265	0	-0	0	0	0	0	0	-0	0	0.105	0.015	0	0	-0	0	0	0.098	0.1	0	-0	0	0	0	0	0	-0	0	0.05595	0	0	0	-0	0	0	0	0	0	-0	0	578.964	493.769	272.538	322.035	-3.4499	2.33215	0.194007	0.0761173	6.02651
