Stefan210/kinematic_calibration/src/kinematic_calibration/validation/experiments/experiments/impact_noise/outlier/larm_randomize_11_measurements_rk_false/optimization_intermediate_results.csv
iteration	HeadPitch_offset	HeadYaw_offset	LElbowRoll_offset	LElbowYaw_offset	LShoulderPitch_offset	LShoulderRoll_offset	marker_transform_larm_tx	marker_transform_larm_ty	marker_transform_larm_tz	marker_transform_larm_rr	marker_transform_larm_rp	marker_transform_larm_ry	camera_transform_tx	camera_transform_ty	camera_transform_tz	camera_transform_rr	camera_transform_rp	camera_transform_ry	HeadPitch_transform_tx	HeadPitch_transform_ty	HeadPitch_transform_tz	HeadPitch_transform_rr	HeadPitch_transform_rp	HeadPitch_transform_ry	HeadYaw_transform_tx	HeadYaw_transform_ty	HeadYaw_transform_tz	HeadYaw_transform_rr	HeadYaw_transform_rp	HeadYaw_transform_ry	LElbowRoll_transform_tx	LElbowRoll_transform_ty	LElbowRoll_transform_tz	LElbowRoll_transform_rr	LElbowRoll_transform_rp	LElbowRoll_transform_ry	LElbowYaw_transform_tx	LElbowYaw_transform_ty	LElbowYaw_transform_tz	LElbowYaw_transform_rr	LElbowYaw_transform_rp	LElbowYaw_transform_ry	LShoulderPitch_transform_tx	LShoulderPitch_transform_ty	LShoulderPitch_transform_tz	LShoulderPitch_transform_rr	LShoulderPitch_transform_rp	LShoulderPitch_transform_ry	LShoulderRoll_transform_tx	LShoulderRoll_transform_ty	LShoulderRoll_transform_tz	LShoulderRoll_transform_rr	LShoulderRoll_transform_rp	LShoulderRoll_transform_ry	LWristYaw_transform_tx	LWristYaw_transform_ty	LWristYaw_transform_tz	LWristYaw_transform_rr	LWristYaw_transform_rp	LWristYaw_transform_ry	l_wrist_joint_transform_tx	l_wrist_joint_transform_ty	l_wrist_joint_transform_tz	l_wrist_joint_transform_rr	l_wrist_joint_transform_rp	l_wrist_joint_transform_ry	camera_fx	camera_fy	camera_cx	camera_cy	camera_D0	camera_D1	camera_D2	camera_D3	camera_D4	
0	0.0249164	-0.0307543	0.000853157	4.65819e-06	-0.000318322	-0.00310766	0.05071	0	0.01774	-2.26369	1.66533e-16	-1.5708	545.901	551.038	324.928	201.58	0.0255298	2.61142	-0.0636736	-0.0350419	0.213964
1	-0.0158685	0.0660281	0.0339584	-0.016239	0.120914	-0.0238276	0.0318959	-0.0283129	0.0010638	-2.86079e-05	-0.000315519	-0.00201295	0.0421893	-0.00152736	0.0113799	-2.19656	-0.0341484	-1.73222	0	0	0	0	-0	0	0	0	-0.1265	0	-0	0	0	0	0	0	-0	0	0.105	0.015	0	0	-0	0	0	0.098	0.1	0	-0	0	0	0	0	0	-0	0	0.05595	0	0	0	-0	0	0	0	0	0	-0	0	545.902	551.037	324.928	201.579	0.0440371	2.62105	0.0269922	0.147517	0.216307
2	-0.0127553	0.14088	0.00741028	0.0884192	0.0899151	-0.0235029	0.029754	-0.0285681	0.0122894	-0.00128289	-0.00174959	-0.00228976	0.0368477	0.00575888	0.0224079	-2.19814	-0.100376	-1.80524	0	0	0	0	-0	0	0	0	-0.1265	0	-0	0	0	0	0	0	-0	0	0.105	0.015	0	0	-0	0	0	0.098	0.1	0	-0	0	0	0	0	0	-0	0	0.05595	0	0	0	-0	0	0	0	0	0	-0	0	545.907	551.035	324.925	201.585	-0.156489	2.55064	0.125073	0.0938289	0.199642
3	-0.0160514	0.18734	0.00229056	0.115936	0.0817581	0.000967285	0.0297382	-0.0280142	0.0148862	-0.00156463	-0.00205733	-0.00222301	0.0426566	0.0110876	0.0169501	-2.17385	-0.132345	-1.88782	0	0	0	0	-0	0	0	0	-0.1265	0	-0	0	0	0	0	0	-0	0	0.105	0.015	0	0	-0	0	0	0.098	0.1	0	-0	0	0	0	0	0	-0	0	0.05595	0	0	0	-0	0	0	0	0	0	-0	0	545.92	551.025	324.922	201.598	-0.610475	2.44212	0.13376	0.117867	0.180855
4	-0.0141416	0.209994	-0.0172086	0.18766	0.0828657	-0.00718399	0.0278724	-0.0270337	0.0220624	-0.00247383	-0.00310534	-0.00236307	0.0460144	0.0129117	0.0144803	-2.17181	-0.159431	-1.91771	0	0	0	0	-0	0	0	0	-0.1265	0	-0	0	0	0	0	0	-0	0	0.105	0.015	0	0	-0	0	0	0.098	0.1	0	-0	0	0	0	0	0	-0	0	0.05595	0	0	0	-0	0	0	0	0	0	-0	0	545.95	551.003	324.912	201.627	-1.50041	2.22498	0.251558	0.0384627	0.14304
5	-0.0150466	0.275498	-0.0468693	0.19146	0.0758414	0.0107308	0.0263258	-0.0257767	0.0228405	-0.00285457	-0.00317376	-0.00237559	0.0540272	0.0196192	0.00723571	-2.13943	-0.219146	-2.02533	0	0	0	0	-0	0	0	0	-0.1265	0	-0	0	0	0	0	0	-0	0	0.105	0.015	0	0	-0	0	0	0.098	0.1	0	-0	0	0	0	0	0	-0	0	0.05595	0	0	0	-0	0	0	0	0	0	-0	0	546.043	550.925	324.911	201.728	-2.52588	2.00985	0.365063	-0.00804517	0.11804
6	-0.0121399	0.32491	-0.07982	0.230801	0.090381	0.00430301	0.0237489	-0.0244131	0.0267767	-0.00329155	-0.00349743	-0.00251908	0.0623113	0.0209749	-0.00188849	-2.11828	-0.273062	-2.10531	0	0	0	0	-0	0	0	0	-0.1265	0	-0	0	0	0	0	0	-0	0	0.105	0.015	0	0	-0	0	0	0.098	0.1	0	-0	0	0	0	0	0	-0	0	0.05595	0	0	0	-0	0	0	0	0	0	-0	0	546.346	550.655	324.901	202.2	-3.34108	2.20489	0.443804	-0.0777309	0.265865
7	-0.0120892	0.386988	-0.11226	0.227221	0.0984087	0.0144305	0.0220394	-0.023676	0.0265049	-0.00167707	-0.00359584	-0.0026831	0.0713846	0.0205074	-0.0118787	-2.07938	-0.323872	-2.21163	0	0	0	0	-0	0	0	0	-0.1265	0	-0	0	0	0	0	0	-0	0	0.105	0.015	0	0	-0	0	0	0.098	0.1	0	-0	0	0	0	0	0	-0	0	0.05595	0	0	0	-0	0	0	0	0	0	-0	0	547.256	549.788	324.906	204.237	-3.5928	3.37252	0.41859	-0.0800776	0.845384
8	-0.0114786	0.418993	-0.135115	0.246738	0.0872869	0.0115455	0.0202468	-0.0229683	0.0274666	-0.00335389	-0.00079968	-9.40021e-05	0.0756955	0.0144218	-0.0167109	-2.06554	-0.339651	-2.24831	0	0	0	0	-0	0	0	0	-0.1265	0	-0	0	0	0	0	0	-0	0	0.105	0.015	0	0	-0	0	0	0.098	0.1	0	-0	0	0	0	0	0	-0	0	0.05595	0	0	0	-0	0	0	0	0	0	-0	0	548.888	548.067	324.883	208.8	-3.76159	3.61436	0.401212	-0.0875187	0.735895
9	-0.00448046	0.472516	-0.165757	0.236458	0.083923	0.023865	0.0191522	-0.0223528	0.0261481	-5.96165e-05	0.00398019	-0.00033059	0.0786295	0.0155406	-0.0194274	-2.03948	-0.373071	-2.33363	0	0	0	0	-0	0	0	0	-0.1265	0	-0	0	0	0	0	0	-0	0	0.105	0.015	0	0	-0	0	0	0.098	0.1	0	-0	0	0	0	0	0	-0	0	0.05595	0	0	0	-0	0	0	0	0	0	-0	0	553.327	543.337	324.963	222.46	-3.81857	4.24461	0.383286	-0.0930763	-0.372315
10	0.0126361	0.481448	-0.181577	0.272066	0.0737294	0.0309166	0.0180648	-0.0214887	0.0287242	-0.0321243	0.0195035	-0.0205189	0.0808181	0.0109401	-0.0201897	-2.06688	-0.352893	-2.33087	0	0	0	0	-0	0	0	0	-0.1265	0	-0	0	0	0	0	0	-0	0	0.105	0.015	0	0	-0	0	0	0.098	0.1	0	-0	0	0	0	0	0	-0	0	0.05595	0	0	0	-0	0	0	0	0	0	-0	0	561.356	532.678	322.396	252.974	-4.03554	6.05469	0.327489	-0.0932147	-3.3436
11	0.0707083	0.530119	-0.216963	0.296831	0.0639181	0.0565336	0.0163043	-0.0206438	0.0308126	-0.0869489	0.00788411	-0.0121599	0.0857273	0.00991292	-0.0186757	-2.05118	-0.324506	-2.40305	0	0	0	0	-0	0	0	0	-0.1265	0	-0	0	0	0	0	0	-0	0	0.105	0.015	0	0	-0	0	0	0.098	0.1	0	-0	0	0	0	0	0	-0	0	0.05595	0	0	0	-0	0	0	0	0	0	-0	0	571.292	513.174	315.157	292.151	-4.0189	7.03179	0.253648	-0.0705952	-4.57576
12	0.154771	0.470646	-0.207029	0.346013	0.0653769	0.0556891	0.0158062	-0.0204329	0.0356346	-0.28264	0.0606718	-0.0775223	0.0833987	0.0110795	-0.00855534	-2.01515	-0.218825	-2.30706	0	0	0	0	-0	0	0	0	-0.1265	0	-0	0	0	0	0	0	-0	0	0.105	0.015	0	0	-0	0	0	0.098	0.1	0	-0	0	0	0	0	0	-0	0	0.05595	0	0	0	-0	0	0	0	0	0	-0	0	570.836	480.211	308.886	287.232	-3.71599	5.12125	0.311282	-0.0546606	-2.061
13	0.158813	0.452969	-0.196532	0.359647	0.0938732	0.05763	0.0154351	-0.021979	0.0373411	-0.197876	0.0517695	-0.0931253	0.0860224	0.0118495	-0.0134661	-2.04127	-0.219196	-2.30857	0	0	0	0	-0	0	0	0	-0.1265	0	-0	0	0	0	0	0	-0	0	0.105	0.015	0	0	-0	0	0	0.098	0.1	0	-0	0	0	0	0	0	-0	0	0.05595	0	0	0	-0	0	0	0	0	0	-0	0	567.156	473.616	302.536	308.324	-3.4668	5.22505	0.22791	-0.0197235	-2.27615
14	0.161122	0.403475	-0.19191	0.389791	0.0892507	0.0586159	0.0150987	-0.0221465	0.0396396	-0.175472	0.0540978	-0.106137	0.0815454	0.0139988	-0.00947913	-2.05896	-0.188965	-2.2187	0	0	0	0	-0	0	0	0	-0.1265	0	-0	0	0	0	0	0	-0	0	0.105	0.015	0	0	-0	0	0	0.098	0.1	0	-0	0	0	0	0	0	-0	0	0.05595	0	0	0	-0	0	0	0	0	0	-0	0	566.527	471.5	301.429	305.13	-3.19618	2.83436	0.263752	-0.0231517	1.21369
15	0.164515	0.399303	-0.180291	0.385378	0.112389	0.0542607	0.0152135	-0.0226563	0.0402732	-0.212831	0.0622768	-0.086194	0.0835353	0.0150416	-0.0134759	-2.06186	-0.1973	-2.24024	0	0	0	0	-0	0	0	0	-0.1265	0	-0	0	0	0	0	0	-0	0	0.105	0.015	0	0	-0	0	0	0.098	0.1	0	-0	0	0	0	0	0	-0	0	0.05595	0	0	0	-0	0	0	0	0	0	-0	0	565.626	468.237	298.484	314.598	-3.12068	2.79608	0.226917	-0.00824978	1.59086
16	0.139052	0.361821	-0.183554	0.414908	0.107956	0.0576528	0.0145602	-0.0225982	0.0420658	-0.248433	0.0825378	-0.101922	0.0802222	0.0159007	-0.0124851	-2.10845	-0.186117	-2.16299	0	0	0	0	-0	0	0	0	-0.1265	0	-0	0	0	0	0	0	-0	0	0.105	0.015	0	0	-0	0	0	0.098	0.1	0	-0	0	0	0	0	0	-0	0	0.05595	0	0	0	-0	0	0	0	0	0	-0	0	560.788	464.853	296.261	314.723	-2.53768	-1.67041	0.222313	-0.00402809	8.47761
17	0.10767	0.360079	-0.170021	0.417452	0.128805	0.0506197	0.0144385	-0.0230104	0.0431254	-0.288897	0.0747478	-0.147933	0.0818551	0.0163391	-0.0196985	-2.15036	-0.216169	-2.18023	0	0	0	0	-0	0	0	0	-0.1265	0	-0	0	0	0	0	0	-0	0	0.105	0.015	0	0	-0	0	0	0.098	0.1	0	-0	0	0	0	0	0	-0	0	0.05595	0	0	0	-0	0	0	0	0	0	-0	0	555.45	463.154	294.499	329.869	-2.43807	-0.956199	0.151106	0.0059596	6.4489
18	0.102375	0.330009	-0.1761	0.447074	0.121585	0.056407	0.0136839	-0.0228611	0.0449241	-0.360511	0.0184287	-0.12821	0.0788351	0.0169909	-0.016494	-2.18246	-0.19206	-2.11565	0	0	0	0	-0	0	0	0	-0.1265	0	-0	0	0	0	0	0	-0	0	0.105	0.015	0	0	-0	0	0	0.098	0.1	0	-0	0	0	0	0	0	-0	0	0.05595	0	0	0	-0	0	0	0	0	0	-0	0	550.034	461.314	293.003	330.981	-1.79269	-5.99465	0.141377	0.0105591	14.153
19	0.0836696	0.341199	-0.166412	0.445507	0.133087	0.0516896	0.0134991	-0.0229811	0.0458564	-0.274731	-0.124737	-0.0594894	0.0809076	0.0166059	-0.022269	-2.21858	-0.224431	-2.15186	0	0	0	0	-0	0	0	0	-0.1265	0	-0	0	0	0	0	0	-0	0	0.105	0.015	0	0	-0	0	0	0.098	0.1	0	-0	0	0	0	0	0	-0	0	0.05595	0	0	0	-0	0	0	0	0	0	-0	0	540.998	459.847	295.928	350.66	-1.78619	-3.71937	0.0492781	-0.00244245	7.85246
20	0.098995	0.329588	-0.181525	0.470664	0.121819	0.0642697	0.012762	-0.0228666	0.0466178	-0.258425	-0.118125	-0.0556919	0.079357	0.0173136	-0.0171403	-2.22685	-0.204024	-2.12265	0	0	0	0	-0	0	0	0	-0.1265	0	-0	0	0	0	0	0	-0	0	0.105	0.015	0	0	-0	0	0	0.098	0.1	0	-0	0	0	0	0	0	-0	0	0.05595	0	0	0	-0	0	0	0	0	0	-0	0	538.193	459.218	299.469	352.217	-1.25175	-7.69409	0.0495123	-0.01904	13.4447
21	0.089858	0.343353	-0.172288	0.458751	0.126062	0.0579451	0.0132342	-0.0228902	0.0463443	-0.265593	-0.136019	-0.0777161	0.0797289	0.0176769	-0.0200704	-2.22904	-0.234392	-2.168	0	0	0	0	-0	0	0	0	-0.1265	0	-0	0	0	0	0	0	-0	0	0.105	0.015	0	0	-0	0	0	0.098	0.1	0	-0	0	0	0	0	0	-0	0	0.05595	0	0	0	-0	0	0	0	0	0	-0	0	533.632	457.324	308.113	361.101	-1.13127	-7.80361	0.0213847	-0.0613528	12.5542
22	0.0863152	0.34022	-0.178683	0.461319	0.120738	0.0658164	0.0132754	-0.0229687	0.04606	-0.307345	-0.173829	-0.107345	0.0780873	0.0181854	-0.0175122	-2.26802	-0.235663	-2.16316	0	0	0	0	-0	0	0	0	-0.1265	0	-0	0	0	0	0	0	-0	0	0.105	0.015	0	0	-0	0	0	0.098	0.1	0	-0	0	0	0	0	0	-0	0	0.05595	0	0	0	-0	0	0	0	0	0	-0	0	523.073	455.005	319.17	373.406	-0.539464	-11.5869	-0.038898	-0.115732	16.8421
23	0.127557	0.367517	-0.177697	0.445925	0.120779	0.0671193	0.0139906	-0.0227582	0.045453	-0.389266	-0.23771	0.00717234	0.078572	0.0189704	-0.0142484	-2.25196	-0.232692	-2.2236	0	0	0	0	-0	0	0	0	-0.1265	0	-0	0	0	0	0	0	-0	0	0.105	0.015	0	0	-0	0	0	0.098	0.1	0	-0	0	0	0	0	0	-0	0	0.05595	0	0	0	-0	0	0	0	0	0	-0	0	506.376	449.182	328.072	392.85	-0.0541525	-13.6455	-0.0957374	-0.158264	18.6919
24	0.148421	0.385392	-0.185273	0.450271	0.112327	0.0734371	0.0132106	-0.0229998	0.0449838	-0.342778	-0.230033	0.114538	0.0778378	0.0184395	-0.0110186	-2.25293	-0.213301	-2.23309	0	0	0	0	-0	0	0	0	-0.1265	0	-0	0	0	0	0	0	-0	0	0.105	0.015	0	0	-0	0	0	0.098	0.1	0	-0	0	0	0	0	0	-0	0	0.05595	0	0	0	-0	0	0	0	0	0	-0	0	479.314	434.506	327.502	402.352	1.01991	-18.6176	-0.109102	-0.157983	24.2575
25	0.152218	0.41321	-0.187399	0.441088	0.112483	0.0751594	0.0132035	-0.0227179	0.0444702	-0.385866	-0.251034	0.0321621	0.0789108	0.0181949	-0.0118519	-2.25951	-0.223595	-2.27372	0	0	0	0	-0	0	0	0	-0.1265	0	-0	0	0	0	0	0	-0	0	0.105	0.015	0	0	-0	0	0	0.098	0.1	0	-0	0	0	0	0	0	-0	0	0.05595	0	0	0	-0	0	0	0	0	0	-0	0	455.046	418.927	328.673	414.199	1.60057	-19.046	-0.117778	-0.156909	22.7249
26	0.157149	0.411341	-0.186004	0.43843	0.11144	0.0764041	0.0134074	-0.0228894	0.0443531	-0.260806	-0.265297	-0.048534	0.0795739	0.0167391	-0.0119546	-2.27586	-0.215249	-2.2636	0	0	0	0	-0	0	0	0	-0.1265	0	-0	0	0	0	0	0	-0	0	0.105	0.015	0	0	-0	0	0	0.098	0.1	0	-0	0	0	0	0	0	-0	0	0.05595	0	0	0	-0	0	0	0	0	0	-0	0	423.382	394.66	327.239	419.664	2.15185	-18.8666	-0.115029	-0.144775	20.4778
27	0.175402	0.40923	-0.184182	0.431462	0.116276	0.0787536	0.0134514	-0.0228673	0.0438554	-0.312005	-0.221427	-0.0724506	0.0805768	0.0167651	-0.0114321	-2.27243	-0.205316	-2.26628	0	0	0	0	-0	0	0	0	-0.1265	0	-0	0	0	0	0	0	-0	0	0.105	0.015	0	0	-0	0	0	0.098	0.1	0	-0	0	0	0	0	0	-0	0	0.05595	0	0	0	-0	0	0	0	0	0	-0	0	410.366	384.83	327.079	424.117	2.28229	-17.7386	-0.10774	-0.139228	18.2417
28	0.226925	0.403469	-0.181277	0.428635	0.117773	0.0778664	0.0135346	-0.023109	0.0437323	-0.200557	-0.229265	-0.012303	0.0818524	0.0159797	-0.00813683	-2.24649	-0.170035	-2.26551	0	0	0	0	-0	0	0	0	-0.1265	0	-0	0	0	0	0	0	-0	0	0.105	0.015	0	0	-0	0	0	0.098	0.1	0	-0	0	0	0	0	0	-0	0	0.05595	0	0	0	-0	0	0	0	0	0	-0	0	395.101	371.172	326.249	428.035	2.29059	-16.0037	-0.110487	-0.130353	15.2702
29	0.18747	0.390734	-0.177101	0.423914	0.123509	0.0791233	0.013832	-0.0236759	0.043951	-0.0269832	-0.206159	0.0570098	0.0823454	0.0158049	-0.0121784	-2.29913	-0.193451	-2.24535	0	0	0	0	-0	0	0	0	-0.1265	0	-0	0	0	0	0	0	-0	0	0.105	0.015	0	0	-0	0	0	0.098	0.1	0	-0	0	0	0	0	0	-0	0	0.05595	0	0	0	-0	0	0	0	0	0	-0	0	376.198	351.656	326.106	433.332	2.40365	-14.764	-0.118414	-0.124822	13.057
30	0.175464	0.360163	-0.172134	0.422329	0.132436	0.0799027	0.0143275	-0.0236714	0.0436251	-0.0905521	-0.142526	0.0510106	0.0823307	0.0163271	-0.0146287	-2.32869	-0.191353	-2.20651	0	0	0	0	-0	0	0	0	-0.1265	0	-0	0	0	0	0	0	-0	0	0.105	0.015	0	0	-0	0	0	0.098	0.1	0	-0	0	0	0	0	0	-0	0	0.05595	0	0	0	-0	0	0	0	0	0	-0	0	363.218	337.701	324.792	436.348	2.31518	-12.9878	-0.118703	-0.114404	10.6764
31	0.198712	0.34858	-0.171161	0.414763	0.138404	0.0825076	0.0148304	-0.0238373	0.0432659	-0.0826675	-0.107707	0.097311	0.0831843	0.0170977	-0.0134884	-2.3187	-0.177449	-2.1997	0	0	0	0	-0	0	0	0	-0.1265	0	-0	0	0	0	0	0	-0	0	0.105	0.015	0	0	-0	0	0	0.098	0.1	0	-0	0	0	0	0	0	-0	0	0.05595	0	0	0	-0	0	0	0	0	0	-0	0	357.658	331.775	324.428	438.408	2.36099	-12.7563	-0.118708	-0.112577	10.3452
32	0.187439	0.324971	-0.168967	0.416207	0.142965	0.0820481	0.0149701	-0.0241096	0.0432172	-0.0878653	-0.14334	0.1268	0.0830581	0.0172649	-0.0154133	-2.34102	-0.175713	-2.16634	0	0	0	0	-0	0	0	0	-0.1265	0	-0	0	0	0	0	0	-0	0	0.105	0.015	0	0	-0	0	0	0.098	0.1	0	-0	0	0	0	0	0	-0	0	0.05595	0	0	0	-0	0	0	0	0	0	-0	0	350.621	323.601	323.33	439.514	2.19396	-11.3243	-0.121688	-0.10515	8.6564
33	0.146341	0.315823	-0.167928	0.408649	0.148511	0.0853557	0.015384	-0.0242439	0.0430404	-0.0713949	-0.100006	0.121204	0.0829875	0.0181965	-0.0194097	-2.38436	-0.200006	-2.15375	0	0	0	0	-0	0	0	0	-0.1265	0	-0	0	0	0	0	0	-0	0	0.105	0.015	0	0	-0	0	0	0.098	0.1	0	-0	0	0	0	0	0	-0	0	0.05595	0	0	0	-0	0	0	0	0	0	-0	0	345.211	317.264	323.198	441.873	2.2921	-11.3961	-0.124342	-0.104682	8.64209
34	0.155638	0.29381	-0.167394	0.413991	0.151073	0.0844523	0.0152863	-0.0245504	0.0431241	-0.0721027	-0.106954	0.129396	0.0826733	0.0184455	-0.0193935	-2.38414	-0.184871	-2.12473	0	0	0	0	-0	0	0	0	-0.1265	0	-0	0	0	0	0	0	-0	0	0.105	0.015	0	0	-0	0	0	0.098	0.1	0	-0	0	0	0	0	0	-0	0	0.05595	0	0	0	-0	0	0	0	0	0	-0	0	342.961	314.694	322.359	441.747	2.09943	-10.2825	-0.123658	-0.0993191	7.49251
35	0.132073	0.287045	-0.165944	0.405334	0.155574	0.0875407	0.0157757	-0.0246436	0.0428867	-0.0683309	-0.126713	0.127304	0.0829914	0.0191666	-0.0220257	-2.41169	-0.199903	-2.118	0	0	0	0	-0	0	0	0	-0.1265	0	-0	0	0	0	0	0	-0	0	0.105	0.015	0	0	-0	0	0	0.098	0.1	0	-0	0	0	0	0	0	-0	0	0.05595	0	0	0	-0	0	0	0	0	0	-0	0	338.393	309.069	322.108	443.777	2.13752	-10.125	-0.126081	-0.0979912	7.27102
36	0.130666	0.268551	-0.166527	0.411904	0.156218	0.0867375	0.0156364	-0.0248558	0.0430299	-0.0723497	-0.133619	0.157946	0.0826645	0.0191796	-0.0225706	-2.42225	-0.191375	-2.08984	0	0	0	0	-0	0	0	0	-0.1265	0	-0	0	0	0	0	0	-0	0	0.105	0.015	0	0	-0	0	0	0.098	0.1	0	-0	0	0	0	0	0	-0	0	0.05595	0	0	0	-0	0	0	0	0	0	-0	0	336.059	306.329	321.339	443.696	1.96177	-9.16966	-0.126943	-0.0932434	6.32939
37	0.141181	0.264889	-0.163843	0.401821	0.160209	0.0890057	0.0161709	-0.0248991	0.0427287	-0.069629	-0.132431	0.132144	0.083774	0.0197384	-0.0225121	-2.41875	-0.189994	-2.09408	0	0	0	0	-0	0	0	0	-0.1265	0	-0	0	0	0	0	0	-0	0	0.105	0.015	0	0	-0	0	0	0.098	0.1	0	-0	0	0	0	0	0	-0	0	0.05595	0	0	0	-0	0	0	0	0	0	-0	0	330.963	299.979	321.252	445.792	1.98572	-8.93148	-0.12976	-0.0921371	6.04367
38	0.144545	0.247656	-0.165272	0.40955	0.159481	0.08801	0.0160154	-0.0250153	0.0429657	-0.115378	-0.175527	0.141566	0.0838699	0.0193477	-0.0223889	-2.43211	-0.178761	-2.065	0	0	0	0	-0	0	0	0	-0.1265	0	-0	0	0	0	0	0	-0	0	0.105	0.015	0	0	-0	0	0	0.098	0.1	0	-0	0	0	0	0	0	-0	0	0.05595	0	0	0	-0	0	0	0	0	0	-0	0	323.878	291.301	320.312	445.951	1.8728	-8.07887	-0.135875	-0.0870553	5.16309
39	0.112333	0.243702	-0.159498	0.395821	0.164691	0.0890776	0.0167386	-0.0250124	0.0426307	-0.0476153	-0.213456	0.123082	0.0844227	0.0197985	-0.0264529	-2.47213	-0.199472	-2.0657	0	0	0	0	-0	0	0	0	-0.1265	0	-0	0	0	0	0	0	-0	0	0.105	0.015	0	0	-0	0	0	0.098	0.1	0	-0	0	0	0	0	0	-0	0	0.05595	0	0	0	-0	0	0	0	0	0	-0	0	313.943	279.02	320.81	449.747	1.8509	-7.39391	-0.143114	-0.0862542	4.46125
40	0.113812	0.243706	-0.164406	0.399197	0.163399	0.0896188	0.0165084	-0.0251304	0.0425588	-0.0475922	-0.213493	0.123047	0.0841902	0.0191612	-0.0252925	-2.48142	-0.195759	-2.05631	0	0	0	0	-0	0	0	0	-0.1265	0	-0	0	0	0	0	0	-0	0	0.105	0.015	0	0	-0	0	0	0.098	0.1	0	-0	0	0	0	0	0	-0	0	0.05595	0	0	0	-0	0	0	0	0	0	-0	0	313.943	279.02	320.81	449.747	1.85105	-7.39369	-0.144479	-0.085593	4.46149
41	0.111791	0.241552	-0.162406	0.398933	0.163201	0.0885731	0.0166358	-0.0249474	0.0425407	-0.0476189	-0.213467	0.123077	0.0839592	0.0199281	-0.0265236	-2.47073	-0.197315	-2.06296	0	0	0	0	-0	0	0	0	-0.1265	0	-0	0	0	0	0	0	-0	0	0.105	0.015	0	0	-0	0	0	0.098	0.1	0	-0	0	0	0	0	0	-0	0	0.05595	0	0	0	-0	0	0	0	0	0	-0	0	313.943	279.02	320.81	449.747	1.85085	-7.39375	-0.142965	-0.0867417	4.46142
42	0.113539	0.241853	-0.164974	0.400479	0.16227	0.089614	0.0164634	-0.0251395	0.0425498	-0.0475907	-0.2135	0.123041	0.0841328	0.0193978	-0.0254184	-2.48008	-0.19579	-2.05594	0	0	0	0	-0	0	0	0	-0.1265	0	-0	0	0	0	0	0	-0	0	0.105	0.015	0	0	-0	0	0	0.098	0.1	0	-0	0	0	0	0	0	-0	0	0.05595	0	0	0	-0	0	0	0	0	0	-0	0	313.943	279.02	320.81	449.747	1.85094	-7.3936	-0.144126	-0.0858287	4.46159
43	0.111814	0.240063	-0.162974	0.399961	0.162335	0.088828	0.0165987	-0.024983	0.0425604	-0.0476158	-0.213475	0.12307	0.083931	0.0199874	-0.0264411	-2.47116	-0.196776	-2.06095	0	0	0	0	-0	0	0	0	-0.1265	0	-0	0	0	0	0	0	-0	0	0.105	0.015	0	0	-0	0	0	0.098	0.1	0	-0	0	0	0	0	0	-0	0	0.05595	0	0	0	-0	0	0	0	0	0	-0	0	313.943	279.02	320.81	449.747	1.85076	-7.39368	-0.142935	-0.0867385	4.46149
44	0.113412	0.240277	-0.165228	0.401281	0.16156	0.0898029	0.0164669	-0.0251302	0.0425748	-0.047595	-0.213501	0.123043	0.0841024	0.0195054	-0.0254525	-2.47969	-0.195386	-2.0545	0	0	0	0	-0	0	0	0	-0.1265	0	-0	0	0	0	0	0	-0	0	0.105	0.015	0	0	-0	0	0	0.098	0.1	0	-0	0	0	0	0	0	-0	0	0.05595	0	0	0	-0	0	0	0	0	0	-0	0	313.943	279.02	320.81	449.747	1.85081	-7.39358	-0.143979	-0.0858991	4.46161
45	0.111816	0.23864	-0.163103	0.40058	0.161862	0.0890421	0.0165941	-0.0250013	0.0425892	-0.047616	-0.213477	0.123069	0.0839214	0.0200378	-0.0264074	-2.47143	-0.196333	-2.05913	0	0	0	0	-0	0	0	0	-0.1265	0	-0	0	0	0	0	0	-0	0	0.105	0.015	0	0	-0	0	0	0.098	0.1	0	-0	0	0	0	0	0	-0	0	0.05595	0	0	0	-0	0	0	0	0	0	-0	0	313.943	279.02	320.81	449.747	1.85062	-7.39368	-0.142913	-0.0867627	4.46148
46	0.113383	0.238837	-0.165316	0.401856	0.16118	0.0899756	0.0164738	-0.0251281	0.0426031	-0.0475983	-0.213501	0.123045	0.0840879	0.019571	-0.0254539	-2.47978	-0.194961	-2.0528	0	0	0	0	-0	0	0	0	-0.1265	0	-0	0	0	0	0	0	-0	0	0.105	0.015	0	0	-0	0	0	0.098	0.1	0	-0	0	0	0	0	0	-0	0	0.05595	0	0	0	-0	0	0	0	0	0	-0	0	313.943	279.02	320.81	449.747	1.85063	-7.39361	-0.143934	-0.0859401	4.46158
47	0.112097	0.237694	-0.163918	0.401287	0.161341	0.0893971	0.0166081	-0.0249666	0.042607	-0.0476235	-0.213476	0.123074	0.0839479	0.0200058	-0.0262393	-2.47313	-0.195715	-2.05683	0	0	0	0	-0	0	0	0	-0.1265	0	-0	0	0	0	0	0	-0	0	0.105	0.015	0	0	-0	0	0	0.098	0.1	0	-0	0	0	0	0	0	-0	0	0.05595	0	0	0	-0	0	0	0	0	0	-0	0	313.943	279.02	320.81	449.747	1.85041	-7.39375	-0.143048	-0.086586	4.46144
48	0.112976	0.237882	-0.164891	0.401833	0.160996	0.0899159	0.0165037	-0.025124	0.0426131	-0.0475995	-0.213497	0.123048	0.0840489	0.019715	-0.0256646	-2.4778	-0.194999	-2.05336	0	0	0	0	-0	0	0	0	-0.1265	0	-0	0	0	0	0	0	-0	0	0.105	0.015	0	0	-0	0	0	0.098	0.1	0	-0	0	0	0	0	0	-0	0	0.05595	0	0	0	-0	0	0	0	0	0	-0	0	313.943	279.02	320.81	449.747	1.85045	-7.39371	-0.143704	-0.0861604	4.46148
49	0.112181	0.236897	-0.163893	0.401515	0.161172	0.0895369	0.0165871	-0.0250253	0.0426209	-0.0476155	-0.213481	0.123066	0.0839573	0.0199994	-0.0261661	-2.47369	-0.195442	-2.0555	0	0	0	0	-0	0	0	0	-0.1265	0	-0	0	0	0	0	0	-0	0	0.105	0.015	0	0	-0	0	0	0.098	0.1	0	-0	0	0	0	0	0	-0	0	0.05595	0	0	0	-0	0	0	0	0	0	-0	0	313.943	279.02	320.81	449.747	1.85028	-7.3938	-0.143189	-0.0866107	4.46137
50	0.112877	0.236971	-0.164723	0.401998	0.160932	0.0899374	0.0165234	-0.0251127	0.0426282	-0.0476027	-0.213494	0.123052	0.0840333	0.0197809	-0.0257336	-2.47739	-0.194847	-2.05266	0	0	0	0	-0	0	0	0	-0.1265	0	-0	0	0	0	0	0	-0	0	0.105	0.015	0	0	-0	0	0	0.098	0.1	0	-0	0	0	0	0	0	-0	0	0.05595	0	0	0	-0	0	0	0	0	0	-0	0	313.943	279.02	320.81	449.747	1.85028	-7.39378	-0.143679	-0.0862666	4.4614
51	0.112265	0.236086	-0.16394	0.401791	0.161098	0.0896401	0.0165839	-0.0250417	0.0426367	-0.0476146	-0.213482	0.123065	0.0839582	0.0200024	-0.0261181	-2.47427	-0.195132	-2.05413	0	0	0	0	-0	0	0	0	-0.1265	0	-0	0	0	0	0	0	-0	0	0.105	0.015	0	0	-0	0	0	0.098	0.1	0	-0	0	0	0	0	0	-0	0	0.05595	0	0	0	-0	0	0	0	0	0	-0	0	313.943	279.02	320.81	449.747	1.85011	-7.39388	-0.143289	-0.0866061	4.46128
52	0.112829	0.236075	-0.16463	0.40221	0.160905	0.0899667	0.0165367	-0.0251044	0.042644	-0.0476057	-0.213492	0.123054	0.0840194	0.0198318	-0.0257742	-2.47727	-0.194631	-2.05176	0	0	0	0	-0	0	0	0	-0.1265	0	-0	0	0	0	0	0	-0	0	0.105	0.015	0	0	-0	0	0	0.098	0.1	0	-0	0	0	0	0	0	-0	0	0.05595	0	0	0	-0	0	0	0	0	0	-0	0	313.943	279.02	320.81	449.747	1.85009	-7.39388	-0.14368	-0.0863275	4.46129
53	0.112312	0.235262	-0.163926	0.402042	0.161078	0.0897099	0.0165835	-0.0250526	0.0426535	-0.0476146	-0.213484	0.123064	0.0839537	0.0200195	-0.0260972	-2.47464	-0.194857	-2.05291	0	0	0	0	-0	0	0	0	-0.1265	0	-0	0	0	0	0	0	-0	0	0.105	0.015	0	0	-0	0	0	0.098	0.1	0	-0	0	0	0	0	0	-0	0	0.05595	0	0	0	-0	0	0	0	0	0	-0	0	313.943	279.02	320.81	449.747	1.84991	-7.39398	-0.143368	-0.0866217	4.46117
54	0.112807	0.235214	-0.164543	0.40243	0.160914	0.0899971	0.0165447	-0.0251022	0.0426607	-0.0476077	-0.213492	0.123055	0.0840069	0.019874	-0.0257997	-2.47727	-0.194407	-2.0508	0	0	0	0	-0	0	0	0	-0.1265	0	-0	0	0	0	0	0	-0	0	0.105	0.015	0	0	-0	0	0	0.098	0.1	0	-0	0	0	0	0	0	-0	0	0.05595	0	0	0	-0	0	0	0	0	0	-0	0	313.943	279.02	320.81	449.747	1.84986	-7.39399	-0.143709	-0.0863801	4.46116
55	0.112445	0.23477	-0.164166	0.402307	0.160971	0.0898381	0.0165897	-0.0250454	0.0426646	-0.0476169	-0.213483	0.123066	0.0839655	0.0200036	-0.0260282	-2.47542	-0.194581	-2.05179	0	0	0	0	-0	0	0	0	-0.1265	0	-0	0	0	0	0	0	-0	0	0.105	0.015	0	0	-0	0	0	0.098	0.1	0	-0	0	0	0	0	0	-0	0	0.05595	0	0	0	-0	0	0	0	0	0	-0	0	313.943	279.02	320.81	449.747	1.84975	-7.39406	-0.143464	-0.0865649	4.4611
56	0.112762	0.234463	-0.164583	0.402662	0.160813	0.0900476	0.0165574	-0.0250856	0.0426727	-0.0476118	-0.21349	0.123059	0.0839955	0.0199186	-0.0258294	-2.47717	-0.194181	-2.05005	0	0	0	0	-0	0	0	0	-0.1265	0	-0	0	0	0	0	0	-0	0	0.105	0.015	0	0	-0	0	0	0.098	0.1	0	-0	0	0	0	0	0	-0	0	0.05595	0	0	0	-0	0	0	0	0	0	-0	0	313.943	279.02	320.81	449.747	1.84961	-7.39412	-0.143727	-0.0864216	4.46104
57	0.112461	0.234068	-0.164211	0.402542	0.160875	0.0899163	0.0165875	-0.0250535	0.0426776	-0.0476172	-0.213484	0.123065	0.0839617	0.0200265	-0.0260141	-2.47563	-0.194353	-2.05085	0	0	0	0	-0	0	0	0	-0.1265	0	-0	0	0	0	0	0	-0	0	0.105	0.015	0	0	-0	0	0	0.098	0.1	0	-0	0	0	0	0	0	-0	0	0.05595	0	0	0	-0	0	0	0	0	0	-0	0	313.943	279.02	320.81	449.747	1.84951	-7.39419	-0.14354	-0.0865943	4.46097
58	0.112727	0.233758	-0.164518	0.402845	0.160788	0.090083	0.0165619	-0.0250862	0.0426868	-0.0476132	-0.21349	0.123059	0.0839853	0.0199585	-0.0258537	-2.47709	-0.194022	-2.04933	0	0	0	0	-0	0	0	0	-0.1265	0	-0	0	0	0	0	0	-0	0	0.105	0.015	0	0	-0	0	0	0.098	0.1	0	-0	0	0	0	0	0	-0	0	0.05595	0	0	0	-0	0	0	0	0	0	-0	0	313.943	279.02	320.81	449.747	1.84935	-7.39426	-0.143771	-0.086492	4.4609
59	0.112469	0.233408	-0.164167	0.402735	0.160867	0.0899648	0.0165862	-0.0250623	0.042692	-0.0476173	-0.213485	0.123064	0.0839556	0.0200505	-0.0260128	-2.47576	-0.194171	-2.04999	0	0	0	0	-0	0	0	0	-0.1265	0	-0	0	0	0	0	0	-0	0	0.105	0.015	0	0	-0	0	0	0.098	0.1	0	-0	0	0	0	0	0	-0	0	0.05595	0	0	0	-0	0	0	0	0	0	-0	0	313.943	279.02	320.81	449.747	1.84925	-7.39432	-0.143619	-0.0866472	4.46083
60	0.112653	0.233365	-0.164332	0.402861	0.160835	0.0900683	0.016565	-0.0250955	0.0426962	-0.0476125	-0.21349	0.123059	0.083975	0.0199942	-0.0258977	-2.47673	-0.19401	-2.04917	0	0	0	0	-0	0	0	0	-0.1265	0	-0	0	0	0	0	0	-0	0	0.105	0.015	0	0	-0	0	0	0.098	0.1	0	-0	0	0	0	0	0	-0	0	0.05595	0	0	0	-0	0	0	0	0	0	-0	0	313.943	279.02	320.81	449.747	1.84921	-7.39433	-0.143766	-0.0865747	4.46081
61	0.112492	0.232999	-0.164062	0.40283	0.16095	0.0899786	0.0165815	-0.0250773	0.0427029	-0.047616	-0.213487	0.123062	0.0839515	0.0200588	-0.0260073	-2.47592	-0.194063	-2.04939	0	0	0	0	-0	0	0	0	-0.1265	0	-0	0	0	0	0	0	-0	0	0.105	0.015	0	0	-0	0	0	0.098	0.1	0	-0	0	0	0	0	0	-0	0	0.05595	0	0	0	-0	0	0	0	0	0	-0	0	313.943	279.02	320.81	449.747	1.84908	-7.3944	-0.14369	-0.0866873	4.46074
62	0.112688	0.232689	-0.164284	0.403097	0.160933	0.090085	0.0165672	-0.0250918	0.0427124	-0.0476149	-0.21349	0.12306	0.083965	0.020015	-0.0258997	-2.47701	-0.193787	-2.04818	0	0	0	0	-0	0	0	0	-0.1265	0	-0	0	0	0	0	0	-0	0	0.105	0.015	0	0	-0	0	0	0.098	0.1	0	-0	0	0	0	0	0	-0	0	0.05595	0	0	0	-0	0	0	0	0	0	-0	0	313.943	279.02	320.81	449.747	1.84889	-7.39447	-0.143866	-0.0866107	4.46066
63	0.112498	0.232404	-0.163994	0.403015	0.161012	0.0899943	0.0165842	-0.0250779	0.0427177	-0.0476175	-0.213487	0.123063	0.0839431	0.0200818	-0.0260169	-2.47604	-0.193888	-2.04864	0	0	0	0	-0	0	0	0	-0.1265	0	-0	0	0	0	0	0	-0	0	0.105	0.015	0	0	-0	0	0	0.098	0.1	0	-0	0	0	0	0	0	-0	0	0.05595	0	0	0	-0	0	0	0	0	0	-0	0	313.943	279.02	320.81	449.747	1.84879	-7.39453	-0.143765	-0.0867277	4.4606
64	0.112654	0.232355	-0.164144	0.403133	0.160991	0.0900803	0.0165697	-0.0250997	0.042722	-0.0476145	-0.21349	0.12306	0.0839596	0.0200354	-0.0259229	-2.47687	-0.193743	-2.04793	0	0	0	0	-0	0	0	0	-0.1265	0	-0	0	0	0	0	0	-0	0	0.105	0.015	0	0	-0	0	0	0.098	0.1	0	-0	0	0	0	0	0	-0	0	0.05595	0	0	0	-0	0	0	0	0	0	-0	0	313.943	279.02	320.81	449.747	1.84874	-7.39455	-0.14389	-0.0866641	4.46057
65	0.112508	0.232039	-0.163879	0.4031	0.161109	0.089992	0.0165826	-0.0250871	0.0427287	-0.0476172	-0.213488	0.123062	0.083938	0.0200915	-0.0260206	-2.47613	-0.193793	-2.04814	0	0	0	0	-0	0	0	0	-0.1265	0	-0	0	0	0	0	0	-0	0	0.105	0.015	0	0	-0	0	0	0.098	0.1	0	-0	0	0	0	0	0	-0	0	0.05595	0	0	0	-0	0	0	0	0	0	-0	0	313.943	279.02	320.81	449.747	1.8486	-7.39461	-0.143831	-0.0867659	4.4605
66	0.112656	0.231987	-0.164037	0.403224	0.16109	0.0900715	0.0165714	-0.0251021	0.0427327	-0.0476152	-0.213491	0.12306	0.0839533	0.0200496	-0.0259351	-2.47692	-0.19365	-2.04747	0	0	0	0	-0	0	0	0	-0.1265	0	-0	0	0	0	0	0	-0	0	0.105	0.015	0	0	-0	0	0	0.098	0.1	0	-0	0	0	0	0	0	-0	0	0.05595	0	0	0	-0	0	0	0	0	0	-0	0	313.943	279.02	320.81	449.747	1.84854	-7.39462	-0.143945	-0.086702	4.46048
67	0.112519	0.231692	-0.163793	0.403199	0.161197	0.0899884	0.0165827	-0.0250913	0.0427391	-0.0476174	-0.213489	0.123062	0.0839327	0.0201017	-0.0260256	-2.47623	-0.193692	-2.04767	0	0	0	0	-0	0	0	0	-0.1265	0	-0	0	0	0	0	0	-0	0	0.105	0.015	0	0	-0	0	0	0.098	0.1	0	-0	0	0	0	0	0	-0	0	0.05595	0	0	0	-0	0	0	0	0	0	-0	0	313.943	279.02	320.81	449.747	1.84839	-7.39468	-0.143894	-0.0867952	4.4604
68	0.112662	0.23164	-0.163957	0.403325	0.16117	0.090067	0.0165725	-0.0251041	0.0427429	-0.0476158	-0.213491	0.12306	0.0839476	0.0200618	-0.025943	-2.477	-0.193552	-2.04702	0	0	0	0	-0	0	0	0	-0.1265	0	-0	0	0	0	0	0	-0	0	0.105	0.015	0	0	-0	0	0	0.098	0.1	0	-0	0	0	0	0	0	-0	0	0.05595	0	0	0	-0	0	0	0	0	0	-0	0	313.943	279.02	320.81	449.747	1.84833	-7.3947	-0.144004	-0.0867325	4.46038
69	0.112551	0.231487	-0.163822	0.403291	0.161205	0.0900153	0.0165847	-0.0250894	0.0427453	-0.0476184	-0.213489	0.123063	0.0839342	0.0201016	-0.0260128	-2.47643	-0.193602	-2.0473	0	0	0	0	-0	0	0	0	-0.1265	0	-0	0	0	0	0	0	-0	0	0.105	0.015	0	0	-0	0	0	0.098	0.1	0	-0	0	0	0	0	0	-0	0	0.05595	0	0	0	-0	0	0	0	0	0	-0	0	313.943	279.02	320.81	449.747	1.84826	-7.39473	-0.143942	-0.0867944	4.46035
70	0.112657	0.231357	-0.163941	0.403424	0.161181	0.0900768	0.0165748	-0.0251011	0.0427499	-0.0476171	-0.213491	0.123061	0.0839431	0.0200749	-0.0259506	-2.47702	-0.193463	-2.04669	0	0	0	0	-0	0	0	0	-0.1265	0	-0	0	0	0	0	0	-0	0	0.105	0.015	0	0	-0	0	0	0.098	0.1	0	-0	0	0	0	0	0	-0	0	0.05595	0	0	0	-0	0	0	0	0	0	-0	0	313.943	279.02	320.81	449.747	1.84814	-7.39476	-0.144047	-0.086756	4.4603
71	0.112555	0.231215	-0.163799	0.403386	0.161216	0.0900294	0.0165842	-0.0250917	0.0427526	-0.0476188	-0.213489	0.123063	0.0839314	0.0201111	-0.0260134	-2.47649	-0.193519	-2.04695	0	0	0	0	-0	0	0	0	-0.1265	0	-0	0	0	0	0	0	-0	0	0.105	0.015	0	0	-0	0	0	0.098	0.1	0	-0	0	0	0	0	0	-0	0	0.05595	0	0	0	-0	0	0	0	0	0	-0	0	313.943	279.02	320.81	449.747	1.84807	-7.39479	-0.143995	-0.0868189	4.46027
72	0.112654	0.231093	-0.163902	0.403509	0.161203	0.0900844	0.0165754	-0.0251021	0.0427574	-0.0476176	-0.213491	0.123061	0.0839396	0.0200865	-0.0259568	-2.47704	-0.193394	-2.04638	0	0	0	0	-0	0	0	0	-0.1265	0	-0	0	0	0	0	0	-0	0	0.105	0.015	0	0	-0	0	0	0.098	0.1	0	-0	0	0	0	0	0	-0	0	0.05595	0	0	0	-0	0	0	0	0	0	-0	0	313.943	279.02	320.81	449.747	1.84794	-7.39482	-0.144097	-0.086788	4.46022
73	0.112557	0.230962	-0.163758	0.403468	0.161242	0.0900373	0.016584	-0.0250942	0.0427601	-0.047619	-0.21349	0.123062	0.0839284	0.0201205	-0.0260166	-2.47654	-0.19345	-2.04663	0	0	0	0	-0	0	0	0	-0.1265	0	-0	0	0	0	0	0	-0	0	0.105	0.015	0	0	-0	0	0	0.098	0.1	0	-0	0	0	0	0	0	-0	0	0.05595	0	0	0	-0	0	0	0	0	0	-0	0	313.943	279.02	320.81	449.747	1.84787	-7.39485	-0.144051	-0.0868498	4.46019
74	0.112633	0.230948	-0.163827	0.403524	0.161233	0.0900782	0.0165763	-0.0251058	0.0427622	-0.0476174	-0.213491	0.12306	0.0839366	0.0200973	-0.0259703	-2.47694	-0.193383	-2.04629	0	0	0	0	-0	0	0	0	-0.1265	0	-0	0	0	0	0	0	-0	0	0.105	0.015	0	0	-0	0	0	0.098	0.1	0	-0	0	0	0	0	0	-0	0	0.05595	0	0	0	-0	0	0	0	0	0	-0	0	313.943	279.02	320.81	449.747	1.84783	-7.39485	-0.144116	-0.0868211	4.46017
75	0.112564	0.230809	-0.163704	0.403511	0.161288	0.0900365	0.0165826	-0.025099	0.0427656	-0.0476189	-0.21349	0.123062	0.0839266	0.0201235	-0.0260167	-2.47659	-0.19341	-2.04641	0	0	0	0	-0	0	0	0	-0.1265	0	-0	0	0	0	0	0	-0	0	0.105	0.015	0	0	-0	0	0	0.098	0.1	0	-0	0	0	0	0	0	-0	0	0.05595	0	0	0	-0	0	0	0	0	0	-0	0	313.943	279.02	320.81	449.747	1.84773	-7.39488	-0.144097	-0.0868724	4.46013
76	0.112632	0.23079	-0.163774	0.403567	0.161281	0.0900724	0.0165771	-0.0251064	0.0427675	-0.0476179	-0.213492	0.123061	0.0839338	0.0201037	-0.025977	-2.47695	-0.193345	-2.0461	0	0	0	0	-0	0	0	0	-0.1265	0	-0	0	0	0	0	0	-0	0	0.105	0.015	0	0	-0	0	0	0.098	0.1	0	-0	0	0	0	0	0	-0	0	0.05595	0	0	0	-0	0	0	0	0	0	-0	0	313.943	279.02	320.81	449.747	1.84768	-7.39489	-0.144154	-0.086845	4.46012
77	0.112571	0.230659	-0.163667	0.403562	0.161329	0.0900355	0.0165823	-0.0251008	0.0427708	-0.0476193	-0.213491	0.123062	0.0839248	0.0201268	-0.0260174	-2.47665	-0.193363	-2.04619	0	0	0	0	-0	0	0	0	-0.1265	0	-0	0	0	0	0	0	-0	0	0.105	0.015	0	0	-0	0	0	0.098	0.1	0	-0	0	0	0	0	0	-0	0	0.05595	0	0	0	-0	0	0	0	0	0	-0	0	313.943	279.02	320.81	449.747	1.84757	-7.39491	-0.144141	-0.0868898	4.46008
78	0.112633	0.230638	-0.163735	0.403617	0.161319	0.0900691	0.0165777	-0.0251068	0.0427727	-0.0476185	-0.213492	0.123061	0.0839314	0.0201092	-0.0259814	-2.47698	-0.193303	-2.04591	0	0	0	0	-0	0	0	0	-0.1265	0	-0	0	0	0	0	0	-0	0	0.105	0.015	0	0	-0	0	0	0.098	0.1	0	-0	0	0	0	0	0	-0	0	0.05595	0	0	0	-0	0	0	0	0	0	-0	0	313.943	279.02	320.81	449.747	1.84753	-7.39491	-0.144195	-0.0868648	4.46007
79	0.112575	0.230516	-0.163633	0.403611	0.161362	0.0900345	0.0165823	-0.0251021	0.0427758	-0.0476194	-0.213491	0.123062	0.0839229	0.020131	-0.0260193	-2.47669	-0.19332	-2.046	0	0	0	0	-0	0	0	0	-0.1265	0	-0	0	0	0	0	0	-0	0	0.105	0.015	0	0	-0	0	0	0.098	0.1	0	-0	0	0	0	0	0	-0	0	0.05595	0	0	0	-0	0	0	0	0	0	-0	0	313.943	279.02	320.81	449.747	1.84741	-7.39493	-0.144186	-0.0869085	4.46003
80	0.112636	0.230495	-0.163703	0.403667	0.16135	0.0900683	0.016578	-0.0251073	0.0427776	-0.0476188	-0.213492	0.123061	0.0839295	0.0201139	-0.0259842	-2.47701	-0.193261	-2.04572	0	0	0	0	-0	0	0	0	-0.1265	0	-0	0	0	0	0	0	-0	0	0.105	0.015	0	0	-0	0	0	0.098	0.1	0	-0	0	0	0	0	0	-0	0	0.05595	0	0	0	-0	0	0	0	0	0	-0	0	313.943	279.02	320.81	449.747	1.84736	-7.39494	-0.144238	-0.0868841	4.46002
81	0.112576	0.230381	-0.163599	0.403658	0.161391	0.0900335	0.0165824	-0.0251031	0.0427806	-0.0476199	-0.213491	0.123062	0.0839212	0.0201355	-0.0260222	-2.47671	-0.193282	-2.04583	0	0	0	0	-0	0	0	0	-0.1265	0	-0	0	0	0	0	0	-0	0	0.105	0.015	0	0	-0	0	0	0.098	0.1	0	-0	0	0	0	0	0	-0	0	0.05595	0	0	0	-0	0	0	0	0	0	-0	0	313.943	279.02	320.81	449.747	1.84724	-7.39495	-0.14423	-0.086929	4.45998
82	0.11264	0.230364	-0.163678	0.403717	0.161375	0.0900696	0.016578	-0.025108	0.0427823	-0.0476193	-0.213492	0.123061	0.0839281	0.0201177	-0.0259853	-2.47705	-0.193221	-2.04555	0	0	0	0	-0	0	0	0	-0.1265	0	-0	0	0	0	0	0	-0	0	0.105	0.015	0	0	-0	0	0	0.098	0.1	0	-0	0	0	0	0	0	-0	0	0.05595	0	0	0	-0	0	0	0	0	0	-0	0	313.943	279.02	320.81	449.747	1.84718	-7.39495	-0.144285	-0.0869029	4.45997
83	0.112587	0.230301	-0.163613	0.403699	0.161389	0.0900452	0.0165833	-0.0251018	0.0427834	-0.0476203	-0.213491	0.123062	0.0839219	0.0201361	-0.0260178	-2.47678	-0.193248	-2.04569	0	0	0	0	-0	0	0	0	-0.1265	0	-0	0	0	0	0	0	-0	0	0.105	0.015	0	0	-0	0	0	0.098	0.1	0	-0	0	0	0	0	0	-0	0	0.05595	0	0	0	-0	0	0	0	0	0	-0	0	313.943	279.02	320.81	449.747	1.84713	-7.39496	-0.14426	-0.086934	4.45995
84	0.112639	0.230256	-0.16368	0.403764	0.161371	0.0900768	0.0165786	-0.0251066	0.0427854	-0.0476198	-0.213492	0.123061	0.0839269	0.0201223	-0.0259867	-2.47707	-0.193183	-2.04541	0	0	0	0	-0	0	0	0	-0.1265	0	-0	0	0	0	0	0	-0	0	0.105	0.015	0	0	-0	0	0	0.098	0.1	0	-0	0	0	0	0	0	-0	0	0.05595	0	0	0	-0	0	0	0	0	0	-0	0	313.943	279.02	320.81	449.747	1.84703	-7.39496	-0.14432	-0.0869173	4.45993
85	0.112586	0.230196	-0.163607	0.403741	0.161388	0.0900521	0.0165831	-0.0251021	0.0427866	-0.0476205	-0.213492	0.123062	0.0839211	0.0201402	-0.0260186	-2.47679	-0.193216	-2.04556	0	0	0	0	-0	0	0	0	-0.1265	0	-0	0	0	0	0	0	-0	0	0.105	0.015	0	0	-0	0	0	0.098	0.1	0	-0	0	0	0	0	0	-0	0	0.05595	0	0	0	-0	0	0	0	0	0	-0	0	313.943	279.02	320.81	449.747	1.84698	-7.39497	-0.144297	-0.0869509	4.45991
86	0.112628	0.230196	-0.163647	0.40377	0.16138	0.0900748	0.0165789	-0.0251082	0.0427876	-0.0476197	-0.213493	0.123061	0.0839258	0.0201273	-0.0259931	-2.47701	-0.193182	-2.04539	0	0	0	0	-0	0	0	0	-0.1265	0	-0	0	0	0	0	0	-0	0	0.105	0.015	0	0	-0	0	0	0.098	0.1	0	-0	0	0	0	0	0	-0	0	0.05595	0	0	0	-0	0	0	0	0	0	-0	0	313.943	279.02	320.81	449.747	1.84695	-7.39497	-0.144335	-0.0869355	4.45991
87	0.112589	0.230136	-0.163586	0.40376	0.161404	0.0900532	0.0165823	-0.0251043	0.0427891	-0.0476204	-0.213492	0.123062	0.0839208	0.0201411	-0.026018	-2.47682	-0.193201	-2.04547	0	0	0	0	-0	0	0	0	-0.1265	0	-0	0	0	0	0	0	-0	0	0.105	0.015	0	0	-0	0	0	0.098	0.1	0	-0	0	0	0	0	0	-0	0	0.05595	0	0	0	-0	0	0	0	0	0	-0	0	313.943	279.02	320.81	449.747	1.84687	-7.39497	-0.144328	-0.0869645	4.45989
88	0.112627	0.230134	-0.163627	0.40379	0.161398	0.0900733	0.0165793	-0.0251082	0.0427899	-0.0476199	-0.213493	0.123061	0.0839249	0.0201299	-0.0259959	-2.47702	-0.193167	-2.04531	0	0	0	0	-0	0	0	0	-0.1265	0	-0	0	0	0	0	0	-0	0	0.105	0.015	0	0	-0	0	0	0.098	0.1	0	-0	0	0	0	0	0	-0	0	0.05595	0	0	0	-0	0	0	0	0	0	-0	0	313.943	279.02	320.81	449.747	1.84684	-7.39497	-0.144362	-0.0869498	4.45988
89	0.112593	0.230078	-0.163573	0.403783	0.161419	0.0900538	0.0165822	-0.0251049	0.0427914	-0.0476204	-0.213492	0.123062	0.0839203	0.0201422	-0.0260178	-2.47684	-0.193181	-2.04538	0	0	0	0	-0	0	0	0	-0.1265	0	-0	0	0	0	0	0	-0	0	0.105	0.015	0	0	-0	0	0	0.098	0.1	0	-0	0	0	0	0	0	-0	0	0.05595	0	0	0	-0	0	0	0	0	0	-0	0	313.943	279.02	320.81	449.747	1.84675	-7.39497	-0.144359	-0.0869755	4.45987
90	0.112627	0.230074	-0.163613	0.403812	0.161411	0.0900728	0.0165795	-0.0251081	0.0427922	-0.04762	-0.213493	0.123061	0.0839242	0.0201321	-0.0259976	-2.47702	-0.193149	-2.04524	0	0	0	0	-0	0	0	0	-0.1265	0	-0	0	0	0	0	0	-0	0	0.105	0.015	0	0	-0	0	0	0.098	0.1	0	-0	0	0	0	0	0	-0	0	0.05595	0	0	0	-0	0	0	0	0	0	-0	0	313.943	279.02	320.81	449.747	1.84672	-7.39496	-0.144391	-0.0869619	4.45986
91	0.112594	0.230021	-0.163561	0.403805	0.161431	0.0900543	0.0165821	-0.0251053	0.0427936	-0.0476208	-0.213492	0.123062	0.0839199	0.0201438	-0.0260184	-2.47686	-0.193164	-2.04531	0	0	0	0	-0	0	0	0	-0.1265	0	-0	0	0	0	0	0	-0	0	0.105	0.015	0	0	-0	0	0	0.098	0.1	0	-0	0	0	0	0	0	-0	0	0.05595	0	0	0	-0	0	0	0	0	0	-0	0	313.943	279.02	320.81	449.747	1.84663	-7.39496	-0.14439	-0.0869873	4.45984
92	0.112628	0.230017	-0.163603	0.403835	0.161422	0.0900735	0.0165796	-0.0251081	0.0427944	-0.0476205	-0.213493	0.123061	0.0839237	0.0201339	-0.0259984	-2.47704	-0.193132	-2.04516	0	0	0	0	-0	0	0	0	-0.1265	0	-0	0	0	0	0	0	-0	0	0.105	0.015	0	0	-0	0	0	0.098	0.1	0	-0	0	0	0	0	0	-0	0	0.05595	0	0	0	-0	0	0	0	0	0	-0	0	313.943	279.02	320.81	449.747	1.84658	-7.39495	-0.144422	-0.0869738	4.45984
93	0.112594	0.229968	-0.163548	0.403826	0.161441	0.0900545	0.0165821	-0.0251055	0.0427956	-0.0476211	-0.213492	0.123062	0.0839194	0.0201456	-0.0260196	-2.47687	-0.193148	-2.04524	0	0	0	0	-0	0	0	0	-0.1265	0	-0	0	0	0	0	0	-0	0	0.105	0.015	0	0	-0	0	0	0.098	0.1	0	-0	0	0	0	0	0	-0	0	0.05595	0	0	0	-0	0	0	0	0	0	-0	0	313.943	279.02	320.81	449.747	1.84649	-7.39494	-0.144422	-0.087	4.45982
94	0.11263	0.229966	-0.163596	0.403858	0.161431	0.0900751	0.0165796	-0.0251081	0.0427964	-0.0476208	-0.213493	0.123061	0.0839235	0.0201352	-0.0259985	-2.47706	-0.193115	-2.04509	0	0	0	0	-0	0	0	0	-0.1265	0	-0	0	0	0	0	0	-0	0	0.105	0.015	0	0	-0	0	0	0.098	0.1	0	-0	0	0	0	0	0	-0	0	0.05595	0	0	0	-0	0	0	0	0	0	-0	0	313.943	279.02	320.81	449.747	1.84644	-7.39493	-0.144455	-0.0869854	4.45982
95	0.1126	0.229935	-0.16356	0.403846	0.161438	0.0900609	0.0165826	-0.0251045	0.0427968	-0.0476214	-0.213492	0.123062	0.08392	0.0201455	-0.026017	-2.4769	-0.193132	-2.04518	0	0	0	0	-0	0	0	0	-0.1265	0	-0	0	0	0	0	0	-0	0	0.105	0.015	0	0	-0	0	0	0.098	0.1	0	-0	0	0	0	0	0	-0	0	0.05595	0	0	0	-0	0	0	0	0	0	-0	0	313.943	279.02	320.81	449.747	1.84641	-7.39493	-0.144443	-0.0870034	4.45981
96	0.11263	0.229919	-0.163601	0.403881	0.161425	0.0900796	0.0165799	-0.0251072	0.0427977	-0.0476211	-0.213493	0.123061	0.0839232	0.0201372	-0.0259988	-2.47706	-0.193097	-2.04503	0	0	0	0	-0	0	0	0	-0.1265	0	-0	0	0	0	0	0	-0	0	0.105	0.015	0	0	-0	0	0	0.098	0.1	0	-0	0	0	0	0	0	-0	0	0.05595	0	0	0	-0	0	0	0	0	0	-0	0	313.943	279.02	320.809	449.747	1.84633	-7.39492	-0.14448	-0.0869942	4.4598
97	0.112599	0.22989	-0.16356	0.403866	0.161434	0.0900652	0.0165825	-0.0251046	0.0427982	-0.0476215	-0.213492	0.123062	0.0839199	0.0201474	-0.0260172	-2.47691	-0.193118	-2.04513	0	0	0	0	-0	0	0	0	-0.1265	0	-0	0	0	0	0	0	-0	0	0.105	0.015	0	0	-0	0	0	0.098	0.1	0	-0	0	0	0	0	0	-0	0	0.05595	0	0	0	-0	0	0	0	0	0	-0	0	313.942	279.02	320.809	449.747	1.84629	-7.39491	-0.144469	-0.0870138	4.4598
98	0.11263	0.229877	-0.163601	0.4039	0.161424	0.0900836	0.0165799	-0.0251071	0.0427991	-0.0476213	-0.213493	0.123061	0.0839231	0.0201388	-0.0259989	-2.47707	-0.193084	-2.04498	0	0	0	0	-0	0	0	0	-0.1265	0	-0	0	0	0	0	0	-0	0	0.105	0.015	0	0	-0	0	0	0.098	0.1	0	-0	0	0	0	0	0	-0	0	0.05595	0	0	0	-0	0	0	0	0	0	-0	0	313.942	279.02	320.809	449.747	1.8462	-7.39489	-0.144508	-0.0870049	4.45979
99	0.112598	0.229849	-0.163555	0.403882	0.161435	0.0900677	0.0165825	-0.0251046	0.0427997	-0.0476217	-0.213492	0.123062	0.0839196	0.0201493	-0.0260182	-2.4769	-0.193107	-2.04508	0	0	0	0	-0	0	0	0	-0.1265	0	-0	0	0	0	0	0	-0	0	0.105	0.015	0	0	-0	0	0	0.098	0.1	0	-0	0	0	0	0	0	-0	0	0.05595	0	0	0	-0	0	0	0	0	0	-0	0	313.942	279.02	320.809	449.747	1.84616	-7.39489	-0.144497	-0.0870256	4.45978
100	0.112625	0.229856	-0.163584	0.4039	0.16143	0.090082	0.01658	-0.025108	0.0428001	-0.0476212	-0.213493	0.123061	0.0839228	0.0201408	-0.0260018	-2.47705	-0.193086	-2.04497	0	0	0	0	-0	0	0	0	-0.1265	0	-0	0	0	0	0	0	-0	0	0.105	0.015	0	0	-0	0	0	0.098	0.1	0	-0	0	0	0	0	0	-0	0	0.05595	0	0	0	-0	0	0	0	0	0	-0	0	313.942	279.02	320.809	449.747	1.84613	-7.39488	-0.144522	-0.0870151	4.45978
