Stefan210/kinematic_calibration/src/kinematic_calibration/validation/experiments/experiments/impact_noise/outlier/larm_randomize_7_measurements_rk_true/optimization_intermediate_results.csv
iteration	HeadPitch_offset	HeadYaw_offset	LElbowRoll_offset	LElbowYaw_offset	LShoulderPitch_offset	LShoulderRoll_offset	marker_transform_larm_tx	marker_transform_larm_ty	marker_transform_larm_tz	marker_transform_larm_rr	marker_transform_larm_rp	marker_transform_larm_ry	camera_transform_tx	camera_transform_ty	camera_transform_tz	camera_transform_rr	camera_transform_rp	camera_transform_ry	HeadPitch_transform_tx	HeadPitch_transform_ty	HeadPitch_transform_tz	HeadPitch_transform_rr	HeadPitch_transform_rp	HeadPitch_transform_ry	HeadYaw_transform_tx	HeadYaw_transform_ty	HeadYaw_transform_tz	HeadYaw_transform_rr	HeadYaw_transform_rp	HeadYaw_transform_ry	LElbowRoll_transform_tx	LElbowRoll_transform_ty	LElbowRoll_transform_tz	LElbowRoll_transform_rr	LElbowRoll_transform_rp	LElbowRoll_transform_ry	LElbowYaw_transform_tx	LElbowYaw_transform_ty	LElbowYaw_transform_tz	LElbowYaw_transform_rr	LElbowYaw_transform_rp	LElbowYaw_transform_ry	LShoulderPitch_transform_tx	LShoulderPitch_transform_ty	LShoulderPitch_transform_tz	LShoulderPitch_transform_rr	LShoulderPitch_transform_rp	LShoulderPitch_transform_ry	LShoulderRoll_transform_tx	LShoulderRoll_transform_ty	LShoulderRoll_transform_tz	LShoulderRoll_transform_rr	LShoulderRoll_transform_rp	LShoulderRoll_transform_ry	LWristYaw_transform_tx	LWristYaw_transform_ty	LWristYaw_transform_tz	LWristYaw_transform_rr	LWristYaw_transform_rp	LWristYaw_transform_ry	l_wrist_joint_transform_tx	l_wrist_joint_transform_ty	l_wrist_joint_transform_tz	l_wrist_joint_transform_rr	l_wrist_joint_transform_rp	l_wrist_joint_transform_ry	camera_fx	camera_fy	camera_cx	camera_cy	camera_D0	camera_D1	camera_D2	camera_D3	camera_D4	
0	0.0249164	-0.0307543	0.000853157	4.65819e-06	-0.000318322	-0.00310766	0.05071	0	0.01774	-2.26369	1.66533e-16	-1.5708	545.901	551.038	324.928	201.58	0.0255298	2.61142	-0.0636736	-0.0350419	0.213964
1	-0.0134246	0.0218328	0.0135855	0.0599333	0.0359688	0.0177682	0.0253992	-0.029729	0.00570998	-0.000590799	-0.00079928	-0.00294705	0.0549664	-0.00131435	0.0140402	-2.20894	0.000289319	-1.57681	0	0	0	0	-0	0	0	0	-0.1265	0	-0	0	0	0	0	0	-0	0	0.105	0.015	0	0	-0	0	0	0.098	0.1	0	-0	0	0	0	0	0	-0	0	0.05595	0	0	0	-0	0	0	0	0	0	-0	0	545.901	551.038	324.928	201.581	0.0051912	2.60338	-0.0871104	0.0746268	0.212252
2	-0.0164712	0.0256925	0.0176482	0.0480163	0.00477267	0.0327382	0.025494	-0.0301812	0.00407101	-0.000390121	-0.000629161	-0.00298144	0.0545875	-0.00106026	0.0154796	-2.19707	-0.00244817	-1.55957	0	0	0	0	-0	0	0	0	-0.1265	0	-0	0	0	0	0	0	-0	0	0.105	0.015	0	0	-0	0	0	0.098	0.1	0	-0	0	0	0	0	0	-0	0	0.05595	0	0	0	-0	0	0	0	0	0	-0	0	545.913	551.039	324.917	201.598	-0.37647	2.29537	-0.0144578	-0.00105611	0.11523
3	-0.0167837	0.0204631	0.0200462	0.0478536	0.00329141	0.0335275	0.0255033	-0.0302444	0.00383529	-0.000354344	-0.000606648	-0.00299318	0.0555531	-0.00127647	0.0140751	-2.1953	0.00165667	-1.55144	0	0	0	0	-0	0	0	0	-0.1265	0	-0	0	0	0	0	0	-0	0	0.105	0.015	0	0	-0	0	0	0.098	0.1	0	-0	0	0	0	0	0	-0	0	0.05595	0	0	0	-0	0	0	0	0	0	-0	0	545.951	551.033	324.911	201.625	-0.416166	1.72138	-0.00476514	-0.00896631	-0.0813982
4	-0.0165186	0.0183688	0.0185248	0.0486906	0.00299212	0.0339618	0.0253466	-0.0301471	0.00385814	-0.000351799	-0.000605533	-0.00288155	0.0550793	-0.00110914	0.0146127	-2.19657	0.00334194	-1.54886	0	0	0	0	-0	0	0	0	-0.1265	0	-0	0	0	0	0	0	-0	0	0.105	0.015	0	0	-0	0	0	0.098	0.1	0	-0	0	0	0	0	0	-0	0	0.05595	0	0	0	-0	0	0	0	0	0	-0	0	546.036	551.012	324.914	201.656	-0.20151	0.801266	-0.00918455	-0.0103703	-0.410947
5	-0.0160424	0.0180827	0.0174481	0.0485632	0.00265881	0.0343385	0.0252421	-0.03007	0.00384749	-0.00037398	-0.000751849	-0.00295553	0.0544258	-0.000968233	0.0154929	-2.19786	0.00382548	-1.54894	0	0	0	0	-0	0	0	0	-0.1265	0	-0	0	0	0	0	0	-0	0	0.105	0.015	0	0	-0	0	0	0.098	0.1	0	-0	0	0	0	0	0	-0	0	0.05595	0	0	0	-0	0	0	0	0	0	-0	0	546.223	550.955	324.936	201.665	0.000761869	0.0693043	-0.0142791	-0.0105145	-0.615295
6	-0.0154541	0.0180318	0.0169937	0.0480697	0.00258173	0.0343095	0.0251989	-0.0300343	0.00381788	-0.000660506	-0.000430579	-0.00303436	0.0540424	-0.000899246	0.0160972	-2.19868	0.00391749	-1.5493	0	0	0	0	-0	0	0	0	-0.1265	0	-0	0	0	0	0	0	-0	0	0.105	0.015	0	0	-0	0	0	0.098	0.1	0	-0	0	0	0	0	0	-0	0	0.05595	0	0	0	-0	0	0	0	0	0	-0	0	546.725	550.804	324.941	201.675	0.112164	-0.392793	-0.0165296	-0.0105531	-0.456214
7	-0.0144196	0.0185449	0.0167757	0.0477196	0.00228413	0.0341514	0.025175	-0.0300148	0.00380232	-7.02932e-05	-0.00140074	-0.00458414	0.0536354	-0.000892291	0.0167338	-2.19887	0.0037752	-1.54987	0	0	0	0	-0	0	0	0	-0.1265	0	-0	0	0	0	0	0	-0	0	0.105	0.015	0	0	-0	0	0	0.098	0.1	0	-0	0	0	0	0	0	-0	0	0.05595	0	0	0	-0	0	0	0	0	0	-0	0	548.045	550.459	324.856	201.708	0.176265	-0.858697	-0.0142611	-0.010757	0.368756
8	-0.0164854	0.0191473	0.0165976	0.0476438	0.00202456	0.0340088	0.0251574	-0.030003	0.00381815	-0.000590041	-0.00562561	-0.00090175	0.0529781	-0.000927044	0.0175202	-2.20257	0.00394738	-1.54995	0	0	0	0	-0	0	0	0	-0.1265	0	-0	0	0	0	0	0	-0	0	0.105	0.015	0	0	-0	0	0	0.098	0.1	0	-0	0	0	0	0	0	-0	0	0.05595	0	0	0	-0	0	0	0	0	0	-0	0	551.003	549.929	324.556	201.753	0.233856	-1.60701	-0.00621526	-0.0111982	2.31149
9	-0.0208658	0.0196179	0.0164381	0.0477369	0.00186879	0.0338771	0.0251542	-0.0300093	0.00385995	-0.0111542	-0.00791956	0.0275651	0.052039	-0.000987721	0.0185449	-2.20899	0.00475792	-1.5492	0	0	0	0	-0	0	0	0	-0.1265	0	-0	0	0	0	0	0	-0	0	0.105	0.015	0	0	-0	0	0	0.098	0.1	0	-0	0	0	0	0	0	-0	0	0.05595	0	0	0	-0	0	0	0	0	0	-0	0	555.836	550.284	323.847	201.7	0.300393	-2.65419	0.00463539	-0.0117983	5.39632
10	-0.0209809	0.0198457	0.0164454	0.048015	0.00182209	0.0338016	0.0251511	-0.0300062	0.00389164	-0.0186786	0.0108059	0.00885588	0.0514934	-0.00104684	0.0192121	-2.2099	0.00539035	-1.54856	0	0	0	0	-0	0	0	0	-0.1265	0	-0	0	0	0	0	0	-0	0	0.105	0.015	0	0	-0	0	0	0.098	0.1	0	-0	0	0	0	0	0	-0	0	0.05595	0	0	0	-0	0	0	0	0	0	-0	0	558.855	551.253	323.343	201.532	0.328495	-3.21428	0.00944165	-0.0120658	7.32186
11	-0.0257148	0.0201861	0.016354	0.0480691	0.00168508	0.0337209	0.0251323	-0.0300062	0.0039116	-0.00291743	0.0135891	-0.00190884	0.0511471	-0.00108074	0.0194949	-2.21562	0.00614157	-1.54803	0	0	0	0	-0	0	0	0	-0.1265	0	-0	0	0	0	0	0	-0	0	0.105	0.015	0	0	-0	0	0	0.098	0.1	0	-0	0	0	0	0	0	-0	0	0.05595	0	0	0	-0	0	0	0	0	0	-0	0	561.529	553.03	322.75	201.529	0.345835	-3.5949	0.0120577	-0.0123428	8.70846
12	-0.0168082	0.0202875	0.0163573	0.0481324	0.00166718	0.0336624	0.0251268	-0.0300019	0.00391698	-0.000964785	0.0145944	-0.00346251	0.0508286	-0.00109951	0.020119	-2.20705	0.00612817	-1.54779	0	0	0	0	-0	0	0	0	-0.1265	0	-0	0	0	0	0	0	-0	0	0.105	0.015	0	0	-0	0	0	0.098	0.1	0	-0	0	0	0	0	0	-0	0	0.05595	0	0	0	-0	0	0	0	0	0	-0	0	562.485	553.788	322.575	201.541	0.351171	-3.71224	0.0125031	-0.0124576	9.17014
13	-0.0174285	0.0204276	0.0163024	0.0481043	0.00160495	0.0336029	0.025122	-0.0300013	0.00391779	0.000431738	0.00174293	-0.0162557	0.0506929	-0.0011091	0.0202544	-2.20822	0.00638231	-1.54758	0	0	0	0	-0	0	0	0	-0.1265	0	-0	0	0	0	0	0	-0	0	0.105	0.015	0	0	-0	0	0	0.098	0.1	0	-0	0	0	0	0	0	-0	0	0.05595	0	0	0	-0	0	0	0	0	0	-0	0	563.523	554.833	322.335	201.633	0.354743	-3.80929	0.0127445	-0.0125787	9.56719
14	-0.0161344	0.0204677	0.0163025	0.0482149	0.00160126	0.0335832	0.0251207	-0.0300009	0.00392706	-0.00281211	0.0148624	-0.0092701	0.0505231	-0.00112718	0.0204787	-2.20775	0.00680385	-1.54711	0	0	0	0	-0	0	0	0	-0.1265	0	-0	0	0	0	0	0	-0	0	0.105	0.015	0	0	-0	0	0	0.098	0.1	0	-0	0	0	0	0	0	-0	0	0.05595	0	0	0	-0	0	0	0	0	0	-0	0	564.745	556.298	321.982	201.875	0.355421	-3.86894	0.012298	-0.0127432	9.89319
15	-0.0189589	0.0204462	0.0163315	0.0482496	0.00160773	0.033572	0.0251215	-0.0300006	0.00392895	-0.0101371	0.0313464	-0.00642771	0.050531	-0.00113666	0.0203886	-2.2109	0.00706348	-1.5469	0	0	0	0	-0	0	0	0	-0.1265	0	-0	0	0	0	0	0	-0	0	0.105	0.015	0	0	-0	0	0	0.098	0.1	0	-0	0	0	0	0	0	-0	0	0.05595	0	0	0	-0	0	0	0	0	0	-0	0	565.203	556.915	321.844	201.98	0.356631	-3.88967	0.0118482	-0.0128088	10.0108
16	-0.0152256	0.0204447	0.0163356	0.0482942	0.00160869	0.0335617	0.0251242	-0.0300044	0.00392818	-0.0108081	0.0204085	0.00885992	0.0503977	-0.00114486	0.0206389	-2.20765	0.00722979	-1.54659	0	0	0	0	-0	0	0	0	-0.1265	0	-0	0	0	0	0	0	-0	0	0.105	0.015	0	0	-0	0	0	0.098	0.1	0	-0	0	0	0	0	0	-0	0	0.05595	0	0	0	-0	0	0	0	0	0	-0	0	565.771	557.722	321.648	202.148	0.356464	-3.90333	0.0113371	-0.0128897	10.1241
17	-0.00653613	0.0205329	0.0162614	0.0483516	0.00160445	0.0335707	0.0251098	-0.0300127	0.00394717	0.0294732	-0.0113255	-0.000375874	0.0500759	-0.00115624	0.0212281	-2.20123	0.00803006	-1.54551	0	0	0	0	-0	0	0	0	-0.1265	0	-0	0	0	0	0	0	-0	0	0.105	0.015	0	0	-0	0	0	0.098	0.1	0	-0	0	0	0	0	0	-0	0	0.05595	0	0	0	-0	0	0	0	0	0	-0	0	567.577	560.289	320.809	203.139	0.343222	-3.85519	0.0102174	-0.0132123	10.2564
18	-0.0261357	0.0205528	0.0162511	0.0485556	0.00159338	0.0335657	0.0251233	-0.0300044	0.00395547	0.0346577	-0.0402461	-0.00708815	0.0504112	-0.00117105	0.0203191	-2.22192	0.00902776	-1.54514	0	0	0	0	-0	0	0	0	-0.1265	0	-0	0	0	0	0	0	-0	0	0.105	0.015	0	0	-0	0	0	0.098	0.1	0	-0	0	0	0	0	0	-0	0	0.05595	0	0	0	-0	0	0	0	0	0	-0	0	568.44	561.478	320.408	203.648	0.337512	-3.83665	0.00967893	-0.01345	10.3438
19	-0.0330016	0.020533	0.016257	0.048492	0.00162356	0.0335969	0.0251181	-0.0300042	0.00394418	0.0356395	-0.0343572	-0.011714	0.0505255	-0.00117223	0.0199838	-2.22922	0.00944531	-1.54497	0	0	0	0	-0	0	0	0	-0.1265	0	-0	0	0	0	0	0	-0	0	0.105	0.015	0	0	-0	0	0	0.098	0.1	0	-0	0	0	0	0	0	-0	0	0.05595	0	0	0	-0	0	0	0	0	0	-0	0	568.735	561.957	320.237	203.873	0.336141	-3.82711	0.00923166	-0.0134368	10.3726
20	-0.0416397	0.0206073	0.0162057	0.0485354	0.00160702	0.0335846	0.0251259	-0.0299947	0.00394555	0.00142847	0.0237316	-0.0173498	0.0506298	-0.00117795	0.0196142	-2.23976	0.0104548	-1.54431	0	0	0	0	-0	0	0	0	-0.1265	0	-0	0	0	0	0	0	-0	0	0.105	0.015	0	0	-0	0	0	0.098	0.1	0	-0	0	0	0	0	0	-0	0	0.05595	0	0	0	-0	0	0	0	0	0	-0	0	569.762	563.447	319.583	204.818	0.326149	-3.78621	0.00870629	-0.0137202	10.4457
21	-0.0293745	0.0205563	0.016241	0.0485918	0.00165993	0.03362	0.0251227	-0.0300095	0.00395013	0.00930277	0.0257066	-0.0351351	0.0503638	-0.00118546	0.0202484	-2.22838	0.010572	-1.54375	0	0	0	0	-0	0	0	0	-0.1265	0	-0	0	0	0	0	0	-0	0	0.105	0.015	0	0	-0	0	0	0.098	0.1	0	-0	0	0	0	0	0	-0	0	0.05595	0	0	0	-0	0	0	0	0	0	-0	0	570.186	564.138	319.274	205.294	0.324085	-3.77091	0.00803266	-0.0137734	10.4962
22	-0.0335058	0.0205839	0.016209	0.0485424	0.00165464	0.0336262	0.0251166	-0.0300065	0.00394388	0.00935617	0.031352	-0.0460213	0.0504351	-0.00118202	0.0200474	-2.23278	0.0107799	-1.54371	0	0	0	0	-0	0	0	0	-0.1265	0	-0	0	0	0	0	0	-0	0	0.105	0.015	0	0	-0	0	0	0.098	0.1	0	-0	0	0	0	0	0	-0	0	0.05595	0	0	0	-0	0	0	0	0	0	-0	0	570.303	564.335	319.178	205.429	0.323426	-3.76913	0.00794779	-0.0138026	10.5119
23	-0.043769	0.0206148	0.0161956	0.048553	0.00163278	0.033612	0.0251132	-0.0300064	0.00394439	-0.00113718	0.0260592	-0.0450139	0.0506288	-0.00118248	0.0195409	-2.24339	0.011199	-1.5437	0	0	0	0	-0	0	0	0	-0.1265	0	-0	0	0	0	0	0	-0	0	0.105	0.015	0	0	-0	0	0	0.098	0.1	0	-0	0	0	0	0	0	-0	0	0.05595	0	0	0	-0	0	0	0	0	0	-0	0	570.47	564.591	319.049	205.611	0.321778	-3.76387	0.00787707	-0.0138667	10.5312
24	-0.0450792	0.020654	0.0161709	0.0485725	0.00161228	0.0336008	0.0251118	-0.0300051	0.0039454	-0.00397002	0.0168481	-0.0531217	0.0506287	-0.00118444	0.0194994	-2.24565	0.0116327	-1.54334	0	0	0	0	-0	0	0	0	-0.1265	0	-0	0	0	0	0	0	-0	0	0.105	0.015	0	0	-0	0	0	0.098	0.1	0	-0	0	0	0	0	0	-0	0	0.05595	0	0	0	-0	0	0	0	0	0	-0	0	570.887	565.196	318.714	206.099	0.317742	-3.75109	0.00771356	-0.0140181	10.5829
25	-0.0536361	0.0206531	0.0161797	0.04863	0.00161474	0.0335976	0.0251132	-0.0300087	0.00394875	-0.0174814	0.00750158	-0.0564656	0.0507789	-0.00118882	0.0190794	-2.25486	0.0121665	-1.54317	0	0	0	0	-0	0	0	0	-0.1265	0	-0	0	0	0	0	0	-0	0	0.105	0.015	0	0	-0	0	0	0.098	0.1	0	-0	0	0	0	0	0	-0	0	0.05595	0	0	0	-0	0	0	0	0	0	-0	0	571.162	565.61	318.483	206.446	0.316024	-3.74667	0.00746904	-0.0141085	10.6345
26	-0.051047	0.0206584	0.0161738	0.0486273	0.00161864	0.0336019	0.0251124	-0.0300061	0.00394778	-0.0233397	-0.0018954	-0.052779	0.0507183	-0.00118976	0.0192194	-2.25276	0.0123161	-1.54293	0	0	0	0	-0	0	0	0	-0.1265	0	-0	0	0	0	0	0	-0	0	0.105	0.015	0	0	-0	0	0	0.098	0.1	0	-0	0	0	0	0	0	-0	0	0.05595	0	0	0	-0	0	0	0	0	0	-0	0	571.349	565.902	318.309	206.704	0.315064	-3.74481	0.0072907	-0.0141634	10.6728
27	-0.0530481	0.0206614	0.0161778	0.0486457	0.00161616	0.0336014	0.0251109	-0.0300046	0.0039489	-0.0227472	0.00206883	-0.0481737	0.0507517	-0.00119115	0.0191207	-2.25495	0.0124641	-1.54288	0	0	0	0	-0	0	0	0	-0.1265	0	-0	0	0	0	0	0	-0	0	0.105	0.015	0	0	-0	0	0	0.098	0.1	0	-0	0	0	0	0	0	-0	0	0.05595	0	0	0	-0	0	0	0	0	0	-0	0	571.423	566.023	318.238	206.808	0.314758	-3.74394	0.00719527	-0.0141827	10.689
28	-0.0391066	0.0206843	0.0161683	0.0486903	0.00160272	0.0335936	0.0251131	-0.030004	0.00395129	-0.0238863	-0.0141007	-0.0463139	0.0504693	-0.00119416	0.0198437	-2.24179	0.0124152	-1.54239	0	0	0	0	-0	0	0	0	-0.1265	0	-0	0	0	0	0	0	-0	0	0.105	0.015	0	0	-0	0	0	0.098	0.1	0	-0	0	0	0	0	0	-0	0	0.05595	0	0	0	-0	0	0	0	0	0	-0	0	571.717	566.449	317.957	207.226	0.312302	-3.7408	0.00708107	-0.0143104	10.7544
29	-0.0360543	0.0206944	0.0161585	0.0486332	0.00160327	0.0335926	0.0251132	-0.0300054	0.00394814	-0.0199521	0.00142608	-0.0387667	0.0504004	-0.00119316	0.0200005	-2.23914	0.0124968	-1.5422	0	0	0	0	-0	0	0	0	-0.1265	0	-0	0	0	0	0	0	-0	0	0.105	0.015	0	0	-0	0	0	0.098	0.1	0	-0	0	0	0	0	0	-0	0	0.05595	0	0	0	-0	0	0	0	0	0	-0	0	571.838	566.661	317.817	207.434	0.312002	-3.74092	0.00692865	-0.0143343	10.7845
30	-0.0457836	0.0206684	0.0161726	0.0486968	0.00162725	0.0336064	0.0251116	-0.0300065	0.00395203	-0.0301668	-0.000626611	-0.0373412	0.0505894	-0.00119593	0.0195089	-2.24913	0.0129214	-1.54217	0	0	0	0	-0	0	0	0	-0.1265	0	-0	0	0	0	0	0	-0	0	0.105	0.015	0	0	-0	0	0	0.098	0.1	0	-0	0	0	0	0	0	-0	0	0.05595	0	0	0	-0	0	0	0	0	0	-0	0	571.928	566.81	317.713	207.588	0.311963	-3.74152	0.00674623	-0.0143711	10.8142
31	-0.045118	0.0207084	0.0161437	0.0487205	0.0016049	0.0335964	0.0251085	-0.0300075	0.00395545	-0.0132596	-0.00721206	-0.0461763	0.050557	-0.00119768	0.0195597	-2.24967	0.013429	-1.54166	0	0	0	0	-0	0	0	0	-0.1265	0	-0	0	0	0	0	0	-0	0	0.105	0.015	0	0	-0	0	0	0.098	0.1	0	-0	0	0	0	0	0	-0	0	0.05595	0	0	0	-0	0	0	0	0	0	-0	0	572.31	567.355	317.272	208.235	0.308801	-3.74275	0.00668298	-0.0145727	10.9248
32	-0.0397141	0.0207019	0.0161408	0.0488013	0.0016104	0.0336022	0.0251123	-0.0300088	0.00395995	-0.0190695	-0.00556652	-0.0299647	0.0504385	-0.00120039	0.0198406	-2.24487	0.0135641	-1.5413	0	0	0	0	-0	0	0	0	-0.1265	0	-0	0	0	0	0	0	-0	0	0.105	0.015	0	0	-0	0	0	0.098	0.1	0	-0	0	0	0	0	0	-0	0	0.05595	0	0	0	-0	0	0	0	0	0	-0	0	572.505	567.647	317.043	208.574	0.308733	-3.75147	0.00648347	-0.0146684	11.0093
33	-0.044561	0.0206879	0.0161466	0.0488104	0.00162795	0.0336103	0.0251113	-0.030008	0.00395831	-0.00721209	-0.00367735	-0.02387	0.0505296	-0.00120228	0.0195964	-2.25016	0.0139343	-1.54115	0	0	0	0	-0	0	0	0	-0.1265	0	-0	0	0	0	0	0	-0	0	0.105	0.015	0	0	-0	0	0	0.098	0.1	0	-0	0	0	0	0	0	-0	0	0.05595	0	0	0	-0	0	0	0	0	0	-0	0	572.622	567.854	316.871	208.824	0.30924	-3.75874	0.00626889	-0.0147144	11.0701
34	-0.0390429	0.0207061	0.0161413	0.0487863	0.00161424	0.033601	0.0251094	-0.0300045	0.003956	-0.00747612	-0.00617081	-0.0278603	0.0504189	-0.00120208	0.0198777	-2.24483	0.013852	-1.54101	0	0	0	0	-0	0	0	0	-0.1265	0	-0	0	0	0	0	0	-0	0	0.105	0.015	0	0	-0	0	0	0.098	0.1	0	-0	0	0	0	0	0	-0	0	0.05595	0	0	0	-0	0	0	0	0	0	-0	0	572.666	567.94	316.799	208.926	0.309399	-3.76201	0.00621905	-0.0147299	11.093
35	-0.0385976	0.0207207	0.016137	0.048793	0.00160226	0.0335939	0.0251091	-0.0300041	0.00395626	-0.00696851	-0.000617352	-0.0214175	0.0504066	-0.00120246	0.0199021	-2.24464	0.0139532	-1.54091	0	0	0	0	-0	0	0	0	-0.1265	0	-0	0	0	0	0	0	-0	0	0.105	0.015	0	0	-0	0	0	0.098	0.1	0	-0	0	0	0	0	0	-0	0	0.05595	0	0	0	-0	0	0	0	0	0	-0	0	572.732	568.052	316.7	209.063	0.309161	-3.76509	0.00617736	-0.0147684	11.1245
36	-0.0363437	0.0207168	0.0161395	0.0488111	0.00160549	0.0335958	0.0251088	-0.0300036	0.00395688	-0.00825636	0.00325696	-0.024314	0.0503604	-0.00120294	0.0200152	-2.24246	0.0139284	-1.54084	0	0	0	0	-0	0	0	0	-0.1265	0	-0	0	0	0	0	0	-0	0	0.105	0.015	0	0	-0	0	0	0.098	0.1	0	-0	0	0	0	0	0	-0	0	0.05595	0	0	0	-0	0	0	0	0	0	-0	0	572.751	568.088	316.669	209.106	0.30934	-3.76646	0.00612029	-0.0147769	11.1359
37	-0.0375319	0.0207248	0.0161357	0.0488174	0.00160058	0.0335932	0.025109	-0.0300041	0.0039577	-0.0066932	-0.000184041	-0.0323801	0.0503819	-0.00120334	0.0199569	-2.24387	0.0140736	-1.54075	0	0	0	0	-0	0	0	0	-0.1265	0	-0	0	0	0	0	0	-0	0	0.105	0.015	0	0	-0	0	0	0.098	0.1	0	-0	0	0	0	0	0	-0	0	0.05595	0	0	0	-0	0	0	0	0	0	-0	0	572.811	568.189	316.577	209.232	0.309186	-3.76985	0.00607769	-0.0148142	11.1669
38	-0.0346504	0.02072	0.0161367	0.0488295	0.00160567	0.0335965	0.025109	-0.0300056	0.00395811	0.00412941	0.00236015	-0.029794	0.050323	-0.00120377	0.0201021	-2.2411	0.0140473	-1.54065	0	0	0	0	-0	0	0	0	-0.1265	0	-0	0	0	0	0	0	-0	0	0.105	0.015	0	0	-0	0	0	0.098	0.1	0	-0	0	0	0	0	0	-0	0	0.05595	0	0	0	-0	0	0	0	0	0	-0	0	572.839	568.237	316.532	209.294	0.3094	-3.77222	0.00601942	-0.0148289	11.1838
39	-0.0340772	0.0207246	0.0161322	0.0488273	0.00160497	0.0335955	0.0251081	-0.0300042	0.00395778	0.0108389	0.00213329	-0.0291351	0.0503091	-0.001204	0.0201329	-2.24078	0.014153	-1.54052	0	0	0	0	-0	0	0	0	-0.1265	0	-0	0	0	0	0	0	-0	0	0.105	0.015	0	0	-0	0	0	0.098	0.1	0	-0	0	0	0	0	0	-0	0	0.05595	0	0	0	-0	0	0	0	0	0	-0	0	572.902	568.338	316.43	209.431	0.309393	-3.777	0.00597667	-0.0148698	11.2199
40	-0.0306748	0.0207301	0.0161281	0.0488382	0.0016011	0.0335933	0.0251084	-0.030003	0.00395901	0.016548	-0.00799923	-0.0315643	0.0502381	-0.00120444	0.0203055	-2.23762	0.0141703	-1.54036	0	0	0	0	-0	0	0	0	-0.1265	0	-0	0	0	0	0	0	-0	0	0.105	0.015	0	0	-0	0	0	0.098	0.1	0	-0	0	0	0	0	0	-0	0	0.05595	0	0	0	-0	0	0	0	0	0	-0	0	572.962	568.438	316.33	209.565	0.309429	-3.78174	0.00592367	-0.0149098	11.2558
41	-0.0332122	0.0207268	0.0161293	0.0488529	0.00160336	0.0335953	0.0251087	-0.0300041	0.00395987	0.0108675	-0.00793018	-0.0252946	0.050288	-0.00120503	0.0201779	-2.24025	0.0143013	-1.54035	0	0	0	0	-0	0	0	0	-0.1265	0	-0	0	0	0	0	0	-0	0	0.105	0.015	0	0	-0	0	0	0.098	0.1	0	-0	0	0	0	0	0	-0	0	0.05595	0	0	0	-0	0	0	0	0	0	-0	0	572.985	568.479	316.289	209.62	0.309659	-3.78411	0.00587021	-0.0149214	11.2717
42	-0.0277044	0.0207268	0.0161272	0.0488607	0.00160574	0.0335969	0.0251101	-0.0300053	0.00396081	0.0114387	-0.0129334	-0.0365987	0.0501748	-0.00120546	0.0204557	-2.23494	0.014237	-1.54016	0	0	0	0	-0	0	0	0	-0.1265	0	-0	0	0	0	0	0	-0	0	0.105	0.015	0	0	-0	0	0	0.098	0.1	0	-0	0	0	0	0	0	-0	0	0.05595	0	0	0	-0	0	0	0	0	0	-0	0	573.034	568.559	316.205	209.73	0.30978	-3.78854	0.00581922	-0.0149542	11.3033
43	-0.0234916	0.0207205	0.016127	0.0488651	0.00161493	0.0336015	0.0251094	-0.0300042	0.0039604	0.0137554	-0.00990324	-0.0319472	0.0500861	-0.00120614	0.0206669	-2.23102	0.0142632	-1.53995	0	0	0	0	-0	0	0	0	-0.1265	0	-0	0	0	0	0	0	-0	0	0.105	0.015	0	0	-0	0	0	0.098	0.1	0	-0	0	0	0	0	0	-0	0	0.05595	0	0	0	-0	0	0	0	0	0	-0	0	573.1	568.668	316.081	209.893	0.310074	-3.79523	0.00573744	-0.0149989	11.3491
44	-0.0251999	0.0207271	0.016124	0.0488609	0.00160903	0.0335978	0.0251087	-0.0300036	0.00395958	0.0104583	-0.0132928	-0.0342701	0.0501198	-0.00120612	0.0205823	-2.23281	0.0143541	-1.53994	0	0	0	0	-0	0	0	0	-0.1265	0	-0	0	0	0	0	0	-0	0	0.105	0.015	0	0	-0	0	0	0.098	0.1	0	-0	0	0	0	0	0	-0	0	0.05595	0	0	0	-0	0	0	0	0	0	-0	0	573.117	568.7	316.047	209.936	0.310296	-3.79779	0.00571257	-0.0150069	11.3624
45	-0.0297119	0.0207315	0.0161213	0.0488686	0.00160618	0.0335958	0.025108	-0.0300034	0.00395973	0.00551412	-0.0134638	-0.0365858	0.0502113	-0.00120632	0.0203566	-2.23748	0.014576	-1.53992	0	0	0	0	-0	0	0	0	-0.1265	0	-0	0	0	0	0	0	-0	0	0.105	0.015	0	0	-0	0	0	0.098	0.1	0	-0	0	0	0	0	0	-0	0	0.05595	0	0	0	-0	0	0	0	0	0	-0	0	573.153	568.763	315.977	210.025	0.310399	-3.80191	0.00567853	-0.0150355	11.3896
46	-0.0316098	0.0207387	0.0161168	0.0488686	0.00160145	0.0335924	0.0251073	-0.030003	0.00395954	0.0115094	-0.0161907	-0.0364647	0.050248	-0.00120646	0.0202624	-2.23961	0.0147569	-1.53983	0	0	0	0	-0	0	0	0	-0.1265	0	-0	0	0	0	0	0	-0	0	0.105	0.015	0	0	-0	0	0	0.098	0.1	0	-0	0	0	0	0	0	-0	0	0.05595	0	0	0	-0	0	0	0	0	0	-0	0	573.205	568.849	315.874	210.156	0.310528	-3.8079	0.00564394	-0.0150773	11.4283
47	-0.0355446	0.0207433	0.0161106	0.0488883	0.00160025	0.0335914	0.0251068	-0.030007	0.0039613	-0.00637761	-0.015329	-0.0362176	0.0503241	-0.00120717	0.0200663	-2.24399	0.0151203	-1.53965	0	0	0	0	-0	0	0	0	-0.1265	0	-0	0	0	0	0	0	-0	0	0.105	0.015	0	0	-0	0	0	0.098	0.1	0	-0	0	0	0	0	0	-0	0	0.05595	0	0	0	-0	0	0	0	0	0	-0	0	573.307	569.009	315.675	210.406	0.310657	-3.81861	0.00557825	-0.0151625	11.5024
48	-0.044117	0.0207446	0.0161007	0.0489043	0.00160458	0.0335933	0.0251067	-0.0300141	0.00396588	-0.034117	-0.0130334	-0.0294981	0.0504917	-0.00120779	0.0196369	-2.25318	0.0157356	-1.53944	0	0	0	0	-0	0	0	0	-0.1265	0	-0	0	0	0	0	0	-0	0	0.105	0.015	0	0	-0	0	0	0.098	0.1	0	-0	0	0	0	0	0	-0	0	0.05595	0	0	0	-0	0	0	0	0	0	-0	0	573.443	569.218	315.391	210.755	0.311114	-3.83436	0.00547778	-0.0152816	11.6054
49	-0.0391536	0.02073	0.0160934	0.048927	0.00161942	0.0336043	0.0251108	-0.0300067	0.00396155	-0.0289304	-0.0253676	-0.0164403	0.05039	-0.00120817	0.0198877	-2.24851	0.0157648	-1.53918	0	0	0	0	-0	0	0	0	-0.1265	0	-0	0	0	0	0	0	-0	0	0.105	0.015	0	0	-0	0	0	0.098	0.1	0	-0	0	0	0	0	0	-0	0	0.05595	0	0	0	-0	0	0	0	0	0	-0	0	573.499	569.32	315.249	210.92	0.312483	-3.84698	0.00532974	-0.0153337	11.6657
50	-0.0515239	0.0207304	0.0161021	0.0488757	0.00162291	0.0335967	0.0251084	-0.0300044	0.00395971	-0.0366319	-0.0235744	-0.0110037	0.0506377	-0.00120868	0.0192603	-2.2611	0.0162933	-1.53926	0	0	0	0	-0	0	0	0	-0.1265	0	-0	0	0	0	0	0	-0	0	0.105	0.015	0	0	-0	0	0	0.098	0.1	0	-0	0	0	0	0	0	-0	0	0.05595	0	0	0	-0	0	0	0	0	0	-0	0	573.523	569.395	315.141	211.046	0.313388	-3.85485	0.00521106	-0.0153445	11.7061
51	-0.0478402	0.020751	0.0160948	0.0488564	0.00160298	0.0335863	0.0251065	-0.0300023	0.00395712	-0.0375334	-0.0247382	-0.011357	0.050563	-0.00120812	0.0194478	-2.25747	0.0161931	-1.53919	0	0	0	0	-0	0	0	0	-0.1265	0	-0	0	0	0	0	0	-0	0	0.105	0.015	0	0	-0	0	0	0.098	0.1	0	-0	0	0	0	0	0	-0	0	0.05595	0	0	0	-0	0	0	0	0	0	-0	0	573.527	569.412	315.117	211.071	0.313523	-3.85707	0.0052322	-0.0153474	11.7133
52	-0.0411401	0.0207509	0.0160935	0.048897	0.00160258	0.0335866	0.0251066	-0.0300021	0.00396002	-0.0410584	-0.0204602	-0.0100386	0.0504315	-0.00120856	0.0197835	-2.25094	0.0160943	-1.53898	0	0	0	0	-0	0	0	0	-0.1265	0	-0	0	0	0	0	0	-0	0	0.105	0.015	0	0	-0	0	0	0.098	0.1	0	-0	0	0	0	0	0	-0	0	0.05595	0	0	0	-0	0	0	0	0	0	-0	0	573.555	569.471	315.026	211.172	0.313744	-3.86228	0.00516869	-0.015391	11.7477
53	-0.0351628	0.0207511	0.0160928	0.048911	0.00160175	0.0335872	0.025107	-0.0300022	0.00396048	-0.0416551	-0.016629	-0.0149326	0.0503117	-0.00120888	0.0200838	-2.24505	0.0159618	-1.53883	0	0	0	0	-0	0	0	0	-0.1265	0	-0	0	0	0	0	0	-0	0	0.105	0.015	0	0	-0	0	0	0.098	0.1	0	-0	0	0	0	0	0	-0	0	0.05595	0	0	0	-0	0	0	0	0	0	-0	0	573.569	569.501	314.98	211.221	0.314088	-3.86582	0.0051239	-0.0154076	11.7659
54	-0.0453776	0.0207507	0.0160919	0.0489171	0.00160372	0.033588	0.0251076	-0.0300036	0.00396192	-0.0486627	-0.0162055	-0.00675158	0.050516	-0.0012092	0.0195682	-2.25545	0.0164138	-1.53887	0	0	0	0	-0	0	0	0	-0.1265	0	-0	0	0	0	0	0	-0	0	0.105	0.015	0	0	-0	0	0	0.098	0.1	0	-0	0	0	0	0	0	-0	0	0.05595	0	0	0	-0	0	0	0	0	0	-0	0	573.599	569.563	314.879	211.33	0.314611	-3.87348	0.00506439	-0.0154464	11.8069
55	-0.0443225	0.0207493	0.0160905	0.048908	0.00160555	0.0335892	0.0251073	-0.0300027	0.0039606	-0.0507245	-0.0186624	-0.0121632	0.0504929	-0.00120921	0.0196207	-2.25449	0.0164455	-1.53879	0	0	0	0	-0	0	0	0	-0.1265	0	-0	0	0	0	0	0	-0	0	0.105	0.015	0	0	-0	0	0	0.098	0.1	0	-0	0	0	0	0	0	-0	0	0.05595	0	0	0	-0	0	0	0	0	0	-0	0	573.613	569.594	314.827	211.383	0.315133	-3.87806	0.00501978	-0.0154601	11.827
56	-0.0463056	0.0207429	0.0160918	0.0489328	0.00161114	0.033593	0.0251074	-0.0300024	0.00396238	-0.0522885	-0.0212618	-0.0137828	0.0505309	-0.00120963	0.0195189	-2.2565	0.0165398	-1.53879	0	0	0	0	-0	0	0	0	-0.1265	0	-0	0	0	0	0	0	-0	0	0.105	0.015	0	0	-0	0	0	0.098	0.1	0	-0	0	0	0	0	0	-0	0	0.05595	0	0	0	-0	0	0	0	0	0	-0	0	573.618	569.607	314.806	211.405	0.315362	-3.87934	0.00497272	-0.0154689	11.8351
57	-0.0473405	0.0207423	0.0160907	0.0489498	0.00161143	0.0335946	0.0251074	-0.0300021	0.00396349	-0.051684	-0.0234827	-0.0124954	0.0505505	-0.00121	0.0194656	-2.25761	0.0166281	-1.53876	0	0	0	0	-0	0	0	0	-0.1265	0	-0	0	0	0	0	0	-0	0	0.105	0.015	0	0	-0	0	0	0.098	0.1	0	-0	0	0	0	0	0	-0	0	0.05595	0	0	0	-0	0	0	0	0	0	-0	0	573.631	569.631	314.763	211.449	0.315561	-3.88246	0.00494475	-0.0154879	11.8528
58	-0.0512579	0.0207429	0.0160891	0.0489606	0.00161103	0.0335952	0.0251081	-0.0300029	0.00396439	-0.0533404	-0.0235368	-0.00479064	0.0506262	-0.00121028	0.0192672	-2.26163	0.0168335	-1.53875	0	0	0	0	-0	0	0	0	-0.1265	0	-0	0	0	0	0	0	-0	0	0.105	0.015	0	0	-0	0	0	0.098	0.1	0	-0	0	0	0	0	0	-0	0	0.05595	0	0	0	-0	0	0	0	0	0	-0	0	573.651	569.668	314.7	211.513	0.315866	-3.88722	0.00491225	-0.0155144	11.8784
59	-0.0549187	0.0207397	0.0160883	0.0489647	0.00161525	0.0335975	0.0251087	-0.0300035	0.00396508	-0.0511745	-0.0252258	-0.0140506	0.050696	-0.0012106	0.019081	-2.26546	0.0170713	-1.5387	0	0	0	0	-0	0	0	0	-0.1265	0	-0	0	0	0	0	0	-0	0	0.105	0.015	0	0	-0	0	0	0.098	0.1	0	-0	0	0	0	0	0	-0	0	0.05595	0	0	0	-0	0	0	0	0	0	-0	0	573.679	569.721	314.605	211.608	0.316463	-3.89492	0.00485453	-0.0155497	11.9176
60	-0.0549624	0.0207338	0.0160887	0.0489718	0.00162116	0.0336012	0.0251085	-0.0300027	0.00396499	-0.0519421	-0.0218152	-0.0187983	0.050696	-0.00121092	0.019078	-2.26558	0.0171369	-1.53863	0	0	0	0	-0	0	0	0	-0.1265	0	-0	0	0	0	0	0	-0	0	0.105	0.015	0	0	-0	0	0	0.098	0.1	0	-0	0	0	0	0	0	-0	0	0.05595	0	0	0	-0	0	0	0	0	0	-0	0	573.691	569.747	314.558	211.655	0.317032	-3.89964	0.00479775	-0.0155639	11.9389
61	-0.0552902	0.0207369	0.0160869	0.0489732	0.00161842	0.0335998	0.0251081	-0.0300022	0.00396518	-0.0530734	-0.0256235	-0.0205218	0.0507018	-0.001211	0.0190614	-2.26597	0.0171912	-1.5386	0	0	0	0	-0	0	0	0	-0.1265	0	-0	0	0	0	0	0	-0	0	0.105	0.015	0	0	-0	0	0	0.098	0.1	0	-0	0	0	0	0	0	-0	0	0.05595	0	0	0	-0	0	0	0	0	0	-0	0	573.7	569.767	314.522	211.689	0.317332	-3.90318	0.00477782	-0.0155764	11.955
62	-0.0526664	0.0207387	0.0160844	0.0489839	0.00161697	0.0335995	0.0251086	-0.0300022	0.00396533	-0.0535243	-0.0185626	-0.0253778	0.0506514	-0.00121122	0.019194	-2.26348	0.017205	-1.53847	0	0	0	0	-0	0	0	0	-0.1265	0	-0	0	0	0	0	0	-0	0	0.105	0.015	0	0	-0	0	0	0.098	0.1	0	-0	0	0	0	0	0	-0	0	0.05595	0	0	0	-0	0	0	0	0	0	-0	0	573.722	569.807	314.442	211.765	0.317737	-3.90971	0.00474748	-0.0156101	11.9883
63	-0.0529939	0.0207379	0.016085	0.0489774	0.0016184	0.033599	0.0251083	-0.0300022	0.00396558	-0.0520493	-0.0235262	-0.0296915	0.0506577	-0.00121127	0.0191769	-2.26387	0.0172664	-1.53842	0	0	0	0	-0	0	0	0	-0.1265	0	-0	0	0	0	0	0	-0	0	0.105	0.015	0	0	-0	0	0	0.098	0.1	0	-0	0	0	0	0	0	-0	0	0.05595	0	0	0	-0	0	0	0	0	0	-0	0	573.729	569.828	314.403	211.803	0.3182	-3.9137	0.00470812	-0.01562	12.0054
64	-0.0557076	0.0207361	0.0160839	0.0489916	0.00161957	0.0336011	0.0251081	-0.0300022	0.00396633	-0.0546622	-0.0255181	-0.031203	0.0507093	-0.0012115	0.0190389	-2.26663	0.0173931	-1.53843	0	0	0	0	-0	0	0	0	-0.1265	0	-0	0	0	0	0	0	-0	0	0.105	0.015	0	0	-0	0	0	0.098	0.1	0	-0	0	0	0	0	0	-0	0	0.05595	0	0	0	-0	0	0	0	0	0	-0	0	573.736	569.843	314.373	211.831	0.318475	-3.91639	0.00467828	-0.0156327	12.0182
65	-0.0552761	0.0207394	0.016081	0.0489933	0.0016168	0.0335997	0.0251078	-0.0300027	0.0039668	-0.0618359	-0.0246882	-0.0268086	0.0507008	-0.00121154	0.0190606	-2.26631	0.0174609	-1.53835	0	0	0	0	-0	0	0	0	-0.1265	0	-0	0	0	0	0	0	-0	0	0.105	0.015	0	0	-0	0	0	0.098	0.1	0	-0	0	0	0	0	0	-0	0	0.05595	0	0	0	-0	0	0	0	0	0	-0	0	573.752	569.873	314.306	211.892	0.31886	-3.92226	0.00466014	-0.0156603	12.0462
66	-0.0531377	0.0207369	0.01608	0.0490024	0.00161885	0.0336015	0.0251084	-0.0300021	0.00396716	-0.0627672	-0.0308452	-0.027363	0.0506597	-0.00121168	0.0191686	-2.26422	0.0174349	-1.53827	0	0	0	0	-0	0	0	0	-0.1265	0	-0	0	0	0	0	0	-0	0	0.105	0.015	0	0	-0	0	0	0.098	0.1	0	-0	0	0	0	0	0	-0	0	0.05595	0	0	0	-0	0	0	0	0	0	-0	0	573.759	569.89	314.272	211.922	0.319231	-3.92542	0.0046236	-0.0156731	12.0601
67	-0.054593	0.0207357	0.0160806	0.0490023	0.00161994	0.0336018	0.025108	-0.030002	0.0039668	-0.0604856	-0.0319122	-0.0242449	0.0506875	-0.00121187	0.0190944	-2.26571	0.0175152	-1.53827	0	0	0	0	-0	0	0	0	-0.1265	0	-0	0	0	0	0	0	-0	0	0.105	0.015	0	0	-0	0	0	0.098	0.1	0	-0	0	0	0	0	0	-0	0	0.05595	0	0	0	-0	0	0	0	0	0	-0	0	573.764	569.903	314.247	211.945	0.319513	-3.92801	0.00459868	-0.0156799	12.0716
68	-0.0520691	0.0207395	0.0160781	0.0490014	0.00161717	0.0336	0.0251074	-0.0300024	0.00396663	-0.068691	-0.0294875	-0.0252783	0.0506392	-0.00121183	0.0192222	-2.26328	0.0175009	-1.53816	0	0	0	0	-0	0	0	0	-0.1265	0	-0	0	0	0	0	0	-0	0	0.105	0.015	0	0	-0	0	0	0.098	0.1	0	-0	0	0	0	0	0	-0	0	0.05595	0	0	0	-0	0	0	0	0	0	-0	0	573.776	569.93	314.191	211.995	0.319871	-3.93307	0.00457708	-0.0157022	12.0954
69	-0.052073	0.0207432	0.0160746	0.0490023	0.00161439	0.0335982	0.0251073	-0.0300018	0.00396663	-0.0656302	-0.0290006	-0.0265108	0.0506389	-0.00121177	0.019222	-2.26341	0.0176021	-1.53807	0	0	0	0	-0	0	0	0	-0.1265	0	-0	0	0	0	0	0	-0	0	0.105	0.015	0	0	-0	0	0	0.098	0.1	0	-0	0	0	0	0	0	-0	0	0.05595	0	0	0	-0	0	0	0	0	0	-0	0	573.796	569.968	314.108	212.067	0.320418	-3.94078	0.00454978	-0.0157365	12.1311
70	-0.0584008	0.0207431	0.0160722	0.049013	0.00161496	0.0335983	0.0251075	-0.0300019	0.00396668	-0.0610433	-0.0334179	-0.0214372	0.0507598	-0.0012121	0.0189012	-2.26992	0.0179618	-1.53803	0	0	0	0	-0	0	0	0	-0.1265	0	-0	0	0	0	0	0	-0	0	0.105	0.015	0	0	-0	0	0	0.098	0.1	0	-0	0	0	0	0	0	-0	0	0.05595	0	0	0	-0	0	0	0	0	0	-0	0	573.827	570.021	313.985	212.173	0.321198	-3.95155	0.00449964	-0.0157861	12.1832
71	-0.0514955	0.0207473	0.0160704	0.0489925	0.00161196	0.0335945	0.025108	-0.0300024	0.00396592	-0.0606793	-0.0289192	-0.0131786	0.0506292	-0.00121185	0.0192512	-2.26311	0.0178104	-1.53784	0	0	0	0	-0	0	0	0	-0.1265	0	-0	0	0	0	0	0	-0	0	0.105	0.015	0	0	-0	0	0	0.098	0.1	0	-0	0	0	0	0	0	-0	0	0.05595	0	0	0	-0	0	0	0	0	0	-0	0	573.834	570.049	313.923	212.225	0.321846	-3.9571	0.00445428	-0.0158018	12.2053
72	-0.0512171	0.0207412	0.0160714	0.0489951	0.00161816	0.0335977	0.0251076	-0.0300018	0.0039655	-0.0643416	-0.0253968	-0.0166371	0.0506231	-0.00121205	0.0192634	-2.2629	0.0178631	-1.53778	0	0	0	0	-0	0	0	0	-0.1265	0	-0	0	0	0	0	0	-0	0	0.105	0.015	0	0	-0	0	0	0.098	0.1	0	-0	0	0	0	0	0	-0	0	0.05595	0	0	0	-0	0	0	0	0	0	-0	0	573.839	570.07	313.877	212.263	0.322451	-3.96143	0.00439225	-0.015815	12.2233
73	-0.0498439	0.0207422	0.0160694	0.0490066	0.0016171	0.0335976	0.0251077	-0.0300024	0.00396655	-0.0572621	-0.0221051	-0.0170007	0.0505964	-0.00121214	0.0193319	-2.26158	0.0178677	-1.53771	0	0	0	0	-0	0	0	0	-0.1265	0	-0	0	0	0	0	0	-0	0	0.105	0.015	0	0	-0	0	0	0.098	0.1	0	-0	0	0	0	0	0	-0	0	0.05595	0	0	0	-0	0	0	0	0	0	-0	0	573.844	570.087	313.836	212.296	0.322791	-3.96499	0.00436016	-0.0158316	12.2397
74	-0.0492911	0.0207384	0.0160693	0.0490169	0.00162053	0.0336003	0.0251077	-0.030002	0.00396744	-0.0520273	-0.0214361	-0.0182289	0.0505856	-0.00121234	0.019359	-2.26106	0.01789	-1.53766	0	0	0	0	-0	0	0	0	-0.1265	0	-0	0	0	0	0	0	-0	0	0.105	0.015	0	0	-0	0	0	0.098	0.1	0	-0	0	0	0	0	0	-0	0	0.05595	0	0	0	-0	0	0	0	0	0	-0	0	573.848	570.099	313.806	212.32	0.323142	-3.96779	0.00432343	-0.0158432	12.252
75	-0.0499759	0.0207385	0.0160682	0.0490253	0.00161985	0.0336009	0.0251076	-0.0300018	0.00396778	-0.0479879	-0.0218634	-0.0154681	0.0505986	-0.00121251	0.019324	-2.26178	0.0179417	-1.53764	0	0	0	0	-0	0	0	0	-0.1265	0	-0	0	0	0	0	0	-0	0	0.105	0.015	0	0	-0	0	0	0.098	0.1	0	-0	0	0	0	0	0	-0	0	0.05595	0	0	0	-0	0	0	0	0	0	-0	0	573.852	570.109	313.784	212.337	0.323356	-3.96999	0.0043056	-0.0158527	12.2618
76	-0.0499604	0.0207401	0.0160668	0.0490278	0.00161842	0.0336003	0.0251077	-0.0300013	0.00396794	-0.0476655	-0.0264255	-0.0145369	0.0505984	-0.00121259	0.0193244	-2.26183	0.0180036	-1.53758	0	0	0	0	-0	0	0	0	-0.1265	0	-0	0	0	0	0	0	-0	0	0.105	0.015	0	0	-0	0	0	0.098	0.1	0	-0	0	0	0	0	0	-0	0	0.05595	0	0	0	-0	0	0	0	0	0	-0	0	573.861	570.129	313.733	212.377	0.323714	-3.97454	0.00428302	-0.0158731	12.2827
77	-0.0477584	0.0207395	0.0160658	0.0490344	0.00161891	0.0336007	0.0251073	-0.0300029	0.00396834	-0.0587912	-0.0253592	-0.0161437	0.050556	-0.00121278	0.0194347	-2.25973	0.0180243	-1.53745	0	0	0	0	-0	0	0	0	-0.1265	0	-0	0	0	0	0	0	-0	0	0.105	0.015	0	0	-0	0	0	0.098	0.1	0	-0	0	0	0	0	0	-0	0	0.05595	0	0	0	-0	0	0	0	0	0	-0	0	573.872	570.157	313.658	212.434	0.324355	-3.98174	0.00423895	-0.0159021	12.3148
78	-0.0499159	0.0207407	0.0160633	0.0490307	0.00161849	0.0336004	0.0251078	-0.0300018	0.00396808	-0.0620342	-0.0294104	-0.0138553	0.0505978	-0.0012126	0.0193259	-2.26193	0.0181423	-1.53745	0	0	0	0	-0	0	0	0	-0.1265	0	-0	0	0	0	0	0	-0	0	0.105	0.015	0	0	-0	0	0	0.098	0.1	0	-0	0	0	0	0	0	-0	0	0.05595	0	0	0	-0	0	0	0	0	0	-0	0	573.877	570.171	313.62	212.462	0.324811	-3.98579	0.0042125	-0.0159156	12.3302
79	-0.0437015	0.0207386	0.016063	0.0490372	0.0016204	0.0336012	0.0251069	-0.0300027	0.00396881	-0.0745863	-0.0244997	-0.0137484	0.050478	-0.00121289	0.0196387	-2.25583	0.0180406	-1.53724	0	0	0	0	-0	0	0	0	-0.1265	0	-0	0	0	0	0	0	-0	0	0.105	0.015	0	0	-0	0	0	0.098	0.1	0	-0	0	0	0	0	0	-0	0	0.05595	0	0	0	-0	0	0	0	0	0	-0	0	573.888	570.2	313.536	212.525	0.3255	-3.99354	0.00416251	-0.0159475	12.3653
80	-0.0465351	0.0207448	0.0160583	0.0490298	0.00161456	0.0335983	0.0251072	-0.0300015	0.00396786	-0.0702776	-0.0218929	-0.0148285	0.0505328	-0.00121259	0.0194962	-2.25872	0.0181839	-1.53724	0	0	0	0	-0	0	0	0	-0.1265	0	-0	0	0	0	0	0	-0	0	0.105	0.015	0	0	-0	0	0	0.098	0.1	0	-0	0	0	0	0	0	-0	0	0.05595	0	0	0	-0	0	0	0	0	0	-0	0	573.893	570.217	313.493	212.555	0.325948	-3.99795	0.00414519	-0.0159631	12.3816
81	-0.0521822	0.0207418	0.0160583	0.0490399	0.00161729	0.0335993	0.0251078	-0.0300016	0.00396847	-0.0716499	-0.0228738	-0.00850324	0.050643	-0.00121289	0.0192089	-2.26447	0.0184915	-1.53723	0	0	0	0	-0	0	0	0	-0.1265	0	-0	0	0	0	0	0	-0	0	0.105	0.015	0	0	-0	0	0	0.098	0.1	0	-0	0	0	0	0	0	-0	0	0.05595	0	0	0	-0	0	0	0	0	0	-0	0	573.906	570.248	313.399	212.621	0.326708	-4.00631	0.00408673	-0.0159997	12.4196
82	-0.0528788	0.0207401	0.0160591	0.0490333	0.00161888	0.0335996	0.0251075	-0.0300013	0.00396805	-0.0690558	-0.0230512	-0.0117551	0.0506556	-0.00121296	0.0191734	-2.26518	0.0185333	-1.53723	0	0	0	0	-0	0	0	0	-0.1265	0	-0	0	0	0	0	0	-0	0	0.105	0.015	0	0	-0	0	0	0.098	0.1	0	-0	0	0	0	0	0	-0	0	0.05595	0	0	0	-0	0	0	0	0	0	-0	0	573.907	570.253	313.386	212.63	0.327045	-4.00797	0.00405986	-0.0159987	12.4244
83	-0.0508731	0.0207388	0.0160585	0.0490462	0.00161996	0.033601	0.0251076	-0.030001	0.00396909	-0.071923	-0.0180851	-0.0104597	0.0506169	-0.00121315	0.019274	-2.26321	0.0185007	-1.53716	0	0	0	0	-0	0	0	0	-0.1265	0	-0	0	0	0	0	0	-0	0	0.105	0.015	0	0	-0	0	0	0.098	0.1	0	-0	0	0	0	0	0	-0	0	0.05595	0	0	0	-0	0	0	0	0	0	-0	0	573.909	570.263	313.359	212.649	0.327319	-4.01046	0.00403145	-0.0160102	12.4356
84	-0.0507245	0.020738	0.0160578	0.0490557	0.0016202	0.033602	0.0251078	-0.030001	0.00396953	-0.0731428	-0.0206192	-0.00769673	0.050614	-0.00121335	0.0192806	-2.2631	0.0185466	-1.53711	0	0	0	0	-0	0	0	0	-0.1265	0	-0	0	0	0	0	0	-0	0	0.105	0.015	0	0	-0	0	0	0.098	0.1	0	-0	0	0	0	0	0	-0	0	0.05595	0	0	0	-0	0	0	0	0	0	-0	0	573.912	570.276	313.319	212.676	0.327696	-4.01439	0.00400255	-0.0160264	12.4528
85	-0.0508806	0.0207376	0.0160568	0.0490594	0.00162082	0.0336025	0.0251079	-0.0300009	0.0039699	-0.0733684	-0.025509	-0.00885784	0.0506174	-0.00121344	0.0192717	-2.26333	0.0186267	-1.53704	0	0	0	0	-0	0	0	0	-0.1265	0	-0	0	0	0	0	0	-0	0	0.105	0.015	0	0	-0	0	0	0.098	0.1	0	-0	0	0	0	0	0	-0	0	0.05595	0	0	0	-0	0	0	0	0	0	-0	0	573.919	570.296	313.26	212.715	0.328234	-4.01982	0.00396176	-0.016049	12.4763
86	-0.0481722	0.0207357	0.0160568	0.0490643	0.00162232	0.0336038	0.0251077	-0.0300014	0.00397036	-0.0671676	-0.0268719	-0.0104128	0.050565	-0.0012136	0.0194084	-2.26065	0.0185744	-1.53695	0	0	0	0	-0	0	0	0	-0.1265	0	-0	0	0	0	0	0	-0	0	0.105	0.015	0	0	-0	0	0	0.098	0.1	0	-0	0	0	0	0	0	-0	0	0.05595	0	0	0	-0	0	0	0	0	0	-0	0	573.922	570.306	313.23	212.735	0.328626	-4.02295	0.00392999	-0.0160591	12.4889
87	-0.0519525	0.0207376	0.016054	0.0490671	0.00162066	0.0336034	0.0251078	-0.0300011	0.00397029	-0.0693931	-0.0291746	-0.0074915	0.0506386	-0.00121358	0.0192165	-2.2645	0.0187839	-1.53694	0	0	0	0	-0	0	0	0	-0.1265	0	-0	0	0	0	0	0	-0	0	0.105	0.015	0	0	-0	0	0	0.098	0.1	0	-0	0	0	0	0	0	-0	0	0.05595	0	0	0	-0	0	0	0	0	0	-0	0	573.929	570.328	313.163	212.778	0.329139	-4.02877	0.00389767	-0.0160863	12.5142
88	-0.0492676	0.0207377	0.0160535	0.0490627	0.00162046	0.0336028	0.0251079	-0.0300009	0.00396964	-0.0688367	-0.0336616	-0.00411475	0.0505869	-0.00121358	0.0193521	-2.26186	0.0187352	-1.53685	0	0	0	0	-0	0	0	0	-0.1265	0	-0	0	0	0	0	0	-0	0	0.105	0.015	0	0	-0	0	0	0.098	0.1	0	-0	0	0	0	0	0	-0	0	0.05595	0	0	0	-0	0	0	0	0	0	-0	0	573.931	570.338	313.129	212.799	0.329585	-4.03238	0.00386905	-0.0160963	12.5275
89	-0.0517841	0.0207382	0.0160525	0.0490633	0.00162054	0.0336022	0.0251079	-0.0300017	0.00397038	-0.0754147	-0.0327774	0.00161844	0.0506359	-0.00121362	0.0192236	-2.26445	0.0189134	-1.53681	0	0	0	0	-0	0	0	0	-0.1265	0	-0	0	0	0	0	0	-0	0	0.105	0.015	0	0	-0	0	0	0.098	0.1	0	-0	0	0	0	0	0	-0	0	0.05595	0	0	0	-0	0	0	0	0	0	-0	0	573.938	570.36	313.054	212.846	0.330267	-4.03972	0.00382675	-0.0161245	12.5587
90	-0.0517176	0.0207334	0.0160524	0.0490734	0.00162451	0.0336055	0.0251079	-0.0300011	0.00397076	-0.0788859	-0.0334463	0.00149228	0.050634	-0.00121379	0.0192266	-2.26439	0.0189275	-1.53679	0	0	0	0	-0	0	0	0	-0.1265	0	-0	0	0	0	0	0	-0	0	0.105	0.015	0	0	-0	0	0	0.098	0.1	0	-0	0	0	0	0	0	-0	0	0.05595	0	0	0	-0	0	0	0	0	0	-0	0	573.938	570.364	313.044	212.852	0.330565	-4.041	0.00379503	-0.0161277	12.5627
91	-0.051602	0.020735	0.0160512	0.0490756	0.00162278	0.0336049	0.0251077	-0.0300008	0.00397076	-0.0782166	-0.032791	0.000125959	0.0506318	-0.00121386	0.0192323	-2.2643	0.0189498	-1.53677	0	0	0	0	-0	0	0	0	-0.1265	0	-0	0	0	0	0	0	-0	0	0.105	0.015	0	0	-0	0	0	0.098	0.1	0	-0	0	0	0	0	0	-0	0	0.05595	0	0	0	-0	0	0	0	0	0	-0	0	573.94	570.37	313.022	212.865	0.330755	-4.04296	0.0037829	-0.016136	12.5708
92	-0.0493766	0.0207362	0.0160504	0.0490775	0.00162145	0.0336042	0.0251078	-0.0300008	0.00397086	-0.0801364	-0.0355838	-0.00132431	0.0505892	-0.00121389	0.0193445	-2.26211	0.0189133	-1.53669	0	0	0	0	-0	0	0	0	-0.1265	0	-0	0	0	0	0	0	-0	0	0.105	0.015	0	0	-0	0	0	0.098	0.1	0	-0	0	0	0	0	0	-0	0	0.05595	0	0	0	-0	0	0	0	0	0	-0	0	573.942	570.38	312.991	212.884	0.331046	-4.04602	0.00376392	-0.0161485	12.5836
93	-0.0481835	0.0207359	0.0160504	0.0490769	0.00162171	0.0336042	0.0251076	-0.030001	0.00397066	-0.075303	-0.0358927	0.000469538	0.0505661	-0.00121392	0.0194047	-2.26093	0.0188929	-1.53665	0	0	0	0	-0	0	0	0	-0.1265	0	-0	0	0	0	0	0	-0	0	0.105	0.015	0	0	-0	0	0	0.098	0.1	0	-0	0	0	0	0	0	-0	0	0.05595	0	0	0	-0	0	0	0	0	0	-0	0	573.943	570.386	312.974	212.893	0.331271	-4.04778	0.00374786	-0.0161533	12.5902
94	-0.0437807	0.0207371	0.0160491	0.0490766	0.00162086	0.0336036	0.0251076	-0.0300007	0.00397068	-0.0761795	-0.0356084	0.00274701	0.0504809	-0.00121387	0.0196269	-2.25656	0.018786	-1.53652	0	0	0	0	-0	0	0	0	-0.1265	0	-0	0	0	0	0	0	-0	0	0.105	0.015	0	0	-0	0	0	0.098	0.1	0	-0	0	0	0	0	0	-0	0	0.05595	0	0	0	-0	0	0	0	0	0	-0	0	573.946	570.396	312.938	212.914	0.331582	-4.05112	0.00372999	-0.0161675	12.604
95	-0.0436144	0.0207387	0.0160483	0.0490724	0.00161917	0.0336024	0.0251075	-0.0300005	0.00397025	-0.0775894	-0.0380848	0.00378642	0.0504773	-0.00121382	0.0196353	-2.25642	0.0188016	-1.5365	0	0	0	0	-0	0	0	0	-0.1265	0	-0	0	0	0	0	0	-0	0	0.105	0.015	0	0	-0	0	0	0.098	0.1	0	-0	0	0	0	0	0	-0	0	0.05595	0	0	0	-0	0	0	0	0	0	-0	0	573.947	570.402	312.92	212.925	0.331812	-4.05311	0.0037181	-0.0161729	12.6111
96	-0.0405791	0.0207376	0.016048	0.0490784	0.00162028	0.0336031	0.0251077	-0.0300005	0.00397079	-0.0774601	-0.033741	0.00487128	0.0504179	-0.0012139	0.0197875	-2.25342	0.0187478	-1.5364	0	0	0	0	-0	0	0	0	-0.1265	0	-0	0	0	0	0	0	-0	0	0.105	0.015	0	0	-0	0	0	0.098	0.1	0	-0	0	0	0	0	0	-0	0	0.05595	0	0	0	-0	0	0	0	0	0	-0	0	573.95	570.414	312.88	212.948	0.332182	-4.05666	0.00368652	-0.0161889	12.6264
97	-0.041312	0.0207364	0.0160479	0.0490804	0.00162118	0.0336039	0.0251077	-0.0300006	0.00397077	-0.0781851	-0.0324721	0.00209625	0.0504322	-0.001214	0.0197501	-2.25417	0.0187991	-1.53638	0	0	0	0	-0	0	0	0	-0.1265	0	-0	0	0	0	0	0	-0	0	0.105	0.015	0	0	-0	0	0	0.098	0.1	0	-0	0	0	0	0	0	-0	0	0.05595	0	0	0	-0	0	0	0	0	0	-0	0	573.951	570.419	312.86	212.959	0.332443	-4.05866	0.00366616	-0.0161955	12.6342
98	-0.0431303	0.0207367	0.0160468	0.0490834	0.00162094	0.0336038	0.0251075	-0.0300006	0.00397104	-0.082033	-0.0320495	0.00246759	0.0504684	-0.00121402	0.0196577	-2.25603	0.0189171	-1.53636	0	0	0	0	-0	0	0	0	-0.1265	0	-0	0	0	0	0	0	-0	0	0.105	0.015	0	0	-0	0	0	0.098	0.1	0	-0	0	0	0	0	0	-0	0	0.05595	0	0	0	-0	0	0	0	0	0	-0	0	573.954	570.431	312.815	212.984	0.332848	-4.0629	0.00364043	-0.0162135	12.6519
99	-0.042634	0.0207369	0.0160458	0.0490854	0.00162053	0.0336039	0.0251076	-0.0300006	0.00397114	-0.0808959	-0.0308063	0.00563963	0.0504586	-0.00121403	0.0196826	-2.25556	0.0189282	-1.53633	0	0	0	0	-0	0	0	0	-0.1265	0	-0	0	0	0	0	0	-0	0	0.105	0.015	0	0	-0	0	0	0.098	0.1	0	-0	0	0	0	0	0	-0	0	0.05595	0	0	0	-0	0	0	0	0	0	-0	0	573.955	570.436	312.792	212.997	0.33313	-4.06523	0.00362251	-0.016222	12.6606
100	-0.0452008	0.020736	0.0160451	0.0490892	0.00162134	0.0336044	0.025108	-0.0300007	0.00397152	-0.0831841	-0.0352874	0.00367666	0.0505094	-0.00121412	0.0195523	-2.25817	0.0190797	-1.53632	0	0	0	0	-0	0	0	0	-0.1265	0	-0	0	0	0	0	0	-0	0	0.105	0.015	0	0	-0	0	0	0.098	0.1	0	-0	0	0	0	0	0	-0	0	0.05595	0	0	0	-0	0	0	0	0	0	-0	0	573.959	570.449	312.741	213.024	0.333584	-4.06974	0.00359122	-0.0162418	12.6796
