Stefan210/kinematic_calibration/src/kinematic_calibration/validation/experiments/experiments/impact_noise/bad_precision/larm_noise_1_pixel_rk_false/optimization_intermediate_results.csv
iteration	HeadPitch_offset	HeadYaw_offset	LElbowRoll_offset	LElbowYaw_offset	LShoulderPitch_offset	LShoulderRoll_offset	marker_transform_larm_tx	marker_transform_larm_ty	marker_transform_larm_tz	marker_transform_larm_rr	marker_transform_larm_rp	marker_transform_larm_ry	camera_transform_tx	camera_transform_ty	camera_transform_tz	camera_transform_rr	camera_transform_rp	camera_transform_ry	HeadPitch_transform_tx	HeadPitch_transform_ty	HeadPitch_transform_tz	HeadPitch_transform_rr	HeadPitch_transform_rp	HeadPitch_transform_ry	HeadYaw_transform_tx	HeadYaw_transform_ty	HeadYaw_transform_tz	HeadYaw_transform_rr	HeadYaw_transform_rp	HeadYaw_transform_ry	LElbowRoll_transform_tx	LElbowRoll_transform_ty	LElbowRoll_transform_tz	LElbowRoll_transform_rr	LElbowRoll_transform_rp	LElbowRoll_transform_ry	LElbowYaw_transform_tx	LElbowYaw_transform_ty	LElbowYaw_transform_tz	LElbowYaw_transform_rr	LElbowYaw_transform_rp	LElbowYaw_transform_ry	LShoulderPitch_transform_tx	LShoulderPitch_transform_ty	LShoulderPitch_transform_tz	LShoulderPitch_transform_rr	LShoulderPitch_transform_rp	LShoulderPitch_transform_ry	LShoulderRoll_transform_tx	LShoulderRoll_transform_ty	LShoulderRoll_transform_tz	LShoulderRoll_transform_rr	LShoulderRoll_transform_rp	LShoulderRoll_transform_ry	LWristYaw_transform_tx	LWristYaw_transform_ty	LWristYaw_transform_tz	LWristYaw_transform_rr	LWristYaw_transform_rp	LWristYaw_transform_ry	l_wrist_joint_transform_tx	l_wrist_joint_transform_ty	l_wrist_joint_transform_tz	l_wrist_joint_transform_rr	l_wrist_joint_transform_rp	l_wrist_joint_transform_ry	camera_fx	camera_fy	camera_cx	camera_cy	camera_D0	camera_D1	camera_D2	camera_D3	camera_D4	
0	0.0249164	-0.0307543	0.000853157	4.65819e-06	-0.000318322	-0.00310766	0.05071	0	0.01774	-2.26369	1.66533e-16	-1.5708	545.901	551.038	324.928	201.58	0.0255298	2.61142	-0.0636736	-0.0350419	0.213964
1	-0.0170217	0.00287243	0.0300178	0.0301439	0.0114477	0.0308378	0.0259986	-0.0303146	0.00220674	-0.000161878	-0.000448926	-0.00293181	0.055254	-0.00143834	0.0141007	-2.19445	0.00386892	-1.53417	0	0	0	0	-0	0	0	0	-0.1265	0	-0	0	0	0	0	0	-0	0	0.105	0.015	0	0	-0	0	0	0.098	0.1	0	-0	0	0	0	0	0	-0	0	0.05595	0	0	0	-0	0	0	0	0	0	-0	0	545.901	551.039	324.928	201.581	0.000473046	2.60292	-0.0855566	0.0266187	0.212213
2	-0.017095	0.0172667	0.0313243	0.0297784	0.00514668	0.0355623	0.026164	-0.0305387	0.00249083	-0.000194648	-0.000475372	-0.00293615	0.0534933	-0.00134692	0.0172753	-2.1951	-0.000968926	-1.54983	0	0	0	0	-0	0	0	0	-0.1265	0	-0	0	0	0	0	0	-0	0	0.105	0.015	0	0	-0	0	0	0.098	0.1	0	-0	0	0	0	0	0	-0	0	0.05595	0	0	0	-0	0	0	0	0	0	-0	0	545.903	551.039	324.926	201.585	-0.112939	2.52735	-0.0595672	0.0054895	0.188949
3	-0.0172618	0.0161616	0.0290537	0.0313217	0.00405841	0.0334396	0.0259836	-0.0304482	0.00252202	-0.000198071	-0.000480843	-0.00295012	0.0547651	-0.00120281	0.015452	-2.19392	0.000291816	-1.5501	0	0	0	0	-0	0	0	0	-0.1265	0	-0	0	0	0	0	0	-0	0	0.105	0.015	0	0	-0	0	0	0.098	0.1	0	-0	0	0	0	0	0	-0	0	0.05595	0	0	0	-0	0	0	0	0	0	-0	0	545.909	551.039	324.923	201.592	-0.340729	2.36918	-0.03527	0.000131746	0.141277
4	-0.0169253	0.0183116	0.0260456	0.0326371	0.00041656	0.030198	0.0257208	-0.0302899	0.0025367	-0.000204397	-0.000489147	-0.00296794	0.056026	-0.00123053	0.0141161	-2.19493	0.000229106	-1.55253	0	0	0	0	-0	0	0	0	-0.1265	0	-0	0	0	0	0	0	-0	0	0.105	0.015	0	0	-0	0	0	0.098	0.1	0	-0	0	0	0	0	0	-0	0	0.05595	0	0	0	-0	0	0	0	0	0	-0	0	545.921	551.039	324.917	201.606	-0.592249	2.06733	0.00459074	-0.0107751	0.0400877
5	-0.0165651	0.0195859	0.023218	0.0332784	-0.00155928	0.0287452	0.0254933	-0.0301974	0.00252052	-0.00021265	-0.000485099	-0.00299777	0.0563144	-0.00125275	0.0139186	-2.1963	0.000925066	-1.55368	0	0	0	0	-0	0	0	0	-0.1265	0	-0	0	0	0	0	0	-0	0	0.105	0.015	0	0	-0	0	0	0.098	0.1	0	-0	0	0	0	0	0	-0	0	0.05595	0	0	0	-0	0	0	0	0	0	-0	0	545.948	551.035	324.91	201.623	-0.582669	1.57358	0.0170341	-0.0156785	-0.146801
6	-0.0161729	0.0191258	0.0211968	0.0333788	-0.00160109	0.0290491	0.0253487	-0.0301715	0.00249015	-0.000198417	-0.000506466	-0.00301445	0.055563	-0.0012479	0.0148601	-2.1981	0.00250931	-1.55274	0	0	0	0	-0	0	0	0	-0.1265	0	-0	0	0	0	0	0	-0	0	0.105	0.015	0	0	-0	0	0	0.098	0.1	0	-0	0	0	0	0	0	-0	0	0.05595	0	0	0	-0	0	0	0	0	0	-0	0	546	551.023	324.906	201.643	-0.321209	0.828372	0.00547982	-0.0152633	-0.437564
7	-0.0158301	0.0186709	0.0199088	0.0333087	-0.00141529	0.029659	0.025261	-0.0301627	0.0024708	-0.000155898	-0.00055884	-0.00294756	0.0546621	-0.00124931	0.0159817	-2.19975	0.0036507	-1.55176	0	0	0	0	-0	0	0	0	-0.1265	0	-0	0	0	0	0	0	-0	0	0.105	0.015	0	0	-0	0	0	0.098	0.1	0	-0	0	0	0	0	0	-0	0	0.05595	0	0	0	-0	0	0	0	0	0	-0	0	546.089	550.998	324.913	201.654	-0.0376432	0.0636353	-0.00812504	-0.0141706	-0.710216
8	-0.0152702	0.0186902	0.0193837	0.0332534	-0.00140955	0.0300162	0.0252257	-0.0301595	0.00246908	-0.000108362	-0.000369816	-0.00272845	0.0541115	-0.0012612	0.0167011	-2.20037	0.00399267	-1.55138	0	0	0	0	-0	0	0	0	-0.1265	0	-0	0	0	0	0	0	-0	0	0.105	0.015	0	0	-0	0	0	0.098	0.1	0	-0	0	0	0	0	0	-0	0	0.05595	0	0	0	-0	0	0	0	0	0	-0	0	546.287	550.93	324.919	201.665	0.118766	-0.406549	-0.0142539	-0.0138078	-0.784932
9	-0.0153467	0.0187916	0.0192659	0.0332516	-0.00145612	0.0301081	0.0252166	-0.0301592	0.00247521	-6.0565e-06	0.000203123	-0.002841	0.0538661	-0.00127014	0.0170125	-2.201	0.00403724	-1.55127	0	0	0	0	-0	0	0	0	-0.1265	0	-0	0	0	0	0	0	-0	0	0.105	0.015	0	0	-0	0	0	0.098	0.1	0	-0	0	0	0	0	0	-0	0	0.05595	0	0	0	-0	0	0	0	0	0	-0	0	546.826	550.739	324.892	201.7	0.163745	-0.626418	-0.0140793	-0.0138482	-0.551056
10	-0.0147133	0.0189737	0.0192319	0.033261	-0.00155487	0.0300942	0.025211	-0.0301603	0.0024873	0.000657693	0.00307609	-0.00440352	0.0535481	-0.0012813	0.0174332	-2.20112	0.00400579	-1.55118	0	0	0	0	-0	0	0	0	-0.1265	0	-0	0	0	0	0	0	-0	0	0.105	0.015	0	0	-0	0	0	0.098	0.1	0	-0	0	0	0	0	0	-0	0	0.05595	0	0	0	-0	0	0	0	0	0	-0	0	548.268	550.251	324.794	201.801	0.17841	-0.897046	-0.00953354	-0.0140604	0.166319
11	-0.0114441	0.0193635	0.0191715	0.0332737	-0.00176112	0.0300465	0.0251994	-0.030163	0.00251168	0.00372043	0.00113867	-0.0059727	0.0528544	-0.00130228	0.0184062	-2.19947	0.00389622	-1.55102	0	0	0	0	-0	0	0	0	-0.1265	0	-0	0	0	0	0	0	-0	0	0.105	0.015	0	0	-0	0	0	0.098	0.1	0	-0	0	0	0	0	0	-0	0	0.05595	0	0	0	-0	0	0	0	0	0	-0	0	551.521	549.336	324.57	202.057	0.194222	-1.41448	0.000784291	-0.0145361	1.66403
12	-0.0190614	0.0199282	0.0190504	0.0333149	-0.00203356	0.0299992	0.0251886	-0.0301661	0.00254532	0.0100191	-0.0276081	-0.00143069	0.0520477	-0.00132942	0.0191718	-2.20989	0.00406623	-1.55077	0	0	0	0	-0	0	0	0	-0.1265	0	-0	0	0	0	0	0	-0	0	0.105	0.015	0	0	-0	0	0	0.098	0.1	0	-0	0	0	0	0	0	-0	0	0.05595	0	0	0	-0	0	0	0	0	0	-0	0	556.766	548.871	324.186	202.616	0.200791	-2.07588	0.0155723	-0.0152783	3.75427
13	-0.00318716	0.020151	0.0189667	0.0333651	-0.00211886	0.0299961	0.0251735	-0.0301727	0.00256396	-0.00273842	-0.0337191	0.000471057	0.0513211	-0.00133668	0.0205365	-2.1953	0.0035965	-1.55078	0	0	0	0	-0	0	0	0	-0.1265	0	-0	0	0	0	0	0	-0	0	0.105	0.015	0	0	-0	0	0	0.098	0.1	0	-0	0	0	0	0	0	-0	0	0.05595	0	0	0	-0	0	0	0	0	0	-0	0	559.414	549.26	324.166	202.864	0.194425	-2.33206	0.0218188	-0.0155175	4.74217
14	-0.0151711	0.020373	0.0188757	0.0334147	-0.00219839	0.0299839	0.025168	-0.0301728	0.00257483	-0.00385982	-0.0468853	0.0150586	0.051191	-0.00134476	0.0203399	-2.2087	0.00357131	-1.55109	0	0	0	0	-0	0	0	0	-0.1265	0	-0	0	0	0	0	0	-0	0	0.105	0.015	0	0	-0	0	0	0.098	0.1	0	-0	0	0	0	0	0	-0	0	0.05595	0	0	0	-0	0	0	0	0	0	-0	0	561.81	550.418	324.278	203.203	0.188512	-2.5049	0.0256691	-0.0156588	5.44472
15	-0.00987427	0.0205528	0.0187782	0.0334639	-0.00224122	0.029975	0.025169	-0.03017	0.002602	-0.0184231	-0.00886886	0.0321726	0.0508177	-0.00135102	0.0209274	-2.20512	0.00305818	-1.55154	0	0	0	0	-0	0	0	0	-0.1265	0	-0	0	0	0	0	0	-0	0	0.105	0.015	0	0	-0	0	0	0.098	0.1	0	-0	0	0	0	0	0	-0	0	0.05595	0	0	0	-0	0	0	0	0	0	-0	0	563.998	552.341	324.554	203.77	0.175847	-2.5457	0.027263	-0.0156723	5.77691
16	-0.016732	0.0206472	0.0187158	0.0334968	-0.00225746	0.0299698	0.0251591	-0.0301792	0.00260357	-0.00323771	-0.025784	0.0060507	0.0508316	-0.00135359	0.0207207	-2.21319	0.00283928	-1.55197	0	0	0	0	-0	0	0	0	-0.1265	0	-0	0	0	0	0	0	-0	0	0.105	0.015	0	0	-0	0	0	0.098	0.1	0	-0	0	0	0	0	0	-0	0	0.05595	0	0	0	-0	0	0	0	0	0	-0	0	565.24	553.717	324.822	204.243	0.163904	-2.50761	0.0275632	-0.0156273	5.80202
17	-0.0185981	0.0207085	0.0186763	0.0335189	-0.00226615	0.0299671	0.0251516	-0.0301698	0.00259387	-0.00854414	-0.0388839	0.0110018	0.0508	-0.00135523	0.0207051	-2.21597	0.00259258	-1.5523	0	0	0	0	-0	0	0	0	-0.1265	0	-0	0	0	0	0	0	-0	0	0.105	0.015	0	0	-0	0	0	0.098	0.1	0	-0	0	0	0	0	0	-0	0	0.05595	0	0	0	-0	0	0	0	0	0	-0	0	566.029	554.678	325.04	204.631	0.154142	-2.46003	0.0276257	-0.0155893	5.75237
18	-0.0151421	0.0207825	0.0186296	0.0335384	-0.00227207	0.029966	0.0251477	-0.030168	0.00260056	0.00139216	-0.0592994	0.00313254	0.050652	-0.0013575	0.0209657	-2.2139	0.00211136	-1.55276	0	0	0	0	-0	0	0	0	-0.1265	0	-0	0	0	0	0	0	-0	0	0.105	0.015	0	0	-0	0	0	0.098	0.1	0	-0	0	0	0	0	0	-0	0	0.05595	0	0	0	-0	0	0	0	0	0	-0	0	567.013	555.955	325.37	205.259	0.140032	-2.37884	0.0275845	-0.015532	5.62849
19	-0.0215258	0.0208122	0.0186108	0.0335479	-0.00227625	0.0299642	0.0251442	-0.0301686	0.00259713	0.00451226	-0.0629918	0.00975477	0.0507576	-0.00135802	0.0206721	-2.22086	0.00204283	-1.55298	0	0	0	0	-0	0	0	0	-0.1265	0	-0	0	0	0	0	0	-0	0	0.105	0.015	0	0	-0	0	0	0.098	0.1	0	-0	0	0	0	0	0	-0	0	0.05595	0	0	0	-0	0	0	0	0	0	-0	0	567.392	556.447	325.515	205.527	0.133606	-2.33956	0.0275933	-0.0154984	5.56212
20	-0.0223504	0.0208244	0.0186046	0.0335508	-0.00227819	0.0299637	0.025144	-0.0301685	0.00259791	0.0021983	-0.0685461	0.0143095	0.0507642	-0.00135819	0.0206407	-2.2219	0.00198398	-1.55306	0	0	0	0	-0	0	0	0	-0.1265	0	-0	0	0	0	0	0	-0	0	0.105	0.015	0	0	-0	0	0	0.098	0.1	0	-0	0	0	0	0	0	-0	0	0.05595	0	0	0	-0	0	0	0	0	0	-0	0	567.532	556.627	325.571	205.628	0.131066	-2.32422	0.0276094	-0.0154862	5.53563
21	-0.0132047	0.0208606	0.0185799	0.0335615	-0.00227822	0.0299646	0.0251422	-0.0301685	0.00259856	-0.00104321	-0.0641679	0.00816926	0.0505404	-0.00135939	0.0211434	-2.21364	0.00153502	-1.55335	0	0	0	0	-0	0	0	0	-0.1265	0	-0	0	0	0	0	0	-0	0	0.105	0.015	0	0	-0	0	0	0.098	0.1	0	-0	0	0	0	0	0	-0	0	0.05595	0	0	0	-0	0	0	0	0	0	-0	0	568.05	557.316	325.801	206.057	0.122167	-2.26647	0.0275915	-0.0154481	5.42736
22	-0.0100144	0.0208893	0.0185625	0.0335693	-0.00227992	0.0299646	0.0251469	-0.03017	0.00259707	-0.00140674	-0.0827811	0.0204613	0.050446	-0.00136009	0.0213297	-2.21116	0.00124677	-1.5536	0	0	0	0	-0	0	0	0	-0.1265	0	-0	0	0	0	0	0	-0	0	0.105	0.015	0	0	-0	0	0	0.098	0.1	0	-0	0	0	0	0	0	-0	0	0.05595	0	0	0	-0	0	0	0	0	0	-0	0	568.429	557.819	325.988	206.403	0.115062	-2.22085	0.0276182	-0.0154121	5.34192
23	-0.00398204	0.0209088	0.0185509	0.0335727	-0.00227975	0.0299653	0.0251416	-0.0301701	0.00260049	-0.010188	-0.0900522	0.0205582	0.0503002	-0.00136054	0.0216514	-2.20565	0.000963864	-1.55379	0	0	0	0	-0	0	0	0	-0.1265	0	-0	0	0	0	0	0	-0	0	0.105	0.015	0	0	-0	0	0	0.098	0.1	0	-0	0	0	0	0	0	-0	0	0.05595	0	0	0	-0	0	0	0	0	0	-0	0	568.701	558.18	326.133	206.665	0.109753	-2.18569	0.0276342	-0.0153814	5.27379
24	0.0137099	0.0209756	0.0185065	0.0335957	-0.00227633	0.0299674	0.0251411	-0.0301715	0.00260424	-0.00878357	-0.0804779	0.0339457	0.0498612	-0.00136306	0.0225966	-2.19027	-0.000112559	-1.55462	0	0	0	0	-0	0	0	0	-0.1265	0	-0	0	0	0	0	0	-0	0	0.105	0.015	0	0	-0	0	0	0.098	0.1	0	-0	0	0	0	0	0	-0	0	0.05595	0	0	0	-0	0	0	0	0	0	-0	0	569.671	559.519	326.773	207.842	0.0907236	-2.05904	0.0277018	-0.0152718	5.02335
25	-0.00297151	0.0210568	0.0184622	0.0336189	-0.00227297	0.0299695	0.0251359	-0.0301705	0.00260466	-0.0171908	-0.083338	0.0385686	0.0501732	-0.00136597	0.0218136	-2.21021	-0.00106155	-1.55594	0	0	0	0	-0	0	0	0	-0.1265	0	-0	0	0	0	0	0	-0	0	0.105	0.015	0	0	-0	0	0	0.098	0.1	0	-0	0	0	0	0	0	-0	0	0.05595	0	0	0	-0	0	0	0	0	0	-0	0	570.772	561.035	327.782	209.561	0.067085	-1.90504	0.0280274	-0.0150726	4.71984
26	-0.0115008	0.0210959	0.0184547	0.0336212	-0.00228358	0.0299683	0.0251353	-0.0301701	0.002605	-0.022346	-0.0886159	0.03758	0.0503374	-0.00136605	0.0214008	-2.21961	-0.00134027	-1.55634	0	0	0	0	-0	0	0	0	-0.1265	0	-0	0	0	0	0	0	-0	0	0.105	0.015	0	0	-0	0	0	0.098	0.1	0	-0	0	0	0	0	0	-0	0	0.05595	0	0	0	-0	0	0	0	0	0	-0	0	571.085	561.395	328.09	210.025	0.0582495	-1.85125	0.0283556	-0.0149955	4.61625
27	-0.00490161	0.02111	0.0184518	0.0336209	-0.00228695	0.029968	0.0251355	-0.0301727	0.00260237	-0.0114286	-0.0949519	0.0489217	0.0501885	-0.00136609	0.021739	-2.21334	-0.00159614	-1.55652	0	0	0	0	-0	0	0	0	-0.1265	0	-0	0	0	0	0	0	-0	0	0.105	0.015	0	0	-0	0	0	0.098	0.1	0	-0	0	0	0	0	0	-0	0	0.05595	0	0	0	-0	0	0	0	0	0	-0	0	571.202	561.524	328.215	210.199	0.0549371	-1.83108	0.0284872	-0.0149674	4.57641
28	-0.00293843	0.0211178	0.0184499	0.0336213	-0.00228787	0.0299684	0.025135	-0.0301705	0.00260517	-0.00923462	-0.0935847	0.0412076	0.0501405	-0.00136621	0.0218417	-2.2116	-0.00173342	-1.55663	0	0	0	0	-0	0	0	0	-0.1265	0	-0	0	0	0	0	0	-0	0	0.105	0.015	0	0	-0	0	0	0.098	0.1	0	-0	0	0	0	0	0	-0	0	0.05595	0	0	0	-0	0	0	0	0	0	-0	0	571.28	561.611	328.302	210.32	0.0528469	-1.81798	0.0285692	-0.0149501	4.54923
29	-0.00882876	0.0211275	0.0184463	0.0336224	-0.00228891	0.0299685	0.025135	-0.0301697	0.00260357	0.000535504	-0.109974	0.0460826	0.0502629	-0.0013665	0.021553	-2.21783	-0.00181439	-1.55679	0	0	0	0	-0	0	0	0	-0.1265	0	-0	0	0	0	0	0	-0	0	0.105	0.015	0	0	-0	0	0	0.098	0.1	0	-0	0	0	0	0	0	-0	0	0.05595	0	0	0	-0	0	0	0	0	0	-0	0	571.392	561.739	328.435	210.499	0.0500368	-1.79961	0.0286665	-0.0149233	4.51007
30	-0.0127285	0.0211363	0.0184441	0.0336227	-0.00229007	0.0299688	0.0251356	-0.0301719	0.00260754	-0.00501674	-0.102599	0.0580493	0.0503418	-0.00136668	0.0213612	-2.222	-0.0018966	-1.55693	0	0	0	0	-0	0	0	0	-0.1265	0	-0	0	0	0	0	0	-0	0	0.105	0.015	0	0	-0	0	0	0.098	0.1	0	-0	0	0	0	0	0	-0	0	0.05595	0	0	0	-0	0	0	0	0	0	-0	0	571.479	561.843	328.544	210.643	0.0476875	-1.78439	0.0287455	-0.0149004	4.47799
31	-0.0130915	0.0211509	0.0184378	0.0336257	-0.00229021	0.0299693	0.0251357	-0.030172	0.00260572	0.00334408	-0.0945512	0.0529613	0.0503403	-0.00136721	0.0213521	-2.22296	-0.00219691	-1.55723	0	0	0	0	-0	0	0	0	-0.1265	0	-0	0	0	0	0	0	-0	0	0.105	0.015	0	0	-0	0	0	0.098	0.1	0	-0	0	0	0	0	0	-0	0	0.05595	0	0	0	-0	0	0	0	0	0	-0	0	571.656	562.069	328.79	210.964	0.0433049	-1.75463	0.0288668	-0.0148478	4.41326
32	-0.0226408	0.0211624	0.0184359	0.0336255	-0.00229246	0.0299692	0.0251335	-0.0301714	0.00260607	-0.00553805	-0.0942896	0.0559374	0.0505401	-0.00136736	0.0208759	-2.23282	-0.0022374	-1.55739	0	0	0	0	-0	0	0	0	-0.1265	0	-0	0	0	0	0	0	-0	0	0.105	0.015	0	0	-0	0	0	0.098	0.1	0	-0	0	0	0	0	0	-0	0	0.05595	0	0	0	-0	0	0	0	0	0	-0	0	571.751	562.187	328.924	211.135	0.0405534	-1.73744	0.0289646	-0.0148178	4.37846
33	-0.044861	0.021192	0.0184242	0.0336311	-0.0022916	0.02997	0.0251328	-0.0301739	0.00261023	-0.0220941	-0.0826053	0.0664333	0.0509859	-0.00136871	0.0197678	-2.25639	-0.0026861	-1.55806	0	0	0	0	-0	0	0	0	-0.1265	0	-0	0	0	0	0	0	-0	0	0.105	0.015	0	0	-0	0	0	0.098	0.1	0	-0	0	0	0	0	0	-0	0	0.05595	0	0	0	-0	0	0	0	0	0	-0	0	572.101	562.668	329.517	211.867	0.0319378	-1.67789	0.0291763	-0.0146852	4.2476
34	-0.0523909	0.021217	0.0184206	0.0336324	-0.00229809	0.0299692	0.0251407	-0.0301781	0.00260813	-0.0368641	-0.0986343	0.0581482	0.0511152	-0.00136898	0.019388	-2.2646	-0.00300271	-1.55842	0	0	0	0	-0	0	0	0	-0.1265	0	-0	0	0	0	0	0	-0	0	0.105	0.015	0	0	-0	0	0	0.098	0.1	0	-0	0	0	0	0	0	-0	0	0.05595	0	0	0	-0	0	0	0	0	0	-0	0	572.284	562.886	329.825	212.234	0.0263541	-1.64365	0.0294164	-0.0146156	4.17803
35	-0.0681532	0.0212474	0.0184125	0.0336327	-0.00229675	0.0299703	0.0251377	-0.0301766	0.00260107	-0.0297597	-0.111851	0.0774907	0.0514065	-0.00137024	0.0185951	-2.28181	-0.00372242	-1.5592	0	0	0	0	-0	0	0	0	-0.1265	0	-0	0	0	0	0	0	-0	0	0.105	0.015	0	0	-0	0	0	0.098	0.1	0	-0	0	0	0	0	0	-0	0	0.05595	0	0	0	-0	0	0	0	0	0	-0	0	572.614	563.343	330.532	213.029	0.0174903	-1.5817	0.0296732	-0.0144436	4.03957
36	-0.0778705	0.0212763	0.018412	0.0336309	-0.00230503	0.0299697	0.025137	-0.0301761	0.00260687	-0.0178682	-0.10133	0.0668409	0.0515746	-0.00137057	0.0181018	-2.29225	-0.00411079	-1.55961	0	0	0	0	-0	0	0	0	-0.1265	0	-0	0	0	0	0	0	-0	0	0.105	0.015	0	0	-0	0	0	0.098	0.1	0	-0	0	0	0	0	0	-0	0	0.05595	0	0	0	-0	0	0	0	0	0	-0	0	572.794	563.549	330.9	213.427	0.0114908	-1.5455	0.0299687	-0.0143592	3.96557
37	-0.0736093	0.0212954	0.0184096	0.0336307	-0.00230935	0.0299688	0.0251329	-0.0301759	0.00261256	-0.0343959	-0.0873915	0.0805058	0.0514888	-0.00137097	0.0183289	-2.28859	-0.00458548	-1.56	0	0	0	0	-0	0	0	0	-0.1265	0	-0	0	0	0	0	0	-0	0	0.105	0.015	0	0	-0	0	0	0.098	0.1	0	-0	0	0	0	0	0	-0	0	0.05595	0	0	0	-0	0	0	0	0	0	-0	0	572.94	563.716	331.22	213.757	0.00709465	-1.5176	0.0301799	-0.0142828	3.90598
38	-0.0730857	0.0213113	0.0184077	0.0336317	-0.00231393	0.0299679	0.025133	-0.0301742	0.0026065	-0.0428399	-0.0882487	0.0725369	0.0514744	-0.00137126	0.0183614	-2.28852	-0.00491689	-1.56029	0	0	0	0	-0	0	0	0	-0.1265	0	-0	0	0	0	0	0	-0	0	0.105	0.015	0	0	-0	0	0	0.098	0.1	0	-0	0	0	0	0	0	-0	0	0.05595	0	0	0	-0	0	0	0	0	0	-0	0	573.049	563.839	331.465	214.003	0.00361777	-1.49551	0.0303494	-0.0142255	3.85825
39	-0.0775543	0.02132	0.0184087	0.0336295	-0.00231653	0.0299679	0.025132	-0.0301722	0.00260697	-0.0390611	-0.0888645	0.0746482	0.0515549	-0.0013713	0.0181335	-2.29317	-0.00500873	-1.56039	0	0	0	0	-0	0	0	0	-0.1265	0	-0	0	0	0	0	0	-0	0	0.105	0.015	0	0	-0	0	0	0.098	0.1	0	-0	0	0	0	0	0	-0	0	0.05595	0	0	0	-0	0	0	0	0	0	-0	0	573.095	563.886	331.567	214.104	0.00192059	-1.48556	0.030442	-0.0142017	3.83819
40	-0.09549	0.0213369	0.0184052	0.0336299	-0.00231757	0.0299681	0.0251357	-0.0301729	0.00260885	-0.037285	-0.0725752	0.080138	0.0518725	-0.00137207	0.017217	-2.31184	-0.00537986	-1.56078	0	0	0	0	-0	0	0	0	-0.1265	0	-0	0	0	0	0	0	-0	0	0.105	0.015	0	0	-0	0	0	0.098	0.1	0	-0	0	0	0	0	0	-0	0	0.05595	0	0	0	-0	0	0	0	0	0	-0	0	573.255	564.096	331.989	214.51	-0.00245486	-1.45406	0.0306015	-0.0140957	3.76391
41	-0.0974667	0.0213515	0.0184052	0.0336282	-0.00232182	0.0299677	0.0251325	-0.030175	0.00260806	-0.0255337	-0.0722684	0.0737931	0.0518958	-0.00137219	0.0171154	-2.31418	-0.00565792	-1.56102	0	0	0	0	-0	0	0	0	-0.1265	0	-0	0	0	0	0	0	-0	0	0.105	0.015	0	0	-0	0	0	0.098	0.1	0	-0	0	0	0	0	0	-0	0	0.05595	0	0	0	-0	0	0	0	0	0	-0	0	573.339	564.193	332.204	214.713	-0.00543768	-1.43546	0.0307488	-0.0140432	3.7247
42	-0.0945083	0.0213667	0.0184037	0.0336285	-0.00232435	0.0299673	0.0251353	-0.030172	0.0026088	-0.0230866	-0.0915268	0.0707415	0.0518405	-0.00137269	0.0172747	-2.31177	-0.00612429	-1.5614	0	0	0	0	-0	0	0	0	-0.1265	0	-0	0	0	0	0	0	-0	0	0.105	0.015	0	0	-0	0	0	0.098	0.1	0	-0	0	0	0	0	0	-0	0	0.05595	0	0	0	-0	0	0	0	0	0	-0	0	573.454	564.34	332.529	215.013	-0.00889288	-1.41186	0.0308968	-0.0139614	3.67081
43	-0.0903823	0.0213746	0.0184049	0.0336259	-0.00232774	0.0299667	0.0251321	-0.0301726	0.00260716	-0.0237296	-0.0964355	0.071236	0.0517687	-0.00137261	0.0174892	-2.30775	-0.00625825	-1.56151	0	0	0	0	-0	0	0	0	-0.1265	0	-0	0	0	0	0	0	-0	0	0.105	0.015	0	0	-0	0	0	0.098	0.1	0	-0	0	0	0	0	0	-0	0	0.05595	0	0	0	-0	0	0	0	0	0	-0	0	573.481	564.368	332.597	215.076	-0.0101874	-1.40485	0.0309695	-0.0139445	3.65846
44	-0.0896125	0.0213857	0.0184034	0.0336265	-0.00232893	0.0299668	0.0251356	-0.0301774	0.00260761	-0.0121226	-0.0887957	0.059311	0.0517507	-0.0013731	0.017534	-2.30744	-0.00663804	-1.56184	0	0	0	0	-0	0	0	0	-0.1265	0	-0	0	0	0	0	0	-0	0	0.105	0.015	0	0	-0	0	0	0.098	0.1	0	-0	0	0	0	0	0	-0	0	0.05595	0	0	0	-0	0	0	0	0	0	-0	0	573.576	564.487	332.877	215.327	-0.0130263	-1.38411	0.0310873	-0.0138739	3.60794
45	-0.0848743	0.0214028	0.0184019	0.0336255	-0.00233083	0.0299669	0.0251398	-0.0301702	0.00260481	-0.0241422	-0.0533385	0.0542339	0.0516629	-0.00137367	0.0177848	-2.30336	-0.00724059	-1.56235	0	0	0	0	-0	0	0	0	-0.1265	0	-0	0	0	0	0	0	-0	0	0.105	0.015	0	0	-0	0	0	0.098	0.1	0	-0	0	0	0	0	0	-0	0	0.05595	0	0	0	-0	0	0	0	0	0	-0	0	573.706	564.663	333.298	215.697	-0.0170416	-1.35525	0.031241	-0.0137631	3.5399
46	-0.0859131	0.0214169	0.0184036	0.033621	-0.00233509	0.0299666	0.0251324	-0.0301753	0.00260664	-0.0145412	-0.0521451	0.0591845	0.0516788	-0.00137382	0.0177336	-2.30474	-0.00752032	-1.5626	0	0	0	0	-0	0	0	0	-0.1265	0	-0	0	0	0	0	0	-0	0	0.105	0.015	0	0	-0	0	0	0.098	0.1	0	-0	0	0	0	0	0	-0	0	0.05595	0	0	0	-0	0	0	0	0	0	-0	0	573.778	564.747	333.512	215.883	-0.0197492	-1.33802	0.0313725	-0.0137072	3.50323
47	-0.0791522	0.0214488	0.0183987	0.0336231	-0.00233811	0.0299655	0.0251328	-0.0301759	0.00260573	-0.00702267	-0.0559207	0.070028	0.0515503	-0.00137534	0.0180922	-2.29939	-0.00882996	-1.56373	0	0	0	0	-0	0	0	0	-0.1265	0	-0	0	0	0	0	0	-0	0	0.105	0.015	0	0	-0	0	0	0.098	0.1	0	-0	0	0	0	0	0	-0	0	0.05595	0	0	0	-0	0	0	0	0	0	-0	0	574.016	565.113	334.464	216.672	-0.0265928	-1.28533	0.0315932	-0.0134489	3.37294
48	-0.0652129	0.0214875	0.0184004	0.033619	-0.0023486	0.0299642	0.0251394	-0.030181	0.00261129	-0.00600743	-0.0437571	0.0912827	0.0512907	-0.00137615	0.0188185	-2.28653	-0.00991273	-1.56474	0	0	0	0	-0	0	0	0	-0.1265	0	-0	0	0	0	0	0	-0	0	0.105	0.015	0	0	-0	0	0	0.098	0.1	0	-0	0	0	0	0	0	-0	0	0.05595	0	0	0	-0	0	0	0	0	0	-0	0	574.222	565.376	335.21	217.276	-0.034038	-1.23473	0.031939	-0.013252	3.2573
49	-0.0733146	0.0215156	0.0184017	0.0336155	-0.00235575	0.0299636	0.0251364	-0.03018	0.00260796	0.00570419	-0.0377897	0.0764654	0.0514327	-0.00137669	0.0184079	-2.29543	-0.0106165	-1.56533	0	0	0	0	-0	0	0	0	-0.1265	0	-0	0	0	0	0	0	-0	0	0.105	0.015	0	0	-0	0	0	0.098	0.1	0	-0	0	0	0	0	0	-0	0	0.05595	0	0	0	-0	0	0	0	0	0	-0	0	574.378	565.561	335.783	217.726	-0.0397388	-1.195	0.0322151	-0.013097	3.16443
50	-0.0723303	0.02153	0.0184047	0.0336138	-0.00236244	0.0299625	0.0251325	-0.0301746	0.00260691	0.00501271	-0.0438044	0.0797887	0.0514128	-0.00137664	0.018459	-2.29461	-0.0107938	-1.56549	0	0	0	0	-0	0	0	0	-0.1265	0	-0	0	0	0	0	0	-0	0	0.105	0.015	0	0	-0	0	0	0.098	0.1	0	-0	0	0	0	0	0	-0	0	0.05595	0	0	0	-0	0	0	0	0	0	-0	0	574.418	565.595	335.904	217.82	-0.0419686	-1.183	0.0323549	-0.0130717	3.14228
51	-0.0705138	0.0215383	0.0184051	0.0336126	-0.0023649	0.0299621	0.025133	-0.0301755	0.00260717	-0.000523744	-0.0485272	0.0845909	0.0513769	-0.00137689	0.0185558	-2.29302	-0.011026	-1.56571	0	0	0	0	-0	0	0	0	-0.1265	0	-0	0	0	0	0	0	-0	0	0.105	0.015	0	0	-0	0	0	0.098	0.1	0	-0	0	0	0	0	0	-0	0	0.05595	0	0	0	-0	0	0	0	0	0	-0	0	574.47	565.646	336.072	217.947	-0.0437037	-1.17062	0.032448	-0.0130268	3.11214
52	-0.0759057	0.0215485	0.018405	0.0336118	-0.00236682	0.0299624	0.0251327	-0.0301756	0.00260657	0.00150069	-0.0520038	0.0923466	0.0514739	-0.00137723	0.0182825	-2.29875	-0.0113312	-1.56594	0	0	0	0	-0	0	0	0	-0.1265	0	-0	0	0	0	0	0	-0	0	0.105	0.015	0	0	-0	0	0	0.098	0.1	0	-0	0	0	0	0	0	-0	0	0.05595	0	0	0	-0	0	0	0	0	0	-0	0	574.538	565.726	336.325	218.137	-0.0459943	-1.15311	0.0325486	-0.0129568	3.06808
53	-0.0641461	0.0215822	0.0184022	0.0336093	-0.0023697	0.0299623	0.0251313	-0.0301802	0.00260727	0.0206864	-0.0562596	0.0916029	0.0512516	-0.00137884	0.0188936	-2.28841	-0.0128388	-1.56736	0	0	0	0	-0	0	0	0	-0.1265	0	-0	0	0	0	0	0	-0	0	0.105	0.015	0	0	-0	0	0	0.098	0.1	0	-0	0	0	0	0	0	-0	0	0.05595	0	0	0	-0	0	0	0	0	0	-0	0	574.755	566.096	337.438	218.935	-0.0526932	-1.09432	0.0326805	-0.0126277	2.91267
54	-0.0515432	0.0216056	0.0184077	0.0336076	-0.00238131	0.0299602	0.0251314	-0.0301768	0.00260649	0.0336686	-0.0657319	0.0940254	0.0510105	-0.0013787	0.0195389	-2.27601	-0.0130998	-1.56774	0	0	0	0	-0	0	0	0	-0.1265	0	-0	0	0	0	0	0	-0	0	0.105	0.015	0	0	-0	0	0	0.098	0.1	0	-0	0	0	0	0	0	-0	0	0.05595	0	0	0	-0	0	0	0	0	0	-0	0	574.809	566.136	337.599	219.054	-0.0562223	-1.07652	0.0329122	-0.0126004	2.8826
55	-0.0502188	0.0216118	0.0184087	0.0336058	-0.00238323	0.02996	0.025134	-0.0301768	0.00260665	0.0296085	-0.0713929	0.102761	0.0509789	-0.0013788	0.0196073	-2.27483	-0.0132508	-1.56789	0	0	0	0	-0	0	0	0	-0.1265	0	-0	0	0	0	0	0	-0	0	0.105	0.015	0	0	-0	0	0	0.098	0.1	0	-0	0	0	0	0	0	-0	0	0.05595	0	0	0	-0	0	0	0	0	0	-0	0	574.845	566.164	337.712	219.135	-0.0575356	-1.06743	0.03299	-0.0125692	2.86104
56	-0.0573598	0.0216249	0.0184082	0.0336039	-0.00238432	0.0299609	0.0251341	-0.0301765	0.0026076	0.0263305	-0.0804342	0.0974213	0.0511142	-0.00137943	0.0192486	-2.2825	-0.0137761	-1.56829	0	0	0	0	-0	0	0	0	-0.1265	0	-0	0	0	0	0	0	-0	0	0.105	0.015	0	0	-0	0	0	0.098	0.1	0	-0	0	0	0	0	0	-0	0	0.05595	0	0	0	-0	0	0	0	0	0	-0	0	574.945	566.291	338.136	219.434	-0.0606311	-1.04096	0.0331002	-0.012442	2.79073
57	-0.0583707	0.0216348	0.0184103	0.0336029	-0.00238868	0.0299603	0.0251328	-0.0301761	0.0026071	0.0273456	-0.08216	0.0917954	0.0511323	-0.00137944	0.0191972	-2.28364	-0.0139162	-1.5684	0	0	0	0	-0	0	0	0	-0.1265	0	-0	0	0	0	0	0	-0	0	0.105	0.015	0	0	-0	0	0	0.098	0.1	0	-0	0	0	0	0	0	-0	0	0.05595	0	0	0	-0	0	0	0	0	0	-0	0	574.975	566.319	338.24	219.508	-0.0622642	-1.03131	0.0331919	-0.0124182	2.77134
58	-0.0588699	0.0216408	0.0184106	0.0336023	-0.00239006	0.0299603	0.025133	-0.0301765	0.00260696	0.0322476	-0.0794266	0.0872033	0.0511402	-0.00137964	0.0191739	-2.28432	-0.0141022	-1.56856	0	0	0	0	-0	0	0	0	-0.1265	0	-0	0	0	0	0	0	-0	0	0.105	0.015	0	0	-0	0	0	0.098	0.1	0	-0	0	0	0	0	0	-0	0	0.05595	0	0	0	-0	0	0	0	0	0	-0	0	575.012	566.359	338.383	219.608	-0.0635641	-1.02128	0.0332539	-0.0123773	2.74586
59	-0.0575419	0.0216447	0.0184112	0.0336019	-0.00239147	0.0299603	0.0251327	-0.0301761	0.0026072	0.0301927	-0.0762624	0.0914676	0.0511144	-0.00137967	0.0192424	-2.28306	-0.0141835	-1.56865	0	0	0	0	-0	0	0	0	-0.1265	0	-0	0	0	0	0	0	-0	0	0.105	0.015	0	0	-0	0	0	0.098	0.1	0	-0	0	0	0	0	0	-0	0	0.05595	0	0	0	-0	0	0	0	0	0	-0	0	575.028	566.375	338.442	219.649	-0.0642831	-1.01646	0.0332903	-0.012362	2.73488
60	-0.0501291	0.0216525	0.0184108	0.0336014	-0.00239235	0.0299607	0.0251323	-0.0301769	0.00260785	0.0213297	-0.0694838	0.0961376	0.0509694	-0.00138004	0.0196239	-2.27595	-0.0145106	-1.56904	0	0	0	0	-0	0	0	0	-0.1265	0	-0	0	0	0	0	0	-0	0	0.105	0.015	0	0	-0	0	0	0.098	0.1	0	-0	0	0	0	0	0	-0	0	0.05595	0	0	0	-0	0	0	0	0	0	-0	0	575.084	566.45	338.683	219.816	-0.0660749	-1.0007	0.0333438	-0.0122892	2.69246
61	-0.0537105	0.0216631	0.0184112	0.0336009	-0.00239495	0.0299607	0.0251332	-0.0301784	0.00260707	0.0328396	-0.067312	0.0948408	0.0510366	-0.00138034	0.0194429	-2.27982	-0.0148166	-1.56928	0	0	0	0	-0	0	0	0	-0.1265	0	-0	0	0	0	0	0	-0	0	0.105	0.015	0	0	-0	0	0	0.098	0.1	0	-0	0	0	0	0	0	-0	0	0.05595	0	0	0	-0	0	0	0	0	0	-0	0	575.139	566.524	338.925	219.982	-0.0681065	-0.984734	0.0334163	-0.0122197	2.65243
62	-0.0515969	0.0216694	0.0184124	0.0336001	-0.00239699	0.0299606	0.0251329	-0.0301766	0.00260662	0.0355081	-0.068247	0.0998482	0.0509948	-0.00138041	0.0195512	-2.27783	-0.0149516	-1.56943	0	0	0	0	-0	0	0	0	-0.1265	0	-0	0	0	0	0	0	-0	0	0.105	0.015	0	0	-0	0	0	0.098	0.1	0	-0	0	0	0	0	0	-0	0	0.05595	0	0	0	-0	0	0	0	0	0	-0	0	575.163	566.553	339.024	220.05	-0.0692576	-0.97685	0.0334688	-0.0121931	2.63447
63	-0.0494162	0.0216822	0.0184117	0.0335991	-0.00239838	0.029961	0.0251344	-0.0301765	0.00260982	0.0434076	-0.0862147	0.0924828	0.0509492	-0.00138102	0.0196653	-2.27613	-0.0154769	-1.56994	0	0	0	0	-0	0	0	0	-0.1265	0	-0	0	0	0	0	0	-0	0	0.105	0.015	0	0	-0	0	0	0.098	0.1	0	-0	0	0	0	0	0	-0	0	0.05595	0	0	0	-0	0	0	0	0	0	-0	0	575.245	566.682	339.432	220.325	-0.0718149	-0.95353	0.0335188	-0.0120676	2.5717
64	-0.059026	0.0217038	0.0184119	0.0335976	-0.00240243	0.0299609	0.0251333	-0.0301788	0.00261142	0.058272	-0.103444	0.0816525	0.051135	-0.00138182	0.0191786	-2.28645	-0.0162489	-1.5705	0	0	0	0	-0	0	0	0	-0.1265	0	-0	0	0	0	0	0	-0	0	0.105	0.015	0	0	-0	0	0	0.098	0.1	0	-0	0	0	0	0	0	-0	0	0.05595	0	0	0	-0	0	0	0	0	0	-0	0	575.36	566.866	340.036	220.728	-0.0758606	-0.918666	0.0336154	-0.0118832	2.48097
65	-0.0625255	0.0217164	0.0184147	0.0335974	-0.00240822	0.0299599	0.0251335	-0.0301768	0.00260638	0.0585637	-0.0969372	0.0777349	0.0512002	-0.00138183	0.018999	-2.29009	-0.0164187	-1.57059	0	0	0	0	-0	0	0	0	-0.1265	0	-0	0	0	0	0	0	-0	0	0.105	0.015	0	0	-0	0	0	0.098	0.1	0	-0	0	0	0	0	0	-0	0	0.05595	0	0	0	-0	0	0	0	0	0	-0	0	575.393	566.898	340.158	220.81	-0.0778456	-0.907306	0.0337264	-0.0118573	2.45906
66	-0.0703153	0.0217319	0.0184147	0.0335952	-0.00240947	0.0299609	0.0251325	-0.030184	0.00261353	0.0815134	-0.111997	0.0630489	0.0513443	-0.00138259	0.0186038	-2.29846	-0.0170698	-1.57104	0	0	0	0	-0	0	0	0	-0.1265	0	-0	0	0	0	0	0	-0	0	0.105	0.015	0	0	-0	0	0	0.098	0.1	0	-0	0	0	0	0	0	-0	0	0.05595	0	0	0	-0	0	0	0	0	0	-0	0	575.493	567.05	340.659	221.14	-0.080982	-0.878238	0.0337903	-0.0116994	2.38012
67	-0.0663019	0.0217454	0.0184159	0.0335969	-0.0024141	0.0299603	0.0251347	-0.0301773	0.00260714	0.0837466	-0.101598	0.0647907	0.0512675	-0.00138283	0.0188103	-2.29474	-0.0174054	-1.5714	0	0	0	0	-0	0	0	0	-0.1265	0	-0	0	0	0	0	0	-0	0	0.105	0.015	0	0	-0	0	0	0.098	0.1	0	-0	0	0	0	0	0	-0	0	0.05595	0	0	0	-0	0	0	0	0	0	-0	0	575.548	567.119	340.91	221.307	-0.0835916	-0.859026	0.0338971	-0.0116301	2.33405
68	-0.0660655	0.0217521	0.0184183	0.0335933	-0.00241606	0.0299605	0.0251338	-0.0301775	0.00260633	0.0817105	-0.105795	0.0691543	0.0512622	-0.00138293	0.018823	-2.29462	-0.0175432	-1.57153	0	0	0	0	-0	0	0	0	-0.1265	0	-0	0	0	0	0	0	-0	0	0.105	0.015	0	0	-0	0	0	0.098	0.1	0	-0	0	0	0	0	0	-0	0	0.05595	0	0	0	-0	0	0	0	0	0	-0	0	575.573	567.148	341.013	221.375	-0.0847403	-0.851033	0.033947	-0.0115998	2.31605
69	-0.0680969	0.0217653	0.0184176	0.0335931	-0.00241741	0.0299613	0.0251363	-0.0301802	0.0026062	0.0745532	-0.113302	0.0805379	0.0512976	-0.00138359	0.0187218	-2.29714	-0.0180972	-1.57198	0	0	0	0	-0	0	0	0	-0.1265	0	-0	0	0	0	0	0	-0	0	0.105	0.015	0	0	-0	0	0	0.098	0.1	0	-0	0	0	0	0	0	-0	0	0.05595	0	0	0	-0	0	0	0	0	0	-0	0	575.657	567.278	341.437	221.651	-0.0873832	-0.825963	0.0339907	-0.0114651	2.24743
70	-0.0825853	0.0217872	0.0184183	0.0335919	-0.00242092	0.029962	0.0251344	-0.0301785	0.00260726	0.0733111	-0.107283	0.0885156	0.051566	-0.00138446	0.0179813	-2.31234	-0.0189406	-1.57244	0	0	0	0	-0	0	0	0	-0.1265	0	-0	0	0	0	0	0	-0	0	0.105	0.015	0	0	-0	0	0	0.098	0.1	0	-0	0	0	0	0	0	-0	0	0.05595	0	0	0	-0	0	0	0	0	0	-0	0	575.772	567.464	342.065	222.054	-0.0913813	-0.790139	0.0340708	-0.0112674	2.15288
71	-0.0732377	0.0218048	0.0184211	0.0335915	-0.00242698	0.0299615	0.0251355	-0.0301804	0.00260681	0.0643017	-0.111422	0.0978959	0.0513916	-0.00138482	0.018463	-2.30334	-0.0193524	-1.57297	0	0	0	0	-0	0	0	0	-0.1265	0	-0	0	0	0	0	0	-0	0	0.105	0.015	0	0	-0	0	0	0.098	0.1	0	-0	0	0	0	0	0	-0	0	0.05595	0	0	0	-0	0	0	0	0	0	-0	0	575.841	567.552	342.379	222.258	-0.0944455	-0.767707	0.0341941	-0.0111778	2.09991
72	-0.068121	0.021818	0.0184223	0.0335905	-0.00242923	0.0299621	0.0251353	-0.0301838	0.00260308	0.0793512	-0.116662	0.110419	0.0512931	-0.00138531	0.0187271	-2.29862	-0.0198034	-1.57348	0	0	0	0	-0	0	0	0	-0.1265	0	-0	0	0	0	0	0	-0	0	0.105	0.015	0	0	-0	0	0	0.098	0.1	0	-0	0	0	0	0	0	-0	0	0.05595	0	0	0	-0	0	0	0	0	0	-0	0	575.912	567.651	342.731	222.484	-0.0970963	-0.744796	0.0342678	-0.0110668	2.04022
73	-0.0609258	0.0218298	0.0184241	0.0335901	-0.00243196	0.0299626	0.0251393	-0.0301812	0.00260934	0.0827418	-0.101573	0.12293	0.0511567	-0.00138566	0.0190972	-2.29172	-0.0201309	-1.57393	0	0	0	0	-0	0	0	0	-0.1265	0	-0	0	0	0	0	0	-0	0	0.105	0.015	0	0	-0	0	0	0.098	0.1	0	-0	0	0	0	0	0	-0	0	0.05595	0	0	0	-0	0	0	0	0	0	-0	0	575.966	567.725	342.995	222.653	-0.0992893	-0.727103	0.0343399	-0.010987	1.99572
74	-0.0655825	0.0218375	0.0184249	0.0335891	-0.00243362	0.0299627	0.0251353	-0.0301792	0.0026077	0.0806973	-0.0933686	0.131648	0.0512437	-0.0013859	0.0188591	-2.29659	-0.0204047	-1.57407	0	0	0	0	-0	0	0	0	-0.1265	0	-0	0	0	0	0	0	-0	0	0.105	0.015	0	0	-0	0	0	0.098	0.1	0	-0	0	0	0	0	0	-0	0	0.05595	0	0	0	-0	0	0	0	0	0	-0	0	576.006	567.783	343.194	222.78	-0.100934	-0.713086	0.0343797	-0.0109225	1.96039
75	-0.0669922	0.0218489	0.0184253	0.0335895	-0.00243613	0.029963	0.0251348	-0.0301783	0.00260758	0.0862134	-0.106044	0.127079	0.0512684	-0.00138637	0.018788	-2.29833	-0.0207988	-1.57438	0	0	0	0	-0	0	0	0	-0.1265	0	-0	0	0	0	0	0	-0	0	0.105	0.015	0	0	-0	0	0	0.098	0.1	0	-0	0	0	0	0	0	-0	0	0.05595	0	0	0	-0	0	0	0	0	0	-0	0	576.064	567.87	343.491	222.968	-0.103041	-0.694149	0.0344242	-0.0108288	1.91005
76	-0.0656693	0.0218561	0.0184269	0.0335891	-0.00243855	0.0299628	0.0251347	-0.0301785	0.00260633	0.0838686	-0.111377	0.12685	0.0512434	-0.00138651	0.0188561	-2.29714	-0.0209569	-1.57455	0	0	0	0	-0	0	0	0	-0.1265	0	-0	0	0	0	0	0	-0	0	0.105	0.015	0	0	-0	0	0	0.098	0.1	0	-0	0	0	0	0	0	-0	0	0.05595	0	0	0	-0	0	0	0	0	0	-0	0	576.09	567.905	343.612	223.045	-0.10432	-0.684886	0.0344728	-0.010794	1.88867
77	-0.0666652	0.0218622	0.0184273	0.0335889	-0.00243946	0.0299633	0.0251346	-0.0301796	0.00260537	0.077844	-0.107442	0.120252	0.0512614	-0.00138677	0.0188059	-2.29832	-0.0211799	-1.57473	0	0	0	0	-0	0	0	0	-0.1265	0	-0	0	0	0	0	0	-0	0	0.105	0.015	0	0	-0	0	0	0.098	0.1	0	-0	0	0	0	0	0	-0	0	0.05595	0	0	0	-0	0	0	0	0	0	-0	0	576.125	567.953	343.779	223.151	-0.105614	-0.673135	0.0345006	-0.0107401	1.85728
78	-0.0636436	0.0218711	0.0184277	0.0335891	-0.00244079	0.029964	0.0251343	-0.0301799	0.00260422	0.0666791	-0.0948542	0.11408	0.0512034	-0.00138715	0.0189619	-2.29557	-0.0214948	-1.57508	0	0	0	0	-0	0	0	0	-0.1265	0	-0	0	0	0	0	0	-0	0	0.105	0.015	0	0	-0	0	0	0.098	0.1	0	-0	0	0	0	0	0	-0	0	0.05595	0	0	0	-0	0	0	0	0	0	-0	0	576.173	568.028	344.029	223.309	-0.107335	-0.657288	0.0345305	-0.0106593	1.81501
79	-0.0630002	0.0218803	0.0184287	0.033589	-0.00244274	0.0299644	0.0251349	-0.0301807	0.00260624	0.077171	-0.093585	0.114365	0.0511904	-0.00138749	0.0189952	-2.29518	-0.0217929	-1.57536	0	0	0	0	-0	0	0	0	-0.1265	0	-0	0	0	0	0	0	-0	0	0.105	0.015	0	0	-0	0	0	0.098	0.1	0	-0	0	0	0	0	0	-0	0	0.05595	0	0	0	-0	0	0	0	0	0	-0	0	576.217	568.095	344.259	223.454	-0.109079	-0.642116	0.0345695	-0.0105866	1.77571
80	-0.0668627	0.021892	0.0184289	0.0335893	-0.00244451	0.029965	0.0251356	-0.0301803	0.00260603	0.0737545	-0.094608	0.105658	0.0512626	-0.00138801	0.0187985	-2.29942	-0.0222579	-1.57567	0	0	0	0	-0	0	0	0	-0.1265	0	-0	0	0	0	0	0	-0	0	0.105	0.015	0	0	-0	0	0	0.098	0.1	0	-0	0	0	0	0	0	-0	0	0.05595	0	0	0	-0	0	0	0	0	0	-0	0	576.279	568.198	344.601	223.668	-0.111286	-0.621242	0.0345966	-0.0104737	1.71987
81	-0.0640633	0.0218998	0.0184307	0.033589	-0.00244684	0.029965	0.0251361	-0.03018	0.00260531	0.0733315	-0.101552	0.114357	0.0512097	-0.00138818	0.0189418	-2.29677	-0.0224319	-1.5759	0	0	0	0	-0	0	0	0	-0.1265	0	-0	0	0	0	0	0	-0	0	0.105	0.015	0	0	-0	0	0	0.098	0.1	0	-0	0	0	0	0	0	-0	0	0.05595	0	0	0	-0	0	0	0	0	0	-0	0	576.308	568.238	344.741	223.757	-0.112734	-0.61044	0.0346442	-0.0104324	1.69472
82	-0.0642488	0.0219091	0.018431	0.0335887	-0.00244791	0.0299659	0.0251351	-0.0301847	0.00260802	0.0917854	-0.104229	0.106279	0.0512117	-0.00138864	0.0189334	-2.29727	-0.0228086	-1.57623	0	0	0	0	-0	0	0	0	-0.1265	0	-0	0	0	0	0	0	-0	0	0.105	0.015	0	0	-0	0	0	0.098	0.1	0	-0	0	0	0	0	0	-0	0	0.05595	0	0	0	-0	0	0	0	0	0	-0	0	576.362	568.322	345.029	223.937	-0.114537	-0.592862	0.0346687	-0.0103355	1.64676
83	-0.0583606	0.0219233	0.0184312	0.0335905	-0.00245006	0.0299668	0.0251364	-0.0301813	0.00260682	0.0899934	-0.102151	0.117917	0.0510993	-0.00138931	0.0192355	-2.29184	-0.0233338	-1.57685	0	0	0	0	-0	0	0	0	-0.1265	0	-0	0	0	0	0	0	-0	0	0.105	0.015	0	0	-0	0	0	0.098	0.1	0	-0	0	0	0	0	0	-0	0	0.05595	0	0	0	-0	0	0	0	0	0	-0	0	576.435	568.445	345.457	224.203	-0.117304	-0.566424	0.0347027	-0.0101943	1.57543
84	-0.0611066	0.0219307	0.018434	0.033589	-0.00245293	0.0299665	0.0251354	-0.0301796	0.0026056	0.0926908	-0.107261	0.12271	0.0511518	-0.00138938	0.0190943	-2.29468	-0.0234695	-1.5769	0	0	0	0	-0	0	0	0	-0.1265	0	-0	0	0	0	0	0	-0	0	0.105	0.015	0	0	-0	0	0	0.098	0.1	0	-0	0	0	0	0	0	-0	0	0.05595	0	0	0	-0	0	0	0	0	0	-0	0	576.455	568.47	345.546	224.259	-0.118552	-0.558547	0.0347556	-0.0101712	1.55977
85	-0.0523134	0.0219416	0.0184338	0.0335893	-0.00245391	0.0299676	0.025136	-0.0301803	0.0026054	0.0915074	-0.10256	0.114826	0.0509818	-0.00139001	0.0195458	-2.28628	-0.0238863	-1.57753	0	0	0	0	-0	0	0	0	-0.1265	0	-0	0	0	0	0	0	-0	0	0.105	0.015	0	0	-0	0	0	0.098	0.1	0	-0	0	0	0	0	0	-0	0	0.05595	0	0	0	-0	0	0	0	0	0	-0	0	576.523	568.577	345.91	224.485	-0.120644	-0.537219	0.0347731	-0.010046	1.50066
86	-0.0693706	0.0219597	0.0184346	0.0335899	-0.00245656	0.0299688	0.0251353	-0.0301842	0.00260844	0.10826	-0.108191	0.105641	0.0513118	-0.00139088	0.0186762	-2.30391	-0.0246973	-1.57775	0	0	0	0	-0	0	0	0	-0.1265	0	-0	0	0	0	0	0	-0	0	0.105	0.015	0	0	-0	0	0	0.098	0.1	0	-0	0	0	0	0	0	-0	0	0.05595	0	0	0	-0	0	0	0	0	0	-0	0	576.613	568.734	346.449	224.817	-0.123704	-0.507609	0.0347985	-0.00986466	1.4215
87	-0.0815835	0.0219863	0.0184351	0.0335926	-0.00246076	0.0299703	0.0251421	-0.0301899	0.00260964	0.0941578	-0.108315	0.128583	0.0515307	-0.00139216	0.0180476	-2.31696	-0.0258296	-1.57834	0	0	0	0	-0	0	0	0	-0.1265	0	-0	0	0	0	0	0	-0	0	0.105	0.015	0	0	-0	0	0	0.098	0.1	0	-0	0	0	0	0	0	-0	0	0.05595	0	0	0	-0	0	0	0	0	0	-0	0	576.743	568.965	347.239	225.301	-0.12818	-0.463867	0.0348294	-0.0095975	1.30406
88	-0.0841523	0.0220029	0.0184396	0.0335924	-0.00246407	0.0299713	0.0251426	-0.0301806	0.00260601	0.0984282	-0.0864265	0.125608	0.0515731	-0.00139272	0.0179138	-2.31995	-0.0263833	-1.57871	0	0	0	0	-0	0	0	0	-0.1265	0	-0	0	0	0	0	0	-0	0	0.105	0.015	0	0	-0	0	0	0.098	0.1	0	-0	0	0	0	0	0	-0	0	0.05595	0	0	0	-0	0	0	0	0	0	-0	0	576.82	569.071	347.632	225.546	-0.131629	-0.435924	0.0349286	-0.00946951	1.23639
89	-0.0742863	0.0220151	0.0184425	0.0335903	-0.00246648	0.0299722	0.0251374	-0.0301811	0.00260523	0.0990354	-0.0795248	0.118111	0.0513958	-0.00139323	0.0184228	-2.3104	-0.0266993	-1.57931	0	0	0	0	-0	0	0	0	-0.1265	0	-0	0	0	0	0	0	-0	0	0.105	0.015	0	0	-0	0	0	0.098	0.1	0	-0	0	0	0	0	0	-0	0	0.05595	0	0	0	-0	0	0	0	0	0	-0	0	576.879	569.154	347.928	225.73	-0.134039	-0.414727	0.0349774	-0.00936844	1.18253
90	-0.0743882	0.0220266	0.0184436	0.0335926	-0.00246909	0.029973	0.0251373	-0.0301818	0.00260617	0.0932453	-0.08357	0.112839	0.0513949	-0.00139375	0.0184167	-2.3108	-0.0270753	-1.57963	0	0	0	0	-0	0	0	0	-0.1265	0	-0	0	0	0	0	0	-0	0	0.105	0.015	0	0	-0	0	0	0.098	0.1	0	-0	0	0	0	0	0	-0	0	0.05595	0	0	0	-0	0	0	0	0	0	-0	0	576.933	569.237	348.212	225.906	-0.136272	-0.394457	0.0350164	-0.00927513	1.12925
91	-0.0815584	0.0220403	0.0184443	0.033594	-0.00247076	0.0299743	0.025138	-0.0301811	0.00260616	0.0969522	-0.0745249	0.111998	0.0515259	-0.0013945	0.0180488	-2.31842	-0.0276963	-1.57991	0	0	0	0	-0	0	0	0	-0.1265	0	-0	0	0	0	0	0	-0	0	0.105	0.015	0	0	-0	0	0	0.098	0.1	0	-0	0	0	0	0	0	-0	0	0.05595	0	0	0	-0	0	0	0	0	0	-0	0	577.007	569.359	348.633	226.166	-0.138858	-0.368944	0.0350371	-0.00912738	1.06078
92	-0.0835628	0.0220488	0.0184467	0.0335943	-0.00247302	0.0299747	0.0251387	-0.0301834	0.00260586	0.0942034	-0.0750194	0.0994189	0.0515611	-0.00139478	0.0179447	-2.32061	-0.0279492	-1.58005	0	0	0	0	-0	0	0	0	-0.1265	0	-0	0	0	0	0	0	-0	0	0.105	0.015	0	0	-0	0	0	0.098	0.1	0	-0	0	0	0	0	0	-0	0	0.05595	0	0	0	-0	0	0	0	0	0	-0	0	577.043	569.407	348.806	226.273	-0.140568	-0.355517	0.0350864	-0.00907283	1.02897
93	-0.0948665	0.0220595	0.018447	0.0335955	-0.00247369	0.0299763	0.0251399	-0.0301809	0.00260661	0.0930179	-0.0909096	0.0988642	0.0517633	-0.00139542	0.0173617	-2.33229	-0.0285235	-1.58013	0	0	0	0	-0	0	0	0	-0.1265	0	-0	0	0	0	0	0	-0	0	0.105	0.015	0	0	-0	0	0	0.098	0.1	0	-0	0	0	0	0	0	-0	0	0.05595	0	0	0	-0	0	0	0	0	0	-0	0	577.104	569.511	349.159	226.491	-0.142745	-0.332919	0.0350902	-0.00894673	0.96678
94	-0.0848446	0.0220763	0.018448	0.0335967	-0.00247577	0.0299781	0.0251411	-0.0301827	0.0026075	0.0979888	-0.0762835	0.104621	0.0515856	-0.00139636	0.0178786	-2.32281	-0.0291279	-1.58099	0	0	0	0	-0	0	0	0	-0.1265	0	-0	0	0	0	0	0	-0	0	0.105	0.015	0	0	-0	0	0	0.098	0.1	0	-0	0	0	0	0	0	-0	0	0.05595	0	0	0	-0	0	0	0	0	0	-0	0	577.189	569.663	349.68	226.811	-0.145772	-0.302154	0.0350929	-0.0087615	0.883874
95	-0.0938445	0.0220874	0.0184508	0.0335978	-0.00247804	0.0299789	0.0251376	-0.0301815	0.0026062	0.0959802	-0.0798926	0.102898	0.0517445	-0.00139682	0.0174124	-2.33209	-0.0295665	-1.58103	0	0	0	0	-0	0	0	0	-0.1265	0	-0	0	0	0	0	0	-0	0	0.105	0.015	0	0	-0	0	0	0.098	0.1	0	-0	0	0	0	0	0	-0	0	0.05595	0	0	0	-0	0	0	0	0	0	-0	0	577.238	569.737	349.939	226.972	-0.14812	-0.282489	0.0351438	-0.00867571	0.835658
96	-0.096996	0.0220932	0.0184524	0.0335988	-0.00247991	0.029979	0.0251376	-0.0301819	0.00260586	0.0923199	-0.0777722	0.098271	0.0517975	-0.00139702	0.0172484	-2.33535	-0.029746	-1.58105	0	0	0	0	-0	0	0	0	-0.1265	0	-0	0	0	0	0	0	-0	0	0.105	0.015	0	0	-0	0	0	0.098	0.1	0	-0	0	0	0	0	0	-0	0	0.05595	0	0	0	-0	0	0	0	0	0	-0	0	577.261	569.766	350.046	227.039	-0.149269	-0.273528	0.0351799	-0.00864289	0.814243
97	-0.0941222	0.0221055	0.0184521	0.0336005	-0.00248045	0.0299809	0.0251398	-0.0301858	0.0026026	0.0824158	-0.069387	0.0834159	0.0517466	-0.00139787	0.0173974	-2.33293	-0.0302976	-1.58161	0	0	0	0	-0	0	0	0	-0.1265	0	-0	0	0	0	0	0	-0	0	0.105	0.015	0	0	-0	0	0	0.098	0.1	0	-0	0	0	0	0	0	-0	0	0.05595	0	0	0	-0	0	0	0	0	0	-0	0	577.335	569.896	350.48	227.306	-0.151547	-0.248333	0.0351641	-0.00848312	0.743896
98	-0.0823094	0.0221254	0.0184537	0.0336029	-0.00248214	0.0299837	0.0251415	-0.0301869	0.00260616	0.0708068	-0.0761531	0.0723861	0.0515408	-0.00139906	0.0180071	-2.32178	-0.0310168	-1.58268	0	0	0	0	-0	0	0	0	-0.1265	0	-0	0	0	0	0	0	-0	0	0.105	0.015	0	0	-0	0	0	0.098	0.1	0	-0	0	0	0	0	0	-0	0	0.05595	0	0	0	-0	0	0	0	0	0	-0	0	577.436	570.08	351.116	227.696	-0.155106	-0.211696	0.0351593	-0.00825427	0.645127
99	-0.0865871	0.0221382	0.018457	0.0336048	-0.00248476	0.0299847	0.0251435	-0.0301891	0.00260848	0.0793888	-0.0764887	0.0517764	0.0516149	-0.00139965	0.0177842	-2.32639	-0.031488	-1.58291	0	0	0	0	-0	0	0	0	-0.1265	0	-0	0	0	0	0	0	-0	0	0.105	0.015	0	0	-0	0	0	0.098	0.1	0	-0	0	0	0	0	0	-0	0	0.05595	0	0	0	-0	0	0	0	0	0	-0	0	577.496	570.168	351.431	227.893	-0.157851	-0.188474	0.0352182	-0.00814698	0.588367
100	-0.0808881	0.0221463	0.0184585	0.0336062	-0.00248557	0.0299858	0.0251386	-0.0301822	0.00260603	0.0822955	-0.0816435	0.0546021	0.0515131	-0.00140011	0.0180777	-2.32094	-0.0317359	-1.58335	0	0	0	0	-0	0	0	0	-0.1265	0	-0	0	0	0	0	0	-0	0	0.105	0.015	0	0	-0	0	0	0.098	0.1	0	-0	0	0	0	0	0	-0	0	0.05595	0	0	0	-0	0	0	0	0	0	-0	0	577.542	570.237	351.667	228.041	-0.159709	-0.171303	0.035244	-0.00806168	0.54439
