Stefan210/kinematic_calibration/src/kinematic_calibration/validation/experiments/experiments/impact_noise/outlier/larm_randomize_19_measurements_rk_true/optimization_intermediate_results.csv
iteration	HeadPitch_offset	HeadYaw_offset	LElbowRoll_offset	LElbowYaw_offset	LShoulderPitch_offset	LShoulderRoll_offset	marker_transform_larm_tx	marker_transform_larm_ty	marker_transform_larm_tz	marker_transform_larm_rr	marker_transform_larm_rp	marker_transform_larm_ry	camera_transform_tx	camera_transform_ty	camera_transform_tz	camera_transform_rr	camera_transform_rp	camera_transform_ry	HeadPitch_transform_tx	HeadPitch_transform_ty	HeadPitch_transform_tz	HeadPitch_transform_rr	HeadPitch_transform_rp	HeadPitch_transform_ry	HeadYaw_transform_tx	HeadYaw_transform_ty	HeadYaw_transform_tz	HeadYaw_transform_rr	HeadYaw_transform_rp	HeadYaw_transform_ry	LElbowRoll_transform_tx	LElbowRoll_transform_ty	LElbowRoll_transform_tz	LElbowRoll_transform_rr	LElbowRoll_transform_rp	LElbowRoll_transform_ry	LElbowYaw_transform_tx	LElbowYaw_transform_ty	LElbowYaw_transform_tz	LElbowYaw_transform_rr	LElbowYaw_transform_rp	LElbowYaw_transform_ry	LShoulderPitch_transform_tx	LShoulderPitch_transform_ty	LShoulderPitch_transform_tz	LShoulderPitch_transform_rr	LShoulderPitch_transform_rp	LShoulderPitch_transform_ry	LShoulderRoll_transform_tx	LShoulderRoll_transform_ty	LShoulderRoll_transform_tz	LShoulderRoll_transform_rr	LShoulderRoll_transform_rp	LShoulderRoll_transform_ry	LWristYaw_transform_tx	LWristYaw_transform_ty	LWristYaw_transform_tz	LWristYaw_transform_rr	LWristYaw_transform_rp	LWristYaw_transform_ry	l_wrist_joint_transform_tx	l_wrist_joint_transform_ty	l_wrist_joint_transform_tz	l_wrist_joint_transform_rr	l_wrist_joint_transform_rp	l_wrist_joint_transform_ry	camera_fx	camera_fy	camera_cx	camera_cy	camera_D0	camera_D1	camera_D2	camera_D3	camera_D4	
0	0.0249164	-0.0307543	0.000853157	4.65819e-06	-0.000318322	-0.00310766	0.05071	0	0.01774	-2.26369	1.66533e-16	-1.5708	545.901	551.038	324.928	201.58	0.0255298	2.61142	-0.0636736	-0.0350419	0.213964
1	-0.0172269	0.0224211	0.0704599	0.089979	0.0532392	0.0119577	0.0292524	-0.0336278	0.00772615	-0.000823829	-0.000986058	-0.00286139	0.0479408	-0.0052065	0.0144384	-2.19452	0.0138539	-1.60393	0	0	0	0	-0	0	0	0	-0.1265	0	-0	0	0	0	0	0	-0	0	0.105	0.015	0	0	-0	0	0	0.098	0.1	0	-0	0	0	0	0	0	-0	0	0.05595	0	0	0	-0	0	0	0	0	0	-0	0	545.901	551.038	324.928	201.58	0.0329428	2.61416	-0.0602866	0.00748546	0.214449
2	-0.0195461	0.0176967	0.042141	0.0582021	0.0121711	0.0258815	0.0270815	-0.0311512	0.00453658	-0.000480042	-0.000681156	-0.00286687	0.0525452	-0.00313493	0.0139339	-2.18476	0.00494549	-1.5621	0	0	0	0	-0	0	0	0	-0.1265	0	-0	0	0	0	0	0	-0	0	0.105	0.015	0	0	-0	0	0	0.098	0.1	0	-0	0	0	0	0	0	-0	0	0.05595	0	0	0	-0	0	0	0	0	0	-0	0	545.91	551.038	324.925	201.592	-0.289561	2.40456	-0.0415531	-0.00267884	0.155706
3	-0.0185551	0.0232168	0.0325329	0.0521035	-0.000246531	0.0293273	0.0260896	-0.0305648	0.00398086	-0.000430057	-0.000656506	-0.00295423	0.0542796	-0.00180199	0.0143444	-2.18866	-0.000898159	-1.56216	0	0	0	0	-0	0	0	0	-0.1265	0	-0	0	0	0	0	0	-0	0	0.105	0.015	0	0	-0	0	0	0.098	0.1	0	-0	0	0	0	0	0	-0	0	0.05595	0	0	0	-0	0	0	0	0	0	-0	0	545.949	551.032	324.918	201.623	-0.391211	1.83713	-0.0117932	-0.00988622	-0.0402154
4	-0.0177574	0.0197006	0.0264352	0.0526836	0.000271439	0.0327319	0.0256776	-0.0303093	0.00404366	-0.000542315	-0.000606301	-0.00307058	0.0542179	-0.00141275	0.0148267	-2.19195	0.00239126	-1.55424	0	0	0	0	-0	0	0	0	-0.1265	0	-0	0	0	0	0	0	-0	0	0.105	0.015	0	0	-0	0	0	0.098	0.1	0	-0	0	0	0	0	0	-0	0	0.05595	0	0	0	-0	0	0	0	0	0	-0	0	546.034	551.014	324.918	201.662	-0.17486	0.898685	-0.0146817	-0.0104636	-0.379394
5	-0.0170707	0.0171153	0.0233462	0.0522956	0.00179901	0.034738	0.0255172	-0.0301934	0.00405053	-0.000607384	-0.000450795	-0.00298644	0.0537841	-0.00120774	0.015504	-2.19431	0.00467439	-1.54977	0	0	0	0	-0	0	0	0	-0.1265	0	-0	0	0	0	0	0	-0	0	0.105	0.015	0	0	-0	0	0	0.098	0.1	0	-0	0	0	0	0	0	-0	0	0.05595	0	0	0	-0	0	0	0	0	0	-0	0	546.212	550.972	324.935	201.689	0.0307875	0.148272	-0.0199421	-0.0105221	-0.591842
6	-0.0171272	0.0160058	0.0221234	0.0517309	0.00254197	0.0351784	0.0254697	-0.0301448	0.00403671	-0.000735674	-0.000109587	-0.0024283	0.0535983	-0.00116333	0.0158425	-2.19615	0.00559778	-1.54786	0	0	0	0	-0	0	0	0	-0.1265	0	-0	0	0	0	0	0	-0	0	0.105	0.015	0	0	-0	0	0	0.098	0.1	0	-0	0	0	0	0	0	-0	0	0.05595	0	0	0	-0	0	0	0	0	0	-0	0	546.71	550.856	324.936	201.749	0.112058	-0.247537	-0.0203751	-0.0112425	-0.415927
7	-0.0165711	0.0158822	0.0215789	0.0513855	0.00277156	0.0351549	0.0254553	-0.0301149	0.00402712	-0.000756371	0.00238603	-0.00409143	0.0533075	-0.0011869	0.0162716	-2.19701	0.00589507	-1.54716	0	0	0	0	-0	0	0	0	-0.1265	0	-0	0	0	0	0	0	-0	0	0.105	0.015	0	0	-0	0	0	0.098	0.1	0	-0	0	0	0	0	0	-0	0	0.05595	0	0	0	-0	0	0	0	0	0	-0	0	548.037	550.579	324.858	201.921	0.152647	-0.647778	-0.0172606	-0.0118245	0.413416
8	-0.0138719	0.0160763	0.0212409	0.0513136	0.00281294	0.0350902	0.0254458	-0.0300937	0.0040443	0.0012443	0.00535948	-0.00934521	0.0526376	-0.00124875	0.0171936	-2.19656	0.00626655	-1.54646	0	0	0	0	-0	0	0	0	-0.1265	0	-0	0	0	0	0	0	-0	0	0.105	0.015	0	0	-0	0	0	0.098	0.1	0	-0	0	0	0	0	0	-0	0	0.05595	0	0	0	-0	0	0	0	0	0	-0	0	551.024	550.22	324.572	202.363	0.200564	-1.35056	-0.00951733	-0.0124513	2.33749
9	-0.016506	0.0164081	0.0209817	0.0515674	0.00275129	0.0350593	0.0254348	-0.0300783	0.00409541	0.0011792	-0.00322398	-0.0165312	0.0517258	-0.00134434	0.0182118	-2.20319	0.00745438	-1.54511	0	0	0	0	-0	0	0	0	-0.1265	0	-0	0	0	0	0	0	-0	0	0.105	0.015	0	0	-0	0	0	0.098	0.1	0	-0	0	0	0	0	0	-0	0	0.05595	0	0	0	-0	0	0	0	0	0	-0	0	555.969	550.973	323.738	203.426	0.259097	-2.33235	0.000882741	-0.0133476	5.32279
10	-0.00849466	0.0167658	0.0208365	0.0520124	0.00262179	0.0351025	0.0254391	-0.0300857	0.00414787	-0.00679172	-0.0134403	-0.0462677	0.0510523	-0.00141183	0.0192686	-2.19786	0.00822781	-1.54414	0	0	0	0	-0	0	0	0	-0.1265	0	-0	0	0	0	0	0	-0	0	0.105	0.015	0	0	-0	0	0	0.098	0.1	0	-0	0	0	0	0	0	-0	0	0.05595	0	0	0	-0	0	0	0	0	0	-0	0	559.111	552.34	322.992	204.325	0.285725	-2.88284	0.00548405	-0.013856	7.28659
11	-0.024698	0.0170411	0.020741	0.0522002	0.00256818	0.0351678	0.0254327	-0.0300725	0.00418507	-0.0223927	0.021404	-0.0283392	0.0509515	-0.00145419	0.018881	-2.21742	0.0100142	-1.54298	0	0	0	0	-0	0	0	0	-0.1265	0	-0	0	0	0	0	0	-0	0	0.105	0.015	0	0	-0	0	0	0.098	0.1	0	-0	0	0	0	0	0	-0	0	0.05595	0	0	0	-0	0	0	0	0	0	-0	0	561.96	554.732	321.916	205.754	0.301415	-3.25751	0.00733599	-0.0143462	8.80911
12	-0.0294344	0.0171933	0.0208211	0.0526484	0.00252105	0.0352342	0.0254322	-0.030083	0.00422062	0.00182317	0.0201991	-0.0431656	0.0508368	-0.00151027	0.0188859	-2.22452	0.0110875	-1.54218	0	0	0	0	-0	0	0	0	-0.1265	0	-0	0	0	0	0	0	-0	0	0.105	0.015	0	0	-0	0	0	0.098	0.1	0	-0	0	0	0	0	0	-0	0	0.05595	0	0	0	-0	0	0	0	0	0	-0	0	563.585	556.617	321.251	206.816	0.318123	-3.49558	0.00669733	-0.014696	9.80084
13	-0.0467321	0.0173725	0.020757	0.0528372	0.0024449	0.0352465	0.0254364	-0.0300778	0.00424516	0.0144488	-0.00719666	-0.0678461	0.0509646	-0.00153811	0.0182232	-2.24522	0.0128646	-1.54115	0	0	0	0	-0	0	0	0	-0.1265	0	-0	0	0	0	0	0	-0	0	0.105	0.015	0	0	-0	0	0	0.098	0.1	0	-0	0	0	0	0	0	-0	0	0.05595	0	0	0	-0	0	0	0	0	0	-0	0	565.476	559.174	320.214	208.452	0.326469	-3.68846	0.00590504	-0.0152488	10.764
14	-0.0501623	0.0173313	0.0208125	0.0529436	0.00250052	0.0353117	0.0254323	-0.0300732	0.00423963	0.016204	-0.0155513	-0.0565707	0.0509997	-0.0015516	0.0180805	-2.24931	0.0133068	-1.54087	0	0	0	0	-0	0	0	0	-0.1265	0	-0	0	0	0	0	0	-0	0	0.105	0.015	0	0	-0	0	0	0.098	0.1	0	-0	0	0	0	0	0	-0	0	0.05595	0	0	0	-0	0	0	0	0	0	-0	0	565.794	559.749	320.014	208.774	0.3327	-3.73617	0.00497587	-0.0152906	10.9873
15	-0.0427428	0.0174924	0.0206619	0.0529212	0.00242033	0.0352542	0.0254311	-0.0300776	0.00423365	-0.0021555	-0.0394965	-0.0457901	0.0507587	-0.00154714	0.0185606	-2.24459	0.0141061	-1.53983	0	0	0	0	-0	0	0	0	-0.1265	0	-0	0	0	0	0	0	-0	0	0.105	0.015	0	0	-0	0	0	0.098	0.1	0	-0	0	0	0	0	0	-0	0	0.05595	0	0	0	-0	0	0	0	0	0	-0	0	567.044	561.694	319.101	210.144	0.332358	-3.8195	0.00423942	-0.0156996	11.5681
16	-0.0640366	0.0174746	0.0206841	0.0528887	0.00250991	0.0353357	0.0254188	-0.0300692	0.00423025	-0.00340152	-0.0358631	-0.051339	0.0511156	-0.00154929	0.0175112	-2.26721	0.0153979	-1.53956	0	0	0	0	-0	0	0	0	-0.1265	0	-0	0	0	0	0	0	-0	0	0.105	0.015	0	0	-0	0	0	0.098	0.1	0	-0	0	0	0	0	0	-0	0	0.05595	0	0	0	-0	0	0	0	0	0	-0	0	567.574	562.67	318.638	210.82	0.335955	-3.85671	0.00321225	-0.0157815	11.8368
17	-0.0662629	0.0176544	0.02055	0.0528481	0.0024047	0.0352743	0.0254098	-0.030062	0.00422332	-0.0104922	-0.01337	-0.049585	0.0510862	-0.00153815	0.0174457	-2.27133	0.0162445	-1.53895	0	0	0	0	-0	0	0	0	-0.1265	0	-0	0	0	0	0	0	-0	0	0.105	0.015	0	0	-0	0	0	0.098	0.1	0	-0	0	0	0	0	0	-0	0	0.05595	0	0	0	-0	0	0	0	0	0	-0	0	568.378	563.948	317.902	211.827	0.331158	-3.87172	0.00277428	-0.0160957	12.1417
18	-0.0674894	0.0176659	0.0205585	0.0529438	0.00239437	0.0352549	0.0254094	-0.0300668	0.00422883	-0.012274	-0.0182588	-0.0334749	0.0510902	-0.0015437	0.0174051	-2.27335	0.016638	-1.53866	0	0	0	0	-0	0	0	0	-0.1265	0	-0	0	0	0	0	0	-0	0	0.105	0.015	0	0	-0	0	0	0.098	0.1	0	-0	0	0	0	0	0	-0	0	0.05595	0	0	0	-0	0	0	0	0	0	-0	0	568.655	564.48	317.624	212.227	0.333575	-3.89289	0.00215594	-0.0161888	12.2885
19	-0.0810057	0.0176939	0.0205489	0.0529834	0.00239585	0.0352558	0.0254067	-0.0300662	0.00423224	-0.00656745	-0.0111416	-0.0247204	0.0513031	-0.00154622	0.016737	-2.2879	0.017564	-1.53846	0	0	0	0	-0	0	0	0	-0.1265	0	-0	0	0	0	0	0	-0	0	0.105	0.015	0	0	-0	0	0	0.098	0.1	0	-0	0	0	0	0	0	-0	0	0.05595	0	0	0	-0	0	0	0	0	0	-0	0	569.036	565.156	317.234	212.771	0.334098	-3.91313	0.00161481	-0.0163405	12.4778
20	-0.0586375	0.0177716	0.0205042	0.0530104	0.00237251	0.0352491	0.025408	-0.0300707	0.00423402	-0.00760628	-0.0182938	-0.0468417	0.0508905	-0.0015464	0.0179173	-2.26705	0.0175443	-1.53748	0	0	0	0	-0	0	0	0	-0.1265	0	-0	0	0	0	0	0	-0	0	0.105	0.015	0	0	-0	0	0	0.098	0.1	0	-0	0	0	0	0	0	-0	0	0.05595	0	0	0	-0	0	0	0	0	0	-0	0	569.595	566.059	316.647	213.572	0.332719	-3.93438	0.00112312	-0.016591	12.7402
21	-0.073178	0.0178812	0.0204379	0.0530261	0.00237957	0.0352909	0.0254052	-0.0300746	0.00423613	-0.0221227	-0.0166684	-0.0231734	0.0510733	-0.00154678	0.0172317	-2.28477	0.0196211	-1.53632	0	0	0	0	-0	0	0	0	-0.1265	0	-0	0	0	0	0	0	-0	0	0.105	0.015	0	0	-0	0	0	0.098	0.1	0	-0	0	0	0	0	0	-0	0	0.05595	0	0	0	-0	0	0	0	0	0	-0	0	570.703	567.732	315.352	215.292	0.328074	-3.96343	0.000410037	-0.0171625	13.249
22	-0.054242	0.0179644	0.0203958	0.0532617	0.00238863	0.0353048	0.025406	-0.0300735	0.00425922	-0.0335296	-0.000448142	0.000314318	0.050674	-0.00156079	0.0182696	-2.27026	0.0211327	-1.53401	0	0	0	0	-0	0	0	0	-0.1265	0	-0	0	0	0	0	0	-0	0	0.105	0.015	0	0	-0	0	0	0.098	0.1	0	-0	0	0	0	0	0	-0	0	0.05595	0	0	0	-0	0	0	0	0	0	-0	0	571.987	569.758	313.642	217.686	0.330367	-4.07226	-0.000787651	-0.0179751	14.1611
23	-0.0530479	0.0179843	0.0203835	0.0533212	0.00239756	0.035346	0.0253989	-0.030067	0.00425503	-0.0385583	-0.00801942	-0.00244502	0.050632	-0.0015589	0.018337	-2.26961	0.0213778	-1.53374	0	0	0	0	-0	0	0	0	-0.1265	0	-0	0	0	0	0	0	-0	0	0.105	0.015	0	0	-0	0	0	0.098	0.1	0	-0	0	0	0	0	0	-0	0	0.05595	0	0	0	-0	0	0	0	0	0	-0	0	572.075	570.082	313.404	217.986	0.33722	-4.10138	-0.00165534	-0.0179665	14.307
24	-0.0436915	0.0180713	0.0203383	0.053368	0.00233336	0.0352914	0.0253947	-0.0300631	0.00425645	-0.0386063	0.00570512	-0.000606735	0.0504503	-0.00155557	0.0188174	-2.26098	0.0213836	-1.53326	0	0	0	0	-0	0	0	0	-0.1265	0	-0	0	0	0	0	0	-0	0	0.105	0.015	0	0	-0	0	0	0.098	0.1	0	-0	0	0	0	0	0	-0	0	0.05595	0	0	0	-0	0	0	0	0	0	-0	0	572.252	570.453	313.061	218.391	0.338398	-4.12877	-0.00196804	-0.0181155	14.5093
25	-0.0354919	0.0181431	0.0203037	0.0533942	0.00229517	0.0352682	0.0253906	-0.0300616	0.00425515	-0.0370971	-0.00312268	0.00544376	0.0502777	-0.00155483	0.0192445	-2.25384	0.0216581	-1.53258	0	0	0	0	-0	0	0	0	-0.1265	0	-0	0	0	0	0	0	-0	0	0.105	0.015	0	0	-0	0	0	0.098	0.1	0	-0	0	0	0	0	0	-0	0	0.05595	0	0	0	-0	0	0	0	0	0	-0	0	572.53	570.937	312.555	218.979	0.340408	-4.17161	-0.00230326	-0.0183489	14.8073
26	-0.0250694	0.0181907	0.0202841	0.0533843	0.00227036	0.035256	0.0253879	-0.0300607	0.0042541	-0.0366858	0.00627966	0.00571404	0.0500662	-0.00155208	0.0197758	-2.24384	0.0214853	-1.53217	0	0	0	0	-0	0	0	0	-0.1265	0	-0	0	0	0	0	0	-0	0	0.105	0.015	0	0	-0	0	0	0.098	0.1	0	-0	0	0	0	0	0	-0	0	0.05595	0	0	0	-0	0	0	0	0	0	-0	0	572.631	571.132	312.344	219.212	0.342295	-4.19142	-0.00251299	-0.0184231	14.9279
27	-0.0276955	0.0182649	0.0202476	0.0534284	0.00223607	0.0352398	0.0253946	-0.0300641	0.00425055	-0.0373391	0.027718	-0.0134554	0.0500918	-0.0015536	0.0196647	-2.24803	0.0225089	-1.53135	0	0	0	0	-0	0	0	0	-0.1265	0	-0	0	0	0	0	0	-0	0	0.105	0.015	0	0	-0	0	0	0.098	0.1	0	-0	0	0	0	0	0	-0	0	0.05595	0	0	0	-0	0	0	0	0	0	-0	0	573.047	571.744	311.556	220.088	0.344173	-4.25655	-0.00274669	-0.0188327	15.3922
28	-0.0371506	0.0182365	0.0202643	0.0534193	0.00229382	0.0352967	0.0253873	-0.0300623	0.00425549	-0.044798	0.0273953	-0.0160551	0.0502703	-0.00155355	0.0191958	-2.25822	0.0233966	-1.53106	0	0	0	0	-0	0	0	0	-0.1265	0	-0	0	0	0	0	0	-0	0	0.105	0.015	0	0	-0	0	0	0.098	0.1	0	-0	0	0	0	0	0	-0	0	0.05595	0	0	0	-0	0	0	0	0	0	-0	0	573.182	572.07	311.168	220.499	0.349694	-4.29927	-0.00333438	-0.018951	15.6272
29	-0.0351462	0.0183075	0.0202249	0.0534556	0.00223347	0.035268	0.0253834	-0.030061	0.00425737	-0.0499115	0.0254357	-0.0214051	0.0502221	-0.00155045	0.0193034	-2.25649	0.0234705	-1.53092	0	0	0	0	-0	0	0	0	-0.1265	0	-0	0	0	0	0	0	-0	0	0.105	0.015	0	0	-0	0	0	0.098	0.1	0	-0	0	0	0	0	0	-0	0	0.05595	0	0	0	-0	0	0	0	0	0	-0	0	573.245	572.192	311	220.663	0.350935	-4.31558	-0.00343729	-0.0190307	15.7243
30	-0.0324636	0.0183697	0.0201902	0.0535219	0.00219524	0.0352433	0.0253859	-0.0300579	0.00425826	-0.035864	-0.00242036	-0.0111685	0.0501546	-0.00155235	0.019454	-2.25496	0.0241173	-1.53016	0	0	0	0	-0	0	0	0	-0.1265	0	-0	0	0	0	0	0	-0	0	0.105	0.015	0	0	-0	0	0	0.098	0.1	0	-0	0	0	0	0	0	-0	0	0.05595	0	0	0	-0	0	0	0	0	0	-0	0	573.523	572.6	310.36	221.308	0.354093	-4.3825	-0.00363809	-0.0193845	16.1377
31	-0.0193898	0.0183837	0.0201802	0.0535201	0.00220192	0.0352583	0.0253845	-0.030065	0.00426292	-0.0199535	0.00460014	-0.0211315	0.0498931	-0.00155117	0.0201155	-2.24243	0.0239722	-1.52948	0	0	0	0	-0	0	0	0	-0.1265	0	-0	0	0	0	0	0	-0	0	0.105	0.015	0	0	-0	0	0	0.098	0.1	0	-0	0	0	0	0	0	-0	0	0.05595	0	0	0	-0	0	0	0	0	0	-0	0	573.619	572.81	310.042	221.613	0.358526	-4.42304	-0.00399207	-0.0195055	16.3454
32	-0.0165733	0.018406	0.0201766	0.0535295	0.00219837	0.0352812	0.0253813	-0.0300617	0.00426424	-0.0279261	0.00932912	-0.0131019	0.0498265	-0.00155069	0.02026	-2.24	0.0241491	-1.52914	0	0	0	0	-0	0	0	0	-0.1265	0	-0	0	0	0	0	0	-0	0	0.105	0.015	0	0	-0	0	0	0.098	0.1	0	-0	0	0	0	0	0	-0	0	0.05595	0	0	0	-0	0	0	0	0	0	-0	0	573.686	572.96	309.794	221.835	0.361721	-4.4528	-0.00423323	-0.0196148	16.5
33	-0.0225169	0.0184812	0.0201233	0.0536311	0.00214722	0.0352476	0.0253805	-0.0300677	0.004267	-0.0472535	0.00802216	-0.0293914	0.049928	-0.00155324	0.0199815	-2.24757	0.0255505	-1.52815	0	0	0	0	-0	0	0	0	-0.1265	0	-0	0	0	0	0	0	-0	0	0.105	0.015	0	0	-0	0	0	0.098	0.1	0	-0	0	0	0	0	0	-0	0	0.05595	0	0	0	-0	0	0	0	0	0	-0	0	574.03	573.435	308.805	222.762	0.368265	-4.57864	-0.00442138	-0.0201773	17.2166
34	-0.0197581	0.0184936	0.0201184	0.0535859	0.00216036	0.0352726	0.0253767	-0.0300606	0.00426535	-0.0544585	0.010114	-0.0340313	0.0498647	-0.00154941	0.020126	-2.24501	0.025605	-1.52794	0	0	0	0	-0	0	0	0	-0.1265	0	-0	0	0	0	0	0	-0	0	0.105	0.015	0	0	-0	0	0	0.098	0.1	0	-0	0	0	0	0	0	-0	0	0.05595	0	0	0	-0	0	0	0	0	0	-0	0	574.042	573.522	308.663	222.878	0.37343	-4.60636	-0.00479213	-0.0201997	17.3123
35	-0.0190424	0.0185459	0.0200871	0.0536256	0.00211367	0.0352484	0.0253754	-0.0300589	0.00426784	-0.0538292	0.00801888	-0.0240293	0.0498469	-0.00154777	0.0201646	-2.24456	0.0257798	-1.52776	0	0	0	0	-0	0	0	0	-0.1265	0	-0	0	0	0	0	0	-0	0	0.105	0.015	0	0	-0	0	0	0.098	0.1	0	-0	0	0	0	0	0	-0	0	0.05595	0	0	0	-0	0	0	0	0	0	-0	0	574.077	573.621	308.465	223.035	0.375892	-4.63471	-0.00494779	-0.0203033	17.4511
36	-0.00958042	0.018599	0.0200535	0.0536783	0.00208071	0.0352323	0.0253747	-0.0300629	0.00427045	-0.0369769	0.0113911	-0.0129227	0.0496468	-0.00154913	0.0206449	-2.23626	0.026317	-1.52658	0	0	0	0	-0	0	0	0	-0.1265	0	-0	0	0	0	0	0	-0	0	0.105	0.015	0	0	-0	0	0	0.098	0.1	0	-0	0	0	0	0	0	-0	0	0.05595	0	0	0	-0	0	0	0	0	0	-0	0	574.276	573.931	307.659	223.7	0.383622	-4.75405	-0.00519301	-0.0207525	18.0774
37	-0.0173299	0.0186159	0.0200494	0.0536445	0.00208411	0.0352549	0.0253722	-0.0300573	0.00426877	-0.0361105	0.0138814	-0.0156975	0.0497979	-0.00154609	0.0202658	-2.24414	0.0267925	-1.52667	0	0	0	0	-0	0	0	0	-0.1265	0	-0	0	0	0	0	0	-0	0	0.105	0.015	0	0	-0	0	0	0.098	0.1	0	-0	0	0	0	0	0	-0	0	0.05595	0	0	0	-0	0	0	0	0	0	-0	0	574.279	573.988	307.541	223.784	0.388035	-4.77839	-0.00547349	-0.0207762	18.1581
38	-0.00510754	0.0186711	0.0200148	0.0536857	0.00203765	0.0352324	0.0253742	-0.0300565	0.00427522	-0.0400699	0.0314407	-0.00494066	0.0495454	-0.00154495	0.0208765	-2.23249	0.0267775	-1.52585	0	0	0	0	-0	0	0	0	-0.1265	0	-0	0	0	0	0	0	-0	0	0.105	0.015	0	0	-0	0	0	0.098	0.1	0	-0	0	0	0	0	0	-0	0	0.05595	0	0	0	-0	0	0	0	0	0	-0	0	574.354	574.146	307.073	224.119	0.39314	-4.84785	-0.00568139	-0.0210356	18.5078
39	-0.000590054	0.0186721	0.020007	0.0537283	0.00204286	0.0352591	0.0253726	-0.0300563	0.00427592	-0.046436	0.0235758	-0.00234568	0.0494454	-0.00154578	0.0211027	-2.22825	0.0268608	-1.52543	0	0	0	0	-0	0	0	0	-0.1265	0	-0	0	0	0	0	0	-0	0	0.105	0.015	0	0	-0	0	0	0.098	0.1	0	-0	0	0	0	0	0	-0	0	0.05595	0	0	0	-0	0	0	0	0	0	-0	0	574.363	574.232	306.842	224.276	0.398769	-4.8921	-0.00603059	-0.0211379	18.6844
40	-0.000266277	0.018705	0.0199855	0.0537458	0.00201855	0.0352473	0.025373	-0.0300553	0.00427547	-0.0444334	0.0379535	-0.00930186	0.0494365	-0.00154448	0.0211192	-2.22831	0.0272353	-1.52503	0	0	0	0	-0	0	0	0	-0.1265	0	-0	0	0	0	0	0	-0	0	0.105	0.015	0	0	-0	0	0	0.098	0.1	0	-0	0	0	0	0	0	-0	0	0.05595	0	0	0	-0	0	0	0	0	0	-0	0	574.396	574.331	306.495	224.502	0.40366	-4.94987	-0.00624102	-0.0213282	18.9534
41	0.00498986	0.0187242	0.019976	0.0537482	0.00201294	0.0352538	0.0253707	-0.0300557	0.00427655	-0.0513188	0.0306138	-0.0144876	0.0493232	-0.00154312	0.0213815	-2.22333	0.0272914	-1.5246	0	0	0	0	-0	0	0	0	-0.1265	0	-0	0	0	0	0	0	-0	0	0.105	0.015	0	0	-0	0	0	0.098	0.1	0	-0	0	0	0	0	0	-0	0	0.05595	0	0	0	-0	0	0	0	0	0	-0	0	574.409	574.409	306.236	224.664	0.40862	-4.99684	-0.00649974	-0.021456	19.1568
42	0.0101528	0.0187611	0.0199537	0.0537652	0.00198525	0.0352443	0.0253715	-0.0300593	0.00427752	-0.0628503	0.0212077	-0.0267942	0.0492097	-0.00154206	0.0216381	-2.21855	0.0274799	-1.52402	0	0	0	0	-0	0	0	0	-0.1265	0	-0	0	0	0	0	0	-0	0	0.105	0.015	0	0	-0	0	0	0.098	0.1	0	-0	0	0	0	0	0	-0	0	0.05595	0	0	0	-0	0	0	0	0	0	-0	0	574.443	574.495	305.854	224.895	0.414112	-5.06267	-0.00668923	-0.02167	19.4594
43	0.00310653	0.0187768	0.0199546	0.0537716	0.00198875	0.0352634	0.0253689	-0.0300557	0.00427684	-0.0684677	0.02589	-0.0357252	0.0493593	-0.00154157	0.0212943	-2.22587	0.0281411	-1.52388	0	0	0	0	-0	0	0	0	-0.1265	0	-0	0	0	0	0	0	-0	0	0.105	0.015	0	0	-0	0	0	0.098	0.1	0	-0	0	0	0	0	0	-0	0	0.05595	0	0	0	-0	0	0	0	0	0	-0	0	574.446	574.569	305.568	225.057	0.420178	-5.11734	-0.0069985	-0.0218146	19.6872
44	-0.000765448	0.0188289	0.0199204	0.0537693	0.00194346	0.0352394	0.0253681	-0.030056	0.00427698	-0.075541	0.0164703	-0.0458888	0.0494365	-0.0015387	0.0211054	-2.23012	0.028789	-1.52353	0	0	0	0	-0	0	0	0	-0.1265	0	-0	0	0	0	0	0	-0	0	0.105	0.015	0	0	-0	0	0	0.098	0.1	0	-0	0	0	0	0	0	-0	0	0.05595	0	0	0	-0	0	0	0	0	0	-0	0	574.486	574.645	305.143	225.29	0.425771	-5.19062	-0.00712638	-0.022055	20.0298
45	0.00043579	0.0188524	0.0199086	0.0537918	0.00193389	0.0352495	0.0253669	-0.0300552	0.00427748	-0.0722632	0.0138356	-0.0328196	0.0494078	-0.00153789	0.0211693	-2.22919	0.0290897	-1.52314	0	0	0	0	-0	0	0	0	-0.1265	0	-0	0	0	0	0	0	-0	0	0.105	0.015	0	0	-0	0	0	0.098	0.1	0	-0	0	0	0	0	0	-0	0	0.05595	0	0	0	-0	0	0	0	0	0	-0	0	574.485	574.707	304.834	225.452	0.432682	-5.25378	-0.00744783	-0.0222178	20.2852
46	0.000995246	0.018874	0.0198998	0.0537915	0.00191923	0.0352483	0.0253643	-0.0300527	0.00427822	-0.0713393	0.017189	-0.0288534	0.0493927	-0.00153637	0.0212007	-2.22869	0.0291423	-1.52306	0	0	0	0	-0	0	0	0	-0.1265	0	-0	0	0	0	0	0	-0	0	0.105	0.015	0	0	-0	0	0	0.098	0.1	0	-0	0	0	0	0	0	-0	0	0.05595	0	0	0	-0	0	0	0	0	0	-0	0	574.48	574.725	304.757	225.489	0.435174	-5.27148	-0.00757083	-0.0222538	20.3451
47	-0.000760857	0.0189103	0.0198724	0.0538083	0.00188333	0.03523	0.0253639	-0.0300525	0.00427769	-0.0723066	0.0243646	-0.0398608	0.0494288	-0.00153504	0.0211152	-2.23069	0.0295639	-1.52278	0	0	0	0	-0	0	0	0	-0.1265	0	-0	0	0	0	0	0	-0	0	0.105	0.015	0	0	-0	0	0	0.098	0.1	0	-0	0	0	0	0	0	-0	0	0.05595	0	0	0	-0	0	0	0	0	0	-0	0	574.493	574.766	304.451	225.638	0.439708	-5.32814	-0.00769206	-0.0224357	20.5968
48	-0.00135746	0.0189277	0.0198683	0.0538012	0.0018772	0.0352341	0.0253626	-0.030052	0.00427753	-0.0715779	0.0213007	-0.0312543	0.049439	-0.00153392	0.0210886	-2.2314	0.0297678	-1.52263	0	0	0	0	-0	0	0	0	-0.1265	0	-0	0	0	0	0	0	-0	0	0.105	0.015	0	0	-0	0	0	0.098	0.1	0	-0	0	0	0	0	0	-0	0	0.05595	0	0	0	-0	0	0	0	0	0	-0	0	574.488	574.791	304.296	225.708	0.443445	-5.36037	-0.00785815	-0.022515	20.7216
49	0.00223843	0.018953	0.0198532	0.0538089	0.00185682	0.0352282	0.0253612	-0.0300517	0.00427921	-0.0647491	0.0202366	-0.0383766	0.0493621	-0.00153279	0.0212678	-2.22797	0.0298501	-1.52227	0	0	0	0	-0	0	0	0	-0.1265	0	-0	0	0	0	0	0	-0	0	0.105	0.015	0	0	-0	0	0	0.098	0.1	0	-0	0	0	0	0	0	-0	0	0.05595	0	0	0	-0	0	0	0	0	0	-0	0	574.488	574.821	304.067	225.811	0.447538	-5.40474	-0.00799962	-0.0226465	20.9094
50	-0.00228809	0.0189674	0.0198418	0.0538216	0.00184427	0.035228	0.0253599	-0.0300502	0.00427952	-0.0653922	0.0178143	-0.0378341	0.0494558	-0.00153223	0.0210474	-2.23256	0.030175	-1.52231	0	0	0	0	-0	0	0	0	-0.1265	0	-0	0	0	0	0	0	-0	0	0.105	0.015	0	0	-0	0	0	0.098	0.1	0	-0	0	0	0	0	0	-0	0	0.05595	0	0	0	-0	0	0	0	0	0	-0	0	574.484	574.833	303.971	225.851	0.450188	-5.4267	-0.00811296	-0.0227004	20.9869
51	-0.00189512	0.018988	0.0198289	0.0538212	0.0018257	0.0352189	0.0253594	-0.0300497	0.00427867	-0.0650346	0.0231281	-0.0426648	0.0494462	-0.00153116	0.0210674	-2.23225	0.0302975	-1.52216	0	0	0	0	-0	0	0	0	-0.1265	0	-0	0	0	0	0	0	-0	0	0.105	0.015	0	0	-0	0	0	0.098	0.1	0	-0	0	0	0	0	0	-0	0	0.05595	0	0	0	-0	0	0	0	0	0	-0	0	574.481	574.847	303.841	225.906	0.452594	-5.45288	-0.00818968	-0.0227766	21.0948
52	-0.0057261	0.0190048	0.0198204	0.0538218	0.00181489	0.035217	0.0253602	-0.0300518	0.00427908	-0.0557292	0.0312682	-0.0380704	0.0495264	-0.00153033	0.0208789	-2.23621	0.0307009	-1.52206	0	0	0	0	-0	0	0	0	-0.1265	0	-0	0	0	0	0	0	-0	0	0.105	0.015	0	0	-0	0	0	0.098	0.1	0	-0	0	0	0	0	0	-0	0	0.05595	0	0	0	-0	0	0	0	0	0	-0	0	574.477	574.865	303.649	225.986	0.456178	-5.49096	-0.00831238	-0.0228863	21.2535
53	0.00526302	0.0190255	0.0198133	0.0538314	0.00180699	0.0352244	0.025361	-0.0300525	0.00428014	-0.066364	0.0214089	-0.0377687	0.0492964	-0.00152997	0.0214244	-2.22551	0.0306335	-1.52124	0	0	0	0	-0	0	0	0	-0.1265	0	-0	0	0	0	0	0	-0	0	0.105	0.015	0	0	-0	0	0	0.098	0.1	0	-0	0	0	0	0	0	-0	0	0.05595	0	0	0	-0	0	0	0	0	0	-0	0	574.472	574.896	303.244	226.159	0.463583	-5.57476	-0.00853366	-0.0231196	21.6132
54	0.00931103	0.0190492	0.0198108	0.0538174	0.00179983	0.0352374	0.0253597	-0.0300502	0.00427845	-0.0697954	0.0131726	-0.0364744	0.049204	-0.00152845	0.021626	-2.22159	0.0306679	-1.52088	0	0	0	0	-0	0	0	0	-0.1265	0	-0	0	0	0	0	0	-0	0	0.105	0.015	0	0	-0	0	0	0.098	0.1	0	-0	0	0	0	0	0	-0	0	0.05595	0	0	0	-0	0	0	0	0	0	-0	0	574.458	574.917	303.033	226.239	0.468608	-5.6197	-0.00872784	-0.0232296	21.7902
55	0.0173172	0.0190788	0.0197879	0.0538346	0.00177219	0.0352281	0.0253568	-0.0300503	0.00427957	-0.0589381	0.0141245	-0.0361974	0.0490286	-0.00152651	0.0220219	-2.21377	0.0306002	-1.5203	0	0	0	0	-0	0	0	0	-0.1265	0	-0	0	0	0	0	0	-0	0	0.105	0.015	0	0	-0	0	0	0.098	0.1	0	-0	0	0	0	0	0	-0	0	0.05595	0	0	0	-0	0	0	0	0	0	-0	0	574.448	574.935	302.728	226.355	0.474496	-5.68364	-0.00890796	-0.0234068	22.0554
56	0.00887538	0.0191047	0.0197756	0.053837	0.00175027	0.0352191	0.0253559	-0.0300494	0.00427981	-0.0530518	0.0127626	-0.0430396	0.0492103	-0.00152534	0.0216103	-2.22227	0.0311595	-1.52043	0	0	0	0	-0	0	0	0	-0.1265	0	-0	0	0	0	0	0	-0	0	0.105	0.015	0	0	-0	0	0	0.098	0.1	0	-0	0	0	0	0	0	-0	0	0.05595	0	0	0	-0	0	0	0	0	0	-0	0	574.439	574.943	302.599	226.399	0.477783	-5.71305	-0.00902301	-0.0234809	22.1625
57	0.0136929	0.0191326	0.0197604	0.053845	0.00172736	0.0352125	0.0253564	-0.0300513	0.00427975	-0.0406243	0.0205529	-0.0406147	0.0491038	-0.00152439	0.0218482	-2.21763	0.0312633	-1.51992	0	0	0	0	-0	0	0	0	-0.1265	0	-0	0	0	0	0	0	-0	0	0.105	0.015	0	0	-0	0	0	0.098	0.1	0	-0	0	0	0	0	0	-0	0	0.05595	0	0	0	-0	0	0	0	0	0	-0	0	574.428	574.949	302.288	226.508	0.483574	-5.77834	-0.00917147	-0.0236665	22.4336
58	0.0110502	0.0191455	0.019761	0.0538487	0.00172935	0.0352279	0.0253585	-0.0300497	0.00427919	-0.0390443	0.0332173	-0.0497234	0.0491589	-0.00152407	0.0217224	-2.22036	0.0315785	-1.51982	0	0	0	0	-0	0	0	0	-0.1265	0	-0	0	0	0	0	0	-0	0	0.105	0.015	0	0	-0	0	0	0.098	0.1	0	-0	0	0	0	0	0	-0	0	0.05595	0	0	0	-0	0	0	0	0	0	-0	0	574.407	574.961	302.131	226.559	0.488341	-5.8166	-0.00938399	-0.0237558	22.5685
59	0.0182377	0.0191713	0.0197509	0.0538456	0.0017178	0.0352372	0.025355	-0.0300487	0.00428061	-0.0298621	0.0317991	-0.0525494	0.0490035	-0.00152229	0.0220757	-2.21335	0.031589	-1.5192	0	0	0	0	-0	0	0	0	-0.1265	0	-0	0	0	0	0	0	-0	0	0.105	0.015	0	0	-0	0	0	0.098	0.1	0	-0	0	0	0	0	0	-0	0	0.05595	0	0	0	-0	0	0	0	0	0	-0	0	574.374	574.968	301.794	226.672	0.495403	-5.89052	-0.00961963	-0.0239509	22.8707
60	0.0261775	0.0192107	0.0197201	0.0538587	0.00167783	0.0352201	0.0253565	-0.030051	0.0042814	-0.0371158	0.0211326	-0.0649093	0.0488244	-0.00152014	0.022467	-2.20557	0.0315324	-1.51858	0	0	0	0	-0	0	0	0	-0.1265	0	-0	0	0	0	0	0	-0	0	0.105	0.015	0	0	-0	0	0	0.098	0.1	0	-0	0	0	0	0	0	-0	0	0.05595	0	0	0	-0	0	0	0	0	0	-0	0	574.355	574.963	301.463	226.776	0.502215	-5.96635	-0.00977087	-0.0241524	23.1745
61	0.0283755	0.0192221	0.0197352	0.0538561	0.00169305	0.0352488	0.0253545	-0.0300481	0.00428104	-0.0334922	0.0173582	-0.0607037	0.04877	-0.00152092	0.0225801	-2.20341	0.031505	-1.51842	0	0	0	0	-0	0	0	0	-0.1265	0	-0	0	0	0	0	0	-0	0	0.105	0.015	0	0	-0	0	0	0.098	0.1	0	-0	0	0	0	0	0	-0	0	0.05595	0	0	0	-0	0	0	0	0	0	-0	0	574.338	574.969	301.391	226.796	0.505919	-5.98818	-0.00995915	-0.02419	23.2355
62	0.0341432	0.0192544	0.0197012	0.0538663	0.00165084	0.0352255	0.0253517	-0.030047	0.004281	-0.0266777	0.020131	-0.0582686	0.0486395	-0.00151795	0.0228604	-2.19776	0.0314943	-1.51793	0	0	0	0	-0	0	0	0	-0.1265	0	-0	0	0	0	0	0	-0	0	0.105	0.015	0	0	-0	0	0	0.098	0.1	0	-0	0	0	0	0	0	-0	0	0.05595	0	0	0	-0	0	0	0	0	0	-0	0	574.316	574.964	301.11	226.877	0.511211	-6.05123	-0.0100765	-0.0243631	23.4939
63	0.0449893	0.0192827	0.0196833	0.0538664	0.00162594	0.0352155	0.02535	-0.0300454	0.00428063	-0.0258918	0.0162935	-0.0597275	0.0483892	-0.00151632	0.0233898	-2.18701	0.0311539	-1.51734	0	0	0	0	-0	0	0	0	-0.1265	0	-0	0	0	0	0	0	-0	0	0.105	0.015	0	0	-0	0	0	0.098	0.1	0	-0	0	0	0	0	0	-0	0	0.05595	0	0	0	-0	0	0	0	0	0	-0	0	574.291	574.959	300.886	226.938	0.516564	-6.1047	-0.0102341	-0.0244982	23.6956
64	0.0461503	0.0193117	0.0196724	0.0538533	0.00160244	0.0352071	0.0253498	-0.0300455	0.00427866	-0.0294282	0.00925421	-0.0560476	0.0483574	-0.00151474	0.0234465	-2.18591	0.031267	-1.51712	0	0	0	0	-0	0	0	0	-0.1265	0	-0	0	0	0	0	0	-0	0	0.105	0.015	0	0	-0	0	0	0.098	0.1	0	-0	0	0	0	0	0	-0	0	0.05595	0	0	0	-0	0	0	0	0	0	-0	0	574.274	574.951	300.714	226.981	0.520394	-6.14364	-0.0103243	-0.0246005	23.8453
65	0.0596998	0.019333	0.0196642	0.0538636	0.00159306	0.0352107	0.0253506	-0.0300443	0.00428157	-0.0235227	-0.00638608	-0.0595306	0.0480386	-0.00151395	0.0241044	-2.17248	0.0307977	-1.51641	0	0	0	0	-0	0	0	0	-0.1265	0	-0	0	0	0	0	0	-0	0	0.105	0.015	0	0	-0	0	0	0.098	0.1	0	-0	0	0	0	0	0	-0	0	0.05595	0	0	0	-0	0	0	0	0	0	-0	0	574.247	574.94	300.471	227.045	0.526297	-6.20191	-0.0105094	-0.0247492	24.0667
66	0.0602274	0.0193579	0.0196596	0.0538432	0.00157772	0.0352142	0.0253505	-0.0300471	0.00427894	-0.0265718	-0.00527532	-0.0466189	0.0480198	-0.00151321	0.0241303	-2.17201	0.030962	-1.51618	0	0	0	0	-0	0	0	0	-0.1265	0	-0	0	0	0	0	0	-0	0	0.105	0.015	0	0	-0	0	0	0.098	0.1	0	-0	0	0	0	0	0	-0	0	0.05595	0	0	0	-0	0	0	0	0	0	-0	0	574.221	574.933	300.285	227.09	0.531078	-6.24758	-0.0106438	-0.0248672	24.2346
67	0.0677507	0.0193751	0.0196594	0.0538621	0.00158068	0.0352252	0.0253487	-0.0300453	0.00428035	-0.0219493	-0.00940563	-0.0447009	0.0478373	-0.00151316	0.0244944	-2.16455	0.0306981	-1.51579	0	0	0	0	-0	0	0	0	-0.1265	0	-0	0	0	0	0	0	-0	0	0.105	0.015	0	0	-0	0	0	0.098	0.1	0	-0	0	0	0	0	0	-0	0	0.05595	0	0	0	-0	0	0	0	0	0	-0	0	574.195	574.927	300.149	227.122	0.535364	-6.28372	-0.010821	-0.02495	24.3595
68	0.0755864	0.0194008	0.0196359	0.0538629	0.00154888	0.0352081	0.0253485	-0.0300471	0.00427931	-0.0138008	-0.00458447	-0.0347267	0.0476438	-0.00151096	0.0248682	-2.15678	0.0304682	-1.51531	0	0	0	0	-0	0	0	0	-0.1265	0	-0	0	0	0	0	0	-0	0	0.105	0.015	0	0	-0	0	0	0.098	0.1	0	-0	0	0	0	0	0	-0	0	0.05595	0	0	0	-0	0	0	0	0	0	-0	0	574.171	574.909	299.944	227.169	0.539544	-6.33161	-0.0108988	-0.0250781	24.5478
69	0.0708292	0.0194195	0.0196425	0.053847	0.001548	0.0352139	0.0253475	-0.0300464	0.00427914	-0.00503186	-0.00381218	-0.03977	0.0477595	-0.00151093	0.0246433	-2.16159	0.0308916	-1.51528	0	0	0	0	-0	0	0	0	-0.1265	0	-0	0	0	0	0	0	-0	0	0.105	0.015	0	0	-0	0	0	0.098	0.1	0	-0	0	0	0	0	0	-0	0	0.05595	0	0	0	-0	0	0	0	0	0	-0	0	574.148	574.901	299.792	227.202	0.543717	-6.36981	-0.0110301	-0.0251745	24.685
70	0.0712567	0.0194337	0.0196295	0.0538659	0.0015356	0.035212	0.0253464	-0.0300446	0.00427993	-0.00315964	-0.00481478	-0.0353776	0.0477466	-0.00151013	0.0246657	-2.16118	0.0309304	-1.5152	0	0	0	0	-0	0	0	0	-0.1265	0	-0	0	0	0	0	0	-0	0	0.105	0.015	0	0	-0	0	0	0.098	0.1	0	-0	0	0	0	0	0	-0	0	0.05595	0	0	0	-0	0	0	0	0	0	-0	0	574.137	574.899	299.728	227.215	0.545873	-6.3874	-0.0111148	-0.025213	24.7418
71	0.0639749	0.0194568	0.0196106	0.0538739	0.00151278	0.0352012	0.0253464	-0.0300454	0.00427989	0.000390509	-0.00396749	-0.0241196	0.0479266	-0.00150868	0.0243181	-2.16853	0.0315848	-1.51514	0	0	0	0	-0	0	0	0	-0.1265	0	-0	0	0	0	0	0	-0	0	0.105	0.015	0	0	-0	0	0	0.098	0.1	0	-0	0	0	0	0	0	-0	0	0.05595	0	0	0	-0	0	0	0	0	0	-0	0	574.108	574.871	299.485	227.271	0.551105	-6.44744	-0.0112152	-0.0253657	24.9785
72	0.0753327	0.0194863	0.0196063	0.0538563	0.00149891	0.0351996	0.0253451	-0.0300458	0.00427821	0.0107027	-0.00257429	-0.0183615	0.0476488	-0.00150806	0.0248636	-2.1573	0.0313099	-1.51436	0	0	0	0	-0	0	0	0	-0.1265	0	-0	0	0	0	0	0	-0	0	0.105	0.015	0	0	-0	0	0	0.098	0.1	0	-0	0	0	0	0	0	-0	0	0.05595	0	0	0	-0	0	0	0	0	0	-0	0	574.065	574.834	299.145	227.352	0.559208	-6.536	-0.0113801	-0.0255836	25.323
73	0.0757806	0.0195092	0.0195969	0.0538196	0.0014793	0.0351939	0.0253455	-0.030045	0.00427385	0.00993672	0.00415166	-0.0293411	0.0476308	-0.00150643	0.0248859	-2.15689	0.0314648	-1.51414	0	0	0	0	-0	0	0	0	-0.1265	0	-0	0	0	0	0	0	-0	0	0.105	0.015	0	0	-0	0	0	0.098	0.1	0	-0	0	0	0	0	0	-0	0	0.05595	0	0	0	-0	0	0	0	0	0	-0	0	574.037	574.818	298.964	227.389	0.564236	-6.58304	-0.0115045	-0.0257044	25.4912
74	0.0689331	0.0195425	0.0195873	0.0538265	0.00146433	0.0351932	0.0253439	-0.0300431	0.00427739	-0.000294584	0.0174262	-0.0259985	0.0478007	-0.00150562	0.0245623	-2.16386	0.0322281	-1.51392	0	0	0	0	-0	0	0	0	-0.1265	0	-0	0	0	0	0	0	-0	0	0.105	0.015	0	0	-0	0	0	0.098	0.1	0	-0	0	0	0	0	0	-0	0	0.05595	0	0	0	-0	0	0	0	0	0	-0	0	573.981	574.774	298.605	227.472	0.573551	-6.68239	-0.0117173	-0.0259355	25.871
75	0.0689988	0.0195832	0.0195543	0.0538587	0.00143169	0.0351891	0.0253406	-0.0300441	0.00428343	0.0212399	-0.00124184	-0.0316686	0.0477963	-0.00150356	0.0245684	-2.1639	0.0325726	-1.51352	0	0	0	0	-0	0	0	0	-0.1265	0	-0	0	0	0	0	0	-0	0	0.105	0.015	0	0	-0	0	0	0.098	0.1	0	-0	0	0	0	0	0	-0	0	0.05595	0	0	0	-0	0	0	0	0	0	-0	0	573.92	574.715	298.269	227.55	0.583118	-6.7818	-0.0119259	-0.026149	26.2389
76	0.0538771	0.0196249	0.0195253	0.0539238	0.00140764	0.0351937	0.0253426	-0.0300438	0.00428437	0.0221239	0.00328216	-0.0445155	0.0481659	-0.00150268	0.0238508	-2.17909	0.0336886	-1.51375	0	0	0	0	-0	0	0	0	-0.1265	0	-0	0	0	0	0	0	-0	0	0.105	0.015	0	0	-0	0	0	0.098	0.1	0	-0	0	0	0	0	0	-0	0	0.05595	0	0	0	-0	0	0	0	0	0	-0	0	573.865	574.67	298.025	227.606	0.591343	-6.86008	-0.0121609	-0.0263006	26.5114
77	0.0506577	0.0196422	0.0195408	0.0538103	0.00139863	0.0351877	0.0253423	-0.0300454	0.00427313	0.0121801	0.00092077	-0.0550075	0.0482347	-0.00150212	0.0236932	-2.18234	0.0340924	-1.51362	0	0	0	0	-0	0	0	0	-0.1265	0	-0	0	0	0	0	0	-0	0	0.105	0.015	0	0	-0	0	0	0.098	0.1	0	-0	0	0	0	0	0	-0	0	0.05595	0	0	0	-0	0	0	0	0	0	-0	0	573.826	574.645	297.821	227.646	0.5969	-6.9151	-0.0122607	-0.0264562	26.7121
78	0.052173	0.0196646	0.0195387	0.0538074	0.00139257	0.0351888	0.0253419	-0.0300443	0.00427369	0.0181965	0.00447678	-0.045868	0.048197	-0.00150123	0.0237687	-2.18087	0.034166	-1.5134	0	0	0	0	-0	0	0	0	-0.1265	0	-0	0	0	0	0	0	-0	0	0.105	0.015	0	0	-0	0	0	0.098	0.1	0	-0	0	0	0	0	0	-0	0	0.05595	0	0	0	-0	0	0	0	0	0	-0	0	573.789	574.628	297.67	227.673	0.601775	-6.95838	-0.0124172	-0.0265579	26.86
79	0.045657	0.0196869	0.019528	0.0538259	0.00137879	0.0351875	0.0253403	-0.0300419	0.00427492	0.0229333	-0.00117354	-0.0410999	0.048351	-0.00150045	0.0234567	-2.18741	0.0346639	-1.5135	0	0	0	0	-0	0	0	0	-0.1265	0	-0	0	0	0	0	0	-0	0	0.105	0.015	0	0	-0	0	0	0.098	0.1	0	-0	0	0	0	0	0	-0	0	0.05595	0	0	0	-0	0	0	0	0	0	-0	0	573.76	574.615	297.549	227.695	0.605718	-6.99382	-0.0125473	-0.0266367	26.9791
80	0.0457225	0.0197044	0.0195112	0.0538226	0.00135573	0.0351754	0.0253391	-0.0300412	0.00427462	0.0226183	-0.00301067	-0.0473015	0.0483472	-0.00149894	0.0234602	-2.18736	0.0347541	-1.5134	0	0	0	0	-0	0	0	0	-0.1265	0	-0	0	0	0	0	0	-0	0	0.105	0.015	0	0	-0	0	0	0.098	0.1	0	-0	0	0	0	0	0	-0	0	0.05595	0	0	0	-0	0	0	0	0	0	-0	0	573.742	574.6	297.454	227.71	0.608318	-7.01974	-0.0126023	-0.0267006	27.0694
81	0.0393063	0.0197238	0.0195001	0.053837	0.00134303	0.0351734	0.0253374	-0.0300415	0.00427561	0.0101001	0.0028278	-0.0496967	0.0484972	-0.00149818	0.0231517	-2.1938	0.0352649	-1.51347	0	0	0	0	-0	0	0	0	-0.1265	0	-0	0	0	0	0	0	-0	0	0.105	0.015	0	0	-0	0	0	0.098	0.1	0	-0	0	0	0	0	0	-0	0	0.05595	0	0	0	-0	0	0	0	0	0	-0	0	573.715	574.576	297.318	227.735	0.612167	-7.058	-0.0126983	-0.0267883	27.2058
82	0.0380032	0.0197397	0.0194901	0.0538329	0.00132683	0.0351654	0.0253386	-0.0300412	0.00427534	0.00470004	-0.00590947	-0.0516714	0.0485257	-0.00149725	0.0230887	-2.19512	0.0354477	-1.5134	0	0	0	0	-0	0	0	0	-0.1265	0	-0	0	0	0	0	0	-0	0	0.105	0.015	0	0	-0	0	0	0.098	0.1	0	-0	0	0	0	0	0	-0	0	0.05595	0	0	0	-0	0	0	0	0	0	-0	0	573.696	574.556	297.214	227.752	0.614882	-7.08599	-0.0127461	-0.026858	27.3066
83	0.037946	0.0197505	0.0194946	0.0538357	0.00133151	0.0351751	0.0253384	-0.0300407	0.00427617	0.00480588	-0.00239148	-0.0463284	0.0485261	-0.00149771	0.0230885	-2.1952	0.0355378	-1.51332	0	0	0	0	-0	0	0	0	-0.1265	0	-0	0	0	0	0	0	-0	0	0.105	0.015	0	0	-0	0	0	0.098	0.1	0	-0	0	0	0	0	0	-0	0	0.05595	0	0	0	-0	0	0	0	0	0	-0	0	573.676	574.544	297.138	227.765	0.617814	-7.10965	-0.0128502	-0.0269114	27.3804
84	0.0405687	0.0197758	0.0194761	0.0538459	0.00131011	0.035169	0.0253368	-0.0300408	0.00427516	-0.00561141	0.00358535	-0.0535391	0.0484672	-0.00149634	0.0232149	-2.19266	0.0357123	-1.51286	0	0	0	0	-0	0	0	0	-0.1265	0	-0	0	0	0	0	0	-0	0	0.105	0.015	0	0	-0	0	0	0.098	0.1	0	-0	0	0	0	0	0	-0	0	0.05595	0	0	0	-0	0	0	0	0	0	-0	0	573.62	574.473	296.836	227.83	0.625232	-7.19617	-0.0129417	-0.0271114	27.7161
85	0.0467772	0.0197968	0.0194664	0.0538245	0.00129431	0.035161	0.0253366	-0.0300404	0.00427416	-0.0110285	-0.00179685	-0.0573752	0.0483209	-0.00149488	0.0235174	-2.1865	0.035542	-1.51244	0	0	0	0	-0	0	0	0	-0.1265	0	-0	0	0	0	0	0	-0	0	0.105	0.015	0	0	-0	0	0	0.098	0.1	0	-0	0	0	0	0	0	-0	0	0.05595	0	0	0	-0	0	0	0	0	0	-0	0	573.582	574.433	296.654	227.864	0.630648	-7.2505	-0.0130421	-0.0272356	27.9101
86	0.0352318	0.0198205	0.0194602	0.0538183	0.00128149	0.0351612	0.0253372	-0.0300385	0.00427506	-0.020043	0.0147432	-0.0554739	0.0485906	-0.00149436	0.0229609	-2.19808	0.0364296	-1.51262	0	0	0	0	-0	0	0	0	-0.1265	0	-0	0	0	0	0	0	-0	0	0.105	0.015	0	0	-0	0	0	0.098	0.1	0	-0	0	0	0	0	0	-0	0	0.05595	0	0	0	-0	0	0	0	0	0	-0	0	573.535	574.389	296.453	227.903	0.636751	-7.31134	-0.0131678	-0.0273749	28.1273
87	0.0330836	0.0198398	0.019453	0.0538018	0.00126784	0.0351616	0.0253372	-0.0300415	0.00427004	-0.027856	0.0198118	-0.0689418	0.0486348	-0.00149389	0.0228573	-2.20026	0.0367211	-1.51253	0	0	0	0	-0	0	0	0	-0.1265	0	-0	0	0	0	0	0	-0	0	0.105	0.015	0	0	-0	0	0	0.098	0.1	0	-0	0	0	0	0	0	-0	0	0.05595	0	0	0	-0	0	0	0	0	0	-0	0	573.498	574.355	296.301	227.931	0.641722	-7.35815	-0.0132748	-0.0274856	28.2871
88	0.0373153	0.0198546	0.0194579	0.0537735	0.00126831	0.0351645	0.0253372	-0.0300403	0.00426992	-0.0237296	0.02906	-0.0682238	0.0485368	-0.00149307	0.0230643	-2.19606	0.0366012	-1.51224	0	0	0	0	-0	0	0	0	-0.1265	0	-0	0	0	0	0	0	-0	0	0.105	0.015	0	0	-0	0	0	0.098	0.1	0	-0	0	0	0	0	0	-0	0	0.05595	0	0	0	-0	0	0	0	0	0	-0	0	573.466	574.334	296.183	227.952	0.645595	-7.39284	-0.0133823	-0.0275708	28.4052
89	0.0391656	0.0198728	0.0194487	0.0537947	0.0012581	0.0351669	0.0253358	-0.0300396	0.00427189	-0.0283874	0.0248572	-0.0680812	0.048493	-0.00149268	0.023156	-2.19423	0.0365994	-1.51207	0	0	0	0	-0	0	0	0	-0.1265	0	-0	0	0	0	0	0	-0	0	0.105	0.015	0	0	-0	0	0	0.098	0.1	0	-0	0	0	0	0	0	-0	0	0.05595	0	0	0	-0	0	0	0	0	0	-0	0	573.439	574.313	296.083	227.969	0.649019	-7.42388	-0.0134768	-0.0276397	28.5077
90	0.042718	0.0198865	0.0194361	0.0538117	0.00124446	0.0351624	0.0253345	-0.0300389	0.00427293	-0.023691	0.0245563	-0.0651417	0.0484097	-0.00149183	0.0233296	-2.19069	0.0364299	-1.5119	0	0	0	0	-0	0	0	0	-0.1265	0	-0	0	0	0	0	0	-0	0	0.105	0.015	0	0	-0	0	0	0.098	0.1	0	-0	0	0	0	0	0	-0	0	0.05595	0	0	0	-0	0	0	0	0	0	-0	0	573.427	574.305	296.041	227.976	0.65062	-7.43765	-0.0135254	-0.0276668	28.5497
91	0.0479126	0.0198997	0.0194263	0.0538158	0.00123024	0.0351553	0.0253344	-0.03004	0.00427456	-0.0147102	0.0221308	-0.0733867	0.0482886	-0.00149099	0.0235806	-2.18551	0.0362105	-1.51162	0	0	0	0	-0	0	0	0	-0.1265	0	-0	0	0	0	0	0	-0	0	0.105	0.015	0	0	-0	0	0	0.098	0.1	0	-0	0	0	0	0	0	-0	0	0.05595	0	0	0	-0	0	0	0	0	0	-0	0	573.407	574.284	295.955	227.991	0.652856	-7.46154	-0.0135648	-0.0277234	28.636
92	0.0524624	0.0199094	0.0194277	0.0538289	0.00123111	0.0351621	0.025334	-0.0300386	0.0042748	-0.0189653	0.0234625	-0.0736319	0.0481801	-0.00149157	0.0238021	-2.18098	0.0359893	-1.51141	0	0	0	0	-0	0	0	0	-0.1265	0	-0	0	0	0	0	0	-0	0	0.105	0.015	0	0	-0	0	0	0.098	0.1	0	-0	0	0	0	0	0	-0	0	0.05595	0	0	0	-0	0	0	0	0	0	-0	0	573.395	574.275	295.912	227.998	0.654614	-7.47561	-0.0136227	-0.0277531	28.6784
93	0.0558663	0.0199203	0.0194165	0.0538229	0.00121645	0.0351536	0.025333	-0.0300382	0.00427373	-0.0134789	0.0234886	-0.0738226	0.0480991	-0.00149032	0.0239648	-2.1776	0.035906	-1.51115	0	0	0	0	-0	0	0	0	-0.1265	0	-0	0	0	0	0	0	-0	0	0.105	0.015	0	0	-0	0	0	0.098	0.1	0	-0	0	0	0	0	0	-0	0	0.05595	0	0	0	-0	0	0	0	0	0	-0	0	573.371	574.242	295.796	228.019	0.657384	-7.50741	-0.0136478	-0.0278326	28.7978
94	0.0598643	0.0199301	0.019411	0.0538201	0.00120914	0.0351506	0.0253328	-0.0300377	0.00427331	-0.0120996	0.0264017	-0.0717369	0.048002	-0.00148968	0.024158	-2.17362	0.035735	-1.51093	0	0	0	0	-0	0	0	0	-0.1265	0	-0	0	0	0	0	0	-0	0	0.105	0.015	0	0	-0	0	0	0.098	0.1	0	-0	0	0	0	0	0	-0	0	0.05595	0	0	0	-0	0	0	0	0	0	-0	0	573.355	574.225	295.729	228.03	0.659505	-7.52743	-0.0136914	-0.0278786	28.8653
95	0.0588979	0.0199391	0.0194078	0.0538162	0.00120331	0.0351492	0.0253328	-0.0300373	0.00427289	-0.0137785	0.0326023	-0.0720023	0.0480245	-0.00148928	0.0241121	-2.1746	0.0358564	-1.5109	0	0	0	0	-0	0	0	0	-0.1265	0	-0	0	0	0	0	0	-0	0	0.105	0.015	0	0	-0	0	0	0.098	0.1	0	-0	0	0	0	0	0	-0	0	0.05595	0	0	0	-0	0	0	0	0	0	-0	0	573.34	574.211	295.668	228.041	0.661462	-7.54593	-0.0137353	-0.0279225	28.9281
96	0.0564914	0.0199471	0.0194044	0.053817	0.00119936	0.0351496	0.0253331	-0.0300378	0.00427305	-0.0172998	0.0264464	-0.0726467	0.0480819	-0.00148893	0.0239975	-2.17702	0.0360579	-1.51092	0	0	0	0	-0	0	0	0	-0.1265	0	-0	0	0	0	0	0	-0	0	0.105	0.015	0	0	-0	0	0	0.098	0.1	0	-0	0	0	0	0	0	-0	0	0.05595	0	0	0	-0	0	0	0	0	0	-0	0	573.326	574.197	295.612	228.05	0.663265	-7.56272	-0.0137759	-0.0279615	28.9843
97	0.0548516	0.0199581	0.0194027	0.0538154	0.00119555	0.0351513	0.025333	-0.0300374	0.0042728	-0.0173314	0.0329014	-0.0746455	0.0481219	-0.00148875	0.0239186	-2.17868	0.0362829	-1.51084	0	0	0	0	-0	0	0	0	-0.1265	0	-0	0	0	0	0	0	-0	0	0.105	0.015	0	0	-0	0	0	0.098	0.1	0	-0	0	0	0	0	0	-0	0	0.05595	0	0	0	-0	0	0	0	0	0	-0	0	573.298	574.165	295.494	228.073	0.666541	-7.5972	-0.0138309	-0.028044	29.11
98	0.061266	0.0199725	0.0193947	0.0538129	0.00118548	0.035149	0.0253346	-0.0300368	0.00427115	-0.0114542	0.0169413	-0.0679487	0.0479689	-0.0014879	0.024227	-2.17232	0.0360739	-1.51041	0	0	0	0	-0	0	0	0	-0.1265	0	-0	0	0	0	0	0	-0	0	0.105	0.015	0	0	-0	0	0	0.098	0.1	0	-0	0	0	0	0	0	-0	0	0.05595	0	0	0	-0	0	0	0	0	0	-0	0	573.257	574.114	295.328	228.107	0.671195	-7.64782	-0.0138885	-0.0281596	29.2967
99	0.0581183	0.0199801	0.0194019	0.0537703	0.00118801	0.0351529	0.0253338	-0.0300385	0.00426934	-0.011354	0.0127389	-0.0767583	0.0480424	-0.0014877	0.024077	-2.17548	0.0363569	-1.51042	0	0	0	0	-0	0	0	0	-0.1265	0	-0	0	0	0	0	0	-0	0	0.105	0.015	0	0	-0	0	0	0.098	0.1	0	-0	0	0	0	0	0	-0	0	0.05595	0	0	0	-0	0	0	0	0	0	-0	0	573.232	574.094	295.242	228.124	0.674458	-7.67605	-0.0139646	-0.0282301	29.3883
100	0.0638206	0.019995	0.0193952	0.0537903	0.00118122	0.0351564	0.0253323	-0.0300381	0.00427122	-0.00469069	0.0117693	-0.0786772	0.0479045	-0.00148743	0.0243522	-2.1698	0.0360912	-1.51013	0	0	0	0	-0	0	0	0	-0.1265	0	-0	0	0	0	0	0	-0	0	0.105	0.015	0	0	-0	0	0	0.098	0.1	0	-0	0	0	0	0	0	-0	0	0.05595	0	0	0	-0	0	0	0	0	0	-0	0	573.209	574.076	295.166	228.138	0.67708	-7.70001	-0.0140344	-0.0282821	29.4685
