Stefan210/kinematic_calibration/src/kinematic_calibration/validation/experiments/experiments/impact_noise/outlier/larm_randomize_2_measurements_rk_true/optimization_intermediate_results.csv
iteration	HeadPitch_offset	HeadYaw_offset	LElbowRoll_offset	LElbowYaw_offset	LShoulderPitch_offset	LShoulderRoll_offset	marker_transform_larm_tx	marker_transform_larm_ty	marker_transform_larm_tz	marker_transform_larm_rr	marker_transform_larm_rp	marker_transform_larm_ry	camera_transform_tx	camera_transform_ty	camera_transform_tz	camera_transform_rr	camera_transform_rp	camera_transform_ry	HeadPitch_transform_tx	HeadPitch_transform_ty	HeadPitch_transform_tz	HeadPitch_transform_rr	HeadPitch_transform_rp	HeadPitch_transform_ry	HeadYaw_transform_tx	HeadYaw_transform_ty	HeadYaw_transform_tz	HeadYaw_transform_rr	HeadYaw_transform_rp	HeadYaw_transform_ry	LElbowRoll_transform_tx	LElbowRoll_transform_ty	LElbowRoll_transform_tz	LElbowRoll_transform_rr	LElbowRoll_transform_rp	LElbowRoll_transform_ry	LElbowYaw_transform_tx	LElbowYaw_transform_ty	LElbowYaw_transform_tz	LElbowYaw_transform_rr	LElbowYaw_transform_rp	LElbowYaw_transform_ry	LShoulderPitch_transform_tx	LShoulderPitch_transform_ty	LShoulderPitch_transform_tz	LShoulderPitch_transform_rr	LShoulderPitch_transform_rp	LShoulderPitch_transform_ry	LShoulderRoll_transform_tx	LShoulderRoll_transform_ty	LShoulderRoll_transform_tz	LShoulderRoll_transform_rr	LShoulderRoll_transform_rp	LShoulderRoll_transform_ry	LWristYaw_transform_tx	LWristYaw_transform_ty	LWristYaw_transform_tz	LWristYaw_transform_rr	LWristYaw_transform_rp	LWristYaw_transform_ry	l_wrist_joint_transform_tx	l_wrist_joint_transform_ty	l_wrist_joint_transform_tz	l_wrist_joint_transform_rr	l_wrist_joint_transform_rp	l_wrist_joint_transform_ry	camera_fx	camera_fy	camera_cx	camera_cy	camera_D0	camera_D1	camera_D2	camera_D3	camera_D4	
0	0.0249164	-0.0307543	0.000853157	4.65819e-06	-0.000318322	-0.00310766	0.05071	0	0.01774	-2.26369	1.66533e-16	-1.5708	545.901	551.038	324.928	201.58	0.0255298	2.61142	-0.0636736	-0.0350419	0.213964
1	-0.0161287	-0.00377918	0.0205056	0.0577126	0.0148924	0.0220761	0.0258746	-0.0298343	0.0052103	-0.000529419	-0.000747841	-0.00289939	0.0548991	-0.00141171	0.0148235	-2.19816	0.00559485	-1.53345	0	0	0	0	-0	0	0	0	-0.1265	0	-0	0	0	0	0	0	-0	0	0.105	0.015	0	0	-0	0	0	0.098	0.1	0	-0	0	0	0	0	0	-0	0	0.05595	0	0	0	-0	0	0	0	0	0	-0	0	545.901	551.039	324.928	201.581	0.00353915	2.60369	-0.0805887	0.0407393	0.212364
2	-0.0170457	0.0182852	0.0205733	0.0473874	0.00252345	0.0341092	0.0257347	-0.0302174	0.00388653	-0.000361129	-0.000614482	-0.00296063	0.0550732	-0.00133443	0.0149129	-2.19464	0.00156269	-1.54871	0	0	0	0	-0	0	0	0	-0.1265	0	-0	0	0	0	0	0	-0	0	0.105	0.015	0	0	-0	0	0	0.098	0.1	0	-0	0	0	0	0	0	-0	0	0.05595	0	0	0	-0	0	0	0	0	0	-0	0	545.914	551.039	324.92	201.598	-0.369273	2.29779	-0.0193941	-0.00557983	0.119695
3	-0.017067	0.0179373	0.0211719	0.0468946	0.00177986	0.0343199	0.0255688	-0.030252	0.00374002	-0.00035257	-0.000632424	-0.00298374	0.0555954	-0.00135748	0.0141437	-2.19423	0.00313107	-1.54723	0	0	0	0	-0	0	0	0	-0.1265	0	-0	0	0	0	0	0	-0	0	0.105	0.015	0	0	-0	0	0	0.098	0.1	0	-0	0	0	0	0	0	-0	0	0.05595	0	0	0	-0	0	0	0	0	0	-0	0	545.953	551.035	324.916	201.627	-0.385995	1.72161	-0.00907383	-0.0103348	-0.0767669
4	-0.0166532	0.0168224	0.0196212	0.0476014	0.00182057	0.0341557	0.0254143	-0.0301587	0.00376017	-0.000322621	-0.000633564	-0.00297642	0.0551203	-0.00123641	0.0146871	-2.19581	0.00426608	-1.54602	0	0	0	0	-0	0	0	0	-0.1265	0	-0	0	0	0	0	0	-0	0	0.105	0.015	0	0	-0	0	0	0.098	0.1	0	-0	0	0	0	0	0	-0	0	0.05595	0	0	0	-0	0	0	0	0	0	-0	0	546.037	551.019	324.918	201.659	-0.187283	0.803578	-0.0118124	-0.0114232	-0.399444
5	-0.0162812	0.0164796	0.0184334	0.0475038	0.00173621	0.0342874	0.0253183	-0.030078	0.00375022	-0.000401302	-0.000449523	-0.00294172	0.0544848	-0.00110654	0.0155144	-2.19732	0.00470877	-1.54614	0	0	0	0	-0	0	0	0	-0.1265	0	-0	0	0	0	0	0	-0	0	0.105	0.015	0	0	-0	0	0	0.098	0.1	0	-0	0	0	0	0	0	-0	0	0.05595	0	0	0	-0	0	0	0	0	0	-0	0	546.22	550.974	324.939	201.669	0.00825957	0.074221	-0.0165712	-0.0114755	-0.595629
6	-0.0163494	0.016233	0.0179155	0.0472009	0.00181346	0.0342348	0.0252795	-0.0300395	0.00373252	0.00022912	-3.72281e-05	-0.00302757	0.0541254	-0.00103335	0.0160365	-2.19877	0.00488059	-1.54635	0	0	0	0	-0	0	0	0	-0.1265	0	-0	0	0	0	0	0	-0	0	0.105	0.015	0	0	-0	0	0	0.098	0.1	0	-0	0	0	0	0	0	-0	0	0.05595	0	0	0	-0	0	0	0	0	0	-0	0	546.72	550.844	324.948	201.678	0.113411	-0.37361	-0.0186351	-0.0114908	-0.424597
7	-0.0172122	0.0165849	0.0177087	0.0469386	0.00161612	0.0340421	0.0252598	-0.0300206	0.00372122	0.00260397	-0.00159364	-0.00344897	0.0537588	-0.00102558	0.0165363	-2.20081	0.00480726	-1.54686	0	0	0	0	-0	0	0	0	-0.1265	0	-0	0	0	0	0	0	-0	0	0.105	0.015	0	0	-0	0	0	0.098	0.1	0	-0	0	0	0	0	0	-0	0	0.05595	0	0	0	-0	0	0	0	0	0	-0	0	548.056	550.535	324.892	201.704	0.172345	-0.826855	-0.0162299	-0.0116389	0.419601
8	-0.00987076	0.0170593	0.0176093	0.0468686	0.00137886	0.0338643	0.0252481	-0.0300108	0.00373511	0.0028438	0.000261305	-0.00888956	0.0529527	-0.00106279	0.0178226	-2.19508	0.00467113	-1.54697	0	0	0	0	-0	0	0	0	-0.1265	0	-0	0	0	0	0	0	-0	0	0.105	0.015	0	0	-0	0	0	0.098	0.1	0	-0	0	0	0	0	0	-0	0	0.05595	0	0	0	-0	0	0	0	0	0	-0	0	551.079	550.081	324.692	201.728	0.227532	-1.57179	-0.00819268	-0.0120014	2.39338
9	-0.00595511	0.0175376	0.0175608	0.0468472	0.0011011	0.0337002	0.0252343	-0.0300163	0.00376788	0.0262182	-0.00699531	-0.025055	0.0518478	-0.00112192	0.0193034	-2.19329	0.00488488	-1.54664	0	0	0	0	-0	0	0	0	-0.1265	0	-0	0	0	0	0	0	-0	0	0.105	0.015	0	0	-0	0	0	0.098	0.1	0	-0	0	0	0	0	0	-0	0	0.05595	0	0	0	-0	0	0	0	0	0	-0	0	556.074	550.563	324.275	201.655	0.290255	-2.60964	0.00298692	-0.0125341	5.48095
10	-0.0101002	0.0179138	0.0175246	0.047053	0.000901622	0.0335312	0.0252222	-0.0300133	0.00379979	0.00462084	0.000913987	-0.0257709	0.0509581	-0.00121264	0.0202226	-2.19969	0.00610643	-1.54551	0	0	0	0	-0	0	0	0	-0.1265	0	-0	0	0	0	0	0	-0	0	0.105	0.015	0	0	-0	0	0	0.098	0.1	0	-0	0	0	0	0	0	-0	0	0.05595	0	0	0	-0	0	0	0	0	0	-0	0	561.912	554.288	323.356	201.652	0.326528	-3.38118	0.0086879	-0.0131994	8.19882
11	-0.0243979	0.0180701	0.0175983	0.0472666	0.000792219	0.0334617	0.0252331	-0.0300403	0.003847	0.0354201	-0.0187121	-0.060389	0.0507972	-0.00127463	0.0200126	-2.21578	0.00723363	-1.5448	0	0	0	0	-0	0	0	0	-0.1265	0	-0	0	0	0	0	0	-0	0	0.105	0.015	0	0	-0	0	0	0.098	0.1	0	-0	0	0	0	0	0	-0	0	0.05595	0	0	0	-0	0	0	0	0	0	-0	0	565.355	557.71	322.787	202.047	0.329021	-3.63018	0.00924226	-0.0136522	9.39366
12	-0.0142895	0.0179681	0.0176545	0.04768	0.000812409	0.0335589	0.0252451	-0.0300396	0.00383813	0.00174217	0.0117284	-0.0914836	0.0503713	-0.00131579	0.0207646	-2.20696	0.00752185	-1.54407	0	0	0	0	-0	0	0	0	-0.1265	0	-0	0	0	0	0	0	-0	0	0.105	0.015	0	0	-0	0	0	0.098	0.1	0	-0	0	0	0	0	0	-0	0	0.05595	0	0	0	-0	0	0	0	0	0	-0	0	567.362	559.97	322.474	202.532	0.322693	-3.68353	0.00867608	-0.0138657	9.88347
13	-0.0158467	0.0181656	0.0176328	0.047105	0.000718508	0.0334341	0.0252101	-0.0300599	0.00380885	-0.0529681	0.0184115	-0.0989976	0.0503138	-0.00131178	0.0208047	-2.20981	0.00781606	-1.54395	0	0	0	0	-0	0	0	0	-0.1265	0	-0	0	0	0	0	0	-0	0	0.105	0.015	0	0	-0	0	0	0.098	0.1	0	-0	0	0	0	0	0	-0	0	0.05595	0	0	0	-0	0	0	0	0	0	-0	0	568.477	561.509	322.182	203.022	0.310548	-3.61923	0.00841061	-0.0139217	9.84955
14	-0.0218085	0.0183282	0.0175797	0.0471764	0.000635493	0.0334285	0.0252212	-0.0300377	0.00381002	-0.0544634	0.00514134	-0.0715746	0.0503099	-0.0013236	0.0206499	-2.21754	0.00837399	-1.54357	0	0	0	0	-0	0	0	0	-0.1265	0	-0	0	0	0	0	0	-0	0	0.105	0.015	0	0	-0	0	0	0.098	0.1	0	-0	0	0	0	0	0	-0	0	0.05595	0	0	0	-0	0	0	0	0	0	-0	0	569.926	563.343	321.791	203.802	0.294234	-3.54497	0.0083255	-0.0142722	9.8456
15	-0.00929634	0.0183101	0.0175919	0.0472104	0.000662405	0.0334411	0.0252174	-0.0300401	0.00381423	-0.0821798	-0.00107408	-0.0844399	0.0499917	-0.00133244	0.021331	-2.20627	0.00835149	-1.54314	0	0	0	0	-0	0	0	0	-0.1265	0	-0	0	0	0	0	0	-0	0	0.105	0.015	0	0	-0	0	0	0.098	0.1	0	-0	0	0	0	0	0	-0	0	0.05595	0	0	0	-0	0	0	0	0	0	-0	0	570.766	564.541	321.56	204.423	0.284054	-3.48482	0.00776388	-0.0143424	9.83315
16	-0.0091099	0.0183563	0.0175893	0.0472124	0.000645075	0.0334321	0.0252209	-0.0300298	0.00381804	-0.0735533	0.020726	-0.0780553	0.0499375	-0.00134037	0.0213869	-2.20705	0.00856097	-1.54293	0	0	0	0	-0	0	0	0	-0.1265	0	-0	0	0	0	0	0	-0	0	0.105	0.015	0	0	-0	0	0	0.098	0.1	0	-0	0	0	0	0	0	-0	0	0.05595	0	0	0	-0	0	0	0	0	0	-0	0	571.353	565.336	321.381	204.895	0.276947	-3.44197	0.0075859	-0.0144546	9.80524
17	-0.00364152	0.0183279	0.0175989	0.0473256	0.000672262	0.0334881	0.0252171	-0.0300321	0.00382131	-0.0515407	0.0163614	-0.0629284	0.0497862	-0.00134667	0.0216814	-2.20223	0.00857968	-1.54268	0	0	0	0	-0	0	0	0	-0.1265	0	-0	0	0	0	0	0	-0	0	0.105	0.015	0	0	-0	0	0	0.098	0.1	0	-0	0	0	0	0	0	-0	0	0.05595	0	0	0	-0	0	0	0	0	0	-0	0	571.755	565.892	321.27	205.248	0.27261	-3.4175	0.00729717	-0.0145121	9.82092
18	-0.0127944	0.0184071	0.0175762	0.0473439	0.000643743	0.0334691	0.0252121	-0.0300294	0.00383458	-0.0255838	-0.00155562	-0.0757118	0.049928	-0.00135471	0.0212841	-2.21295	0.00913694	-1.54246	0	0	0	0	-0	0	0	0	-0.1265	0	-0	0	0	0	0	0	-0	0	0.105	0.015	0	0	-0	0	0	0.098	0.1	0	-0	0	0	0	0	0	-0	0	0.05595	0	0	0	-0	0	0	0	0	0	-0	0	572.53	566.914	321.002	206.041	0.262772	-3.36932	0.00725611	-0.0146923	9.82361
19	-0.0106589	0.0184137	0.0175788	0.0475199	0.000633244	0.0335133	0.0252213	-0.0300305	0.00384073	-0.0285457	-0.00293372	-0.0533689	0.0498454	-0.00136253	0.0214181	-2.21151	0.00921871	-1.54228	0	0	0	0	-0	0	0	0	-0.1265	0	-0	0	0	0	0	0	-0	0	0.105	0.015	0	0	-0	0	0	0.098	0.1	0	-0	0	0	0	0	0	-0	0	0.05595	0	0	0	-0	0	0	0	0	0	-0	0	572.905	567.398	320.899	206.424	0.259449	-3.35988	0.00714345	-0.0147907	9.88032
20	-0.00635654	0.0183935	0.0175865	0.0475008	0.000659653	0.0335241	0.0252185	-0.0300244	0.0038389	-0.0294931	-0.0134478	-0.0569025	0.0497378	-0.00136412	0.0216428	-2.20774	0.00920744	-1.54213	0	0	0	0	-0	0	0	0	-0.1265	0	-0	0	0	0	0	0	-0	0	0.105	0.015	0	0	-0	0	0	0.098	0.1	0	-0	0	0	0	0	0	-0	0	0.05595	0	0	0	-0	0	0	0	0	0	-0	0	573.143	567.743	320.825	206.711	0.257009	-3.3466	0.00696116	-0.0147891	9.90021
21	-0.00107368	0.0184216	0.0175879	0.0474995	0.000637792	0.0335213	0.0252154	-0.0300234	0.00383749	-0.0380487	-0.0145038	-0.0538543	0.049614	-0.00136582	0.0219142	-2.20268	0.00908788	-1.54207	0	0	0	0	-0	0	0	0	-0.1265	0	-0	0	0	0	0	0	-0	0	0.105	0.015	0	0	-0	0	0	0.098	0.1	0	-0	0	0	0	0	0	-0	0	0.05595	0	0	0	-0	0	0	0	0	0	-0	0	573.242	567.881	320.793	206.829	0.255915	-3.34215	0.00695805	-0.0148032	9.90853
22	0.00145793	0.0184531	0.0175833	0.0475002	0.000616405	0.03351	0.0252125	-0.0300251	0.00383815	-0.0195745	-0.0203498	-0.0577007	0.0495477	-0.00136708	0.0220512	-2.20047	0.00905551	-1.54202	0	0	0	0	-0	0	0	0	-0.1265	0	-0	0	0	0	0	0	-0	0	0.105	0.015	0	0	-0	0	0	0.098	0.1	0	-0	0	0	0	0	0	-0	0	0.05595	0	0	0	-0	0	0	0	0	0	-0	0	573.376	568.061	320.747	206.99	0.254105	-3.33534	0.00699197	-0.0148401	9.91716
23	-0.00121717	0.0184684	0.0175827	0.0475202	0.000604195	0.0335087	0.0252134	-0.0300226	0.00383763	-0.0229322	-0.0223364	-0.0629236	0.0496017	-0.00136784	0.0219234	-2.20326	0.00914554	-1.54203	0	0	0	0	-0	0	0	0	-0.1265	0	-0	0	0	0	0	0	-0	0	0.105	0.015	0	0	-0	0	0	0.098	0.1	0	-0	0	0	0	0	0	-0	0	0.05595	0	0	0	-0	0	0	0	0	0	-0	0	573.432	568.135	320.729	207.056	0.253312	-3.33272	0.0070083	-0.014863	9.92184
24	-0.00191596	0.0184808	0.0175773	0.0475221	0.000602206	0.0335036	0.025216	-0.0300256	0.0038378	-0.0164241	-0.0176549	-0.0777888	0.0496041	-0.00136933	0.0219013	-2.20447	0.00924904	-1.54196	0	0	0	0	-0	0	0	0	-0.1265	0	-0	0	0	0	0	0	-0	0	0.105	0.015	0	0	-0	0	0	0.098	0.1	0	-0	0	0	0	0	0	-0	0	0.05595	0	0	0	-0	0	0	0	0	0	-0	0	573.641	568.415	320.657	207.322	0.250572	-3.32021	0.00698929	-0.0149039	9.93199
25	0.00402104	0.0184591	0.0175801	0.0475183	0.000621391	0.0335105	0.025214	-0.0300226	0.00383733	-0.0142826	-0.0221223	-0.0744742	0.0494688	-0.0013694	0.0221982	-2.19878	0.00912907	-1.54184	0	0	0	0	-0	0	0	0	-0.1265	0	-0	0	0	0	0	0	-0	0	0.105	0.015	0	0	-0	0	0	0.098	0.1	0	-0	0	0	0	0	0	-0	0	0.05595	0	0	0	-0	0	0	0	0	0	-0	0	573.737	568.549	320.625	207.455	0.24959	-3.3139	0.00690743	-0.0148957	9.93814
26	0.00834513	0.0184779	0.0175767	0.0475114	0.000606523	0.033502	0.0252124	-0.0300215	0.0038362	-0.0128339	-0.0238166	-0.0721994	0.0493688	-0.00136987	0.0224163	-2.19457	0.00901262	-1.5418	0	0	0	0	-0	0	0	0	-0.1265	0	-0	0	0	0	0	0	-0	0	0.105	0.015	0	0	-0	0	0	0.098	0.1	0	-0	0	0	0	0	0	-0	0	0.05595	0	0	0	-0	0	0	0	0	0	-0	0	573.777	568.603	320.61	207.509	0.248961	-3.31148	0.00693766	-0.0149057	9.93952
27	0.00402982	0.0184905	0.0175745	0.0475159	0.000597904	0.0334982	0.0252117	-0.0300211	0.0038363	-0.0128424	-0.0254579	-0.0714053	0.0494612	-0.00137031	0.0222071	-2.19902	0.00915487	-1.54183	0	0	0	0	-0	0	0	0	-0.1265	0	-0	0	0	0	0	0	-0	0	0.105	0.015	0	0	-0	0	0	0.098	0.1	0	-0	0	0	0	0	0	-0	0	0.05595	0	0	0	-0	0	0	0	0	0	-0	0	573.832	568.677	320.59	207.583	0.248122	-3.30796	0.00695228	-0.0149229	9.9417
28	0.00111205	0.0184982	0.0175722	0.0475233	0.000594184	0.0334966	0.0252129	-0.0300226	0.00383769	-0.0150396	-0.0209895	-0.0612532	0.0495206	-0.00137093	0.0220672	-2.20215	0.00927053	-1.54183	0	0	0	0	-0	0	0	0	-0.1265	0	-0	0	0	0	0	0	-0	0	0.105	0.015	0	0	-0	0	0	0.098	0.1	0	-0	0	0	0	0	0	-0	0	0.05595	0	0	0	-0	0	0	0	0	0	-0	0	573.912	568.785	320.561	207.694	0.246975	-3.30277	0.0069529	-0.0149432	9.94534
29	0.00633826	0.0184917	0.0175686	0.0475455	0.000604076	0.0335048	0.0252146	-0.0300228	0.00383859	-0.0110106	-0.00966212	-0.0653187	0.0493955	-0.00137202	0.0223327	-2.19737	0.00919485	-1.54169	0	0	0	0	-0	0	0	0	-0.1265	0	-0	0	0	0	0	0	-0	0	0.105	0.015	0	0	-0	0	0	0.098	0.1	0	-0	0	0	0	0	0	-0	0	0.05595	0	0	0	-0	0	0	0	0	0	-0	0	574.079	569.007	320.502	207.938	0.244736	-3.29211	0.00692139	-0.0149758	9.95564
30	0.0156499	0.0184896	0.0175627	0.0475462	0.000613448	0.0335046	0.0252135	-0.0300239	0.00383847	-0.0166328	-0.0136307	-0.0741249	0.0491756	-0.00137315	0.0228012	-2.18873	0.00902755	-1.54149	0	0	0	0	-0	0	0	0	-0.1265	0	-0	0	0	0	0	0	-0	0	0.105	0.015	0	0	-0	0	0	0.098	0.1	0	-0	0	0	0	0	0	-0	0	0.05595	0	0	0	-0	0	0	0	0	0	-0	0	574.3	569.309	320.416	208.295	0.241644	-3.27703	0.00689415	-0.0150129	9.96808
31	0.0224135	0.0185003	0.0175576	0.0475271	0.00060723	0.0334932	0.0252109	-0.0300221	0.00383641	-0.0115629	-0.0171247	-0.0720467	0.0490138	-0.0013733	0.0231388	-2.1823	0.00887269	-1.54139	0	0	0	0	-0	0	0	0	-0.1265	0	-0	0	0	0	0	0	-0	0	0.105	0.015	0	0	-0	0	0	0.098	0.1	0	-0	0	0	0	0	0	-0	0	0.05595	0	0	0	-0	0	0	0	0	0	-0	0	574.407	569.451	320.372	208.472	0.239965	-3.26826	0.0069143	-0.0150271	9.96829
32	0.0196394	0.018514	0.0175552	0.0475328	0.000596522	0.033489	0.0252106	-0.0300213	0.00383638	-0.014531	-0.00952705	-0.0738089	0.0490737	-0.00137348	0.0230051	-2.1852	0.00896635	-1.54141	0	0	0	0	-0	0	0	0	-0.1265	0	-0	0	0	0	0	0	-0	0	0.105	0.015	0	0	-0	0	0	0.098	0.1	0	-0	0	0	0	0	0	-0	0	0.05595	0	0	0	-0	0	0	0	0	0	-0	0	574.45	569.51	320.355	208.543	0.239194	-3.26478	0.00693382	-0.0150403	9.96932
33	0.0209955	0.0185152	0.0175551	0.0475515	0.000597181	0.033494	0.0252115	-0.0300231	0.00383808	-0.00646013	-0.00302685	-0.0735856	0.0490385	-0.00137399	0.0230734	-2.18402	0.00895264	-1.54137	0	0	0	0	-0	0	0	0	-0.1265	0	-0	0	0	0	0	0	-0	0	0.105	0.015	0	0	-0	0	0	0.098	0.1	0	-0	0	0	0	0	0	-0	0	0.05595	0	0	0	-0	0	0	0	0	0	-0	0	574.509	569.589	320.333	208.641	0.238299	-3.26057	0.00692563	-0.0150555	9.9737
34	0.019651	0.0185103	0.017553	0.04757	0.000605178	0.0335004	0.0252106	-0.0300232	0.00384081	-0.0181501	0.00262481	-0.0693927	0.049063	-0.00137485	0.0230111	-2.18575	0.0090495	-1.54131	0	0	0	0	-0	0	0	0	-0.1265	0	-0	0	0	0	0	0	-0	0	0.105	0.015	0	0	-0	0	0	0.098	0.1	0	-0	0	0	0	0	0	-0	0	0.05595	0	0	0	-0	0	0	0	0	0	-0	0	574.634	569.753	320.287	208.855	0.236458	-3.25204	0.0069209	-0.0150823	9.983
35	0.0189944	0.0185192	0.0175447	0.0476078	0.000604709	0.0335061	0.0252111	-0.0300226	0.00384309	-0.0130793	-0.0011404	-0.0755876	0.0490657	-0.00137667	0.0229878	-2.18714	0.0091636	-1.54121	0	0	0	0	-0	0	0	0	-0.1265	0	-0	0	0	0	0	0	-0	0	0.105	0.015	0	0	-0	0	0	0.098	0.1	0	-0	0	0	0	0	0	-0	0	0.05595	0	0	0	-0	0	0	0	0	0	-0	0	574.854	570.035	320.203	209.256	0.233295	-3.24119	0.00697755	-0.0151475	10.0136
36	0.0175765	0.0185176	0.0175455	0.0476139	0.000606647	0.0335091	0.0252119	-0.0300226	0.0038425	-0.0098508	0.00484522	-0.0805783	0.0490951	-0.00137696	0.0229193	-2.1887	0.00922596	-1.5412	0	0	0	0	-0	0	0	0	-0.1265	0	-0	0	0	0	0	0	-0	0	0.105	0.015	0	0	-0	0	0	0.098	0.1	0	-0	0	0	0	0	0	-0	0	0.05595	0	0	0	-0	0	0	0	0	0	-0	0	574.897	570.097	320.188	209.341	0.232862	-3.23916	0.00694859	-0.0151455	10.0219
37	0.0208035	0.018517	0.0175443	0.0476095	0.000610586	0.0335078	0.0252121	-0.0300222	0.00384124	-0.0120982	0.0138503	-0.0866791	0.0490174	-0.00137735	0.0230801	-2.18579	0.00916909	-1.54113	0	0	0	0	-0	0	0	0	-0.1265	0	-0	0	0	0	0	0	-0	0	0.105	0.015	0	0	-0	0	0	0.098	0.1	0	-0	0	0	0	0	0	-0	0	0.05595	0	0	0	-0	0	0	0	0	0	-0	0	574.982	570.217	320.156	209.512	0.231666	-3.23389	0.00694412	-0.0151564	10.0319
38	0.0208415	0.0185181	0.0175434	0.0475959	0.000611472	0.0335036	0.0252115	-0.0300221	0.00384084	-0.0142033	0.00622557	-0.0869209	0.0490144	-0.00137721	0.0230834	-2.1859	0.00918595	-1.54111	0	0	0	0	-0	0	0	0	-0.1265	0	-0	0	0	0	0	0	-0	0	0.105	0.015	0	0	-0	0	0	0.098	0.1	0	-0	0	0	0	0	0	-0	0	0.05595	0	0	0	-0	0	0	0	0	0	-0	0	575.024	570.275	320.14	209.597	0.231112	-3.23129	0.00694339	-0.0151547	10.0367
39	0.0115584	0.0185196	0.0175399	0.0476097	0.000612965	0.0335065	0.0252121	-0.030024	0.00384363	-0.00781774	0.00137581	-0.098234	0.0492241	-0.0013777	0.0226311	-2.19552	0.00949985	-1.54116	0	0	0	0	-0	0	0	0	-0.1265	0	-0	0	0	0	0	0	-0	0	0.105	0.015	0	0	-0	0	0	0.098	0.1	0	-0	0	0	0	0	0	-0	0	0.05595	0	0	0	-0	0	0	0	0	0	-0	0	575.117	570.397	320.106	209.785	0.229649	-3.22545	0.00696484	-0.0151787	10.0478
40	0.0178668	0.0185179	0.0175349	0.0476154	0.0006173	0.033507	0.0252111	-0.0300247	0.00384106	0.0028237	-0.000275786	-0.0892785	0.0490743	-0.00137832	0.0229443	-2.18971	0.00936874	-1.54103	0	0	0	0	-0	0	0	0	-0.1265	0	-0	0	0	0	0	0	-0	0	0.105	0.015	0	0	-0	0	0	0.098	0.1	0	-0	0	0	0	0	0	-0	0	0.05595	0	0	0	-0	0	0	0	0	0	-0	0	575.243	570.562	320.058	210.056	0.227705	-3.21784	0.00700225	-0.0152083	10.0638
41	0.0207966	0.0185285	0.0175315	0.0475925	0.000612482	0.0334937	0.02521	-0.0300268	0.0038386	0.0179653	0.00117246	-0.0807697	0.0490039	-0.00137804	0.0230905	-2.18703	0.00930205	-1.54099	0	0	0	0	-0	0	0	0	-0.1265	0	-0	0	0	0	0	0	-0	0	0.105	0.015	0	0	-0	0	0	0.098	0.1	0	-0	0	0	0	0	0	-0	0	0.05595	0	0	0	-0	0	0	0	0	0	-0	0	575.302	570.643	320.034	210.189	0.226723	-3.2137	0.00703498	-0.0152142	10.0689
42	0.0199804	0.0185282	0.017531	0.0475864	0.000613428	0.0334902	0.0252095	-0.0300232	0.00383932	0.0158706	-0.00251374	-0.0839829	0.0490221	-0.00137747	0.0230507	-2.1879	0.00932905	-1.541	0	0	0	0	-0	0	0	0	-0.1265	0	-0	0	0	0	0	0	-0	0	0.105	0.015	0	0	-0	0	0	0.098	0.1	0	-0	0	0	0	0	0	-0	0	0.05595	0	0	0	-0	0	0	0	0	0	-0	0	575.315	570.66	320.03	210.217	0.226546	-3.21262	0.00703348	-0.0152086	10.0695
43	0.019391	0.0185304	0.0175292	0.0476129	0.000612323	0.0334981	0.0252094	-0.0300222	0.00384112	0.0186289	-0.00330064	-0.0807392	0.0490328	-0.00137809	0.0230223	-2.18868	0.0093672	-1.54098	0	0	0	0	-0	0	0	0	-0.1265	0	-0	0	0	0	0	0	-0	0	0.105	0.015	0	0	-0	0	0	0.098	0.1	0	-0	0	0	0	0	0	-0	0	0.05595	0	0	0	-0	0	0	0	0	0	-0	0	575.365	570.725	320.012	210.328	0.225626	-3.20907	0.00704858	-0.0152291	10.0766
44	0.0180609	0.0185354	0.0175268	0.0476296	0.000611522	0.0335008	0.0252101	-0.0300241	0.00384121	0.00967395	-0.00260927	-0.0904142	0.0490592	-0.00137896	0.0229593	-2.19034	0.00943966	-1.54095	0	0	0	0	-0	0	0	0	-0.1265	0	-0	0	0	0	0	0	-0	0	0.105	0.015	0	0	-0	0	0	0.098	0.1	0	-0	0	0	0	0	0	-0	0	0.05595	0	0	0	-0	0	0	0	0	0	-0	0	575.451	570.836	319.983	210.518	0.224259	-3.20453	0.00708299	-0.0152559	10.0912
45	0.0204279	0.0185332	0.0175267	0.0476194	0.000615654	0.0334978	0.0252098	-0.0300229	0.00384154	0.0132679	0.000312969	-0.0950126	0.0490035	-0.00137887	0.0230762	-2.18815	0.00938529	-1.54091	0	0	0	0	-0	0	0	0	-0.1265	0	-0	0	0	0	0	0	-0	0	0.105	0.015	0	0	-0	0	0	0.098	0.1	0	-0	0	0	0	0	0	-0	0	0.05595	0	0	0	-0	0	0	0	0	0	-0	0	575.491	570.891	319.97	210.612	0.22366	-3.2016	0.00708491	-0.0152547	10.0955
46	0.02621	0.0185333	0.0175248	0.0476329	0.000616606	0.033502	0.0252094	-0.0300251	0.00384425	-0.00132329	0.00177231	-0.0892723	0.0488675	-0.00137924	0.0233603	-2.18259	0.00923193	-1.54084	0	0	0	0	-0	0	0	0	-0.1265	0	-0	0	0	0	0	0	-0	0	0.105	0.015	0	0	-0	0	0	0.098	0.1	0	-0	0	0	0	0	0	-0	0	0.05595	0	0	0	-0	0	0	0	0	0	-0	0	575.543	570.958	319.953	210.737	0.222842	-3.19901	0.00710287	-0.0152687	10.1063
47	0.0322872	0.018532	0.0175227	0.0476494	0.000617714	0.0335068	0.0252094	-0.0300231	0.00384357	-0.0100545	0.00589573	-0.093003	0.0487223	-0.00137959	0.0236579	-2.17667	0.00906245	-1.54076	0	0	0	0	-0	0	0	0	-0.1265	0	-0	0	0	0	0	0	-0	0	0.105	0.015	0	0	-0	0	0	0.098	0.1	0	-0	0	0	0	0	0	-0	0	0.05595	0	0	0	-0	0	0	0	0	0	-0	0	575.584	571.01	319.942	210.828	0.222223	-3.19712	0.00711963	-0.0152809	10.1143
48	0.0293613	0.0185411	0.0175212	0.047634	0.000612305	0.0334982	0.0252102	-0.0300225	0.00384297	-0.0108189	-0.00275332	-0.0977653	0.0487896	-0.0013797	0.0235167	-2.17973	0.00915655	-1.54079	0	0	0	0	-0	0	0	0	-0.1265	0	-0	0	0	0	0	0	-0	0	0.105	0.015	0	0	-0	0	0	0.098	0.1	0	-0	0	0	0	0	0	-0	0	0.05595	0	0	0	-0	0	0	0	0	0	-0	0	575.611	571.047	319.934	210.896	0.221789	-3.19615	0.00714761	-0.0152851	10.1202
49	0.0334337	0.0185317	0.0175213	0.047649	0.000621913	0.0335068	0.0252103	-0.0300218	0.0038435	-0.00557519	-0.012244	-0.0953684	0.0486908	-0.00138	0.0237152	-2.17592	0.00905849	-1.54072	0	0	0	0	-0	0	0	0	-0.1265	0	-0	0	0	0	0	0	-0	0	0.105	0.015	0	0	-0	0	0	0.098	0.1	0	-0	0	0	0	0	0	-0	0	0.05595	0	0	0	-0	0	0	0	0	0	-0	0	575.673	571.127	319.917	211.047	0.220985	-3.19396	0.00714754	-0.0152946	10.1369
50	0.0358947	0.0185345	0.0175201	0.0476469	0.00062111	0.0335056	0.02521	-0.0300227	0.00384363	-0.000960184	-0.0106493	-0.101496	0.0486305	-0.00138012	0.0238357	-2.17359	0.00899296	-1.54069	0	0	0	0	-0	0	0	0	-0.1265	0	-0	0	0	0	0	0	-0	0	0.105	0.015	0	0	-0	0	0	0.098	0.1	0	-0	0	0	0	0	0	-0	0	0.05595	0	0	0	-0	0	0	0	0	0	-0	0	575.702	571.166	319.909	211.121	0.22053	-3.19254	0.0071627	-0.0152975	10.1433
51	0.0423784	0.0185343	0.0175182	0.0476577	0.000623671	0.033508	0.0252108	-0.0300238	0.00384433	0.00629497	-0.00379966	-0.0974265	0.048473	-0.00138051	0.0241521	-2.1674	0.00881634	-1.54061	0	0	0	0	-0	0	0	0	-0.1265	0	-0	0	0	0	0	0	-0	0	0.105	0.015	0	0	-0	0	0	0.098	0.1	0	-0	0	0	0	0	0	-0	0	0.05595	0	0	0	-0	0	0	0	0	0	-0	0	575.766	571.247	319.893	211.284	0.219547	-3.19023	0.00720099	-0.015314	10.1597
52	0.0452393	0.0185311	0.0175173	0.0476475	0.000627422	0.0335056	0.0252097	-0.0300238	0.00384282	-0.00256571	-0.00384368	-0.103351	0.0484023	-0.00138033	0.0242905	-2.16468	0.00873931	-1.54057	0	0	0	0	-0	0	0	0	-0.1265	0	-0	0	0	0	0	0	-0	0	0.105	0.015	0	0	-0	0	0	0.098	0.1	0	-0	0	0	0	0	0	-0	0	0.05595	0	0	0	-0	0	0	0	0	0	-0	0	575.795	571.287	319.885	211.364	0.219136	-3.18861	0.00720706	-0.0153108	10.1654
53	0.0471618	0.0185365	0.0175154	0.0476462	0.000624354	0.0335022	0.025209	-0.0300228	0.00384287	0.00317733	-0.00273764	-0.100366	0.0483542	-0.00138025	0.0243845	-2.16287	0.00868399	-1.54056	0	0	0	0	-0	0	0	0	-0.1265	0	-0	0	0	0	0	0	-0	0	0.105	0.015	0	0	-0	0	0	0.098	0.1	0	-0	0	0	0	0	0	-0	0	0.05595	0	0	0	-0	0	0	0	0	0	-0	0	575.819	571.317	319.879	211.424	0.218725	-3.18754	0.00723136	-0.015316	10.1702
54	0.0476331	0.0185397	0.0175143	0.0476544	0.000622216	0.0335033	0.025209	-0.0300223	0.0038434	0.0059753	-0.00265275	-0.096046	0.0483416	-0.00138037	0.0244074	-2.16248	0.00867248	-1.54055	0	0	0	0	-0	0	0	0	-0.1265	0	-0	0	0	0	0	0	-0	0	0.105	0.015	0	0	-0	0	0	0.098	0.1	0	-0	0	0	0	0	0	-0	0	0.05595	0	0	0	-0	0	0	0	0	0	-0	0	575.836	571.339	319.876	211.469	0.218396	-3.18659	0.00724318	-0.0153227	10.174
55	0.0521453	0.0185407	0.0175143	0.04766	0.000621944	0.0335048	0.025209	-0.0300218	0.00384394	0.00535557	-0.00496821	-0.0954544	0.0482308	-0.00138053	0.0246256	-2.15802	0.00853894	-1.54051	0	0	0	0	-0	0	0	0	-0.1265	0	-0	0	0	0	0	0	-0	0	0.105	0.015	0	0	-0	0	0	0.098	0.1	0	-0	0	0	0	0	0	-0	0	0.05595	0	0	0	-0	0	0	0	0	0	-0	0	575.849	571.356	319.873	211.502	0.218163	-3.18581	0.00724907	-0.0153265	10.1767
56	0.0563484	0.0185435	0.0175132	0.0476608	0.000620655	0.0335037	0.025209	-0.0300219	0.0038444	0.00858132	-0.00900238	-0.0996838	0.0481256	-0.0013808	0.024829	-2.15395	0.00841726	-1.54047	0	0	0	0	-0	0	0	0	-0.1265	0	-0	0	0	0	0	0	-0	0	0.105	0.015	0	0	-0	0	0	0.098	0.1	0	-0	0	0	0	0	0	-0	0	0.05595	0	0	0	-0	0	0	0	0	0	-0	0	575.877	571.392	319.867	211.576	0.217677	-3.18459	0.00727403	-0.0153346	10.1832
57	0.0617063	0.0185424	0.0175122	0.0476685	0.000622872	0.0335061	0.0252101	-0.0300224	0.0038451	0.00710516	-0.0164973	-0.104524	0.0479902	-0.0013811	0.0250873	-2.14879	0.00826361	-1.54041	0	0	0	0	-0	0	0	0	-0.1265	0	-0	0	0	0	0	0	-0	0	0.105	0.015	0	0	-0	0	0	0.098	0.1	0	-0	0	0	0	0	0	-0	0	0.05595	0	0	0	-0	0	0	0	0	0	-0	0	575.919	571.443	319.86	211.684	0.217026	-3.18313	0.00730132	-0.0153443	10.1946
58	0.0569784	0.0185364	0.0175113	0.047671	0.000630039	0.0335087	0.0252102	-0.0300233	0.00384471	0.00265649	-0.0189321	-0.112285	0.0481061	-0.00138135	0.0248603	-2.1538	0.0084207	-1.54043	0	0	0	0	-0	0	0	0	-0.1265	0	-0	0	0	0	0	0	-0	0	0.105	0.015	0	0	-0	0	0	0.098	0.1	0	-0	0	0	0	0	0	-0	0	0.05595	0	0	0	-0	0	0	0	0	0	-0	0	575.977	571.518	319.85	211.843	0.216196	-3.18105	0.00732337	-0.0153503	10.2106
59	0.0545036	0.0185356	0.0175106	0.0476633	0.000631381	0.0335066	0.0252092	-0.0300222	0.00384419	0.00156508	-0.0209131	-0.112877	0.0481668	-0.00138101	0.0247411	-2.15631	0.00849665	-1.54045	0	0	0	0	-0	0	0	0	-0.1265	0	-0	0	0	0	0	0	-0	0	0.105	0.015	0	0	-0	0	0	0.098	0.1	0	-0	0	0	0	0	0	-0	0	0.05595	0	0	0	-0	0	0	0	0	0	-0	0	575.984	571.528	319.849	211.864	0.216106	-3.18059	0.00732485	-0.0153434	10.2122
60	0.0604261	0.0185403	0.0175091	0.0476709	0.000628059	0.0335071	0.0252089	-0.0300219	0.00384461	0.004132	-0.0194298	-0.112715	0.048019	-0.00138116	0.0250268	-2.15047	0.00831706	-1.5404	0	0	0	0	-0	0	0	0	-0.1265	0	-0	0	0	0	0	0	-0	0	0.105	0.015	0	0	-0	0	0	0.098	0.1	0	-0	0	0	0	0	0	-0	0	0.05595	0	0	0	-0	0	0	0	0	0	-0	0	576.001	571.549	319.847	211.911	0.215761	-3.17978	0.00734567	-0.0153511	10.2163
61	0.0630308	0.0185451	0.0175083	0.0476656	0.000624462	0.0335033	0.0252087	-0.0300219	0.00384407	0.00236355	-0.0210144	-0.109791	0.0479526	-0.00138119	0.0251523	-2.14791	0.00823682	-1.54038	0	0	0	0	-0	0	0	0	-0.1265	0	-0	0	0	0	0	0	-0	0	0.105	0.015	0	0	-0	0	0	0.098	0.1	0	-0	0	0	0	0	0	-0	0	0.05595	0	0	0	-0	0	0	0	0	0	-0	0	576.01	571.56	319.846	211.934	0.215588	-3.17954	0.007365	-0.0153538	10.2183
62	0.0606632	0.0185447	0.0175081	0.0476718	0.000625617	0.033505	0.0252087	-0.0300219	0.0038445	-4.35422e-05	-0.0219596	-0.111552	0.0480111	-0.0013813	0.0250387	-2.15037	0.0083112	-1.5404	0	0	0	0	-0	0	0	0	-0.1265	0	-0	0	0	0	0	0	-0	0	0.105	0.015	0	0	-0	0	0	0.098	0.1	0	-0	0	0	0	0	0	-0	0	0.05595	0	0	0	-0	0	0	0	0	0	-0	0	576.029	571.584	319.844	211.985	0.215228	-3.17834	0.00737692	-0.0153587	10.2221
63	0.0611287	0.0185451	0.0175074	0.0476771	0.000626494	0.033506	0.025209	-0.0300221	0.00384485	-0.00169761	-0.0248381	-0.107231	0.0479982	-0.00138152	0.0250612	-2.15003	0.0083	-1.54039	0	0	0	0	-0	0	0	0	-0.1265	0	-0	0	0	0	0	0	-0	0	0.105	0.015	0	0	-0	0	0	0.098	0.1	0	-0	0	0	0	0	0	-0	0	0.05595	0	0	0	-0	0	0	0	0	0	-0	0	576.057	571.618	319.841	212.061	0.214735	-3.17693	0.00739847	-0.015365	10.2285
64	0.0604119	0.0185425	0.0175076	0.0476799	0.000629286	0.0335079	0.025209	-0.030022	0.00384515	-0.00245076	-0.0253467	-0.110999	0.0480155	-0.00138154	0.0250267	-2.15082	0.00832418	-1.54039	0	0	0	0	-0	0	0	0	-0.1265	0	-0	0	0	0	0	0	-0	0	0.105	0.015	0	0	-0	0	0	0.098	0.1	0	-0	0	0	0	0	0	-0	0	0.05595	0	0	0	-0	0	0	0	0	0	-0	0	576.07	571.634	319.84	212.099	0.214571	-3.17675	0.0074013	-0.0153642	10.2339
65	0.0568973	0.0185428	0.0175066	0.0476845	0.000630271	0.0335089	0.025209	-0.0300218	0.00384606	-0.00795194	-0.0191615	-0.108058	0.0481021	-0.00138177	0.0248583	-2.15448	0.0084332	-1.54042	0	0	0	0	-0	0	0	0	-0.1265	0	-0	0	0	0	0	0	-0	0	0.105	0.015	0	0	-0	0	0	0.098	0.1	0	-0	0	0	0	0	0	-0	0	0.05595	0	0	0	-0	0	0	0	0	0	-0	0	576.1	571.672	319.838	212.183	0.214088	-3.17573	0.00742352	-0.01537	10.2425
66	0.0597333	0.0185427	0.0175051	0.0476927	0.000631858	0.0335111	0.0252099	-0.0300229	0.00384641	-0.0121512	-0.0214003	-0.100476	0.0480294	-0.00138211	0.0249953	-2.15186	0.00834942	-1.54039	0	0	0	0	-0	0	0	0	-0.1265	0	-0	0	0	0	0	0	-0	0	0.105	0.015	0	0	-0	0	0	0.098	0.1	0	-0	0	0	0	0	0	-0	0	0.05595	0	0	0	-0	0	0	0	0	0	-0	0	576.144	571.728	319.837	212.305	0.213397	-3.17444	0.00745648	-0.0153789	10.2557
67	0.0617971	0.0185373	0.0175052	0.0476911	0.000637372	0.0335126	0.0252095	-0.0300225	0.00384635	-0.0157877	-0.0216001	-0.0960087	0.047977	-0.00138199	0.0250939	-2.1499	0.00828887	-1.54037	0	0	0	0	-0	0	0	0	-0.1265	0	-0	0	0	0	0	0	-0	0	0.105	0.015	0	0	-0	0	0	0.098	0.1	0	-0	0	0	0	0	0	-0	0	0.05595	0	0	0	-0	0	0	0	0	0	-0	0	576.164	571.754	319.837	212.365	0.213142	-3.17379	0.00745809	-0.0153741	10.2625
68	0.0621616	0.0185392	0.0175041	0.0476936	0.000636391	0.0335127	0.0252093	-0.0300219	0.00384592	-0.0117391	-0.0273063	-0.0932647	0.0479668	-0.00138204	0.0251118	-2.14961	0.00827649	-1.54037	0	0	0	0	-0	0	0	0	-0.1265	0	-0	0	0	0	0	0	-0	0	0.105	0.015	0	0	-0	0	0	0.098	0.1	0	-0	0	0	0	0	0	-0	0	0.05595	0	0	0	-0	0	0	0	0	0	-0	0	576.18	571.772	319.837	212.41	0.212837	-3.17311	0.00748018	-0.0153769	10.2668
69	0.0613073	0.0185421	0.0175036	0.0476907	0.000634825	0.0335105	0.025209	-0.0300218	0.00384576	-0.0118134	-0.0310061	-0.0920846	0.0479877	-0.00138205	0.0250713	-2.15053	0.00830092	-1.54038	0	0	0	0	-0	0	0	0	-0.1265	0	-0	0	0	0	0	0	-0	0	0.105	0.015	0	0	-0	0	0	0.098	0.1	0	-0	0	0	0	0	0	-0	0	0.05595	0	0	0	-0	0	0	0	0	0	-0	0	576.191	571.786	319.837	212.444	0.212628	-3.17268	0.00749551	-0.015378	10.2699
70	0.0618916	0.0185432	0.0175032	0.0476919	0.00063425	0.0335104	0.0252089	-0.0300219	0.00384587	-0.0103888	-0.0292668	-0.0949834	0.0479727	-0.00138205	0.0250994	-2.14999	0.00828216	-1.54038	0	0	0	0	-0	0	0	0	-0.1265	0	-0	0	0	0	0	0	-0	0	0.105	0.015	0	0	-0	0	0	0.098	0.1	0	-0	0	0	0	0	0	-0	0	0.05595	0	0	0	-0	0	0	0	0	0	-0	0	576.2	571.797	319.838	212.469	0.212454	-3.1722	0.00750462	-0.0153795	10.2719
71	0.0621049	0.0185435	0.017503	0.0476932	0.000634205	0.0335106	0.0252089	-0.030022	0.00384598	-0.0137568	-0.0310366	-0.095716	0.047967	-0.00138208	0.0251097	-2.14981	0.00827512	-1.54037	0	0	0	0	-0	0	0	0	-0.1265	0	-0	0	0	0	0	0	-0	0	0.105	0.015	0	0	-0	0	0	0.098	0.1	0	-0	0	0	0	0	0	-0	0	0.05595	0	0	0	-0	0	0	0	0	0	-0	0	576.206	571.805	319.838	212.488	0.212348	-3.17201	0.00750969	-0.0153804	10.274
72	0.0624885	0.0185441	0.0175026	0.047695	0.000634382	0.0335106	0.0252092	-0.0300221	0.00384636	-0.013349	-0.0344022	-0.100605	0.0479569	-0.00138217	0.0251283	-2.1495	0.00826233	-1.54037	0	0	0	0	-0	0	0	0	-0.1265	0	-0	0	0	0	0	0	-0	0	0.105	0.015	0	0	-0	0	0	0.098	0.1	0	-0	0	0	0	0	0	-0	0	0.05595	0	0	0	-0	0	0	0	0	0	-0	0	576.22	571.822	319.839	212.53	0.212081	-3.17138	0.00752526	-0.0153833	10.2777
73	0.0617629	0.0185414	0.0175024	0.0476995	0.000637304	0.0335128	0.0252089	-0.0300219	0.00384654	-0.0154883	-0.0334814	-0.100275	0.0479743	-0.0013823	0.0250934	-2.15033	0.00828398	-1.54038	0	0	0	0	-0	0	0	0	-0.1265	0	-0	0	0	0	0	0	-0	0	0.105	0.015	0	0	-0	0	0	0.098	0.1	0	-0	0	0	0	0	0	-0	0	0.05595	0	0	0	-0	0	0	0	0	0	-0	0	576.24	571.847	319.84	212.591	0.21178	-3.17098	0.00753985	-0.0153851	10.2852
74	0.055401	0.018544	0.0175011	0.0477015	0.000636659	0.0335119	0.0252095	-0.0300234	0.0038468	-0.00682765	-0.0290271	-0.10212	0.0481328	-0.00138251	0.0247888	-2.15685	0.00847359	-1.54043	0	0	0	0	-0	0	0	0	-0.1265	0	-0	0	0	0	0	0	-0	0	0.105	0.015	0	0	-0	0	0	0.098	0.1	0	-0	0	0	0	0	0	-0	0	0.05595	0	0	0	-0	0	0	0	0	0	-0	0	576.269	571.883	319.843	212.682	0.211278	-3.1703	0.00757477	-0.0153907	10.295
75	0.0578301	0.0185419	0.0175005	0.0476893	0.000638943	0.0335083	0.025209	-0.0300224	0.00384572	-0.0038464	-0.0256385	-0.101543	0.0480716	-0.00138226	0.0249057	-2.15451	0.00839826	-1.54042	0	0	0	0	-0	0	0	0	-0.1265	0	-0	0	0	0	0	0	-0	0	0.105	0.015	0	0	-0	0	0	0.098	0.1	0	-0	0	0	0	0	0	-0	0	0.05595	0	0	0	-0	0	0	0	0	0	-0	0	576.283	571.9	319.844	212.727	0.211092	-3.17004	0.0075901	-0.0153856	10.2995
76	0.059896	0.0185426	0.0174996	0.0476934	0.000638719	0.0335093	0.0252087	-0.0300223	0.00384561	0.0012283	-0.0266859	-0.097804	0.0480194	-0.00138221	0.0250048	-2.1525	0.00833332	-1.5404	0	0	0	0	-0	0	0	0	-0.1265	0	-0	0	0	0	0	0	-0	0	0.105	0.015	0	0	-0	0	0	0.098	0.1	0	-0	0	0	0	0	0	-0	0	0.05595	0	0	0	-0	0	0	0	0	0	-0	0	576.294	571.913	319.845	212.76	0.210892	-3.16968	0.00760074	-0.0153871	10.3033
77	0.0635246	0.0185451	0.0174988	0.0476945	0.000638152	0.033508	0.0252089	-0.0300234	0.00384715	-0.00786656	-0.0241259	-0.0905173	0.0479276	-0.00138235	0.0251795	-2.14901	0.00821866	-1.54038	0	0	0	0	-0	0	0	0	-0.1265	0	-0	0	0	0	0	0	-0	0	0.105	0.015	0	0	-0	0	0	0.098	0.1	0	-0	0	0	0	0	0	-0	0	0.05595	0	0	0	-0	0	0	0	0	0	-0	0	576.318	571.942	319.848	212.835	0.210424	-3.16869	0.00763356	-0.0153916	10.3101
78	0.0704251	0.0185394	0.0174986	0.0477087	0.000642315	0.0335146	0.0252091	-0.0300224	0.00384719	-0.00554972	-0.0241559	-0.0866566	0.0477529	-0.00138244	0.0255093	-2.14217	0.00800807	-1.54032	0	0	0	0	-0	0	0	0	-0.1265	0	-0	0	0	0	0	0	-0	0	0.105	0.015	0	0	-0	0	0	0.098	0.1	0	-0	0	0	0	0	0	-0	0	0.05595	0	0	0	-0	0	0	0	0	0	-0	0	576.33	571.955	319.851	212.871	0.210208	-3.168	0.00763487	-0.015393	10.3139
79	0.0736369	0.0185452	0.0174977	0.0476912	0.00063845	0.0335068	0.0252085	-0.0300221	0.00384559	-0.0086971	-0.0261217	-0.0877583	0.0476698	-0.00138241	0.0256633	-2.13901	0.00790632	-1.5403	0	0	0	0	-0	0	0	0	-0.1265	0	-0	0	0	0	0	0	-0	0	0.105	0.015	0	0	-0	0	0	0.098	0.1	0	-0	0	0	0	0	0	-0	0	0.05595	0	0	0	-0	0	0	0	0	0	-0	0	576.338	571.965	319.852	212.899	0.210028	-3.16765	0.00766209	-0.0153913	10.3151
80	0.0721672	0.0185461	0.0174973	0.0476934	0.000638135	0.0335071	0.0252084	-0.0300217	0.00384561	-0.0106435	-0.0228989	-0.0894575	0.0477069	-0.00138231	0.025593	-2.14052	0.00794884	-1.54032	0	0	0	0	-0	0	0	0	-0.1265	0	-0	0	0	0	0	0	-0	0	0.105	0.015	0	0	-0	0	0	0.098	0.1	0	-0	0	0	0	0	0	-0	0	0.05595	0	0	0	-0	0	0	0	0	0	-0	0	576.345	571.973	319.853	212.919	0.209875	-3.16713	0.00766954	-0.0153924	10.3164
81	0.0705726	0.0185463	0.0174972	0.0476985	0.00063877	0.0335084	0.0252091	-0.0300216	0.00384564	-0.0140337	-0.0148366	-0.0929127	0.0477472	-0.00138243	0.0255167	-2.14219	0.00799424	-1.54033	0	0	0	0	-0	0	0	0	-0.1265	0	-0	0	0	0	0	0	-0	0	0.105	0.015	0	0	-0	0	0	0.098	0.1	0	-0	0	0	0	0	0	-0	0	0.05595	0	0	0	-0	0	0	0	0	0	-0	0	576.359	571.991	319.856	212.965	0.209585	-3.16634	0.00768248	-0.015395	10.3203
82	0.0714794	0.0185433	0.0174976	0.0476975	0.000642493	0.0335092	0.025209	-0.0300225	0.00384564	-0.0100739	-0.0151429	-0.0867679	0.0477236	-0.00138248	0.0255595	-2.1414	0.00796304	-1.54033	0	0	0	0	-0	0	0	0	-0.1265	0	-0	0	0	0	0	0	-0	0	0.105	0.015	0	0	-0	0	0	0.098	0.1	0	-0	0	0	0	0	0	-0	0	0.05595	0	0	0	-0	0	0	0	0	0	-0	0	576.379	572.016	319.861	213.032	0.209209	-3.16513	0.00769727	-0.0153931	10.3256
83	0.0701957	0.0185427	0.017497	0.0476974	0.000643625	0.0335092	0.0252089	-0.030022	0.00384587	-0.0101943	-0.0103555	-0.0890246	0.047756	-0.00138239	0.0254983	-2.14274	0.00799888	-1.54034	0	0	0	0	-0	0	0	0	-0.1265	0	-0	0	0	0	0	0	-0	0	0.105	0.015	0	0	-0	0	0	0.098	0.1	0	-0	0	0	0	0	0	-0	0	0.05595	0	0	0	-0	0	0	0	0	0	-0	0	576.39	572.028	319.864	213.066	0.208972	-3.16431	0.00771257	-0.015392	10.3275
84	0.0696844	0.0185426	0.0174966	0.0477012	0.000643811	0.0335105	0.0252087	-0.0300219	0.00384626	-0.009736	-0.00935075	-0.0916387	0.0477686	-0.00138243	0.0254737	-2.1433	0.00801208	-1.54035	0	0	0	0	-0	0	0	0	-0.1265	0	-0	0	0	0	0	0	-0	0	0.105	0.015	0	0	-0	0	0	0.098	0.1	0	-0	0	0	0	0	0	-0	0	0.05595	0	0	0	-0	0	0	0	0	0	-0	0	576.397	572.037	319.866	213.091	0.208825	-3.16394	0.00772021	-0.0153928	10.3298
85	0.0712016	0.0185438	0.0174959	0.0477062	0.000643461	0.0335113	0.0252086	-0.030022	0.00384663	-0.00644495	-0.0078194	-0.090585	0.0477291	-0.00138263	0.0255465	-2.14188	0.00795977	-1.54034	0	0	0	0	-0	0	0	0	-0.1265	0	-0	0	0	0	0	0	-0	0	0.105	0.015	0	0	-0	0	0	0.098	0.1	0	-0	0	0	0	0	0	-0	0	0.05595	0	0	0	-0	0	0	0	0	0	-0	0	576.415	572.057	319.871	213.146	0.208449	-3.16307	0.0077461	-0.0153968	10.3346
86	0.0739257	0.0185447	0.0174955	0.0477075	0.000643181	0.0335112	0.0252087	-0.0300219	0.00384678	-0.00520352	-0.00508456	-0.0882597	0.047659	-0.00138267	0.0256766	-2.1392	0.00787322	-1.54033	0	0	0	0	-0	0	0	0	-0.1265	0	-0	0	0	0	0	0	-0	0	0.105	0.015	0	0	-0	0	0	0.098	0.1	0	-0	0	0	0	0	0	-0	0	0.05595	0	0	0	-0	0	0	0	0	0	-0	0	576.424	572.068	319.874	213.173	0.208262	-3.16267	0.00775924	-0.0153976	10.3373
87	0.0750619	0.0185445	0.0174951	0.0477084	0.000644131	0.0335112	0.0252087	-0.030022	0.00384681	-0.00259342	-0.00230365	-0.0878342	0.0476289	-0.0013828	0.025731	-2.13817	0.00783163	-1.54033	0	0	0	0	-0	0	0	0	-0.1265	0	-0	0	0	0	0	0	-0	0	0.105	0.015	0	0	-0	0	0	0.098	0.1	0	-0	0	0	0	0	0	-0	0	0.05595	0	0	0	-0	0	0	0	0	0	-0	0	576.444	572.09	319.881	213.234	0.207877	-3.16177	0.00778668	-0.0153989	10.3426
88	0.0760494	0.0185441	0.0174949	0.0477098	0.000644866	0.0335118	0.0252087	-0.0300221	0.0038467	-0.0050119	-0.00120126	-0.0919631	0.0476029	-0.00138279	0.0257781	-2.13724	0.00779758	-1.54032	0	0	0	0	-0	0	0	0	-0.1265	0	-0	0	0	0	0	0	-0	0	0.105	0.015	0	0	-0	0	0	0.098	0.1	0	-0	0	0	0	0	0	-0	0	0.05595	0	0	0	-0	0	0	0	0	0	-0	0	576.453	572.1	319.885	213.264	0.207684	-3.16137	0.00779926	-0.0153984	10.3457
89	0.0803582	0.0185444	0.0174944	0.0477095	0.000645776	0.0335111	0.0252089	-0.030022	0.00384691	-0.00339827	0.00387445	-0.090723	0.0474911	-0.00138288	0.0259834	-2.13305	0.00765726	-1.5403	0	0	0	0	-0	0	0	0	-0.1265	0	-0	0	0	0	0	0	-0	0	0.105	0.015	0	0	-0	0	0	0.098	0.1	0	-0	0	0	0	0	0	-0	0	0.05595	0	0	0	-0	0	0	0	0	0	-0	0	576.474	572.125	319.893	213.331	0.207261	-3.16019	0.00782693	-0.0153988	10.3506
90	0.0855177	0.0185434	0.017494	0.0477067	0.000646865	0.0335107	0.0252085	-0.0300219	0.00384661	-0.00544036	0.00314797	-0.0918498	0.0473565	-0.00138281	0.0262282	-2.12795	0.00749535	-1.54027	0	0	0	0	-0	0	0	0	-0.1265	0	-0	0	0	0	0	0	-0	0	0.105	0.015	0	0	-0	0	0	0.098	0.1	0	-0	0	0	0	0	0	-0	0	0.05595	0	0	0	-0	0	0	0	0	0	-0	0	576.484	572.137	319.897	213.364	0.207076	-3.15966	0.00783828	-0.0153961	10.3532
91	0.0868043	0.0185466	0.0174927	0.0477036	0.00064522	0.0335079	0.0252085	-0.030022	0.00384626	-0.00259364	0.00674005	-0.0933349	0.0473215	-0.00138288	0.0262893	-2.1268	0.00744435	-1.54027	0	0	0	0	-0	0	0	0	-0.1265	0	-0	0	0	0	0	0	-0	0	0.105	0.015	0	0	-0	0	0	0.098	0.1	0	-0	0	0	0	0	0	-0	0	0.05595	0	0	0	-0	0	0	0	0	0	-0	0	576.505	572.162	319.906	213.437	0.206602	-3.15843	0.00787692	-0.0153982	10.3578
92	0.0913549	0.0185442	0.0174923	0.0477105	0.000648797	0.0335104	0.0252094	-0.030023	0.0038469	0.00199103	0.0112427	-0.0993566	0.0472008	-0.00138299	0.0265043	-2.12243	0.00728925	-1.54026	0	0	0	0	-0	0	0	0	-0.1265	0	-0	0	0	0	0	0	-0	0	0.105	0.015	0	0	-0	0	0	0.098	0.1	0	-0	0	0	0	0	0	-0	0	0.05595	0	0	0	-0	0	0	0	0	0	-0	0	576.536	572.198	319.922	213.543	0.205952	-3.1568	0.00791724	-0.0153983	10.3669
93	0.0887255	0.0185389	0.0174926	0.047706	0.000653285	0.0335113	0.0252087	-0.0300221	0.0038466	0.0029175	0.0114279	-0.0978794	0.04727	-0.00138272	0.0263795	-2.12509	0.00736875	-1.54028	0	0	0	0	-0	0	0	0	-0.1265	0	-0	0	0	0	0	0	-0	0	0.105	0.015	0	0	-0	0	0	0.098	0.1	0	-0	0	0	0	0	0	-0	0	0.05595	0	0	0	-0	0	0	0	0	0	-0	0	576.54	572.202	319.925	213.558	0.205904	-3.15645	0.00791389	-0.0153901	10.3683
94	0.088304	0.0185428	0.0174914	0.0477105	0.000650466	0.0335111	0.025209	-0.0300222	0.003847	0.00466401	0.0163609	-0.0944403	0.0472802	-0.00138284	0.0263598	-2.12556	0.00737442	-1.54029	0	0	0	0	-0	0	0	0	-0.1265	0	-0	0	0	0	0	0	-0	0	0.105	0.015	0	0	-0	0	0	0.098	0.1	0	-0	0	0	0	0	0	-0	0	0.05595	0	0	0	-0	0	0	0	0	0	-0	0	576.55	572.213	319.93	213.588	0.205666	-3.15608	0.00793681	-0.0153936	10.3712
95	0.085522	0.01854	0.0174918	0.0477167	0.000653336	0.0335141	0.0252088	-0.0300219	0.00384747	0.0052232	0.0132908	-0.0957639	0.0473529	-0.00138295	0.0262279	-2.12842	0.0074519	-1.54032	0	0	0	0	-0	0	0	0	-0.1265	0	-0	0	0	0	0	0	-0	0	0.105	0.015	0	0	-0	0	0	0.098	0.1	0	-0	0	0	0	0	0	-0	0	0.05595	0	0	0	-0	0	0	0	0	0	-0	0	576.563	572.228	319.938	213.632	0.205424	-3.15556	0.00794764	-0.0153927	10.3759
96	0.0856778	0.0185424	0.0174912	0.0477173	0.00065169	0.0335134	0.0252088	-0.0300221	0.00384739	0.00186274	0.00966695	-0.0950817	0.0473482	-0.00138303	0.0262355	-2.1283	0.00744173	-1.54032	0	0	0	0	-0	0	0	0	-0.1265	0	-0	0	0	0	0	0	-0	0	0.105	0.015	0	0	-0	0	0	0.098	0.1	0	-0	0	0	0	0	0	-0	0	0.05595	0	0	0	-0	0	0	0	0	0	-0	0	576.569	572.236	319.942	213.654	0.205251	-3.15523	0.00796348	-0.0153937	10.3779
97	0.08452	0.0185418	0.0174913	0.0477184	0.00065254	0.0335139	0.0252087	-0.0300219	0.00384772	-0.000741237	0.0136375	-0.0925245	0.0473784	-0.00138302	0.0261806	-2.12948	0.00747375	-1.54034	0	0	0	0	-0	0	0	0	-0.1265	0	-0	0	0	0	0	0	-0	0	0.105	0.015	0	0	-0	0	0	0.098	0.1	0	-0	0	0	0	0	0	-0	0	0.05595	0	0	0	-0	0	0	0	0	0	-0	0	576.574	572.242	319.946	213.67	0.205158	-3.15502	0.00796834	-0.0153927	10.3796
98	0.0844931	0.018542	0.017491	0.0477227	0.000652767	0.0335152	0.0252086	-0.0300218	0.0038478	-0.00110145	0.0140573	-0.0911223	0.0473785	-0.00138316	0.0261793	-2.12957	0.00746669	-1.54035	0	0	0	0	-0	0	0	0	-0.1265	0	-0	0	0	0	0	0	-0	0	0.105	0.015	0	0	-0	0	0	0.098	0.1	0	-0	0	0	0	0	0	-0	0	0.05595	0	0	0	-0	0	0	0	0	0	-0	0	576.585	572.255	319.953	213.707	0.204924	-3.15449	0.00798386	-0.0153937	10.3827
99	0.0870315	0.0185437	0.0174906	0.0477231	0.000652335	0.0335143	0.0252085	-0.030022	0.00384789	0.00333197	0.0127638	-0.0924695	0.0473111	-0.0013833	0.0263002	-2.12713	0.00737671	-1.54034	0	0	0	0	-0	0	0	0	-0.1265	0	-0	0	0	0	0	0	-0	0	0.105	0.015	0	0	-0	0	0	0.098	0.1	0	-0	0	0	0	0	0	-0	0	0.05595	0	0	0	-0	0	0	0	0	0	-0	0	576.603	572.271	319.964	213.76	0.204563	-3.15392	0.00801933	-0.0153943	10.3879
100	0.085223	0.0185451	0.0174901	0.047722	0.000651564	0.0335131	0.0252085	-0.0300222	0.00384776	-0.00145408	0.0120335	-0.0909574	0.0473582	-0.00138328	0.0262148	-2.12899	0.00742449	-1.54037	0	0	0	0	-0	0	0	0	-0.1265	0	-0	0	0	0	0	0	-0	0	0.105	0.015	0	0	-0	0	0	0.098	0.1	0	-0	0	0	0	0	0	-0	0	0.05595	0	0	0	-0	0	0	0	0	0	-0	0	576.61	572.28	319.97	213.787	0.204359	-3.1534	0.00803701	-0.0153938	10.3897
