Stefan210/kinematic_calibration/src/kinematic_calibration/validation/experiments/experiments/anzahl_messungen/AC_B/larm_75/optimization_intermediate_results.csv
iteration	HeadPitch_offset	HeadYaw_offset	LElbowRoll_offset	LElbowYaw_offset	LShoulderPitch_offset	LShoulderRoll_offset	marker_transform_larm_tx	marker_transform_larm_ty	marker_transform_larm_tz	marker_transform_larm_rr	marker_transform_larm_rp	marker_transform_larm_ry	camera_transform_tx	camera_transform_ty	camera_transform_tz	camera_transform_rr	camera_transform_rp	camera_transform_ry	HeadPitch_transform_tx	HeadPitch_transform_ty	HeadPitch_transform_tz	HeadPitch_transform_rr	HeadPitch_transform_rp	HeadPitch_transform_ry	HeadYaw_transform_tx	HeadYaw_transform_ty	HeadYaw_transform_tz	HeadYaw_transform_rr	HeadYaw_transform_rp	HeadYaw_transform_ry	LElbowRoll_transform_tx	LElbowRoll_transform_ty	LElbowRoll_transform_tz	LElbowRoll_transform_rr	LElbowRoll_transform_rp	LElbowRoll_transform_ry	LElbowYaw_transform_tx	LElbowYaw_transform_ty	LElbowYaw_transform_tz	LElbowYaw_transform_rr	LElbowYaw_transform_rp	LElbowYaw_transform_ry	LShoulderPitch_transform_tx	LShoulderPitch_transform_ty	LShoulderPitch_transform_tz	LShoulderPitch_transform_rr	LShoulderPitch_transform_rp	LShoulderPitch_transform_ry	LShoulderRoll_transform_tx	LShoulderRoll_transform_ty	LShoulderRoll_transform_tz	LShoulderRoll_transform_rr	LShoulderRoll_transform_rp	LShoulderRoll_transform_ry	LWristYaw_transform_tx	LWristYaw_transform_ty	LWristYaw_transform_tz	LWristYaw_transform_rr	LWristYaw_transform_rp	LWristYaw_transform_ry	l_wrist_joint_transform_tx	l_wrist_joint_transform_ty	l_wrist_joint_transform_tz	l_wrist_joint_transform_rr	l_wrist_joint_transform_rp	l_wrist_joint_transform_ry	camera_fx	camera_fy	camera_cx	camera_cy	camera_D0	camera_D1	camera_D2	camera_D3	camera_D4	
0	0.0249164	-0.0307543	0.000853157	4.65819e-06	-0.000318322	-0.00310766	0.05071	0	0.01774	-2.26369	1.66533e-16	-1.5708	545.901	551.038	324.928	201.58	0.0255298	2.61142	-0.0636736	-0.0350419	0.213964
1	-0.0164752	0.022578	0.0115432	0.0202208	-0.0104981	0.0198346	0.0240059	-0.0294292	0.00117034	-3.85278e-05	-0.000352836	-0.00308765	0.0556277	0.00146604	0.0160139	-2.1971	-0.0149358	-1.56836	0	0	0	0	-0	0	0	0	-0.1265	0	-0	0	0	0	0	0	-0	0	0.105	0.015	0	0	-0	0	0	0.098	0.1	0	-0	0	0	0	0	0	-0	0	0.05595	0	0	0	-0	0	0	0	0	0	-0	0	545.901	551.039	324.928	201.581	-0.0105433	2.5991	-0.0946465	0.0420844	0.211323
2	-0.016173	0.0333296	0.0133344	0.0287863	-0.0207818	0.0243774	0.024177	-0.0296773	0.00166489	-9.59812e-05	-0.000400064	-0.00309237	0.0527129	0.00060311	0.0203472	-2.19946	-0.0174717	-1.57272	0	0	0	0	-0	0	0	0	-0.1265	0	-0	0	0	0	0	0	-0	0	0.105	0.015	0	0	-0	0	0	0.098	0.1	0	-0	0	0	0	0	0	-0	0	0.05595	0	0	0	-0	0	0	0	0	0	-0	0	545.903	551.039	324.925	201.586	-0.1599	2.49957	-0.0473358	0.00545636	0.178495
3	-0.0163641	0.0345702	0.0125383	0.0280992	-0.0203563	0.0244402	0.024085	-0.029719	0.00166878	-9.84385e-05	-0.000400357	-0.00310719	0.0545615	0.00121095	0.0180708	-2.19805	-0.0194536	-1.57802	0	0	0	0	-0	0	0	0	-0.1265	0	-0	0	0	0	0	0	-0	0	0.105	0.015	0	0	-0	0	0	0.098	0.1	0	-0	0	0	0	0	0	-0	0	0.05595	0	0	0	-0	0	0	0	0	0	-0	0	545.907	551.039	324.921	201.593	-0.407888	2.33384	-0.0221443	0.000344794	0.125976
4	-0.0157855	0.0392091	0.0130427	0.0312305	-0.0225673	0.0256943	0.024089	-0.0297773	0.00196991	-0.000133939	-0.000427209	-0.00311623	0.0560023	0.00135076	0.0170152	-2.2	-0.021502	-1.58367	0	0	0	0	-0	0	0	0	-0.1265	0	-0	0	0	0	0	0	-0	0	0.105	0.015	0	0	-0	0	0	0.098	0.1	0	-0	0	0	0	0	0	-0	0	0.05595	0	0	0	-0	0	0	0	0	0	-0	0	545.918	551.037	324.913	201.602	-0.616483	2.06251	0.0167926	-0.00992547	0.0281247
5	-0.0154874	0.0405137	0.0128546	0.0321237	-0.0222862	0.0270413	0.0241088	-0.0298192	0.00206501	-0.000149058	-0.000457729	-0.00312547	0.0560775	0.00138914	0.0170867	-2.20122	-0.0214269	-1.58516	0	0	0	0	-0	0	0	0	-0.1265	0	-0	0	0	0	0	0	-0	0	0.105	0.015	0	0	-0	0	0	0.098	0.1	0	-0	0	0	0	0	0	-0	0	0.05595	0	0	0	-0	0	0	0	0	0	-0	0	545.945	551.028	324.902	201.614	-0.552019	1.63589	0.0226221	-0.0120774	-0.144591
6	-0.0153481	0.0385927	0.0120978	0.0316898	-0.01986	0.0281416	0.0241341	-0.0298587	0.00202092	-0.000136197	-0.000483264	-0.00311457	0.055058	0.00139382	0.0179433	-2.20203	-0.0194697	-1.58262	0	0	0	0	-0	0	0	0	-0.1265	0	-0	0	0	0	0	0	-0	0	0.105	0.015	0	0	-0	0	0	0.098	0.1	0	-0	0	0	0	0	0	-0	0	0.05595	0	0	0	-0	0	0	0	0	0	-0	0	546.004	551.005	324.89	201.627	-0.260557	0.932373	0.00605345	-0.0099372	-0.428939
7	-0.0151757	0.0365114	0.0114545	0.0312241	-0.0175689	0.0291164	0.0241639	-0.0298951	0.00196698	-8.09753e-05	-0.000490099	-0.00298401	0.0538342	0.00133469	0.0190091	-2.20275	-0.0173512	-1.57955	0	0	0	0	-0	0	0	0	-0.1265	0	-0	0	0	0	0	0	-0	0	0.105	0.015	0	0	-0	0	0	0.098	0.1	0	-0	0	0	0	0	0	-0	0	0.05595	0	0	0	-0	0	0	0	0	0	-0	0	546.122	550.957	324.881	201.627	0.0696005	0.132134	-0.012795	-0.00758249	-0.70268
8	-0.0148785	0.0356517	0.0112643	0.0311144	-0.0165923	0.0297242	0.0241876	-0.0299118	0.00195001	-0.000228124	-0.000430523	-0.00296897	0.0530504	0.00124677	0.0197751	-2.20315	-0.016159	-1.57785	0	0	0	0	-0	0	0	0	-0.1265	0	-0	0	0	0	0	0	-0	0	0.105	0.015	0	0	-0	0	0	0.098	0.1	0	-0	0	0	0	0	0	-0	0	0.05595	0	0	0	-0	0	0	0	0	0	-0	0	546.403	550.84	324.874	201.615	0.266129	-0.425302	-0.0218364	-0.00661807	-0.713104
9	-0.0156713	0.0354598	0.0112622	0.0310721	-0.0163286	0.0299821	0.0242008	-0.029909	0.00194999	0.0011835	-0.000449451	-0.0029568	0.0526816	0.00118746	0.0201443	-2.20441	-0.0156495	-1.57712	0	0	0	0	-0	0	0	0	-0.1265	0	-0	0	0	0	0	0	-0	0	0.105	0.015	0	0	-0	0	0	0.098	0.1	0	-0	0	0	0	0	0	-0	0	0.05595	0	0	0	-0	0	0	0	0	0	-0	0	547.174	550.515	324.852	201.606	0.332373	-0.778859	-0.02145	-0.00651409	-0.223182
10	-0.0144563	0.0353031	0.0112328	0.030897	-0.0160687	0.0301905	0.0242162	-0.0298908	0.00195047	0.00246871	-0.00656402	-0.00499442	0.0521443	0.00111771	0.0207699	-2.2039	-0.015104	-1.5763	0	0	0	0	-0	0	0	0	-0.1265	0	-0	0	0	0	0	0	-0	0	0.105	0.015	0	0	-0	0	0	0.098	0.1	0	-0	0	0	0	0	0	-0	0	0.05595	0	0	0	-0	0	0	0	0	0	-0	0	549.223	549.633	324.828	201.593	0.368572	-1.31664	-0.014048	-0.00667032	1.12284
11	-0.0111711	0.0350401	0.0111065	0.030592	-0.0155642	0.0305435	0.024245	-0.0298524	0.00195719	0.00517341	-0.00711584	-0.0110815	0.0510337	0.000979019	0.0220715	-2.20198	-0.014304	-1.57495	0	0	0	0	-0	0	0	0	-0.1265	0	-0	0	0	0	0	0	-0	0	0.105	0.015	0	0	-0	0	0	0.098	0.1	0	-0	0	0	0	0	0	-0	0	0.05595	0	0	0	-0	0	0	0	0	0	-0	0	553.826	547.575	324.956	201.593	0.402723	-2.25228	0.00383792	-0.00705554	3.66551
12	-0.0184391	0.0348231	0.0108255	0.0303782	-0.0148969	0.0309856	0.0242884	-0.0297998	0.0019905	-2.29571e-05	-0.00419523	0.0105817	0.0496809	0.000769406	0.023323	-2.21169	-0.0141783	-1.57382	0	0	0	0	-0	0	0	0	-0.1265	0	-0	0	0	0	0	0	-0	0	0.105	0.015	0	0	-0	0	0	0.098	0.1	0	-0	0	0	0	0	0	-0	0	0.05595	0	0	0	-0	0	0	0	0	0	-0	0	561.169	544.215	325.835	202.001	0.378764	-3.22549	0.034357	-0.00760434	6.67174
13	-0.0112331	0.0347882	0.0106382	0.0303702	-0.0145583	0.031131	0.0242988	-0.0297915	0.0020213	0.0450853	-0.0126782	0.00828847	0.0487456	0.000651072	0.024533	-2.20608	-0.0148828	-1.57417	0	0	0	0	-0	0	0	0	-0.1265	0	-0	0	0	0	0	0	-0	0	0.105	0.015	0	0	-0	0	0	0.098	0.1	0	-0	0	0	0	0	0	-0	0	0.05595	0	0	0	-0	0	0	0	0	0	-0	0	565.298	542.424	326.912	202.483	0.330665	-3.57617	0.052679	-0.00782928	8.05019
14	-0.00517253	0.0347856	0.0105787	0.0303843	-0.014447	0.0311536	0.024314	-0.0297556	0.00202858	0.0436781	-0.0310489	0.00854603	0.0483457	0.000611749	0.0250806	-2.20056	-0.0152068	-1.57443	0	0	0	0	-0	0	0	0	-0.1265	0	-0	0	0	0	0	0	-0	0	0.105	0.015	0	0	-0	0	0	0.098	0.1	0	-0	0	0	0	0	0	-0	0	0.05595	0	0	0	-0	0	0	0	0	0	-0	0	566.598	541.891	327.347	202.662	0.313989	-3.66477	0.0584113	-0.00790713	8.41736
15	-0.0177296	0.0347874	0.0104528	0.0304307	-0.0142813	0.0312232	0.0243205	-0.0297396	0.00204485	0.0338987	-0.0221156	-0.00144583	0.0482427	0.00055043	0.0249132	-2.21516	-0.0166888	-1.57538	0	0	0	0	-0	0	0	0	-0.1265	0	-0	0	0	0	0	0	-0	0	0.105	0.015	0	0	-0	0	0	0.098	0.1	0	-0	0	0	0	0	0	-0	0	0.05595	0	0	0	-0	0	0	0	0	0	-0	0	569.089	541.327	328.769	203.575	0.281254	-3.77601	0.0681084	-0.00769325	8.93872
16	-0.0163892	0.0347953	0.0104262	0.0304587	-0.0142351	0.031224	0.024327	-0.0297374	0.00205518	0.0389253	-0.00571866	0.00582716	0.048125	0.000534838	0.0250718	-2.21431	-0.0170853	-1.5757	0	0	0	0	-0	0	0	0	-0.1265	0	-0	0	0	0	0	0	-0	0	0.105	0.015	0	0	-0	0	0	0.098	0.1	0	-0	0	0	0	0	0	-0	0	0.05595	0	0	0	-0	0	0	0	0	0	-0	0	569.618	541.257	329.147	203.81	0.274504	-3.78614	0.0700133	-0.0076461	8.99305
17	-0.0113465	0.0347997	0.0104	0.0304792	-0.0142076	0.0312271	0.0243236	-0.0297326	0.00205637	0.0481793	-0.0193922	0.0113779	0.0479385	0.000525313	0.0253783	-2.20977	-0.0174947	-1.57616	0	0	0	0	-0	0	0	0	-0.1265	0	-0	0	0	0	0	0	-0	0	0.105	0.015	0	0	-0	0	0	0.098	0.1	0	-0	0	0	0	0	0	-0	0	0.05595	0	0	0	-0	0	0	0	0	0	-0	0	570.054	541.264	329.538	204.063	0.267763	-3.78407	0.0714252	-0.0075461	9.02049
18	-0.00590158	0.0348059	0.0103303	0.0305543	-0.014162	0.0312104	0.0243239	-0.029728	0.00206776	0.0390775	-0.0163833	0.00936774	0.0477057	0.000510267	0.0257336	-2.20631	-0.0192442	-1.57789	0	0	0	0	-0	0	0	0	-0.1265	0	-0	0	0	0	0	0	-0	0	0.105	0.015	0	0	-0	0	0	0.098	0.1	0	-0	0	0	0	0	0	-0	0	0.05595	0	0	0	-0	0	0	0	0	0	-0	0	571.06	541.909	331.05	205.112	0.255545	-3.75514	0.0730478	-0.00698619	9.01108
19	-0.00229759	0.0348077	0.0103123	0.030589	-0.0141445	0.0312074	0.024328	-0.0297307	0.0020718	0.0450061	-0.0106644	0.0237521	0.0475879	0.000505812	0.0259273	-2.20325	-0.0196822	-1.5784	0	0	0	0	-0	0	0	0	-0.1265	0	-0	0	0	0	0	0	-0	0	0.105	0.015	0	0	-0	0	0	0.098	0.1	0	-0	0	0	0	0	0	-0	0	0.05595	0	0	0	-0	0	0	0	0	0	-0	0	571.287	542.105	331.453	205.402	0.254008	-3.73638	0.0731952	-0.00683027	8.94482
20	-0.00442519	0.0348124	0.0102968	0.0306134	-0.0141384	0.0312007	0.0243265	-0.0297282	0.00207422	0.0373784	-0.0181063	0.0173961	0.0476347	0.000504136	0.0258325	-2.20586	-0.0201475	-1.57879	0	0	0	0	-0	0	0	0	-0.1265	0	-0	0	0	0	0	0	-0	0	0.105	0.015	0	0	-0	0	0	0.098	0.1	0	-0	0	0	0	0	0	-0	0	0.05595	0	0	0	-0	0	0	0	0	0	-0	0	571.469	542.309	331.827	205.669	0.251149	-3.71287	0.0732381	-0.00667578	8.88561
21	-0.0233748	0.0348135	0.0102434	0.0307007	-0.0141245	0.031166	0.0243257	-0.0297237	0.00208465	0.0269133	0.00216295	0.0233416	0.0481111	0.000501204	0.0249358	-2.22677	-0.0221735	-1.58016	0	0	0	0	-0	0	0	0	-0.1265	0	-0	0	0	0	0	0	-0	0	0.105	0.015	0	0	-0	0	0	0.098	0.1	0	-0	0	0	0	0	0	-0	0	0.05595	0	0	0	-0	0	0	0	0	0	-0	0	572.094	543.354	333.366	206.738	0.2466	-3.65627	0.072479	-0.00599167	8.75226
22	0.00768588	0.0348045	0.0101656	0.0308477	-0.0141025	0.0311204	0.0243369	-0.0297328	0.00210486	0.0231744	0.0261307	0.050981	0.0473112	0.000497643	0.0264315	-2.19864	-0.0246344	-1.58342	0	0	0	0	-0	0	0	0	-0.1265	0	-0	0	0	0	0	0	-0	0	0.105	0.015	0	0	-0	0	0	0.098	0.1	0	-0	0	0	0	0	0	-0	0	0.05595	0	0	0	-0	0	0	0	0	0	-0	0	572.998	545.074	335.631	208.338	0.243471	-3.56938	0.0707035	-0.00493669	8.5163
23	0.015352	0.034804	0.0101525	0.030888	-0.0140921	0.0311238	0.024323	-0.0297255	0.00209523	0.012364	0.0233879	0.0434138	0.0470759	0.00049592	0.0267891	-2.19143	-0.0248524	-1.584	0	0	0	0	-0	0	0	0	-0.1265	0	-0	0	0	0	0	0	-0	0	0.105	0.015	0	0	-0	0	0	0.098	0.1	0	-0	0	0	0	0	0	-0	0	0.05595	0	0	0	-0	0	0	0	0	0	-0	0	573.121	545.302	335.939	208.586	0.243589	-3.53938	0.0703863	-0.0047708	8.39841
24	0.00887188	0.0348128	0.010135	0.0309276	-0.014094	0.0311127	0.0243223	-0.0297237	0.00209841	0.0138121	0.0212276	0.0530403	0.0472528	0.000495709	0.0264757	-2.19849	-0.0254604	-1.58437	0	0	0	0	-0	0	0	0	-0.1265	0	-0	0	0	0	0	0	-0	0	0.105	0.015	0	0	-0	0	0	0.098	0.1	0	-0	0	0	0	0	0	-0	0	0.05595	0	0	0	-0	0	0	0	0	0	-0	0	573.291	545.624	336.372	208.918	0.240113	-3.49498	0.0700613	-0.00456692	8.27684
25	0.00414332	0.034816	0.0101276	0.0309445	-0.0140933	0.0311094	0.0243233	-0.0297242	0.00210089	0.018333	0.029279	0.061934	0.0473773	0.00049552	0.0262505	-2.20347	-0.0257416	-1.58445	0	0	0	0	-0	0	0	0	-0.1265	0	-0	0	0	0	0	0	-0	0	0.105	0.015	0	0	-0	0	0	0.098	0.1	0	-0	0	0	0	0	0	-0	0	0.05595	0	0	0	-0	0	0	0	0	0	-0	0	573.361	545.755	336.55	209.055	0.238992	-3.4769	0.0699211	-0.00448118	8.22276
26	0.0131452	0.0348194	0.0101045	0.0309884	-0.0140919	0.0310934	0.0243267	-0.0297246	0.00209744	0.0124042	0.0504689	0.0449962	0.0471441	0.000495595	0.0266693	-2.19523	-0.0263224	-1.58537	0	0	0	0	-0	0	0	0	-0.1265	0	-0	0	0	0	0	0	-0	0	0.105	0.015	0	0	-0	0	0	0.098	0.1	0	-0	0	0	0	0	0	-0	0	0.05595	0	0	0	-0	0	0	0	0	0	-0	0	573.595	546.194	337.131	209.485	0.235473	-3.43192	0.0694908	-0.00420126	8.10567
27	0.009016	0.0348223	0.0100944	0.0310108	-0.01409	0.0310878	0.0243229	-0.0297241	0.00210555	0.00312056	0.040028	0.0423285	0.0472518	0.000495221	0.0264726	-2.19975	-0.0267251	-1.58561	0	0	0	0	-0	0	0	0	-0.1265	0	-0	0	0	0	0	0	-0	0	0.105	0.015	0	0	-0	0	0	0.098	0.1	0	-0	0	0	0	0	0	-0	0	0.05595	0	0	0	-0	0	0	0	0	0	-0	0	573.712	546.411	337.419	209.701	0.234136	-3.40876	0.069262	-0.00405942	8.03775
28	0.000308247	0.0348239	0.0100767	0.0310466	-0.0140878	0.031078	0.024324	-0.0297282	0.0021099	0.0152217	0.0425269	0.0258366	0.047482	0.000494876	0.0260584	-2.20903	-0.0273697	-1.58588	0	0	0	0	-0	0	0	0	-0.1265	0	-0	0	0	0	0	0	-0	0	0.105	0.015	0	0	-0	0	0	0.098	0.1	0	-0	0	0	0	0	0	-0	0	0.05595	0	0	0	-0	0	0	0	0	0	-0	0	573.887	546.735	337.845	210.017	0.232117	-3.37819	0.0689355	-0.00385017	7.95415
29	0.0147385	0.034823	0.0100427	0.0311142	-0.0140818	0.0310583	0.024323	-0.0297237	0.00211439	0.0225453	0.0546989	0.0355108	0.0471001	0.00049383	0.0267416	-2.1958	-0.0282559	-1.58734	0	0	0	0	-0	0	0	0	-0.1265	0	-0	0	0	0	0	0	-0	0	0.105	0.015	0	0	-0	0	0	0.098	0.1	0	-0	0	0	0	0	0	-0	0	0.05595	0	0	0	-0	0	0	0	0	0	-0	0	574.273	547.452	338.765	210.683	0.229268	-3.3284	0.0682116	-0.00339313	7.82204
30	0.0105276	0.0348247	0.0100253	0.031154	-0.0140777	0.0310507	0.0243221	-0.0297241	0.00211519	0.0243869	0.0602684	0.0197284	0.0472041	0.00049285	0.0265417	-2.20062	-0.028852	-1.58775	0	0	0	0	-0	0	0	0	-0.1265	0	-0	0	0	0	0	0	-0	0	0.105	0.015	0	0	-0	0	0	0.098	0.1	0	-0	0	0	0	0	0	-0	0	0.05595	0	0	0	-0	0	0	0	0	0	-0	0	574.465	547.802	339.214	211.022	0.227716	-3.29546	0.0678396	-0.00316441	7.72271
31	0.00906297	0.034827	0.0100211	0.0311668	-0.014077	0.0310501	0.0243192	-0.0297213	0.00211708	0.0248241	0.0606624	0.0275919	0.047241	0.000492379	0.0264734	-2.20226	-0.0290245	-1.58785	0	0	0	0	-0	0	0	0	-0.1265	0	-0	0	0	0	0	0	-0	0	0.105	0.015	0	0	-0	0	0	0.098	0.1	0	-0	0	0	0	0	0	-0	0	0.05595	0	0	0	-0	0	0	0	0	0	-0	0	574.515	547.898	339.337	211.117	0.227379	-3.28499	0.0677263	-0.00310013	7.68824
32	0.0158078	0.0348289	0.0100011	0.0312068	-0.0140753	0.0310379	0.0243222	-0.029727	0.0021236	0.0363828	0.0581101	0.00925063	0.0470624	0.000491997	0.0267891	-2.19618	-0.0295079	-1.58864	0	0	0	0	-0	0	0	0	-0.1265	0	-0	0	0	0	0	0	-0	0	0.105	0.015	0	0	-0	0	0	0.098	0.1	0	-0	0	0	0	0	0	-0	0	0.05595	0	0	0	-0	0	0	0	0	0	-0	0	574.731	548.287	339.834	211.489	0.224812	-3.24962	0.0673552	-0.00284913	7.59555
33	0.0181992	0.0348298	0.0099912	0.0312288	-0.014073	0.0310339	0.0243213	-0.0297194	0.00212283	0.0385564	0.0397458	0.00704836	0.0469955	0.000491572	0.0269015	-2.19412	-0.0297568	-1.589	0	0	0	0	-0	0	0	0	-0.1265	0	-0	0	0	0	0	0	-0	0	0.105	0.015	0	0	-0	0	0	0.098	0.1	0	-0	0	0	0	0	0	-0	0	0.05595	0	0	0	-0	0	0	0	0	0	-0	0	574.839	548.482	340.081	211.678	0.223811	-3.23044	0.0671515	-0.00271993	7.53899
34	0.00192834	0.0348306	0.00996297	0.0312859	-0.0140694	0.0310172	0.024326	-0.0297267	0.00212763	0.0235803	0.0210512	-0.00122243	0.0474298	0.000490628	0.0261358	-2.21141	-0.0309565	-1.5894	0	0	0	0	-0	0	0	0	-0.1265	0	-0	0	0	0	0	0	-0	0	0.105	0.015	0	0	-0	0	0	0.098	0.1	0	-0	0	0	0	0	0	-0	0	0.05595	0	0	0	-0	0	0	0	0	0	-0	0	575.169	549.081	340.837	212.24	0.221076	-3.18627	0.0665693	-0.00233192	7.42261
35	-0.00869025	0.0348318	0.0099488	0.0313182	-0.014066	0.0310112	0.0243169	-0.0297191	0.00212841	0.0258463	0.0204009	0.00256229	0.0476978	0.000489871	0.0256301	-2.22255	-0.031609	-1.58948	0	0	0	0	-0	0	0	0	-0.1265	0	-0	0	0	0	0	0	-0	0	0.105	0.015	0	0	-0	0	0	0.098	0.1	0	-0	0	0	0	0	0	-0	0	0.05595	0	0	0	-0	0	0	0	0	0	-0	0	575.336	549.379	341.208	212.526	0.219661	-3.15841	0.0662646	-0.00213405	7.34061
36	-0.0118719	0.0348345	0.0099272	0.0313654	-0.0140638	0.0310001	0.0243185	-0.0297213	0.00213211	0.0169446	0.0141477	-0.0065918	0.0477734	0.000488871	0.0254773	-2.22647	-0.0323359	-1.59	0	0	0	0	-0	0	0	0	-0.1265	0	-0	0	0	0	0	0	-0	0	0.105	0.015	0	0	-0	0	0	0.098	0.1	0	-0	0	0	0	0	0	-0	0	0.05595	0	0	0	-0	0	0	0	0	0	-0	0	575.581	549.81	341.751	212.941	0.217327	-3.1209	0.0658556	-0.00185026	7.23738
37	-0.00404323	0.0348367	0.00991858	0.0313862	-0.0140621	0.030997	0.0243174	-0.0297194	0.00213365	0.0112019	0.00874258	-0.00137231	0.0475716	0.000488306	0.0258522	-2.21896	-0.0324552	-1.5905	0	0	0	0	-0	0	0	0	-0.1265	0	-0	0	0	0	0	0	-0	0	0.105	0.015	0	0	-0	0	0	0.098	0.1	0	-0	0	0	0	0	0	-0	0	0.05595	0	0	0	-0	0	0	0	0	0	-0	0	575.681	549.985	341.972	213.115	0.216349	-3.10214	0.0656782	-0.00173004	7.18107
38	0.000431682	0.0348392	0.00990648	0.0314124	-0.0140615	0.0309903	0.0243166	-0.0297194	0.00213516	0.00427167	0.00797803	-0.0087324	0.0474539	0.000487929	0.0260632	-2.2149	-0.0327339	-1.591	0	0	0	0	-0	0	0	0	-0.1265	0	-0	0	0	0	0	0	-0	0	0.105	0.015	0	0	-0	0	0	0.098	0.1	0	-0	0	0	0	0	0	-0	0	0.05595	0	0	0	-0	0	0	0	0	0	-0	0	575.819	550.228	342.273	213.35	0.214625	-3.07764	0.0654523	-0.00157029	7.11458
39	-0.00524113	0.0348408	0.00990166	0.0314243	-0.0140608	0.0309886	0.0243166	-0.0297181	0.00213691	0.00352371	0.0014224	-0.0124972	0.0476	0.000487579	0.0257944	-2.22075	-0.0329964	-1.59096	0	0	0	0	-0	0	0	0	-0.1265	0	-0	0	0	0	0	0	-0	0	0.105	0.015	0	0	-0	0	0	0.098	0.1	0	-0	0	0	0	0	0	-0	0	0.05595	0	0	0	-0	0	0	0	0	0	-0	0	575.875	550.326	342.396	213.447	0.214089	-3.06723	0.0653547	-0.00150343	7.08319
40	-0.0171397	0.034842	0.00988214	0.0314639	-0.0140588	0.0309775	0.0243186	-0.0297158	0.00213582	-0.0231154	0.0388542	-0.0197445	0.0479042	0.000486978	0.025227	-2.23334	-0.0338439	-1.59113	0	0	0	0	-0	0	0	0	-0.1265	0	-0	0	0	0	0	0	-0	0	0.105	0.015	0	0	-0	0	0	0.098	0.1	0	-0	0	0	0	0	0	-0	0	0.05595	0	0	0	-0	0	0	0	0	0	-0	0	576.103	550.723	342.892	213.83	0.211793	-3.03393	0.064992	-0.00123824	6.99596
41	-0.028791	0.0348445	0.0098732	0.0314848	-0.0140575	0.0309731	0.0243156	-0.0297209	0.0021413	-0.0384744	0.0369543	-0.0212231	0.0481929	0.000486434	0.0246677	-2.24534	-0.0343853	-1.591	0	0	0	0	-0	0	0	0	-0.1265	0	-0	0	0	0	0	0	-0	0	0.105	0.015	0	0	-0	0	0	0.098	0.1	0	-0	0	0	0	0	0	-0	0	0.05595	0	0	0	-0	0	0	0	0	0	-0	0	576.216	550.919	343.136	214.024	0.210654	-3.014	0.0648027	-0.00110415	6.93791
42	-0.0334635	0.0348462	0.00986525	0.0315035	-0.0140568	0.03097	0.0243152	-0.0297198	0.00214171	-0.0517813	0.0379238	-0.0272147	0.0483039	0.000486081	0.024441	-2.25027	-0.0347098	-1.59104	0	0	0	0	-0	0	0	0	-0.1265	0	-0	0	0	0	0	0	-0	0	0.105	0.015	0	0	-0	0	0	0.098	0.1	0	-0	0	0	0	0	0	-0	0	0.05595	0	0	0	-0	0	0	0	0	0	-0	0	576.301	551.066	343.319	214.17	0.209642	-2.99796	0.064663	-0.00100345	6.89239
43	-0.032633	0.0348477	0.00986241	0.0315108	-0.0140567	0.030969	0.0243155	-0.0297175	0.00214312	-0.0478274	0.0414156	-0.0240623	0.0482824	0.000485849	0.0244813	-2.24955	-0.0347871	-1.59115	0	0	0	0	-0	0	0	0	-0.1265	0	-0	0	0	0	0	0	-0	0	0.105	0.015	0	0	-0	0	0	0.098	0.1	0	-0	0	0	0	0	0	-0	0	0.05595	0	0	0	-0	0	0	0	0	0	-0	0	576.335	551.126	343.394	214.23	0.209256	-2.99114	0.0646063	-0.000962117	6.87198
44	-0.0262745	0.0348488	0.00985804	0.0315198	-0.0140565	0.0309665	0.0243153	-0.0297173	0.00214395	-0.0481688	0.0436109	-0.0191214	0.0481267	0.000485741	0.0247877	-2.24333	-0.0347862	-1.59149	0	0	0	0	-0	0	0	0	-0.1265	0	-0	0	0	0	0	0	-0	0	0.105	0.015	0	0	-0	0	0	0.098	0.1	0	-0	0	0	0	0	0	-0	0	0.05595	0	0	0	-0	0	0	0	0	0	-0	0	576.383	551.207	343.496	214.312	0.208537	-2.98169	0.0645362	-0.000906384	6.84639
45	-0.0187989	0.0348502	0.00984031	0.0315556	-0.0140547	0.0309564	0.0243169	-0.0297198	0.00214647	-0.0376832	0.0506894	-0.0111269	0.0479382	0.000485138	0.0251468	-2.23648	-0.0351909	-1.59226	0	0	0	0	-0	0	0	0	-0.1265	0	-0	0	0	0	0	0	-0	0	0.105	0.015	0	0	-0	0	0	0.098	0.1	0	-0	0	0	0	0	0	-0	0	0.05595	0	0	0	-0	0	0	0	0	0	-0	0	576.594	551.563	343.947	214.665	0.206399	-2.95142	0.0642273	-0.000660663	6.76731
46	-0.0200027	0.0348519	0.00983174	0.0315755	-0.0140531	0.0309529	0.0243149	-0.0297202	0.00214666	-0.0522264	0.0514384	-0.0200893	0.0479648	0.00048457	0.0250897	-2.23801	-0.0354896	-1.59247	0	0	0	0	-0	0	0	0	-0.1265	0	-0	0	0	0	0	0	-0	0	0.105	0.015	0	0	-0	0	0	0.098	0.1	0	-0	0	0	0	0	0	-0	0	0.05595	0	0	0	-0	0	0	0	0	0	-0	0	576.7	551.743	344.169	214.843	0.205468	-2.93402	0.0640569	-0.000534762	6.71637
47	-0.0227454	0.0348535	0.00982873	0.0315841	-0.0140529	0.0309521	0.0243148	-0.0297168	0.00214845	-0.0506439	0.0505209	-0.0136853	0.0480325	0.000484247	0.024959	-2.24087	-0.0356502	-1.59246	0	0	0	0	-0	0	0	0	-0.1265	0	-0	0	0	0	0	0	-0	0	0.105	0.015	0	0	-0	0	0	0.098	0.1	0	-0	0	0	0	0	0	-0	0	0.05595	0	0	0	-0	0	0	0	0	0	-0	0	576.738	551.81	344.251	214.91	0.205142	-2.92701	0.0639912	-0.000488302	6.69484
48	-0.023474	0.0348554	0.00981514	0.0316116	-0.014052	0.0309442	0.0243121	-0.0297196	0.00215156	-0.0294539	0.0396432	-0.013335	0.0480495	0.000483845	0.0249231	-2.24207	-0.0360817	-1.59281	0	0	0	0	-0	0	0	0	-0.1265	0	-0	0	0	0	0	0	-0	0	0.105	0.015	0	0	-0	0	0	0.098	0.1	0	-0	0	0	0	0	0	-0	0	0.05595	0	0	0	-0	0	0	0	0	0	-0	0	576.896	552.074	344.584	215.175	0.203242	-2.9015	0.0637668	-0.000304578	6.62765
49	-0.0267758	0.0348568	0.00981169	0.0316216	-0.0140513	0.0309439	0.0243145	-0.0297163	0.00215148	-0.0265269	0.041608	-0.00829718	0.04813	0.000483422	0.024766	-2.2455	-0.0362592	-1.59278	0	0	0	0	-0	0	0	0	-0.1265	0	-0	0	0	0	0	0	-0	0	0.105	0.015	0	0	-0	0	0	0.098	0.1	0	-0	0	0	0	0	0	-0	0	0.05595	0	0	0	-0	0	0	0	0	0	-0	0	576.937	552.143	344.669	215.245	0.203018	-2.89443	0.0636977	-0.00025481	6.60449
50	-0.0253487	0.0348591	0.00979809	0.0316491	-0.0140506	0.0309357	0.0243149	-0.0297167	0.00215367	-0.0310691	0.0380931	-0.00109129	0.0480936	0.000483042	0.0248335	-2.24456	-0.0366627	-1.59322	0	0	0	0	-0	0	0	0	-0.1265	0	-0	0	0	0	0	0	-0	0	0.105	0.015	0	0	-0	0	0	0.098	0.1	0	-0	0	0	0	0	0	-0	0	0.05595	0	0	0	-0	0	0	0	0	0	-0	0	577.102	552.42	345.016	215.522	0.201031	-2.86784	0.0634612	-6.13984e-05	6.53478
