Stefan210/kinematic_calibration/src/kinematic_calibration/validation/experiments/experiments/impact_noise/outlier/larm_randomize_6_measurements_rk_true/optimization_intermediate_results.csv
iteration	HeadPitch_offset	HeadYaw_offset	LElbowRoll_offset	LElbowYaw_offset	LShoulderPitch_offset	LShoulderRoll_offset	marker_transform_larm_tx	marker_transform_larm_ty	marker_transform_larm_tz	marker_transform_larm_rr	marker_transform_larm_rp	marker_transform_larm_ry	camera_transform_tx	camera_transform_ty	camera_transform_tz	camera_transform_rr	camera_transform_rp	camera_transform_ry	HeadPitch_transform_tx	HeadPitch_transform_ty	HeadPitch_transform_tz	HeadPitch_transform_rr	HeadPitch_transform_rp	HeadPitch_transform_ry	HeadYaw_transform_tx	HeadYaw_transform_ty	HeadYaw_transform_tz	HeadYaw_transform_rr	HeadYaw_transform_rp	HeadYaw_transform_ry	LElbowRoll_transform_tx	LElbowRoll_transform_ty	LElbowRoll_transform_tz	LElbowRoll_transform_rr	LElbowRoll_transform_rp	LElbowRoll_transform_ry	LElbowYaw_transform_tx	LElbowYaw_transform_ty	LElbowYaw_transform_tz	LElbowYaw_transform_rr	LElbowYaw_transform_rp	LElbowYaw_transform_ry	LShoulderPitch_transform_tx	LShoulderPitch_transform_ty	LShoulderPitch_transform_tz	LShoulderPitch_transform_rr	LShoulderPitch_transform_rp	LShoulderPitch_transform_ry	LShoulderRoll_transform_tx	LShoulderRoll_transform_ty	LShoulderRoll_transform_tz	LShoulderRoll_transform_rr	LShoulderRoll_transform_rp	LShoulderRoll_transform_ry	LWristYaw_transform_tx	LWristYaw_transform_ty	LWristYaw_transform_tz	LWristYaw_transform_rr	LWristYaw_transform_rp	LWristYaw_transform_ry	l_wrist_joint_transform_tx	l_wrist_joint_transform_ty	l_wrist_joint_transform_tz	l_wrist_joint_transform_rr	l_wrist_joint_transform_rp	l_wrist_joint_transform_ry	camera_fx	camera_fy	camera_cx	camera_cy	camera_D0	camera_D1	camera_D2	camera_D3	camera_D4	
0	0.0249164	-0.0307543	0.000853157	4.65819e-06	-0.000318322	-0.00310766	0.05071	0	0.01774	-2.26369	1.66533e-16	-1.5708	545.901	551.038	324.928	201.58	0.0255298	2.61142	-0.0636736	-0.0350419	0.213964
1	-0.0133071	0.0115065	0.0233638	0.0511232	0.0304719	0.0190565	0.0257395	-0.0298536	0.00449584	-0.000442213	-0.000677366	-0.0029181	0.0556857	-0.00143616	0.0141388	-2.20937	0.00713814	-1.56987	0	0	0	0	-0	0	0	0	-0.1265	0	-0	0	0	0	0	0	-0	0	0.105	0.015	0	0	-0	0	0	0.098	0.1	0	-0	0	0	0	0	0	-0	0	0.05595	0	0	0	-0	0	0	0	0	0	-0	0	545.901	551.039	324.928	201.581	0.00874673	2.60454	-0.093596	0.0761012	0.212494
2	-0.0163966	0.022637	0.0211033	0.0461752	0.00330999	0.0323707	0.0255896	-0.0302494	0.00375784	-0.000348546	-0.000605702	-0.00297136	0.0546839	-0.00109178	0.015673	-2.19746	-0.00120971	-1.55761	0	0	0	0	-0	0	0	0	-0.1265	0	-0	0	0	0	0	0	-0	0	0.105	0.015	0	0	-0	0	0	0.098	0.1	0	-0	0	0	0	0	0	-0	0	0.05595	0	0	0	-0	0	0	0	0	0	-0	0	545.912	551.04	324.918	201.598	-0.359097	2.29522	-0.0180914	0.00105148	0.114386
3	-0.0168747	0.0198661	0.0211773	0.0474079	0.00257931	0.0337804	0.0255397	-0.0302842	0.00372253	-0.000329567	-0.000600135	-0.00296434	0.0555107	-0.00123914	0.0141598	-2.19515	0.00171184	-1.55164	0	0	0	0	-0	0	0	0	-0.1265	0	-0	0	0	0	0	0	-0	0	0.105	0.015	0	0	-0	0	0	0.098	0.1	0	-0	0	0	0	0	0	-0	0	0.05595	0	0	0	-0	0	0	0	0	0	-0	0	545.949	551.035	324.911	201.627	-0.410044	1.72279	-0.00591127	-0.00718873	-0.0804625
4	-0.0164912	0.0177095	0.0192255	0.048369	0.0027707	0.0342614	0.0253843	-0.0301728	0.00378568	-0.000319251	-0.00066913	-0.00299929	0.0550846	-0.00108086	0.014615	-2.19635	0.00354556	-1.54872	0	0	0	0	-0	0	0	0	-0.1265	0	-0	0	0	0	0	0	-0	0	0.105	0.015	0	0	-0	0	0	0.098	0.1	0	-0	0	0	0	0	0	-0	0	0.05595	0	0	0	-0	0	0	0	0	0	-0	0	546.031	551.019	324.914	201.659	-0.20431	0.81727	-0.00982096	-0.00912501	-0.400047
5	-0.016258	0.0173196	0.0178716	0.0482761	0.00261866	0.0346805	0.0252731	-0.0300877	0.00379264	-0.000559777	-0.000933637	-0.00326383	0.0544518	-0.000927623	0.0154382	-2.19782	0.00407891	-1.54853	0	0	0	0	-0	0	0	0	-0.1265	0	-0	0	0	0	0	0	-0	0	0.105	0.015	0	0	-0	0	0	0.098	0.1	0	-0	0	0	0	0	0	-0	0	0.05595	0	0	0	-0	0	0	0	0	0	-0	0	546.213	550.973	324.938	201.671	-0.00696577	0.104856	-0.014868	-0.00961317	-0.581488
6	-0.0160317	0.017122	0.0173718	0.0478306	0.00265372	0.0346263	0.0252315	-0.0300497	0.00377161	-0.000750671	-0.00139608	-0.00342556	0.0540792	-0.000868385	0.0160092	-2.19905	0.00426376	-1.54864	0	0	0	0	-0	0	0	0	-0.1265	0	-0	0	0	0	0	0	-0	0	0.105	0.015	0	0	-0	0	0	0.098	0.1	0	-0	0	0	0	0	0	-0	0	0.05595	0	0	0	-0	0	0	0	0	0	-0	0	546.703	550.848	324.948	201.692	0.106815	-0.368581	-0.0174253	-0.00974763	-0.383779
7	-0.0159519	0.0175551	0.0171508	0.0474991	0.00240796	0.0344472	0.0252107	-0.0300287	0.00375931	-0.000441713	-0.00314522	-0.00316634	0.0536773	-0.000868795	0.0165936	-2.20023	0.00418311	-1.54913	0	0	0	0	-0	0	0	0	-0.1265	0	-0	0	0	0	0	0	-0	0	0.105	0.015	0	0	-0	0	0	0.098	0.1	0	-0	0	0	0	0	0	-0	0	0.05595	0	0	0	-0	0	0	0	0	0	-0	0	547.99	550.571	324.878	201.75	0.177706	-0.871938	-0.0156148	-0.0099282	0.532594
8	-0.0170454	0.0180837	0.0169941	0.0474411	0.00216136	0.0342958	0.0251957	-0.0300149	0.00377664	-0.00400949	0.00135746	-0.00488072	0.0530001	-0.000911319	0.0174312	-2.20306	0.00436318	-1.54919	0	0	0	0	-0	0	0	0	-0.1265	0	-0	0	0	0	0	0	-0	0	0.105	0.015	0	0	-0	0	0	0.098	0.1	0	-0	0	0	0	0	0	-0	0	0.05595	0	0	0	-0	0	0	0	0	0	-0	0	550.858	550.229	324.621	201.854	0.248589	-1.69629	-0.00855033	-0.010285	2.65937
9	-0.0132165	0.0186017	0.0168626	0.0475951	0.00195026	0.0341721	0.025183	-0.0300081	0.00381744	0.00576828	-0.00259373	0.00287419	0.0519373	-0.000985654	0.0188672	-2.20156	0.00499206	-1.54852	0	0	0	0	-0	0	0	0	-0.1265	0	-0	0	0	0	0	0	-0	0	0.105	0.015	0	0	-0	0	0	0.098	0.1	0	-0	0	0	0	0	0	-0	0	0.05595	0	0	0	-0	0	0	0	0	0	-0	0	555.54	550.93	323.974	201.962	0.328487	-2.82772	0.00107125	-0.0108399	5.96941
10	-0.0010931	0.018899	0.0168845	0.0476922	0.00180637	0.0340571	0.0251799	-0.0300155	0.00384666	-0.0122579	0.000861533	0.0215475	0.0511686	-0.00104218	0.0201441	-2.19056	0.00531159	-1.54791	0	0	0	0	-0	0	0	0	-0.1265	0	-0	0	0	0	0	0	-0	0	0.105	0.015	0	0	-0	0	0	0.098	0.1	0	-0	0	0	0	0	0	-0	0	0.05595	0	0	0	-0	0	0	0	0	0	-0	0	558.416	552.251	323.478	201.952	0.368331	-3.45047	0.00474867	-0.0111279	8.03599
11	-0.00480773	0.0190995	0.016844	0.0478672	0.00171186	0.0340088	0.0251782	-0.0300087	0.00385792	-0.00484085	-0.0292278	0.0365443	0.050804	-0.00108327	0.0204351	-2.19562	0.00627848	-1.54702	0	0	0	0	-0	0	0	0	-0.1265	0	-0	0	0	0	0	0	-0	0	0.105	0.015	0	0	-0	0	0	0.098	0.1	0	-0	0	0	0	0	0	-0	0	0.05595	0	0	0	-0	0	0	0	0	0	-0	0	561.074	554.414	322.753	202.159	0.39261	-3.86614	0.00621413	-0.0114084	9.536
12	-0.0105309	0.019066	0.0169054	0.0479472	0.00173329	0.0340118	0.0251774	-0.0300141	0.00387556	-0.0103611	-0.0197723	0.0536812	0.0507865	-0.00110517	0.0202862	-2.20179	0.00681063	-1.54659	0	0	0	0	-0	0	0	0	-0.1265	0	-0	0	0	0	0	0	-0	0	0.105	0.015	0	0	-0	0	0	0.098	0.1	0	-0	0	0	0	0	0	-0	0	0.05595	0	0	0	-0	0	0	0	0	0	-0	0	562	555.333	322.48	202.263	0.40112	-3.99235	0.00593225	-0.0114411	10.0461
13	-0.0195993	0.0191002	0.0168977	0.0481526	0.00172581	0.034005	0.0251762	-0.0300113	0.00389467	-0.0221032	-0.00241278	0.0620675	0.0508226	-0.00112814	0.0199807	-2.21157	0.00755281	-1.5461	0	0	0	0	-0	0	0	0	-0.1265	0	-0	0	0	0	0	0	-0	0	0.105	0.015	0	0	-0	0	0	0.098	0.1	0	-0	0	0	0	0	0	-0	0	0.05595	0	0	0	-0	0	0	0	0	0	-0	0	563.066	556.527	322.082	202.487	0.407102	-4.10524	0.00569543	-0.0116452	10.5216
14	-0.0141389	0.0192011	0.0168682	0.0483213	0.00169396	0.0339871	0.0251743	-0.0300161	0.00390833	-0.0412806	0.00149199	0.0740441	0.0505633	-0.0011492	0.0204194	-2.20729	0.0081694	-1.54532	0	0	0	0	-0	0	0	0	-0.1265	0	-0	0	0	0	0	0	-0	0	0.105	0.015	0	0	-0	0	0	0.098	0.1	0	-0	0	0	0	0	0	-0	0	0.05595	0	0	0	-0	0	0	0	0	0	-0	0	564.359	558.151	321.474	202.934	0.408597	-4.18897	0.00523256	-0.0119548	10.9599
15	-0.00573621	0.0193084	0.0168188	0.0484189	0.00167039	0.033983	0.0251847	-0.0300305	0.00391382	-0.011191	0.0204259	0.0685955	0.0502463	-0.00116538	0.0209954	-2.20073	0.00903163	-1.54416	0	0	0	0	-0	0	0	0	-0.1265	0	-0	0	0	0	0	0	-0	0	0.105	0.015	0	0	-0	0	0	0.098	0.1	0	-0	0	0	0	0	0	-0	0	0.05595	0	0	0	-0	0	0	0	0	0	-0	0	565.882	560.208	320.574	203.734	0.4046	-4.23019	0.00444799	-0.0123528	11.3375
16	-0.0199745	0.0192374	0.0168162	0.0483703	0.0017337	0.0340639	0.0251781	-0.0300218	0.00390621	-0.00447756	0.0146384	0.0873927	0.0504668	-0.00117227	0.0203524	-2.2163	0.0103057	-1.54329	0	0	0	0	-0	0	0	0	-0.1265	0	-0	0	0	0	0	0	-0	0	0.105	0.015	0	0	-0	0	0	0.098	0.1	0	-0	0	0	0	0	0	-0	0	0.05595	0	0	0	-0	0	0	0	0	0	-0	0	566.858	561.574	319.875	204.372	0.4011	-4.23227	0.00357685	-0.0125402	11.5354
17	-0.0158808	0.0193305	0.0167666	0.04834	0.0016977	0.034037	0.0251697	-0.0300152	0.00390339	-0.00443837	0.0129003	0.101661	0.0503467	-0.00117151	0.0205888	-2.21277	0.0104921	-1.54299	0	0	0	0	-0	0	0	0	-0.1265	0	-0	0	0	0	0	0	-0	0	0.105	0.015	0	0	-0	0	0	0.098	0.1	0	-0	0	0	0	0	0	-0	0	0.05595	0	0	0	-0	0	0	0	0	0	-0	0	567.215	562.136	319.593	204.643	0.400015	-4.23647	0.00327195	-0.0126501	11.6149
18	-0.0155143	0.0194119	0.0167559	0.0484163	0.00166758	0.0340128	0.0251676	-0.0300145	0.00391228	0.00500695	0.00407103	0.0869426	0.0502992	-0.00117853	0.0206443	-2.21317	0.0109144	-1.54259	0	0	0	0	-0	0	0	0	-0.1265	0	-0	0	0	0	0	0	-0	0	0.105	0.015	0	0	-0	0	0	0.098	0.1	0	-0	0	0	0	0	0	-0	0	0.05595	0	0	0	-0	0	0	0	0	0	-0	0	567.682	562.849	319.217	205.019	0.398057	-4.24143	0.00290133	-0.0128359	11.7254
19	-0.0357881	0.0194608	0.0167571	0.048553	0.00165608	0.0340096	0.0251736	-0.0300214	0.00392035	0.0248772	0.0138235	0.0736317	0.0506672	-0.00119001	0.0196721	-2.23457	0.012147	-1.54218	0	0	0	0	-0	0	0	0	-0.1265	0	-0	0	0	0	0	0	-0	0	0.105	0.015	0	0	-0	0	0	0.098	0.1	0	-0	0	0	0	0	0	-0	0	0.05595	0	0	0	-0	0	0	0	0	0	-0	0	568.328	563.794	318.679	205.585	0.395286	-4.24895	0.00241331	-0.0130962	11.8899
20	-0.0432652	0.0194621	0.0167167	0.0484647	0.0016675	0.034027	0.0251661	-0.0300129	0.00391174	0.0313947	0.023528	0.072485	0.0507809	-0.00118732	0.0193175	-2.24289	0.0128767	-1.54177	0	0	0	0	-0	0	0	0	-0.1265	0	-0	0	0	0	0	0	-0	0	0.105	0.015	0	0	-0	0	0	0.098	0.1	0	-0	0	0	0	0	0	-0	0	0.05595	0	0	0	-0	0	0	0	0	0	-0	0	568.754	564.444	318.262	206.013	0.393779	-4.2497	0.00199164	-0.0132052	11.987
21	-0.0605108	0.0195439	0.0167014	0.0485572	0.00163493	0.0340093	0.0251639	-0.0300084	0.00391682	0.0411601	0.000906247	0.0743341	0.0510722	-0.00119443	0.0184811	-2.26136	0.0140782	-1.54137	0	0	0	0	-0	0	0	0	-0.1265	0	-0	0	0	0	0	0	-0	0	0.105	0.015	0	0	-0	0	0	0.098	0.1	0	-0	0	0	0	0	0	-0	0	0.05595	0	0	0	-0	0	0	0	0	0	-0	0	569.335	565.313	317.679	206.647	0.390808	-4.25491	0.00158033	-0.013466	12.145
22	-0.0624584	0.0196056	0.0166885	0.0485291	0.00160177	0.0339956	0.0251603	-0.0300084	0.00391318	0.0370914	-0.00692424	0.0728326	0.0510905	-0.00119445	0.0183939	-2.26369	0.0143419	-1.54127	0	0	0	0	-0	0	0	0	-0.1265	0	-0	0	0	0	0	0	-0	0	0.105	0.015	0	0	-0	0	0	0.098	0.1	0	-0	0	0	0	0	0	-0	0	0.05595	0	0	0	-0	0	0	0	0	0	-0	0	569.499	565.59	317.498	206.842	0.390734	-4.25948	0.001395	-0.0135194	12.1962
23	-0.0626904	0.019655	0.0166778	0.0486414	0.00159117	0.0339855	0.0251568	-0.0300124	0.00392985	0.0652447	-0.0376286	0.0644567	0.0510557	-0.00120286	0.01842	-2.26541	0.0152138	-1.54049	0	0	0	0	-0	0	0	0	-0.1265	0	-0	0	0	0	0	0	-0	0	0.105	0.015	0	0	-0	0	0	0.098	0.1	0	-0	0	0	0	0	0	-0	0	0.05595	0	0	0	-0	0	0	0	0	0	-0	0	570.127	566.523	316.805	207.624	0.388078	-4.27443	0.000950755	-0.0138404	12.4129
24	-0.054334	0.0196546	0.0166827	0.0488226	0.00159708	0.0340051	0.0251624	-0.0300105	0.00393559	0.067482	-0.0340301	0.0729844	0.0508765	-0.00121174	0.0188662	-2.25773	0.015408	-1.53995	0	0	0	0	-0	0	0	0	-0.1265	0	-0	0	0	0	0	0	-0	0	0.105	0.015	0	0	-0	0	0	0.098	0.1	0	-0	0	0	0	0	0	-0	0	0.05595	0	0	0	-0	0	0	0	0	0	-0	0	570.429	566.974	316.472	207.996	0.388454	-4.28999	0.000567174	-0.0140201	12.5467
25	-0.0493867	0.0196962	0.0166618	0.0487872	0.00158596	0.034004	0.0251625	-0.0300159	0.003935	0.0856816	-0.0366972	0.0575194	0.0507607	-0.00121339	0.0191395	-2.25383	0.015855	-1.53932	0	0	0	0	-0	0	0	0	-0.1265	0	-0	0	0	0	0	0	-0	0	0.105	0.015	0	0	-0	0	0	0.098	0.1	0	-0	0	0	0	0	0	-0	0	0.05595	0	0	0	-0	0	0	0	0	0	-0	0	570.812	567.573	315.98	208.548	0.387902	-4.30727	0.000238383	-0.0142007	12.7131
26	-0.0497731	0.0196684	0.0166541	0.0488226	0.001615	0.0340264	0.0251588	-0.0300154	0.00393528	0.0617005	-0.0233248	0.058016	0.0507517	-0.00121558	0.0191298	-2.25494	0.0163429	-1.53884	0	0	0	0	-0	0	0	0	-0.1265	0	-0	0	0	0	0	0	-0	0	0.105	0.015	0	0	-0	0	0	0.098	0.1	0	-0	0	0	0	0	0	-0	0	0.05595	0	0	0	-0	0	0	0	0	0	-0	0	571.077	567.986	315.612	208.95	0.388358	-4.32122	-0.000133001	-0.0143382	12.8419
27	-0.0437627	0.0197346	0.0166195	0.0488516	0.00158132	0.0340122	0.0251585	-0.0300105	0.00393696	0.071935	-0.0309931	0.0486038	0.0506147	-0.00121719	0.0194582	-2.25001	0.0167656	-1.53819	0	0	0	0	-0	0	0	0	-0.1265	0	-0	0	0	0	0	0	-0	0	0.105	0.015	0	0	-0	0	0	0.098	0.1	0	-0	0	0	0	0	0	-0	0	0.05595	0	0	0	-0	0	0	0	0	0	-0	0	571.442	568.538	315.089	209.529	0.387982	-4.34439	-0.00036028	-0.0145685	13.0301
28	-0.051845	0.0197363	0.0166205	0.0488669	0.00158192	0.0340116	0.025162	-0.030012	0.0039356	0.0585965	-0.0414057	0.0502099	0.0507635	-0.00121908	0.0190531	-2.2585	0.017297	-1.53808	0	0	0	0	-0	0	0	0	-0.1265	0	-0	0	0	0	0	0	-0	0	0.105	0.015	0	0	-0	0	0	0.098	0.1	0	-0	0	0	0	0	0	-0	0	0.05595	0	0	0	-0	0	0	0	0	0	-0	0	571.568	568.764	314.877	209.761	0.389017	-4.3554	-0.000626861	-0.0146335	13.1087
29	-0.0579544	0.0197206	0.0166187	0.0488346	0.00159965	0.0340218	0.0251599	-0.0300096	0.00393153	0.0535862	-0.038514	0.0419753	0.0508758	-0.00121861	0.0187426	-2.26489	0.0176923	-1.53799	0	0	0	0	-0	0	0	0	-0.1265	0	-0	0	0	0	0	0	-0	0	0.105	0.015	0	0	-0	0	0	0.098	0.1	0	-0	0	0	0	0	0	-0	0	0.05595	0	0	0	-0	0	0	0	0	0	-0	0	571.647	568.911	314.727	209.92	0.389728	-4.36213	-0.000816943	-0.0146638	13.1605
30	-0.0633651	0.0197576	0.0166037	0.0488292	0.00158002	0.0340097	0.0251596	-0.0300113	0.00393109	0.0670386	-0.0311086	0.0459434	0.0509701	-0.00121844	0.0184738	-2.27074	0.0181253	-1.53787	0	0	0	0	-0	0	0	0	-0.1265	0	-0	0	0	0	0	0	-0	0	0.105	0.015	0	0	-0	0	0	0.098	0.1	0	-0	0	0	0	0	0	-0	0	0.05595	0	0	0	-0	0	0	0	0	0	-0	0	571.771	569.12	314.507	210.155	0.389888	-4.37291	-0.000921127	-0.0147522	13.2387
31	-0.0598191	0.0197625	0.0165895	0.0488588	0.00158533	0.0340112	0.0251573	-0.0300088	0.00393384	0.0756436	-0.0348218	0.0401839	0.0508932	-0.0012201	0.0186624	-2.2681	0.0185951	-1.53725	0	0	0	0	-0	0	0	0	-0.1265	0	-0	0	0	0	0	0	-0	0	0.105	0.015	0	0	-0	0	0	0.098	0.1	0	-0	0	0	0	0	0	-0	0	0.05595	0	0	0	-0	0	0	0	0	0	-0	0	572.028	569.509	314.038	210.659	0.390064	-4.39433	-0.00114445	-0.0149562	13.4076
32	-0.0626436	0.0197747	0.0165853	0.0488939	0.00157503	0.034007	0.0251565	-0.0300079	0.00393581	0.0844269	-0.0388716	0.0355636	0.0509403	-0.00122145	0.0185218	-2.27116	0.0188476	-1.53717	0	0	0	0	-0	0	0	0	-0.1265	0	-0	0	0	0	0	0	-0	0	0.105	0.015	0	0	-0	0	0	0.098	0.1	0	-0	0	0	0	0	0	-0	0	0.05595	0	0	0	-0	0	0	0	0	0	-0	0	572.088	569.623	313.911	210.792	0.391078	-4.40317	-0.00129924	-0.0150035	13.4573
33	-0.0623707	0.0197862	0.016581	0.0489224	0.00156607	0.034002	0.025157	-0.0300086	0.00393668	0.0949478	-0.0350492	0.0372651	0.0509303	-0.00122294	0.0185391	-2.2712	0.0190534	-1.53697	0	0	0	0	-0	0	0	0	-0.1265	0	-0	0	0	0	0	0	-0	0	0.105	0.015	0	0	-0	0	0	0.098	0.1	0	-0	0	0	0	0	0	-0	0	0.05595	0	0	0	-0	0	0	0	0	0	-0	0	572.175	569.773	313.739	210.972	0.391704	-4.41436	-0.00142487	-0.0150774	13.5281
34	-0.0620067	0.0197841	0.0165803	0.0489192	0.00157	0.0340048	0.0251566	-0.0300073	0.00393597	0.0895735	-0.0351925	0.0334551	0.0509218	-0.00122314	0.0185585	-2.27097	0.0191336	-1.53688	0	0	0	0	-0	0	0	0	-0.1265	0	-0	0	0	0	0	0	-0	0	0.105	0.015	0	0	-0	0	0	0.098	0.1	0	-0	0	0	0	0	0	-0	0	0.05595	0	0	0	-0	0	0	0	0	0	-0	0	572.207	569.834	313.668	211.045	0.392258	-4.41945	-0.00151074	-0.0150989	13.5573
35	-0.0678657	0.0198029	0.0165698	0.0489367	0.00156014	0.0339985	0.0251569	-0.0300101	0.00393786	0.104379	-0.0318259	0.0287454	0.0510244	-0.00122419	0.0182658	-2.27736	0.0196774	-1.53668	0	0	0	0	-0	0	0	0	-0.1265	0	-0	0	0	0	0	0	-0	0	0.105	0.015	0	0	-0	0	0	0.098	0.1	0	-0	0	0	0	0	0	-0	0	0.05595	0	0	0	-0	0	0	0	0	0	-0	0	572.347	570.055	313.386	211.339	0.392787	-4.43751	-0.00162406	-0.015224	13.6745
36	-0.0613369	0.0197957	0.0165637	0.0489364	0.00157037	0.0340072	0.0251573	-0.0300082	0.00393737	0.111872	-0.0265493	0.0240851	0.0509016	-0.00122414	0.0186	-2.27108	0.0196371	-1.53638	0	0	0	0	-0	0	0	0	-0.1265	0	-0	0	0	0	0	0	-0	0	0.105	0.015	0	0	-0	0	0	0.098	0.1	0	-0	0	0	0	0	0	-0	0	0.05595	0	0	0	-0	0	0	0	0	0	-0	0	572.409	570.163	313.245	211.482	0.393707	-4.4475	-0.00175855	-0.0152761	13.7322
37	-0.0702097	0.0198118	0.0165504	0.0489506	0.00156442	0.0340041	0.0251593	-0.0300074	0.00394136	0.108055	-0.010333	0.035086	0.0510594	-0.0012251	0.0181529	-2.28061	0.0203833	-1.53615	0	0	0	0	-0	0	0	0	-0.1265	0	-0	0	0	0	0	0	-0	0	0.105	0.015	0	0	-0	0	0	0.098	0.1	0	-0	0	0	0	0	0	-0	0	0.05595	0	0	0	-0	0	0	0	0	0	-0	0	572.569	570.416	312.887	211.851	0.394665	-4.47172	-0.0019028	-0.0154312	13.8832
38	-0.0694188	0.0197794	0.0165569	0.0489866	0.00158636	0.0340205	0.0251582	-0.0300069	0.00394117	0.104733	-0.0137351	0.0371049	0.0510407	-0.0012268	0.0181908	-2.27989	0.0204439	-1.53604	0	0	0	0	-0	0	0	0	-0.1265	0	-0	0	0	0	0	0	-0	0	0.105	0.015	0	0	-0	0	0	0.098	0.1	0	-0	0	0	0	0	0	-0	0	0.05595	0	0	0	-0	0	0	0	0	0	-0	0	572.586	570.453	312.838	211.9	0.39579	-4.47582	-0.00207136	-0.0154387	13.9046
39	-0.0691684	0.0198049	0.016546	0.0489987	0.00156838	0.0340105	0.0251586	-0.0300083	0.00394139	0.113824	-0.00509473	0.0425921	0.0510323	-0.00122723	0.018207	-2.27999	0.0206735	-1.53583	0	0	0	0	-0	0	0	0	-0.1265	0	-0	0	0	0	0	0	-0	0	0.105	0.015	0	0	-0	0	0	0.098	0.1	0	-0	0	0	0	0	0	-0	0	0.05595	0	0	0	-0	0	0	0	0	0	-0	0	572.666	570.589	312.639	212.099	0.396407	-4.49042	-0.00213817	-0.0155275	13.9903
40	-0.0632158	0.0197964	0.0165451	0.0489972	0.00157838	0.0340162	0.0251568	-0.0300063	0.00394099	0.115584	-0.00557583	0.0402508	0.0509226	-0.00122732	0.0185103	-2.27421	0.0205963	-1.53558	0	0	0	0	-0	0	0	0	-0.1265	0	-0	0	0	0	0	0	-0	0	0.105	0.015	0	0	-0	0	0	0.098	0.1	0	-0	0	0	0	0	0	-0	0	0.05595	0	0	0	-0	0	0	0	0	0	-0	0	572.701	570.657	312.54	212.197	0.39723	-4.49824	-0.00224662	-0.0155627	14.0331
41	-0.0604283	0.0198341	0.0165261	0.0490148	0.00155369	0.0340015	0.0251555	-0.030007	0.00394057	0.107542	-0.00578011	0.0316228	0.0508633	-0.00122817	0.0186597	-2.27218	0.0209979	-1.53508	0	0	0	0	-0	0	0	0	-0.1265	0	-0	0	0	0	0	0	-0	0	0.105	0.015	0	0	-0	0	0	0.098	0.1	0	-0	0	0	0	0	0	-0	0	0.05595	0	0	0	-0	0	0	0	0	0	-0	0	572.873	570.916	312.124	212.616	0.398409	-4.53122	-0.00231889	-0.015756	14.2238
42	-0.0587414	0.019836	0.0165244	0.0489996	0.00155345	0.0339981	0.0251545	-0.0300055	0.0039404	0.112441	-0.0107242	0.0273677	0.0508301	-0.0012278	0.0187464	-2.27061	0.0210184	-1.53497	0	0	0	0	-0	0	0	0	-0.1265	0	-0	0	0	0	0	0	-0	0	0.105	0.015	0	0	-0	0	0	0.098	0.1	0	-0	0	0	0	0	0	-0	0	0.05595	0	0	0	-0	0	0	0	0	0	-0	0	572.89	570.961	312.058	212.68	0.399537	-4.53827	-0.00242733	-0.0157692	14.2525
43	-0.0566013	0.0198457	0.0165172	0.0490382	0.00154627	0.033994	0.0251547	-0.0300113	0.00394488	0.132487	-0.011869	0.0202227	0.0507862	-0.00122927	0.0188568	-2.26891	0.0212627	-1.53463	0	0	0	0	-0	0	0	0	-0.1265	0	-0	0	0	0	0	0	-0	0	0.105	0.015	0	0	-0	0	0	0.098	0.1	0	-0	0	0	0	0	0	-0	0	0.05595	0	0	0	-0	0	0	0	0	0	-0	0	572.983	571.115	311.799	212.935	0.400799	-4.5606	-0.00254269	-0.0158902	14.3766
44	-0.0639729	0.0198276	0.0165117	0.0490631	0.00156269	0.0340091	0.0251558	-0.0300074	0.00394515	0.140311	-0.00780275	0.0190972	0.0509228	-0.00122978	0.0184821	-2.27649	0.021704	-1.53461	0	0	0	0	-0	0	0	0	-0.1265	0	-0	0	0	0	0	0	-0	0	0.105	0.015	0	0	-0	0	0	0.098	0.1	0	-0	0	0	0	0	0	-0	0	0.05595	0	0	0	-0	0	0	0	0	0	-0	0	573.024	571.191	311.669	213.058	0.402106	-4.57277	-0.00268459	-0.0159485	14.4382
45	-0.0605996	0.0198399	0.0165087	0.0490417	0.0015526	0.0340019	0.0251546	-0.0300051	0.00394258	0.140814	-0.00612827	0.015372	0.0508586	-0.00122968	0.018655	-2.27321	0.0216438	-1.53449	0	0	0	0	-0	0	0	0	-0.1265	0	-0	0	0	0	0	0	-0	0	0.105	0.015	0	0	-0	0	0	0.098	0.1	0	-0	0	0	0	0	0	-0	0	0.05595	0	0	0	-0	0	0	0	0	0	-0	0	573.038	571.222	311.615	213.108	0.402689	-4.57849	-0.00271572	-0.0159591	14.4628
46	-0.0517903	0.0198555	0.0165025	0.0490553	0.00154209	0.0339941	0.0251554	-0.0300044	0.00394356	0.139385	-0.0170896	0.013488	0.0506922	-0.00123014	0.0191035	-2.26476	0.0215789	-1.53407	0	0	0	0	-0	0	0	0	-0.1265	0	-0	0	0	0	0	0	-0	0	0.105	0.015	0	0	-0	0	0	0.098	0.1	0	-0	0	0	0	0	0	-0	0	0.05595	0	0	0	-0	0	0	0	0	0	-0	0	573.102	571.336	311.403	213.31	0.403739	-4.59745	-0.00279023	-0.0160546	14.5652
47	-0.0499675	0.0198571	0.0165013	0.0490448	0.00154282	0.0339929	0.0251546	-0.0300045	0.00394289	0.138607	-0.0103557	0.0192036	0.0506552	-0.00123021	0.0191951	-2.26311	0.0216425	-1.5339	0	0	0	0	-0	0	0	0	-0.1265	0	-0	0	0	0	0	0	-0	0	0.105	0.015	0	0	-0	0	0	0.098	0.1	0	-0	0	0	0	0	0	-0	0	0.05595	0	0	0	-0	0	0	0	0	0	-0	0	573.129	571.395	311.297	213.409	0.404785	-4.60764	-0.00288298	-0.0160898	14.6142
48	-0.0471198	0.0198556	0.0164978	0.0490759	0.00154428	0.0339948	0.0251544	-0.0300049	0.00394449	0.144694	-0.00686419	0.0180394	0.0505983	-0.00123106	0.0193388	-2.26051	0.0217316	-1.53366	0	0	0	0	-0	0	0	0	-0.1265	0	-0	0	0	0	0	0	-0	0	0.105	0.015	0	0	-0	0	0	0.098	0.1	0	-0	0	0	0	0	0	-0	0	0.05595	0	0	0	-0	0	0	0	0	0	-0	0	573.173	571.475	311.142	213.553	0.405875	-4.62231	-0.00297857	-0.016162	14.6914
49	-0.0440561	0.019864	0.0164898	0.0490897	0.00153982	0.0339932	0.0251568	-0.0300053	0.00394511	0.15081	0.00576585	0.0153939	0.0505365	-0.0012315	0.0194948	-2.25781	0.0218904	-1.53333	0	0	0	0	-0	0	0	0	-0.1265	0	-0	0	0	0	0	0	-0	0	0.105	0.015	0	0	-0	0	0	0.098	0.1	0	-0	0	0	0	0	0	-0	0	0.05595	0	0	0	-0	0	0	0	0	0	-0	0	573.239	571.583	310.918	213.761	0.407254	-4.6437	-0.00306105	-0.016264	14.8025
50	-0.0339605	0.0198479	0.0164907	0.0490915	0.00155587	0.0340014	0.0251551	-0.0300049	0.00394661	0.158629	-0.00150601	0.0103715	0.050339	-0.0012321	0.0200027	-2.24797	0.0217248	-1.53289	0	0	0	0	-0	0	0	0	-0.1265	0	-0	0	0	0	0	0	-0	0	0.105	0.015	0	0	-0	0	0	0.098	0.1	0	-0	0	0	0	0	0	-0	0	0.05595	0	0	0	-0	0	0	0	0	0	-0	0	573.277	571.657	310.752	213.913	0.408893	-4.66036	-0.00320677	-0.0163274	14.8855
51	-0.0184362	0.0198875	0.0164642	0.0491171	0.00152934	0.0339882	0.025155	-0.0300059	0.00394736	0.161741	-0.00299924	-0.00329014	0.0500215	-0.00123282	0.0207874	-2.23353	0.0218881	-1.53181	0	0	0	0	-0	0	0	0	-0.1265	0	-0	0	0	0	0	0	-0	0	0.105	0.015	0	0	-0	0	0	0.098	0.1	0	-0	0	0	0	0	0	-0	0	0.05595	0	0	0	-0	0	0	0	0	0	-0	0	573.456	571.909	310.109	214.526	0.412161	-4.72522	-0.00323868	-0.0166367	15.2208
52	-0.0140803	0.0198995	0.0164596	0.0490432	0.0015222	0.033972	0.0251523	-0.0300035	0.00394023	0.164476	0.00252275	-0.00792976	0.0499263	-0.00123155	0.0210045	-2.22933	0.0218151	-1.53162	0	0	0	0	-0	0	0	0	-0.1265	0	-0	0	0	0	0	0	-0	0	0.105	0.015	0	0	-0	0	0	0.098	0.1	0	-0	0	0	0	0	0	-0	0	0.05595	0	0	0	-0	0	0	0	0	0	-0	0	573.454	571.957	310.017	214.607	0.414587	-4.73879	-0.00341233	-0.0166392	15.2614
53	-0.0140866	0.0198975	0.0164547	0.0490861	0.00152402	0.0339733	0.0251515	-0.0300037	0.00394271	0.1567	0.00372299	-0.0120076	0.0499253	-0.00123191	0.0209996	-2.22951	0.0219645	-1.53147	0	0	0	0	-0	0	0	0	-0.1265	0	-0	0	0	0	0	0	-0	0	0.105	0.015	0	0	-0	0	0	0.098	0.1	0	-0	0	0	0	0	0	-0	0	0.05595	0	0	0	-0	0	0	0	0	0	-0	0	573.467	572.011	309.893	214.714	0.415977	-4.75208	-0.00355452	-0.0166954	15.325
54	-0.0152265	0.0198976	0.0164514	0.0491148	0.00152276	0.0339763	0.0251521	-0.0300035	0.00394517	0.150788	-0.000938269	-0.010557	0.0499483	-0.00123225	0.0209414	-2.23071	0.0220729	-1.53143	0	0	0	0	-0	0	0	0	-0.1265	0	-0	0	0	0	0	0	-0	0	0.105	0.015	0	0	-0	0	0	0.098	0.1	0	-0	0	0	0	0	0	-0	0	0.05595	0	0	0	-0	0	0	0	0	0	-0	0	573.473	572.034	309.842	214.757	0.416622	-4.75785	-0.00361793	-0.0167216	15.3516
55	-0.0138048	0.0198917	0.0164506	0.0491394	0.00152674	0.0339813	0.0251522	-0.0300026	0.00394725	0.147826	0.00486443	-0.00910056	0.0499183	-0.00123303	0.0210104	-2.22943	0.0221461	-1.53127	0	0	0	0	-0	0	0	0	-0.1265	0	-0	0	0	0	0	0	-0	0	0.105	0.015	0	0	-0	0	0	0.098	0.1	0	-0	0	0	0	0	0	-0	0	0.05595	0	0	0	-0	0	0	0	0	0	-0	0	573.49	572.074	309.739	214.843	0.41762	-4.76928	-0.00369865	-0.0167703	15.4075
56	-0.0202431	0.0198964	0.0164466	0.049165	0.00152194	0.0339812	0.0251521	-0.0300024	0.00394879	0.149027	0.00508397	-0.011745	0.0500521	-0.00123395	0.020689	-2.23613	0.0226268	-1.53118	0	0	0	0	-0	0	0	0	-0.1265	0	-0	0	0	0	0	0	-0	0	0.105	0.015	0	0	-0	0	0	0.098	0.1	0	-0	0	0	0	0	0	-0	0	0.05595	0	0	0	-0	0	0	0	0	0	-0	0	573.529	572.141	309.551	215.002	0.41923	-4.792	-0.00376374	-0.0168616	15.5165
57	-0.0195321	0.0199045	0.0164415	0.049159	0.00151574	0.0339786	0.0251518	-0.0300026	0.00394756	0.145292	0.00763046	-0.0179856	0.050036	-0.00123375	0.0207247	-2.23556	0.0227091	-1.53106	0	0	0	0	-0	0	0	0	-0.1265	0	-0	0	0	0	0	0	-0	0	0.105	0.015	0	0	-0	0	0	0.098	0.1	0	-0	0	0	0	0	0	-0	0	0.05595	0	0	0	-0	0	0	0	0	0	-0	0	573.541	572.178	309.457	215.079	0.420471	-4.8047	-0.00382652	-0.0168979	15.5698
58	-0.0214697	0.0199028	0.0164398	0.04916	0.00151812	0.0339784	0.0251517	-0.0300026	0.00394794	0.15026	0.00993079	-0.0160503	0.0500758	-0.00123379	0.0206269	-2.23759	0.0228733	-1.53102	0	0	0	0	-0	0	0	0	-0.1265	0	-0	0	0	0	0	0	-0	0	0.105	0.015	0	0	-0	0	0	0.098	0.1	0	-0	0	0	0	0	0	-0	0	0.05595	0	0	0	-0	0	0	0	0	0	-0	0	573.55	572.205	309.385	215.137	0.421483	-4.81404	-0.00389811	-0.0169248	15.61
59	-0.0189035	0.0199	0.0164393	0.0491671	0.00151979	0.0339794	0.0251516	-0.0300021	0.00394851	0.150245	0.00959668	-0.0159915	0.0500223	-0.00123406	0.0207552	-2.23505	0.0227946	-1.53093	0	0	0	0	-0	0	0	0	-0.1265	0	-0	0	0	0	0	0	-0	0	0.105	0.015	0	0	-0	0	0	0.098	0.1	0	-0	0	0	0	0	0	-0	0	0.05595	0	0	0	-0	0	0	0	0	0	-0	0	573.552	572.212	309.368	215.151	0.421889	-4.81661	-0.00393265	-0.0169303	15.6198
60	-0.0192081	0.0199026	0.0164384	0.0491742	0.00151688	0.0339781	0.0251516	-0.0300019	0.00394896	0.15112	0.01114	-0.0156923	0.0500283	-0.00123434	0.0207397	-2.2354	0.0228492	-1.5309	0	0	0	0	-0	0	0	0	-0.1265	0	-0	0	0	0	0	0	-0	0	0.105	0.015	0	0	-0	0	0	0.098	0.1	0	-0	0	0	0	0	0	-0	0	0.05595	0	0	0	-0	0	0	0	0	0	-0	0	573.557	572.226	309.332	215.179	0.422252	-4.82086	-0.00395421	-0.016947	15.6392
61	-0.0179333	0.0199034	0.0164378	0.0491817	0.00151578	0.0339777	0.0251514	-0.030002	0.00394965	0.157487	0.00685564	-0.016184	0.0500017	-0.00123462	0.0208031	-2.2342	0.022862	-1.53081	0	0	0	0	-0	0	0	0	-0.1265	0	-0	0	0	0	0	0	-0	0	0.105	0.015	0	0	-0	0	0	0.098	0.1	0	-0	0	0	0	0	0	-0	0	0.05595	0	0	0	-0	0	0	0	0	0	-0	0	573.564	572.246	309.28	215.22	0.422811	-4.8274	-0.00398876	-0.0169714	15.6694
62	-0.0168905	0.0199057	0.0164355	0.0491899	0.0015138	0.0339774	0.0251534	-0.0300015	0.00394971	0.155152	0.0201744	-0.019081	0.0499797	-0.00123485	0.020855	-2.23326	0.0229128	-1.53069	0	0	0	0	-0	0	0	0	-0.1265	0	-0	0	0	0	0	0	-0	0	0.105	0.015	0	0	-0	0	0	0.098	0.1	0	-0	0	0	0	0	0	-0	0	0.05595	0	0	0	-0	0	0	0	0	0	-0	0	573.576	572.272	309.203	215.281	0.423598	-4.83726	-0.00402412	-0.0170082	15.7144
63	-0.0212283	0.0198946	0.0164355	0.0491895	0.00152527	0.0339822	0.025153	-0.0300024	0.00394975	0.155	0.0227491	-0.0254241	0.0500706	-0.00123507	0.0206357	-2.23774	0.0232299	-1.53064	0	0	0	0	-0	0	0	0	-0.1265	0	-0	0	0	0	0	0	-0	0	0.105	0.015	0	0	-0	0	0	0.098	0.1	0	-0	0	0	0	0	0	-0	0	0.05595	0	0	0	-0	0	0	0	0	0	-0	0	573.59	572.308	309.088	215.371	0.425074	-4.85179	-0.00412744	-0.01705	15.78
64	-0.027841	0.0199038	0.0164266	0.049189	0.00152033	0.0339794	0.0251517	-0.0300064	0.00395159	0.136992	0.0241247	-0.0211739	0.0502065	-0.00123474	0.0203042	-2.24458	0.0236904	-1.5306	0	0	0	0	-0	0	0	0	-0.1265	0	-0	0	0	0	0	0	-0	0	0.105	0.015	0	0	-0	0	0	0.098	0.1	0	-0	0	0	0	0	0	-0	0	0.05595	0	0	0	-0	0	0	0	0	0	-0	0	573.613	572.357	308.922	215.501	0.426794	-4.87328	-0.00419	-0.0171233	15.8759
65	-0.0192282	0.019904	0.0164153	0.049205	0.0015214	0.0339815	0.0251539	-0.0300053	0.00395155	0.128194	0.0160484	-0.0285488	0.0500295	-0.00123484	0.0207364	-2.23628	0.0236302	-1.5301	0	0	0	0	-0	0	0	0	-0.1265	0	-0	0	0	0	0	0	-0	0	0.105	0.015	0	0	-0	0	0	0.098	0.1	0	-0	0	0	0	0	0	-0	0	0.05595	0	0	0	-0	0	0	0	0	0	-0	0	573.65	572.42	308.683	215.684	0.429249	-4.90363	-0.00427695	-0.0172383	16.012
66	-0.0258928	0.0198972	0.0164142	0.0491806	0.00152921	0.0339776	0.0251519	-0.0300024	0.00394897	0.131677	0.0165012	-0.0255599	0.0501675	-0.00123459	0.0203996	-2.24309	0.0240471	-1.53011	0	0	0	0	-0	0	0	0	-0.1265	0	-0	0	0	0	0	0	-0	0	0.105	0.015	0	0	-0	0	0	0.098	0.1	0	-0	0	0	0	0	0	-0	0	0.05595	0	0	0	-0	0	0	0	0	0	-0	0	573.651	572.454	308.563	215.773	0.431327	-4.92	-0.00442206	-0.0172735	16.0768
67	-0.0232598	0.0199137	0.016408	0.0491852	0.00151486	0.0339703	0.0251511	-0.0300015	0.00394889	0.128497	0.0120752	-0.0263641	0.050112	-0.00123441	0.0205319	-2.24052	0.0239918	-1.53001	0	0	0	0	-0	0	0	0	-0.1265	0	-0	0	0	0	0	0	-0	0	0.105	0.015	0	0	-0	0	0	0.098	0.1	0	-0	0	0	0	0	0	-0	0	0.05595	0	0	0	-0	0	0	0	0	0	-0	0	573.652	572.468	308.514	215.809	0.432007	-4.92701	-0.00444264	-0.0172925	16.1032
68	-0.0220527	0.0199156	0.0164058	0.0492072	0.00151298	0.0339705	0.0251511	-0.0300023	0.00395036	0.120417	0.00944778	-0.0280438	0.0500872	-0.0012348	0.0205903	-2.23945	0.0240817	-1.52984	0	0	0	0	-0	0	0	0	-0.1265	0	-0	0	0	0	0	0	-0	0	0.105	0.015	0	0	-0	0	0	0.098	0.1	0	-0	0	0	0	0	0	-0	0	0.05595	0	0	0	-0	0	0	0	0	0	-0	0	573.662	572.498	308.399	215.893	0.433212	-4.94154	-0.00450585	-0.0173485	16.1695
69	-0.0172733	0.0199133	0.0164043	0.0492171	0.00151474	0.0339726	0.0251511	-0.0300016	0.0039512	0.117323	0.00891498	-0.0239791	0.0499885	-0.001235	0.0208289	-2.23474	0.0239576	-1.52965	0	0	0	0	-0	0	0	0	-0.1265	0	-0	0	0	0	0	0	-0	0	0.105	0.015	0	0	-0	0	0	0.098	0.1	0	-0	0	0	0	0	0	-0	0	0.05595	0	0	0	-0	0	0	0	0	0	-0	0	573.665	572.513	308.341	215.934	0.43409	-4.9493	-0.00456327	-0.0173738	16.2015
70	-0.0180699	0.0199167	0.0164028	0.0492199	0.00151136	0.0339713	0.0251512	-0.0300011	0.00395114	0.115124	0.00385836	-0.022141	0.0500047	-0.00123516	0.0207886	-2.23559	0.0240413	-1.52962	0	0	0	0	-0	0	0	0	-0.1265	0	-0	0	0	0	0	0	-0	0	0.105	0.015	0	0	-0	0	0	0.098	0.1	0	-0	0	0	0	0	0	-0	0	0.05595	0	0	0	-0	0	0	0	0	0	-0	0	573.667	572.525	308.298	215.964	0.434682	-4.9553	-0.00459208	-0.0173919	16.2262
71	-0.0161394	0.0199142	0.0164035	0.0492265	0.00151273	0.0339716	0.0251511	-0.0300009	0.00395154	0.114821	0.00138475	-0.0198025	0.0499644	-0.00123545	0.0208844	-2.23369	0.0240026	-1.52954	0	0	0	0	-0	0	0	0	-0.1265	0	-0	0	0	0	0	0	-0	0	0.105	0.015	0	0	-0	0	0	0.098	0.1	0	-0	0	0	0	0	0	-0	0	0.05595	0	0	0	-0	0	0	0	0	0	-0	0	573.668	572.532	308.266	215.986	0.435185	-4.95973	-0.0046276	-0.0174054	16.245
72	-0.0172982	0.0199182	0.0164017	0.0492326	0.00150916	0.0339701	0.0251508	-0.0300007	0.00395194	0.116361	0.00319612	-0.0190907	0.0499886	-0.00123563	0.0208261	-2.23493	0.0241339	-1.52948	0	0	0	0	-0	0	0	0	-0.1265	0	-0	0	0	0	0	0	-0	0	0.105	0.015	0	0	-0	0	0	0.098	0.1	0	-0	0	0	0	0	0	-0	0	0.05595	0	0	0	-0	0	0	0	0	0	-0	0	573.674	572.548	308.195	216.036	0.435933	-4.96906	-0.00465271	-0.017439	16.2862
73	-0.0194472	0.0199218	0.0163991	0.0492407	0.001506	0.0339686	0.0251515	-0.0300015	0.00395218	0.115946	0.000626963	-0.0110745	0.0500331	-0.00123587	0.0207184	-2.2372	0.0243446	-1.52941	0	0	0	0	-0	0	0	0	-0.1265	0	-0	0	0	0	0	0	-0	0	0.105	0.015	0	0	-0	0	0	0.098	0.1	0	-0	0	0	0	0	0	-0	0	0.05595	0	0	0	-0	0	0	0	0	0	-0	0	573.686	572.575	308.093	216.108	0.437076	-4.98297	-0.00469615	-0.0174875	16.3476
74	-0.0205492	0.0199162	0.0163974	0.0492351	0.00151225	0.0339711	0.0251519	-0.0300018	0.00395215	0.109891	-0.00556141	-0.0100848	0.0500562	-0.00123557	0.0206621	-2.23836	0.0244542	-1.52937	0	0	0	0	-0	0	0	0	-0.1265	0	-0	0	0	0	0	0	-0	0	0.105	0.015	0	0	-0	0	0	0.098	0.1	0	-0	0	0	0	0	0	-0	0	0.05595	0	0	0	-0	0	0	0	0	0	-0	0	573.688	572.587	308.041	216.143	0.43793	-4.98993	-0.00475568	-0.0175052	16.3759
75	-0.0208489	0.019911	0.016396	0.0492393	0.00151752	0.0339736	0.0251516	-0.0300011	0.00395253	0.107813	-0.00976174	-0.011804	0.0500623	-0.00123562	0.020646	-2.23871	0.0245164	-1.52932	0	0	0	0	-0	0	0	0	-0.1265	0	-0	0	0	0	0	0	-0	0	0.105	0.015	0	0	-0	0	0	0.098	0.1	0	-0	0	0	0	0	0	-0	0	0.05595	0	0	0	-0	0	0	0	0	0	-0	0	573.689	572.597	308.002	216.17	0.438607	-4.99544	-0.00480732	-0.01752	16.3988
76	-0.0151654	0.0199161	0.016393	0.0492493	0.00151255	0.0339718	0.0251512	-0.0300009	0.0039533	0.109973	-0.0117296	-0.0164768	0.0499451	-0.00123587	0.0209299	-2.23312	0.0243806	-1.52908	0	0	0	0	-0	0	0	0	-0.1265	0	-0	0	0	0	0	0	-0	0	0.105	0.015	0	0	-0	0	0	0.098	0.1	0	-0	0	0	0	0	0	-0	0	0.05595	0	0	0	-0	0	0	0	0	0	-0	0	573.694	572.614	307.917	216.228	0.439542	-5.00703	-0.00483604	-0.017561	16.4492
77	-0.0141443	0.0199212	0.0163902	0.0492456	0.00150783	0.0339698	0.025151	-0.0300005	0.00395228	0.108028	-0.00583349	-0.0205223	0.049923	-0.00123567	0.0209812	-2.23215	0.0243851	-1.52901	0	0	0	0	-0	0	0	0	-0.1265	0	-0	0	0	0	0	0	-0	0	0.105	0.015	0	0	-0	0	0	0.098	0.1	0	-0	0	0	0	0	0	-0	0	0.05595	0	0	0	-0	0	0	0	0	0	-0	0	573.697	572.623	307.875	216.256	0.440162	-5.01361	-0.00485164	-0.0175784	16.4746
78	-0.019772	0.0199233	0.0163883	0.0492478	0.00150646	0.0339676	0.0251505	-0.0300004	0.00395261	0.108878	-0.00479411	-0.0180184	0.0500415	-0.00123565	0.0206992	-2.23788	0.0247282	-1.52904	0	0	0	0	-0	0	0	0	-0.1265	0	-0	0	0	0	0	0	-0	0	0.105	0.015	0	0	-0	0	0	0.098	0.1	0	-0	0	0	0	0	0	-0	0	0.05595	0	0	0	-0	0	0	0	0	0	-0	0	573.702	572.643	307.783	216.318	0.441263	-5.02626	-0.00489968	-0.0176197	16.5295
79	-0.0142663	0.0199283	0.0163851	0.0492452	0.00150201	0.0339652	0.02515	-0.0300005	0.00395208	0.103529	-0.002307	-0.0207671	0.0499269	-0.00123544	0.0209748	-2.23243	0.02455	-1.52886	0	0	0	0	-0	0	0	0	-0.1265	0	-0	0	0	0	0	0	-0	0	0.105	0.015	0	0	-0	0	0	0.098	0.1	0	-0	0	0	0	0	0	-0	0	0.05595	0	0	0	-0	0	0	0	0	0	-0	0	573.704	572.654	307.737	216.349	0.441964	-5.0335	-0.00492242	-0.0176383	16.5576
80	-0.0141122	0.0199323	0.0163826	0.0492404	0.00149893	0.0339628	0.0251499	-0.0300002	0.0039516	0.102053	0.00112061	-0.0241056	0.0499231	-0.00123517	0.0209825	-2.23232	0.0245813	-1.52881	0	0	0	0	-0	0	0	0	-0.1265	0	-0	0	0	0	0	0	-0	0	0.105	0.015	0	0	-0	0	0	0.098	0.1	0	-0	0	0	0	0	0	-0	0	0.05595	0	0	0	-0	0	0	0	0	0	-0	0	573.705	572.661	307.702	216.372	0.442474	-5.03886	-0.00493866	-0.0176521	16.5783
81	-0.00917589	0.0199306	0.0163823	0.0492516	0.00150004	0.0339623	0.0251507	-0.0300011	0.00395305	0.0990887	0.00242866	-0.0162804	0.0498197	-0.00123553	0.0212276	-2.22747	0.0244649	-1.5286	0	0	0	0	-0	0	0	0	-0.1265	0	-0	0	0	0	0	0	-0	0	0.105	0.015	0	0	-0	0	0	0.098	0.1	0	-0	0	0	0	0	0	-0	0	0.05595	0	0	0	-0	0	0	0	0	0	-0	0	573.71	572.677	307.627	216.421	0.443396	-5.04904	-0.00498722	-0.0176879	16.6231
82	-0.0100388	0.0199237	0.0163814	0.0492557	0.0015064	0.0339663	0.025151	-0.0300002	0.00395323	0.0968391	0.011096	-0.0164708	0.0498375	-0.00123562	0.0211833	-2.22837	0.0245503	-1.52857	0	0	0	0	-0	0	0	0	-0.1265	0	-0	0	0	0	0	0	-0	0	0.105	0.015	0	0	-0	0	0	0.098	0.1	0	-0	0	0	0	0	0	-0	0	0.05595	0	0	0	-0	0	0	0	0	0	-0	0	573.71	572.684	307.589	216.446	0.444098	-5.05453	-0.00503845	-0.0177029	16.6453
83	-0.0122955	0.0199227	0.0163806	0.0492682	0.00150658	0.0339667	0.0251518	-0.0300005	0.00395318	0.0982477	0.00257115	-0.0101634	0.0498854	-0.00123605	0.0210694	-2.23071	0.0247456	-1.52852	0	0	0	0	-0	0	0	0	-0.1265	0	-0	0	0	0	0	0	-0	0	0.105	0.015	0	0	-0	0	0	0.098	0.1	0	-0	0	0	0	0	0	-0	0	0.05595	0	0	0	-0	0	0	0	0	0	-0	0	573.713	572.698	307.507	216.5	0.445138	-5.06617	-0.0050852	-0.0177416	16.696
84	-0.0149128	0.0199225	0.0163772	0.0492611	0.00150875	0.0339664	0.025151	-0.0300001	0.00395301	0.097159	0.00909997	-0.0126027	0.0499419	-0.00123559	0.0209365	-2.23346	0.0249972	-1.52844	0	0	0	0	-0	0	0	0	-0.1265	0	-0	0	0	0	0	0	-0	0	0.105	0.015	0	0	-0	0	0	0.098	0.1	0	-0	0	0	0	0	0	-0	0	0.05595	0	0	0	-0	0	0	0	0	0	-0	0	573.713	572.716	307.387	216.579	0.446754	-5.08357	-0.00515333	-0.0177913	16.7689
85	-0.0079469	0.0199259	0.0163738	0.0492677	0.00150523	0.0339651	0.0251508	-0.0300005	0.00395362	0.0975398	0.00921506	-0.0191113	0.0497956	-0.00123561	0.0212844	-2.22656	0.0247711	-1.52819	0	0	0	0	-0	0	0	0	-0.1265	0	-0	0	0	0	0	0	-0	0	0.105	0.015	0	0	-0	0	0	0.098	0.1	0	-0	0	0	0	0	0	-0	0	0.05595	0	0	0	-0	0	0	0	0	0	-0	0	573.714	572.727	307.328	216.617	0.44769	-5.09262	-0.00519258	-0.0178175	16.8043
86	-0.00975288	0.0199326	0.0163682	0.0492621	0.00150028	0.0339618	0.0251503	-0.030001	0.00395353	0.090175	0.00805034	-0.014425	0.0498341	-0.00123524	0.0211933	-2.2285	0.0249946	-1.52809	0	0	0	0	-0	0	0	0	-0.1265	0	-0	0	0	0	0	0	-0	0	0.105	0.015	0	0	-0	0	0	0.098	0.1	0	-0	0	0	0	0	0	-0	0	0.05595	0	0	0	-0	0	0	0	0	0	-0	0	573.719	572.745	307.2	216.699	0.449243	-5.11118	-0.00523031	-0.0178756	16.8818
87	-0.010662	0.0199261	0.0163676	0.0492764	0.00150468	0.0339648	0.0251501	-0.0300002	0.00395437	0.0931145	0.00752253	-0.0163871	0.0498523	-0.00123559	0.0211476	-2.22943	0.0250595	-1.52808	0	0	0	0	-0	0	0	0	-0.1265	0	-0	0	0	0	0	0	-0	0	0.105	0.015	0	0	-0	0	0	0.098	0.1	0	-0	0	0	0	0	0	-0	0	0.05595	0	0	0	-0	0	0	0	0	0	-0	0	573.718	572.749	307.182	216.71	0.449845	-5.11447	-0.00528231	-0.0178841	16.8927
88	-0.0118539	0.0199289	0.0163671	0.0492866	0.0015007	0.0339635	0.0251502	-0.03	0.00395511	0.0908804	0.00931043	-0.0125374	0.0498773	-0.00123602	0.021088	-2.23065	0.025154	-1.52807	0	0	0	0	-0	0	0	0	-0.1265	0	-0	0	0	0	0	0	-0	0	0.105	0.015	0	0	-0	0	0	0.098	0.1	0	-0	0	0	0	0	0	-0	0	0.05595	0	0	0	-0	0	0	0	0	0	-0	0	573.719	572.755	307.146	216.732	0.450321	-5.11971	-0.00530062	-0.0179025	16.9144
89	-0.0110245	0.0199283	0.0163676	0.0492924	0.00150004	0.0339636	0.0251502	-0.0299999	0.00395528	0.0896837	0.00889282	-0.0155194	0.0498596	-0.00123631	0.0211292	-2.22984	0.0251416	-1.52802	0	0	0	0	-0	0	0	0	-0.1265	0	-0	0	0	0	0	0	-0	0	0.105	0.015	0	0	-0	0	0	0.098	0.1	0	-0	0	0	0	0	0	-0	0	0.05595	0	0	0	-0	0	0	0	0	0	-0	0	573.719	572.758	307.128	216.743	0.45063	-5.1225	-0.00531724	-0.0179112	16.9256
90	-0.00832079	0.0199303	0.0163668	0.0492937	0.00149823	0.0339628	0.0251499	-0.0299999	0.00395544	0.0842784	0.0105893	-0.0149422	0.0498027	-0.00123634	0.0212638	-2.22718	0.0250725	-1.52791	0	0	0	0	-0	0	0	0	-0.1265	0	-0	0	0	0	0	0	-0	0	0.105	0.015	0	0	-0	0	0	0.098	0.1	0	-0	0	0	0	0	0	-0	0	0.05595	0	0	0	-0	0	0	0	0	0	-0	0	573.72	572.765	307.088	216.768	0.451157	-5.12857	-0.00533546	-0.0179295	16.951
91	-0.00759554	0.0199319	0.016366	0.0492931	0.00149644	0.0339621	0.0251499	-0.0299996	0.00395526	0.0857518	0.0118673	-0.0146062	0.049787	-0.0012363	0.0213002	-2.22646	0.025047	-1.52789	0	0	0	0	-0	0	0	0	-0.1265	0	-0	0	0	0	0	0	-0	0	0.105	0.015	0	0	-0	0	0	0.098	0.1	0	-0	0	0	0	0	0	-0	0	0.05595	0	0	0	-0	0	0	0	0	0	-0	0	573.72	572.766	307.082	216.771	0.451288	-5.12965	-0.00533867	-0.0179314	16.9543
92	-0.00800204	0.0199319	0.0163663	0.0492944	0.00149615	0.0339616	0.0251499	-0.0299995	0.0039553	0.0857259	0.0120286	-0.0140928	0.0497957	-0.00123637	0.0212798	-2.22688	0.0250778	-1.52788	0	0	0	0	-0	0	0	0	-0.1265	0	-0	0	0	0	0	0	-0	0	0.105	0.015	0	0	-0	0	0	0.098	0.1	0	-0	0	0	0	0	0	-0	0	0.05595	0	0	0	-0	0	0	0	0	0	-0	0	573.72	572.768	307.071	216.778	0.451455	-5.13131	-0.00534709	-0.0179364	16.9612
93	-0.00869624	0.0199325	0.016366	0.049296	0.00149546	0.0339612	0.0251499	-0.0299995	0.00395538	0.0866405	0.0101474	-0.0135141	0.0498105	-0.00123643	0.0212451	-2.22759	0.0251274	-1.52788	0	0	0	0	-0	0	0	0	-0.1265	0	-0	0	0	0	0	0	-0	0	0.105	0.015	0	0	-0	0	0	0.098	0.1	0	-0	0	0	0	0	0	-0	0	0.05595	0	0	0	-0	0	0	0	0	0	-0	0	573.721	572.77	307.054	216.788	0.451676	-5.13374	-0.00535492	-0.0179442	16.9712
94	-0.00728049	0.0199333	0.0163655	0.0492973	0.00149486	0.0339608	0.0251503	-0.0299995	0.00395586	0.088376	0.00401965	-0.0163428	0.0497806	-0.00123645	0.0213153	-2.2262	0.0250958	-1.52781	0	0	0	0	-0	0	0	0	-0.1265	0	-0	0	0	0	0	0	-0	0	0.105	0.015	0	0	-0	0	0	0.098	0.1	0	-0	0	0	0	0	0	-0	0	0.05595	0	0	0	-0	0	0	0	0	0	-0	0	573.721	572.775	307.029	216.803	0.452032	-5.13757	-0.00537126	-0.0179554	16.9871
95	-0.00602744	0.0199296	0.0163656	0.0493036	0.00149783	0.0339626	0.0251502	-0.0299996	0.00395604	0.0907968	0.00397674	-0.0160182	0.049754	-0.00123666	0.0213767	-2.22498	0.0250881	-1.52773	0	0	0	0	-0	0	0	0	-0.1265	0	-0	0	0	0	0	0	-0	0	0.105	0.015	0	0	-0	0	0	0.098	0.1	0	-0	0	0	0	0	0	-0	0	0.05595	0	0	0	-0	0	0	0	0	0	-0	0	573.721	572.78	306.992	216.825	0.452555	-5.14283	-0.00540102	-0.0179728	17.0099
96	-0.00118302	0.019933	0.0163631	0.0493038	0.00149527	0.0339617	0.0251499	-0.0299995	0.00395591	0.0929872	0.00328085	-0.0153219	0.0496507	-0.00123654	0.0216175	-2.22019	0.0249411	-1.52755	0	0	0	0	-0	0	0	0	-0.1265	0	-0	0	0	0	0	0	-0	0	0.105	0.015	0	0	-0	0	0	0.098	0.1	0	-0	0	0	0	0	0	-0	0	0.05595	0	0	0	-0	0	0	0	0	0	-0	0	573.722	572.788	306.938	216.858	0.45325	-5.1508	-0.00542118	-0.0179976	17.0427
97	-0.00105112	0.0199369	0.0163606	0.0492959	0.00149236	0.0339599	0.02515	-0.0299994	0.00395506	0.0928443	0.00826752	-0.0182989	0.0496475	-0.00123617	0.0216242	-2.22009	0.0249637	-1.52752	0	0	0	0	-0	0	0	0	-0.1265	0	-0	0	0	0	0	0	-0	0	0.105	0.015	0	0	-0	0	0	0.098	0.1	0	-0	0	0	0	0	0	-0	0	0.05595	0	0	0	-0	0	0	0	0	0	-0	0	573.723	572.793	306.911	216.874	0.453659	-5.15519	-0.00542948	-0.0180074	17.0593
98	-0.00109941	0.0199338	0.0163608	0.0492964	0.00149545	0.0339601	0.0251501	-0.0299996	0.00395525	0.0903384	0.00456584	-0.0170481	0.0496486	-0.00123615	0.0216211	-2.22016	0.0249908	-1.52749	0	0	0	0	-0	0	0	0	-0.1265	0	-0	0	0	0	0	0	-0	0	0.105	0.015	0	0	-0	0	0	0.098	0.1	0	-0	0	0	0	0	0	-0	0	0.05595	0	0	0	-0	0	0	0	0	0	-0	0	573.722	572.797	306.891	216.886	0.454066	-5.15837	-0.00545914	-0.0180148	17.0718
99	-0.00191077	0.0199329	0.0163595	0.0493014	0.00149643	0.0339606	0.02515	-0.0299995	0.00395565	0.0887976	0.00260635	-0.0183781	0.0496664	-0.00123624	0.0215799	-2.22101	0.0250795	-1.52745	0	0	0	0	-0	0	0	0	-0.1265	0	-0	0	0	0	0	0	-0	0	0.105	0.015	0	0	-0	0	0	0.098	0.1	0	-0	0	0	0	0	0	-0	0	0.05595	0	0	0	-0	0	0	0	0	0	-0	0	573.722	572.803	306.846	216.913	0.454709	-5.16512	-0.00548923	-0.0180357	17.0999
100	-0.00657278	0.0199351	0.0163575	0.049307	0.0014943	0.03396	0.0251497	-0.0299997	0.00395623	0.0948959	0.00094091	-0.0199783	0.0497671	-0.00123634	0.021348	-2.22574	0.0253577	-1.52749	0	0	0	0	-0	0	0	0	-0.1265	0	-0	0	0	0	0	0	-0	0	0.105	0.015	0	0	-0	0	0	0.098	0.1	0	-0	0	0	0	0	0	-0	0	0.05595	0	0	0	-0	0	0	0	0	0	-0	0	573.724	572.811	306.781	216.952	0.455578	-5.17536	-0.00551432	-0.0180671	17.1428
