Stefan210/kinematic_calibration/src/kinematic_calibration/validation/experiments/experiments/impact_noise/outlier/larm_randomize_6_measurements_rk_false/optimization_intermediate_results.csv
iteration	HeadPitch_offset	HeadYaw_offset	LElbowRoll_offset	LElbowYaw_offset	LShoulderPitch_offset	LShoulderRoll_offset	marker_transform_larm_tx	marker_transform_larm_ty	marker_transform_larm_tz	marker_transform_larm_rr	marker_transform_larm_rp	marker_transform_larm_ry	camera_transform_tx	camera_transform_ty	camera_transform_tz	camera_transform_rr	camera_transform_rp	camera_transform_ry	HeadPitch_transform_tx	HeadPitch_transform_ty	HeadPitch_transform_tz	HeadPitch_transform_rr	HeadPitch_transform_rp	HeadPitch_transform_ry	HeadYaw_transform_tx	HeadYaw_transform_ty	HeadYaw_transform_tz	HeadYaw_transform_rr	HeadYaw_transform_rp	HeadYaw_transform_ry	LElbowRoll_transform_tx	LElbowRoll_transform_ty	LElbowRoll_transform_tz	LElbowRoll_transform_rr	LElbowRoll_transform_rp	LElbowRoll_transform_ry	LElbowYaw_transform_tx	LElbowYaw_transform_ty	LElbowYaw_transform_tz	LElbowYaw_transform_rr	LElbowYaw_transform_rp	LElbowYaw_transform_ry	LShoulderPitch_transform_tx	LShoulderPitch_transform_ty	LShoulderPitch_transform_tz	LShoulderPitch_transform_rr	LShoulderPitch_transform_rp	LShoulderPitch_transform_ry	LShoulderRoll_transform_tx	LShoulderRoll_transform_ty	LShoulderRoll_transform_tz	LShoulderRoll_transform_rr	LShoulderRoll_transform_rp	LShoulderRoll_transform_ry	LWristYaw_transform_tx	LWristYaw_transform_ty	LWristYaw_transform_tz	LWristYaw_transform_rr	LWristYaw_transform_rp	LWristYaw_transform_ry	l_wrist_joint_transform_tx	l_wrist_joint_transform_ty	l_wrist_joint_transform_tz	l_wrist_joint_transform_rr	l_wrist_joint_transform_rp	l_wrist_joint_transform_ry	camera_fx	camera_fy	camera_cx	camera_cy	camera_D0	camera_D1	camera_D2	camera_D3	camera_D4	
0	0.0249164	-0.0307543	0.000853157	4.65819e-06	-0.000318322	-0.00310766	0.05071	0	0.01774	-2.26369	1.66533e-16	-1.5708	545.901	551.038	324.928	201.58	0.0255298	2.61142	-0.0636736	-0.0350419	0.213964
1	-0.00451185	-0.00263899	-0.00731814	0.13116	0.0859723	0.00565888	0.0253735	-0.0282924	0.0134169	-0.00153484	-0.00156557	-0.00280801	0.0575595	-4.29642e-05	0.0135762	-2.24489	0.0287859	-1.61111	0	0	0	0	-0	0	0	0	-0.1265	0	-0	0	0	0	0	0	-0	0	0.105	0.015	0	0	-0	0	0	0.098	0.1	0	-0	0	0	0	0	0	-0	0	0.05595	0	0	0	-0	0	0	0	0	0	-0	0	545.901	551.039	324.928	201.581	0.0209372	2.60791	-0.117146	0.177368	0.213226
2	-0.0054634	0.00914949	-0.00127005	0.193378	0.0942583	0.013939	0.0252523	-0.0286634	0.020183	-0.00227789	-0.00224716	-0.00285787	0.0566888	-0.0011744	0.0149242	-2.24098	0.0182766	-1.61924	0	0	0	0	-0	0	0	0	-0.1265	0	-0	0	0	0	0	0	-0	0	0.105	0.015	0	0	-0	0	0	0.098	0.1	0	-0	0	0	0	0	0	-0	0	0.05595	0	0	0	-0	0	0	0	0	0	-0	0	545.906	551.039	324.921	201.589	-0.1412	2.49116	-0.083103	0.1173	0.176143
3	-0.00645731	0.0159508	-0.000875352	0.186217	0.0893777	0.0247646	0.0253935	-0.0286002	0.019467	-0.00220883	-0.00214222	-0.00284876	0.0589179	3.42452e-05	0.0125866	-2.23621	0.0162512	-1.63784	0	0	0	0	-0	0	0	0	-0.1265	0	-0	0	0	0	0	0	-0	0	0.105	0.015	0	0	-0	0	0	0.098	0.1	0	-0	0	0	0	0	0	-0	0	0.05595	0	0	0	-0	0	0	0	0	0	-0	0	545.917	551.039	324.909	201.605	-0.404187	2.25615	-0.0570093	0.113043	0.0995576
4	-0.00556814	0.0172152	-0.00781604	0.192587	0.0880636	0.0213628	0.024842	-0.0282931	0.0197985	-0.00224734	-0.00220742	-0.00279285	0.0598117	0.000110493	0.0116967	-2.23963	0.0175467	-1.6382	0	0	0	0	-0	0	0	0	-0.1265	0	-0	0	0	0	0	0	-0	0	0.105	0.015	0	0	-0	0	0	0.098	0.1	0	-0	0	0	0	0	0	-0	0	0.05595	0	0	0	-0	0	0	0	0	0	-0	0	545.943	551.036	324.889	201.631	-0.527185	1.88674	-0.0312844	0.0926549	-0.0320764
5	-0.00513491	0.0186444	-0.0110175	0.186783	0.0877576	0.022293	0.0246662	-0.0282199	0.0191856	-0.00230569	-0.00190437	-0.0029309	0.0598498	0.000356697	0.0119482	-2.24159	0.0190133	-1.6418	0	0	0	0	-0	0	0	0	-0.1265	0	-0	0	0	0	0	0	-0	0	0.105	0.015	0	0	-0	0	0	0.098	0.1	0	-0	0	0	0	0	0	-0	0	0.05595	0	0	0	-0	0	0	0	0	0	-0	0	546.01	551.027	324.862	201.676	-0.353363	1.37554	-0.0406394	0.096455	-0.188152
6	-0.00487322	0.0172409	-0.0130697	0.188128	0.0878595	0.0234382	0.024544	-0.0281895	0.0192428	-0.00222841	-0.00192998	-0.00309874	0.0592334	0.000328871	0.012879	-2.24345	0.0217463	-1.63901	0	0	0	0	-0	0	0	0	-0.1265	0	-0	0	0	0	0	0	-0	0	0.105	0.015	0	0	-0	0	0	0.098	0.1	0	-0	0	0	0	0	0	-0	0	0.05595	0	0	0	-0	0	0	0	0	0	-0	0	546.178	551.003	324.787	201.778	-0.117056	0.832776	-0.0552849	0.100539	-0.167672
7	-0.00399806	0.0168033	-0.0134229	0.18947	0.0875488	0.0250646	0.0245628	-0.0281892	0.0193518	-0.00119754	-0.00150896	-0.00109903	0.0586734	0.000297607	0.0137439	-2.24384	0.0232771	-1.63729	0	0	0	0	-0	0	0	0	-0.1265	0	-0	0	0	0	0	0	-0	0	0.105	0.015	0	0	-0	0	0	0.098	0.1	0	-0	0	0	0	0	0	-0	0	0.05595	0	0	0	-0	0	0	0	0	0	-0	0	546.648	550.933	324.501	202.053	0.0540408	0.269358	-0.0629401	0.103915	0.397235
8	-0.00152506	0.0167849	-0.0138816	0.191901	0.0871926	0.0259058	0.0245466	-0.0281715	0.0195662	0.00244485	-0.00524021	0.00133246	0.0578895	0.000309436	0.014898	-2.2439	0.0248577	-1.63526	0	0	0	0	-0	0	0	0	-0.1265	0	-0	0	0	0	0	0	-0	0	0.105	0.015	0	0	-0	0	0	0.098	0.1	0	-0	0	0	0	0	0	-0	0	0.05595	0	0	0	-0	0	0	0	0	0	-0	0	547.991	550.73	323.516	202.812	0.224231	-0.680851	-0.0649889	0.106858	2.21535
9	-0.00906624	0.0173784	-0.01486	0.19476	0.0862566	0.0263539	0.0244808	-0.0281378	0.0198183	-0.00833742	-0.00212626	0.00540414	0.0564792	0.00037611	0.0165007	-2.25768	0.0276307	-1.63165	0	0	0	0	-0	0	0	0	-0.1265	0	-0	0	0	0	0	0	-0	0	0.105	0.015	0	0	-0	0	0	0.098	0.1	0	-0	0	0	0	0	0	-0	0	0.05595	0	0	0	-0	0	0	0	0	0	-0	0	551.645	550.213	320.516	204.792	0.521341	-2.73217	-0.0634362	0.11266	6.80553
10	-0.00893179	0.0179307	-0.0166563	0.199358	0.0848213	0.02716	0.0243573	-0.0281198	0.0202161	-0.0522648	0.0016304	0.00144315	0.0539121	0.000510387	0.0200613	-2.26908	0.0361941	-1.62193	0	0	0	0	-0	0	0	0	-0.1265	0	-0	0	0	0	0	0	-0	0	0.105	0.015	0	0	-0	0	0	0.098	0.1	0	-0	0	0	0	0	0	-0	0	0.05595	0	0	0	-0	0	0	0	0	0	-0	0	559.198	549.635	312.974	208.817	0.932783	-6.13328	-0.0563948	0.122324	15.9263
11	-0.0116335	0.0173845	-0.0189872	0.205088	0.0837777	0.0293901	0.024307	-0.0282196	0.0206709	-0.0356336	-0.00106358	-0.074003	0.0510754	0.000714338	0.0239255	-2.28523	0.0508388	-1.60647	0	0	0	0	-0	0	0	0	-0.1265	0	-0	0	0	0	0	0	-0	0	0.105	0.015	0	0	-0	0	0	0.098	0.1	0	-0	0	0	0	0	0	-0	0	0.05595	0	0	0	-0	0	0	0	0	0	-0	0	567.797	551.008	300.714	214.078	1.29682	-9.80453	-0.0506233	0.133096	28.9972
12	-0.0282712	0.0152414	-0.0214998	0.210142	0.0837864	0.0327208	0.0241779	-0.028148	0.0210435	-0.043061	0.0530262	-0.098326	0.049846	0.000931764	0.0253337	-2.30754	0.0573105	-1.60037	0	0	0	0	-0	0	0	0	-0.1265	0	-0	0	0	0	0	0	-0	0	0.105	0.015	0	0	-0	0	0	0.098	0.1	0	-0	0	0	0	0	0	-0	0	0.05595	0	0	0	-0	0	0	0	0	0	-0	0	569.861	552.667	295.893	216.511	1.70682	-11.511	-0.0728471	0.141681	33.9258
13	-0.051305	0.0155082	-0.0228432	0.212377	0.0821734	0.0349804	0.0241717	-0.0282234	0.021204	-0.0563591	0.0559626	-0.0415649	0.0486297	0.000959075	0.0269168	-2.33925	0.0665811	-1.59208	0	0	0	0	-0	0	0	0	-0.1265	0	-0	0	0	0	0	0	-0	0	0.105	0.015	0	0	-0	0	0	0.098	0.1	0	-0	0	0	0	0	0	-0	0	0.05595	0	0	0	-0	0	0	0	0	0	-0	0	571.503	555.87	287.802	220.272	2.05215	-13.6492	-0.079666	0.14191	40.2944
14	-0.017991	0.015386	-0.0253816	0.214482	0.0812979	0.0377412	0.0240812	-0.0281515	0.021387	-0.09312	0.0938921	-0.0205086	0.0446954	0.00107127	0.0332071	-2.31923	0.0825324	-1.57598	0	0	0	0	-0	0	0	0	-0.1265	0	-0	0	0	0	0	0	-0	0	0.105	0.015	0	0	-0	0	0	0.098	0.1	0	-0	0	0	0	0	0	-0	0	0.05595	0	0	0	-0	0	0	0	0	0	-0	0	571.158	562.11	275.531	225.576	2.90765	-17.9065	-0.107822	0.140441	47.2924
15	-0.0369777	0.0126686	-0.0278013	0.220268	0.0825085	0.0418671	0.0240476	-0.0280806	0.0218548	-0.0889238	0.104766	0.000794758	0.0412105	0.00114404	0.0373442	-2.34649	0.09112	-1.5661	0	0	0	0	-0	0	0	0	-0.1265	0	-0	0	0	0	0	0	-0	0	0.105	0.015	0	0	-0	0	0	0.098	0.1	0	-0	0	0	0	0	0	-0	0	0.05595	0	0	0	-0	0	0	0	0	0	-0	0	570.007	565.273	268.328	228.445	4.33897	-24.9154	-0.147941	0.135467	47.6953
16	-0.0649564	0.0166713	-0.0308816	0.228638	0.0814152	0.0475833	0.0242025	-0.0279761	0.0227072	-0.0460037	0.147503	0.00737316	0.0347512	0.00133616	0.047109	-2.39192	0.117708	-1.54773	0	0	0	0	-0	0	0	0	-0.1265	0	-0	0	0	0	0	0	-0	0	0.105	0.015	0	0	-0	0	0	0.098	0.1	0	-0	0	0	0	0	0	-0	0	0.05595	0	0	0	-0	0	0	0	0	0	-0	0	564.542	576.741	242.56	235.042	7.10606	-40.7908	-0.212899	0.093541	49.4639
17	-0.0369792	0.0178055	-0.0338357	0.239407	0.0816261	0.0475124	0.0239321	-0.0276753	0.0236729	-0.0456049	0.105434	0.0341137	0.0306367	0.00197023	0.0528004	-2.3607	0.114134	-1.54706	0	0	0	0	-0	0	0	0	-0.1265	0	-0	0	0	0	0	0	-0	0	0.105	0.015	0	0	-0	0	0	0.098	0.1	0	-0	0	0	0	0	0	-0	0	0.05595	0	0	0	-0	0	0	0	0	0	-0	0	562.955	580.259	239.771	233.194	9.34192	-51.903	-0.310182	0.0376675	47.9679
18	-0.0662303	0.0214928	-0.0372066	0.237304	0.079854	0.0532302	0.0241732	-0.0276566	0.0236561	-0.0750922	0.10242	0.14156	0.0300478	0.00270599	0.0550298	-2.39311	0.112462	-1.55558	0	0	0	0	-0	0	0	0	-0.1265	0	-0	0	0	0	0	0	-0	0	0.105	0.015	0	0	-0	0	0	0.098	0.1	0	-0	0	0	0	0	0	-0	0	0.05595	0	0	0	-0	0	0	0	0	0	-0	0	562.655	583.648	239.046	234.063	10.5742	-60.6548	-0.334394	0.0386485	47.4216
19	-0.0653275	0.0210017	-0.0384007	0.242508	0.0799239	0.0536015	0.0239425	-0.0274534	0.0240797	-0.114229	0.0702172	0.152482	0.0298091	0.00280025	0.0552926	-2.39173	0.111834	-1.55483	0	0	0	0	-0	0	0	0	-0.1265	0	-0	0	0	0	0	0	-0	0	0.105	0.015	0	0	-0	0	0	0.098	0.1	0	-0	0	0	0	0	0	-0	0	0.05595	0	0	0	-0	0	0	0	0	0	-0	0	562.657	584.219	239.174	234.06	10.7632	-62.2672	-0.339448	0.0367742	47.2896
20	-0.0355624	0.0224671	-0.0386072	0.241005	0.0797896	0.055173	0.023884	-0.027467	0.0240798	-0.214289	0.163785	0.086307	0.0273296	0.00296827	0.0575816	-2.36449	0.109272	-1.55465	0	0	0	0	-0	0	0	0	-0.1265	0	-0	0	0	0	0	0	-0	0	0.105	0.015	0	0	-0	0	0	0.098	0.1	0	-0	0	0	0	0	0	-0	0	0.05595	0	0	0	-0	0	0	0	0	0	-0	0	563.209	586.268	239.983	234.995	11.3939	-67.6189	-0.349718	0.042052	47.0579
21	-0.0470611	0.0223527	-0.0387793	0.241903	0.0796409	0.0558436	0.0239903	-0.0274513	0.0241062	-0.164734	0.175847	0.107876	0.0277192	0.00292828	0.0575362	-2.37694	0.109095	-1.55615	0	0	0	0	-0	0	0	0	-0.1265	0	-0	0	0	0	0	0	-0	0	0.105	0.015	0	0	-0	0	0	0.098	0.1	0	-0	0	0	0	0	0	-0	0	0.05595	0	0	0	-0	0	0	0	0	0	-0	0	563.495	587.233	240.482	235.475	11.6108	-69.9127	-0.352235	0.0452037	47.0179
22	-0.0390359	0.0224002	-0.0391368	0.242859	0.0796818	0.0561065	0.0239719	-0.0273915	0.0241758	-0.142516	0.173918	0.10054	0.0271312	0.0029615	0.0579216	-2.36924	0.108554	-1.5555	0	0	0	0	-0	0	0	0	-0.1265	0	-0	0	0	0	0	0	-0	0	0.105	0.015	0	0	-0	0	0	0.098	0.1	0	-0	0	0	0	0	0	-0	0	0.05595	0	0	0	-0	0	0	0	0	0	-0	0	563.642	587.599	240.71	235.673	11.7119	-70.8189	-0.354341	0.0456053	47.0019
23	-0.0766772	0.0229396	-0.0393763	0.243049	0.0795219	0.0565905	0.024027	-0.0274407	0.0241563	-0.160571	0.196256	0.0165705	0.0289338	0.00300098	0.057468	-2.4092	0.107716	-1.56112	0	0	0	0	-0	0	0	0	-0.1265	0	-0	0	0	0	0	0	-0	0	0.105	0.015	0	0	-0	0	0	0.098	0.1	0	-0	0	0	0	0	0	-0	0	0.05595	0	0	0	-0	0	0	0	0	0	-0	0	564.383	588.982	241.476	236.627	12.0243	-74.1999	-0.355959	0.0506322	47.0031
24	-0.0329346	0.0233288	-0.0398609	0.243916	0.0793502	0.0570292	0.024009	-0.0273402	0.0243736	-0.139602	0.111341	0.01036	0.0259577	0.00302042	0.0594511	-2.36801	0.105738	-1.55781	0	0	0	0	-0	0	0	0	-0.1265	0	-0	0	0	0	0	0	-0	0	0.105	0.015	0	0	-0	0	0	0.098	0.1	0	-0	0	0	0	0	0	-0	0	0.05595	0	0	0	-0	0	0	0	0	0	-0	0	565.73	590.783	242.379	237.948	12.4056	-78.6134	-0.356545	0.0564773	47.0767
25	-0.0431506	0.0230275	-0.0393336	0.244234	0.0794932	0.0572975	0.0240127	-0.0273648	0.024323	-0.12274	0.130561	0.00371229	0.0264771	0.00294315	0.059125	-2.37836	0.106007	-1.55858	0	0	0	0	-0	0	0	0	-0.1265	0	-0	0	0	0	0	0	-0	0	0.105	0.015	0	0	-0	0	0	0.098	0.1	0	-0	0	0	0	0	0	-0	0	0.05595	0	0	0	-0	0	0	0	0	0	-0	0	565.868	591.036	242.51	238.124	12.4549	-79.2147	-0.358005	0.0572162	47.0765
26	-0.041799	0.0231363	-0.0395448	0.244546	0.0793707	0.0574322	0.024009	-0.027365	0.0243368	-0.114418	0.129706	0.0430993	0.0263298	0.00294124	0.0592723	-2.37749	0.105746	-1.55867	0	0	0	0	-0	0	0	0	-0.1265	0	-0	0	0	0	0	0	-0	0	0.105	0.015	0	0	-0	0	0	0.098	0.1	0	-0	0	0	0	0	0	-0	0	0.05595	0	0	0	-0	0	0	0	0	0	-0	0	566.087	591.374	242.705	238.36	12.5185	-80.0041	-0.357925	0.0581052	47.0869
27	0.00171853	0.0235625	-0.0397254	0.244625	0.0792304	0.0576705	0.0239941	-0.0273628	0.0243486	-0.149866	0.134172	0.00530323	0.0234139	0.0029567	0.0609384	-2.33583	0.104084	-1.55532	0	0	0	0	-0	0	0	0	-0.1265	0	-0	0	0	0	0	0	-0	0	0.105	0.015	0	0	-0	0	0	0.098	0.1	0	-0	0	0	0	0	0	-0	0	0.05595	0	0	0	-0	0	0	0	0	0	-0	0	567.157	592.752	243.343	239.323	12.7842	-83.3264	-0.357414	0.0627964	47.1794
28	0.0179036	0.0235558	-0.0397649	0.244857	0.0792058	0.0579323	0.0240094	-0.0273442	0.0244595	-0.207945	0.181896	0.00839463	0.0222295	0.00293594	0.0614521	-2.32034	0.103579	-1.55388	0	0	0	0	-0	0	0	0	-0.1265	0	-0	0	0	0	0	0	-0	0	0.105	0.015	0	0	-0	0	0	0.098	0.1	0	-0	0	0	0	0	0	-0	0	0.05595	0	0	0	-0	0	0	0	0	0	-0	0	567.668	593.417	243.616	239.729	12.902	-84.8733	-0.357487	0.0647488	47.2346
29	-0.012982	0.0238393	-0.0395604	0.245244	0.0791203	0.058045	0.0240608	-0.0273772	0.0244665	-0.237359	0.206541	0.047386	0.0237435	0.00289929	0.0612541	-2.35331	0.103228	-1.55811	0	0	0	0	-0	0	0	0	-0.1265	0	-0	0	0	0	0	0	-0	0	0.105	0.015	0	0	-0	0	0	0.098	0.1	0	-0	0	0	0	0	0	-0	0	0.05595	0	0	0	-0	0	0	0	0	0	-0	0	568.815	594.793	244.17	240.638	13.1687	-88.2301	-0.357695	0.0688794	47.3265
30	-0.0182888	0.0236538	-0.0396387	0.245894	0.079117	0.0581227	0.0240403	-0.027347	0.0244984	-0.230986	0.236331	0.0744765	0.0240272	0.00287362	0.0611488	-2.35875	0.103298	-1.55843	0	0	0	0	-0	0	0	0	-0.1265	0	-0	0	0	0	0	0	-0	0	0.105	0.015	0	0	-0	0	0	0.098	0.1	0	-0	0	0	0	0	0	-0	0	0.05595	0	0	0	-0	0	0	0	0	0	-0	0	568.967	594.977	244.25	240.757	13.2026	-88.6633	-0.358174	0.0690855	47.3377
31	-0.0386437	0.0237681	-0.0396717	0.245837	0.0790918	0.0582747	0.0240287	-0.0273276	0.024477	-0.243923	0.226891	0.0660182	0.025186	0.0028796	0.0607882	-2.37969	0.103288	-1.56083	0	0	0	0	-0	0	0	0	-0.1265	0	-0	0	0	0	0	0	-0	0	0.105	0.015	0	0	-0	0	0	0.098	0.1	0	-0	0	0	0	0	0	-0	0	0.05595	0	0	0	-0	0	0	0	0	0	-0	0	569.295	595.347	244.401	240.986	13.2653	-89.5432	-0.357751	0.0702961	47.3667
32	-0.0665808	0.0238283	-0.0397495	0.246005	0.0790587	0.0584048	0.0240313	-0.0273227	0.0244948	-0.227151	0.239043	0.0644716	0.0267999	0.00287846	0.0601983	-2.40821	0.103322	-1.56389	0	0	0	0	-0	0	0	0	-0.1265	0	-0	0	0	0	0	0	-0	0	0.105	0.015	0	0	-0	0	0	0.098	0.1	0	-0	0	0	0	0	0	-0	0	0.05595	0	0	0	-0	0	0	0	0	0	-0	0	569.618	595.715	244.541	241.188	13.3256	-90.3936	-0.357346	0.0712698	47.4035
33	-0.0695634	0.0238385	-0.0397458	0.24608	0.0790687	0.0584736	0.0240304	-0.0273193	0.0245042	-0.236714	0.250343	0.0739257	0.0269361	0.00287662	0.0601525	-2.41136	0.103267	-1.56426	0	0	0	0	-0	0	0	0	-0.1265	0	-0	0	0	0	0	0	-0	0	0.105	0.015	0	0	-0	0	0	0.098	0.1	0	-0	0	0	0	0	0	-0	0	0.05595	0	0	0	-0	0	0	0	0	0	-0	0	569.752	595.862	244.596	241.266	13.3525	-90.7392	-0.357437	0.0716343	47.4153
34	-0.0430583	0.0239743	-0.0397858	0.246199	0.0790183	0.0585545	0.0240288	-0.0273266	0.0245437	-0.275089	0.276918	0.0741559	0.0251957	0.00287592	0.0611011	-2.38543	0.102709	-1.5619	0	0	0	0	-0	0	0	0	-0.1265	0	-0	0	0	0	0	0	-0	0	0.105	0.015	0	0	-0	0	0	0.098	0.1	0	-0	0	0	0	0	0	-0	0	0.05595	0	0	0	-0	0	0	0	0	0	-0	0	570.303	596.46	244.794	241.582	13.4561	-92.1329	-0.357086	0.0732605	47.4691
35	-0.0333331	0.023944	-0.0396986	0.246234	0.079039	0.0586144	0.0240404	-0.0273223	0.0245224	-0.280004	0.263991	0.0590039	0.024549	0.00286297	0.0613743	-2.37579	0.102602	-1.56092	0	0	0	0	-0	0	0	0	-0.1265	0	-0	0	0	0	0	0	-0	0	0.105	0.015	0	0	-0	0	0	0.098	0.1	0	-0	0	0	0	0	0	-0	0	0.05595	0	0	0	-0	0	0	0	0	0	-0	0	570.438	596.612	244.841	241.661	13.4832	-92.4784	-0.357319	0.0737094	47.4861
36	-0.0396668	0.0239702	-0.0397932	0.24647	0.0790123	0.0586583	0.0240454	-0.027334	0.0245418	-0.272667	0.275162	0.0958764	0.0248826	0.00286504	0.0612901	-2.38238	0.102546	-1.56165	0	0	0	0	-0	0	0	0	-0.1265	0	-0	0	0	0	0	0	-0	0	0.105	0.015	0	0	-0	0	0	0.098	0.1	0	-0	0	0	0	0	0	-0	0	0.05595	0	0	0	-0	0	0	0	0	0	-0	0	570.631	596.814	244.908	241.763	13.5174	-92.9437	-0.357161	0.0740753	47.5068
37	-0.041641	0.0240681	-0.039832	0.246496	0.0789931	0.0587108	0.0240144	-0.0273179	0.0245555	-0.324854	0.320671	0.046407	0.0248805	0.00286996	0.0614226	-2.38488	0.102319	-1.56216	0	0	0	0	-0	0	0	0	-0.1265	0	-0	0	0	0	0	0	-0	0	0.105	0.015	0	0	-0	0	0	0.098	0.1	0	-0	0	0	0	0	0	-0	0	0.05595	0	0	0	-0	0	0	0	0	0	-0	0	571.068	597.249	245.034	241.986	13.5944	-93.9728	-0.356944	0.0752209	47.5607
38	-0.0379533	0.0240551	-0.0397486	0.24651	0.0789765	0.0587883	0.0240568	-0.027317	0.0245527	-0.310226	0.34831	0.0388645	0.0246059	0.00285172	0.061588	-2.38138	0.102249	-1.5618	0	0	0	0	-0	0	0	0	-0.1265	0	-0	0	0	0	0	0	-0	0	0.105	0.015	0	0	-0	0	0	0.098	0.1	0	-0	0	0	0	0	0	-0	0	0.05595	0	0	0	-0	0	0	0	0	0	-0	0	571.272	597.473	245.099	242.095	13.6297	-94.4757	-0.356836	0.0757974	47.5853
39	-0.0260019	0.024082	-0.0398453	0.246828	0.0789888	0.0588168	0.024038	-0.0273135	0.0245802	-0.322943	0.359089	0.0523799	0.0238194	0.00286145	0.0619472	-2.36954	0.10201	-1.56066	0	0	0	0	-0	0	0	0	-0.1265	0	-0	0	0	0	0	0	-0	0	0.105	0.015	0	0	-0	0	0	0.098	0.1	0	-0	0	0	0	0	0	-0	0	0.05595	0	0	0	-0	0	0	0	0	0	-0	0	571.433	597.635	245.149	242.173	13.659	-94.8531	-0.356847	0.0760544	47.6046
40	-0.041162	0.024135	-0.0398283	0.24674	0.0789769	0.0588869	0.0240482	-0.0273088	0.0245881	-0.314657	0.323589	0.0469102	0.0246927	0.00286199	0.0616754	-2.38504	0.102044	-1.56238	0	0	0	0	-0	0	0	0	-0.1265	0	-0	0	0	0	0	0	-0	0	0.105	0.015	0	0	-0	0	0	0.098	0.1	0	-0	0	0	0	0	0	-0	0	0.05595	0	0	0	-0	0	0	0	0	0	-0	0	571.67	597.875	245.213	242.287	13.698	-95.4059	-0.356631	0.0767769	47.6389
41	-0.0204273	0.0242233	-0.0398549	0.246933	0.0789636	0.0589543	0.0240319	-0.0273597	0.0246116	-0.254957	0.325194	0.0841669	0.0232668	0.00286135	0.0623967	-2.36477	0.101594	-1.56054	0	0	0	0	-0	0	0	0	-0.1265	0	-0	0	0	0	0	0	-0	0	0.105	0.015	0	0	-0	0	0	0.098	0.1	0	-0	0	0	0	0	0	-0	0	0.05595	0	0	0	-0	0	0	0	0	0	-0	0	572.221	598.404	245.347	242.532	13.7859	-96.6151	-0.356253	0.0779803	47.7008
42	-0.028889	0.0242509	-0.0398184	0.246784	0.0789442	0.0589902	0.024048	-0.0273227	0.0245877	-0.286568	0.318083	0.076695	0.0237092	0.00285371	0.062298	-2.37355	0.101621	-1.56155	0	0	0	0	-0	0	0	0	-0.1265	0	-0	0	0	0	0	0	-0	0	0.105	0.015	0	0	-0	0	0	0.098	0.1	0	-0	0	0	0	0	0	-0	0	0.05595	0	0	0	-0	0	0	0	0	0	-0	0	572.487	598.665	245.404	242.65	13.8313	-97.2083	-0.35635	0.0786701	47.7377
43	-0.0524332	0.0242766	-0.0399063	0.247183	0.0789336	0.059066	0.0240592	-0.0273232	0.0246406	-0.289563	0.280091	0.0505198	0.0250698	0.00285415	0.0618817	-2.39759	0.101626	-1.56405	0	0	0	0	-0	0	0	0	-0.1265	0	-0	0	0	0	0	0	-0	0	0.105	0.015	0	0	-0	0	0	0.098	0.1	0	-0	0	0	0	0	0	-0	0	0.05595	0	0	0	-0	0	0	0	0	0	-0	0	572.897	599.055	245.497	242.813	13.8912	-98.0652	-0.355924	0.0793178	47.7852
44	-0.0833075	0.0243305	-0.0398782	0.247245	0.0789522	0.0591264	0.0240679	-0.0273192	0.024612	-0.291663	0.260986	0.0942786	0.026894	0.00285793	0.0612152	-2.4289	0.10164	-1.56739	0	0	0	0	-0	0	0	0	-0.1265	0	-0	0	0	0	0	0	-0	0	0.105	0.015	0	0	-0	0	0	0.098	0.1	0	-0	0	0	0	0	0	-0	0	0.05595	0	0	0	-0	0	0	0	0	0	-0	0	573.196	599.343	245.56	242.935	13.9395	-98.7157	-0.355917	0.0800425	47.8174
45	-0.0639335	0.0243645	-0.0400421	0.247474	0.0789437	0.0592272	0.0240281	-0.0272989	0.024639	-0.314755	0.271318	0.0738507	0.0256411	0.00287305	0.0618013	-2.40962	0.10144	-1.56548	0	0	0	0	-0	0	0	0	-0.1265	0	-0	0	0	0	0	0	-0	0	0.105	0.015	0	0	-0	0	0	0.098	0.1	0	-0	0	0	0	0	0	-0	0	0.05595	0	0	0	-0	0	0	0	0	0	-0	0	573.433	599.553	245.603	243.012	13.9711	-99.1852	-0.3555	0.0803928	47.8516
46	-0.055046	0.0244133	-0.0399623	0.247349	0.0789322	0.0593142	0.0240619	-0.0273088	0.0246618	-0.318304	0.31207	0.0917951	0.0250051	0.00286414	0.0621462	-2.40096	0.101294	-1.56471	0	0	0	0	-0	0	0	0	-0.1265	0	-0	0	0	0	0	0	-0	0	0.105	0.015	0	0	-0	0	0	0.098	0.1	0	-0	0	0	0	0	0	-0	0	0.05595	0	0	0	-0	0	0	0	0	0	-0	0	573.769	599.875	245.667	243.126	14.0201	-99.8768	-0.355322	0.0810861	47.8986
47	-0.0711199	0.0244217	-0.0399294	0.247612	0.0789429	0.0593011	0.0240625	-0.0273112	0.0246736	-0.341059	0.278945	0.0852456	0.025934	0.00285762	0.0618366	-2.41733	0.101275	-1.56644	0	0	0	0	-0	0	0	0	-0.1265	0	-0	0	0	0	0	0	-0	0	0.105	0.015	0	0	-0	0	0	0.098	0.1	0	-0	0	0	0	0	0	-0	0	0.05595	0	0	0	-0	0	0	0	0	0	-0	0	574.006	600.11	245.719	243.218	14.0608	-100.396	-0.355545	0.0815036	47.9374
48	-0.0675109	0.0244414	-0.0399681	0.247669	0.0789379	0.0593591	0.024053	-0.0273114	0.0246753	-0.320645	0.304368	0.101911	0.0256624	0.00286153	0.0619956	-2.41386	0.101187	-1.56615	0	0	0	0	-0	0	0	0	-0.1265	0	-0	0	0	0	0	0	-0	0	0.105	0.015	0	0	-0	0	0	0.098	0.1	0	-0	0	0	0	0	0	-0	0	0.05595	0	0	0	-0	0	0	0	0	0	-0	0	574.194	600.28	245.755	243.287	14.087	-100.778	-0.355348	0.081918	47.9628
49	-0.0707682	0.024452	-0.0399657	0.247683	0.0789316	0.0593921	0.0240482	-0.0273053	0.0246703	-0.336641	0.285974	0.0886618	0.02583	0.00285878	0.061965	-2.41725	0.101162	-1.56652	0	0	0	0	-0	0	0	0	-0.1265	0	-0	0	0	0	0	0	-0	0	0.105	0.015	0	0	-0	0	0	0.098	0.1	0	-0	0	0	0	0	0	-0	0	0.05595	0	0	0	-0	0	0	0	0	0	-0	0	574.335	600.409	245.782	243.336	14.1072	-101.066	-0.355254	0.0821713	47.9812
50	-0.0697782	0.0244759	-0.0399902	0.247728	0.0789225	0.0594369	0.0240452	-0.0273019	0.0246722	-0.333455	0.299716	0.105936	0.0257302	0.00285953	0.0620522	-2.41638	0.101098	-1.56647	0	0	0	0	-0	0	0	0	-0.1265	0	-0	0	0	0	0	0	-0	0	0.105	0.015	0	0	-0	0	0	0.098	0.1	0	-0	0	0	0	0	0	-0	0	0.05595	0	0	0	-0	0	0	0	0	0	-0	0	574.496	600.565	245.813	243.391	14.1304	-101.397	-0.355134	0.0824368	48.0066
51	-0.0637507	0.024477	-0.0399944	0.247759	0.0789235	0.0594655	0.0240418	-0.0272958	0.0246689	-0.338305	0.306791	0.0907596	0.0253402	0.00285903	0.0622315	-2.41037	0.101052	-1.56587	0	0	0	0	-0	0	0	0	-0.1265	0	-0	0	0	0	0	0	-0	0	0.105	0.015	0	0	-0	0	0	0.098	0.1	0	-0	0	0	0	0	0	-0	0	0.05595	0	0	0	-0	0	0	0	0	0	-0	0	574.562	600.625	245.826	243.412	14.1397	-101.53	-0.355104	0.0825365	48.0169
52	-0.0638515	0.0245229	-0.0400335	0.247797	0.0789166	0.0595202	0.0240357	-0.0273236	0.0246817	-0.378687	0.307176	0.0523184	0.0252779	0.00286276	0.0623348	-2.4107	0.100944	-1.566	0	0	0	0	-0	0	0	0	-0.1265	0	-0	0	0	0	0	0	-0	0	0.105	0.015	0	0	-0	0	0	0.098	0.1	0	-0	0	0	0	0	0	-0	0	0.05595	0	0	0	-0	0	0	0	0	0	-0	0	574.844	600.878	245.875	243.498	14.1777	-102.075	-0.354859	0.083007	48.0567
53	-0.0641756	0.024536	-0.0400002	0.24773	0.0789069	0.0595178	0.0240513	-0.0273019	0.0246755	-0.36258	0.3113	0.0393831	0.0252608	0.00285776	0.0623866	-2.41114	0.100916	-1.56611	0	0	0	0	-0	0	0	0	-0.1265	0	-0	0	0	0	0	0	-0	0	0.105	0.015	0	0	-0	0	0	0.098	0.1	0	-0	0	0	0	0	0	-0	0	0.05595	0	0	0	-0	0	0	0	0	0	-0	0	574.987	601.016	245.898	243.544	14.1994	-102.358	-0.354958	0.0833221	48.0793
54	-0.0620608	0.0245321	-0.04004	0.247952	0.0789161	0.0595509	0.0240417	-0.0272944	0.0246877	-0.362736	0.305701	0.0545315	0.0250995	0.0028603	0.0624786	-2.4091	0.100851	-1.56589	0	0	0	0	-0	0	0	0	-0.1265	0	-0	0	0	0	0	0	-0	0	0.105	0.015	0	0	-0	0	0	0.098	0.1	0	-0	0	0	0	0	0	-0	0	0.05595	0	0	0	-0	0	0	0	0	0	-0	0	575.105	601.125	245.919	243.58	14.2148	-102.587	-0.354826	0.0834454	48.095
55	-0.0584193	0.0245447	-0.0400412	0.247927	0.0789182	0.0595939	0.0240426	-0.0272939	0.0246881	-0.365485	0.307451	0.0659122	0.0248608	0.00286244	0.0625878	-2.40547	0.100817	-1.56555	0	0	0	0	-0	0	0	0	-0.1265	0	-0	0	0	0	0	0	-0	0	0.105	0.015	0	0	-0	0	0	0.098	0.1	0	-0	0	0	0	0	0	-0	0	0.05595	0	0	0	-0	0	0	0	0	0	-0	0	575.153	601.169	245.928	243.595	14.2209	-102.681	-0.354765	0.0835531	48.103
56	-0.0514555	0.024578	-0.0400569	0.247966	0.0789135	0.0596208	0.0240467	-0.0272953	0.0246941	-0.35311	0.31571	0.0553196	0.0243753	0.0028639	0.0628372	-2.39863	0.100702	-1.56493	0	0	0	0	-0	0	0	0	-0.1265	0	-0	0	0	0	0	0	-0	0	0.105	0.015	0	0	-0	0	0	0.098	0.1	0	-0	0	0	0	0	0	-0	0	0.05595	0	0	0	-0	0	0	0	0	0	-0	0	575.357	601.357	245.96	243.653	14.2479	-103.067	-0.35464	0.0838852	48.1362
57	-0.0653711	0.0246276	-0.0400879	0.248043	0.0789103	0.0596673	0.0240403	-0.0273089	0.0246927	-0.326697	0.303766	0.0987301	0.0251559	0.00286751	0.0626352	-2.4129	0.100642	-1.56649	0	0	0	0	-0	0	0	0	-0.1265	0	-0	0	0	0	0	0	-0	0	0.105	0.015	0	0	-0	0	0	0.098	0.1	0	-0	0	0	0	0	0	-0	0	0.05595	0	0	0	-0	0	0	0	0	0	-0	0	575.722	601.688	246.015	243.76	14.2974	-103.768	-0.354427	0.0844914	48.1973
58	-0.0466195	0.0246405	-0.0401156	0.248067	0.078902	0.0597071	0.0240384	-0.0272886	0.024703	-0.320084	0.299545	0.101726	0.0239355	0.00286846	0.063173	-2.39418	0.100499	-1.56465	0	0	0	0	-0	0	0	0	-0.1265	0	-0	0	0	0	0	0	-0	0	0.105	0.015	0	0	-0	0	0	0.098	0.1	0	-0	0	0	0	0	0	-0	0	0.05595	0	0	0	-0	0	0	0	0	0	-0	0	575.901	601.852	246.039	243.81	14.322	-104.11	-0.354373	0.084775	48.231
59	-0.0443932	0.024674	-0.0401165	0.24815	0.0789092	0.0597726	0.0240402	-0.0273059	0.0247172	-0.348738	0.294575	0.0757851	0.0237242	0.00287023	0.0633105	-2.39213	0.100396	-1.56452	0	0	0	0	-0	0	0	0	-0.1265	0	-0	0	0	0	0	0	-0	0	0.105	0.015	0	0	-0	0	0	0.098	0.1	0	-0	0	0	0	0	0	-0	0	0.05595	0	0	0	-0	0	0	0	0	0	-0	0	576.167	602.101	246.077	243.881	14.3562	-104.61	-0.354202	0.0851911	48.2783
60	-0.0386542	0.0246776	-0.0400933	0.24818	0.078904	0.0597698	0.0240461	-0.027293	0.0247163	-0.341683	0.296498	0.0615192	0.0233307	0.00286604	0.0634894	-2.38643	0.100336	-1.56398	0	0	0	0	-0	0	0	0	-0.1265	0	-0	0	0	0	0	0	-0	0	0.105	0.015	0	0	-0	0	0	0.098	0.1	0	-0	0	0	0	0	0	-0	0	0.05595	0	0	0	-0	0	0	0	0	0	-0	0	576.275	602.203	246.093	243.912	14.3721	-104.815	-0.354294	0.0853848	48.2935
61	-0.0155568	0.0247413	-0.0401511	0.248311	0.0788968	0.059836	0.0240496	-0.0273311	0.0247484	-0.383326	0.276474	0.0256102	0.0217521	0.00287222	0.0641897	-2.36355	0.0999947	-1.56183	0	0	0	0	-0	0	0	0	-0.1265	0	-0	0	0	0	0	0	-0	0	0.105	0.015	0	0	-0	0	0	0.098	0.1	0	-0	0	0	0	0	0	-0	0	0.05595	0	0	0	-0	0	0	0	0	0	-0	0	576.721	602.619	246.155	244.036	14.4297	-105.649	-0.353999	0.0860415	48.3637
62	-0.0185695	0.0247749	-0.0401195	0.248237	0.0789027	0.0598441	0.024059	-0.0273187	0.0247465	-0.348036	0.302193	0.0466905	0.0218733	0.0028736	0.0641938	-2.36675	0.0999675	-1.56228	0	0	0	0	-0	0	0	0	-0.1265	0	-0	0	0	0	0	0	-0	0	0.105	0.015	0	0	-0	0	0	0.098	0.1	0	-0	0	0	0	0	0	-0	0	0.05595	0	0	0	-0	0	0	0	0	0	-0	0	576.943	602.823	246.178	244.098	14.4601	-106.059	-0.354077	0.0865341	48.3974
63	-0.0156908	0.0247574	-0.040119	0.248465	0.0788999	0.0598487	0.0240414	-0.027306	0.0247461	-0.374665	0.297204	0.0175876	0.0216452	0.00286773	0.0643096	-2.36396	0.0998998	-1.56198	0	0	0	0	-0	0	0	0	-0.1265	0	-0	0	0	0	0	0	-0	0	0.105	0.015	0	0	-0	0	0	0.098	0.1	0	-0	0	0	0	0	0	-0	0	0.05595	0	0	0	-0	0	0	0	0	0	-0	0	577.109	602.978	246.201	244.146	14.4815	-106.366	-0.354021	0.0866959	48.4188
64	-0.0264468	0.0247973	-0.0401601	0.248442	0.0788888	0.0599328	0.0240624	-0.0272944	0.0247425	-0.384041	0.277521	0.0467127	0.0222777	0.002872	0.0641625	-2.37494	0.099921	-1.56314	0	0	0	0	-0	0	0	0	-0.1265	0	-0	0	0	0	0	0	-0	0	0.105	0.015	0	0	-0	0	0	0.098	0.1	0	-0	0	0	0	0	0	-0	0	0.05595	0	0	0	-0	0	0	0	0	0	-0	0	577.361	603.207	246.233	244.211	14.51	-106.813	-0.353693	0.0870774	48.4614
65	-0.0121461	0.0248168	-0.0402235	0.248672	0.0789025	0.0599682	0.024042	-0.0272932	0.0247615	-0.391203	0.273536	0.0185859	0.0213088	0.00288012	0.0645438	-2.36069	0.0997142	-1.56177	0	0	0	0	-0	0	0	0	-0.1265	0	-0	0	0	0	0	0	-0	0	0.105	0.015	0	0	-0	0	0	0.098	0.1	0	-0	0	0	0	0	0	-0	0	0.05595	0	0	0	-0	0	0	0	0	0	-0	0	577.554	603.376	246.259	244.255	14.5333	-107.151	-0.353568	0.0872615	48.4943
66	-0.021848	0.0248497	-0.0402051	0.248572	0.0788985	0.060029	0.0240447	-0.0272856	0.0247559	-0.397818	0.263886	0.0313424	0.0218852	0.00288093	0.0643983	-2.37056	0.0997573	-1.56282	0	0	0	0	-0	0	0	0	-0.1265	0	-0	0	0	0	0	0	-0	0	0.105	0.015	0	0	-0	0	0	0.098	0.1	0	-0	0	0	0	0	0	-0	0	0.05595	0	0	0	-0	0	0	0	0	0	-0	0	577.742	603.55	246.281	244.299	14.5558	-107.49	-0.353437	0.087632	48.5257
67	-0.0137068	0.024871	-0.0402254	0.248707	0.0788962	0.0600687	0.0240575	-0.0272797	0.0247862	-0.399132	0.304911	0.0282913	0.0212897	0.00288013	0.0646723	-2.36255	0.0996107	-1.56208	0	0	0	0	-0	0	0	0	-0.1265	0	-0	0	0	0	0	0	-0	0	0.105	0.015	0	0	-0	0	0	0.098	0.1	0	-0	0	0	0	0	0	-0	0	0.05595	0	0	0	-0	0	0	0	0	0	-0	0	578.024	603.808	246.317	244.362	14.5906	-107.991	-0.353322	0.0879515	48.5755
68	-0.00365888	0.0248912	-0.0401988	0.248815	0.0789106	0.0600931	0.0240214	-0.0273278	0.0248139	-0.334557	0.288353	0.0606047	0.0205832	0.00288086	0.0649553	-2.35259	0.0994477	-1.56116	0	0	0	0	-0	0	0	0	-0.1265	0	-0	0	0	0	0	0	-0	0	0.105	0.015	0	0	-0	0	0	0.098	0.1	0	-0	0	0	0	0	0	-0	0	0.05595	0	0	0	-0	0	0	0	0	0	-0	0	578.235	604.003	246.344	244.415	14.6166	-108.367	-0.353288	0.0883314	48.6069
69	-0.0110734	0.0249144	-0.0400819	0.248481	0.0788831	0.0600861	0.0240621	-0.0272952	0.0247652	-0.320619	0.316	0.0654909	0.0210257	0.00286645	0.0648626	-2.36016	0.0995406	-1.562	0	0	0	0	-0	0	0	0	-0.1265	0	-0	0	0	0	0	0	-0	0	0.105	0.015	0	0	-0	0	0	0.098	0.1	0	-0	0	0	0	0	0	-0	0	0.05595	0	0	0	-0	0	0	0	0	0	-0	0	578.385	604.154	246.359	244.46	14.6377	-108.648	-0.353453	0.088749	48.6324
70	-0.0400474	0.024932	-0.0402553	0.248975	0.0788857	0.060139	0.0240376	-0.0272863	0.0247906	-0.332858	0.320858	0.0408035	0.0228145	0.00287891	0.0643654	-2.38951	0.0996032	-1.56494	0	0	0	0	-0	0	0	0	-0.1265	0	-0	0	0	0	0	0	-0	0	0.105	0.015	0	0	-0	0	0	0.098	0.1	0	-0	0	0	0	0	0	-0	0	0.05595	0	0	0	-0	0	0	0	0	0	-0	0	578.739	604.481	246.406	244.542	14.6793	-109.274	-0.353112	0.0889594	48.6941
71	-0.0581035	0.0249811	-0.0402809	0.248837	0.0788924	0.0602451	0.0240388	-0.0272794	0.0247865	-0.323208	0.309735	0.0430624	0.0239288	0.00289077	0.0639943	-2.40775	0.0996362	-1.56685	0	0	0	0	-0	0	0	0	-0.1265	0	-0	0	0	0	0	0	-0	0	0.105	0.015	0	0	-0	0	0	0.098	0.1	0	-0	0	0	0	0	0	-0	0	0.05595	0	0	0	-0	0	0	0	0	0	-0	0	578.922	604.641	246.422	244.576	14.6971	-109.577	-0.352808	0.0893586	48.7262
72	-0.0764795	0.0249994	-0.0402839	0.248979	0.0788904	0.0602709	0.0240368	-0.0272932	0.0247963	-0.347976	0.311963	0.011724	0.0250397	0.002888	0.063637	-2.42636	0.0996225	-1.56874	0	0	0	0	-0	0	0	0	-0.1265	0	-0	0	0	0	0	0	-0	0	0.105	0.015	0	0	-0	0	0	0.098	0.1	0	-0	0	0	0	0	0	-0	0	0.05595	0	0	0	-0	0	0	0	0	0	-0	0	579.182	604.879	246.45	244.625	14.7283	-110.019	-0.352777	0.0895868	48.7709
73	-0.0676407	0.0250517	-0.0403108	0.248971	0.0788809	0.0603159	0.024042	-0.0272923	0.024815	-0.315847	0.305796	0.00946824	0.0243837	0.0028922	0.0639952	-2.41772	0.0994944	-1.568	0	0	0	0	-0	0	0	0	-0.1265	0	-0	0	0	0	0	0	-0	0	0.105	0.015	0	0	-0	0	0	0.098	0.1	0	-0	0	0	0	0	0	-0	0	0.05595	0	0	0	-0	0	0	0	0	0	-0	0	579.571	605.239	246.485	244.703	14.7742	-110.675	-0.352709	0.0900922	48.853
74	-0.0544959	0.0250417	-0.0402659	0.249079	0.0788891	0.0603231	0.0240425	-0.0272978	0.0248204	-0.28236	0.313224	0.0232918	0.0235049	0.00288678	0.0643621	-2.40458	0.0994218	-1.56671	0	0	0	0	-0	0	0	0	-0.1265	0	-0	0	0	0	0	0	-0	0	0.105	0.015	0	0	-0	0	0	0.098	0.1	0	-0	0	0	0	0	0	-0	0	0.05595	0	0	0	-0	0	0	0	0	0	-0	0	579.722	605.374	246.501	244.735	14.7913	-110.925	-0.352716	0.0903272	48.8821
75	-0.0458585	0.0250573	-0.0402849	0.2491	0.0788876	0.0603506	0.0240449	-0.0272858	0.0248134	-0.279792	0.30712	0.00464716	0.0229208	0.00288957	0.0645987	-2.39597	0.0993537	-1.56589	0	0	0	0	-0	0	0	0	-0.1265	0	-0	0	0	0	0	0	-0	0	0.105	0.015	0	0	-0	0	0	0.098	0.1	0	-0	0	0	0	0	0	-0	0	0.05595	0	0	0	-0	0	0	0	0	0	-0	0	579.83	605.472	246.511	244.758	14.8033	-111.105	-0.352649	0.09049	48.9003
76	-0.0304323	0.0250726	-0.0403279	0.249206	0.0788869	0.0603866	0.0240377	-0.0272798	0.0248199	-0.274429	0.310964	0.016824	0.0218855	0.00289366	0.0650028	-2.38055	0.0992141	-1.56439	0	0	0	0	-0	0	0	0	-0.1265	0	-0	0	0	0	0	0	-0	0	0.105	0.015	0	0	-0	0	0	0.098	0.1	0	-0	0	0	0	0	0	-0	0	0.05595	0	0	0	-0	0	0	0	0	0	-0	0	579.991	605.619	246.528	244.789	14.8205	-111.373	-0.352495	0.0906357	48.9327
77	-0.0153705	0.0251089	-0.0403452	0.249203	0.078887	0.0604395	0.024054	-0.0272927	0.024838	-0.296986	0.282083	0.00367797	0.0208457	0.00289786	0.0654078	-2.36555	0.099043	-1.56297	0	0	0	0	-0	0	0	0	-0.1265	0	-0	0	0	0	0	0	-0	0	0.105	0.015	0	0	-0	0	0	0.098	0.1	0	-0	0	0	0	0	0	-0	0	0.05595	0	0	0	-0	0	0	0	0	0	-0	0	580.232	605.841	246.55	244.833	14.8467	-111.77	-0.352352	0.0909496	48.9776
78	-0.032341	0.0251244	-0.0403314	0.249291	0.0788965	0.0604293	0.0240388	-0.0272799	0.0248297	-0.299855	0.277878	-0.00962464	0.0219035	0.00289871	0.0651097	-2.38271	0.099107	-1.56474	0	0	0	0	-0	0	0	0	-0.1265	0	-0	0	0	0	0	0	-0	0	0.105	0.015	0	0	-0	0	0	0.098	0.1	0	-0	0	0	0	0	0	-0	0	0.05595	0	0	0	-0	0	0	0	0	0	-0	0	580.411	606.001	246.566	244.87	14.8685	-112.071	-0.352407	0.0912135	49.0122
79	-0.033373	0.0251227	-0.040359	0.249319	0.0788888	0.0604867	0.0240378	-0.0272778	0.0248321	-0.296474	0.281593	0.00185174	0.0219538	0.00289946	0.0651008	-2.38378	0.0991088	-1.56483	0	0	0	0	-0	0	0	0	-0.1265	0	-0	0	0	0	0	0	-0	0	0.105	0.015	0	0	-0	0	0	0.098	0.1	0	-0	0	0	0	0	0	-0	0	0.05595	0	0	0	-0	0	0	0	0	0	-0	0	580.484	606.069	246.572	244.883	14.8749	-112.192	-0.352237	0.0912797	49.0264
80	-0.0508688	0.0251584	-0.040371	0.24935	0.0788865	0.0605144	0.0240329	-0.0272923	0.0248481	-0.259226	0.278579	0.0178106	0.0230201	0.00290051	0.0648219	-2.40153	0.0991196	-1.56666	0	0	0	0	-0	0	0	0	-0.1265	0	-0	0	0	0	0	0	-0	0	0.105	0.015	0	0	-0	0	0	0.098	0.1	0	-0	0	0	0	0	0	-0	0	0.05595	0	0	0	-0	0	0	0	0	0	-0	0	580.793	606.343	246.6	244.937	14.9081	-112.681	-0.352128	0.0915868	49.0886
81	-0.0820503	0.0252421	-0.0403699	0.249323	0.0788705	0.0605612	0.024046	-0.0272936	0.0248483	-0.229331	0.294133	0.029898	0.0248994	0.00290287	0.0643104	-2.43323	0.099046	-1.56998	0	0	0	0	-0	0	0	0	-0.1265	0	-0	0	0	0	0	0	-0	0	0.105	0.015	0	0	-0	0	0	0.098	0.1	0	-0	0	0	0	0	0	-0	0	0.05595	0	0	0	-0	0	0	0	0	0	-0	0	581.398	606.924	246.649	245.055	14.9754	-113.673	-0.352013	0.0923714	49.208
82	-0.0938089	0.0252612	-0.0404243	0.24952	0.0788787	0.0606148	0.024039	-0.0272792	0.0248597	-0.215456	0.288763	0.0186055	0.0255804	0.00291048	0.064098	-2.4452	0.0989579	-1.57122	0	0	0	0	-0	0	0	0	-0.1265	0	-0	0	0	0	0	0	-0	0	0.105	0.015	0	0	-0	0	0	0.098	0.1	0	-0	0	0	0	0	0	-0	0	0.05595	0	0	0	-0	0	0	0	0	0	-0	0	581.706	607.209	246.671	245.105	15.0075	-114.162	-0.351871	0.0927224	49.2726
83	-0.0929629	0.0252624	-0.0404202	0.24961	0.0788776	0.0606548	0.024046	-0.0272791	0.0248731	-0.207948	0.315061	0.0284755	0.0254986	0.00290944	0.0641557	-2.44439	0.0989315	-1.57115	0	0	0	0	-0	0	0	0	-0.1265	0	-0	0	0	0	0	0	-0	0	0.105	0.015	0	0	-0	0	0	0.098	0.1	0	-0	0	0	0	0	0	-0	0	0.05595	0	0	0	-0	0	0	0	0	0	-0	0	581.831	607.327	246.683	245.125	15.0198	-114.361	-0.351779	0.0928671	49.2946
84	-0.0989608	0.0252964	-0.0404269	0.249672	0.0788797	0.0606776	0.0240331	-0.0272824	0.0248639	-0.181669	0.296742	0.0658416	0.0258286	0.00291218	0.0640915	-2.45055	0.0988485	-1.57183	0	0	0	0	-0	0	0	0	-0.1265	0	-0	0	0	0	0	0	-0	0	0.105	0.015	0	0	-0	0	0	0.098	0.1	0	-0	0	0	0	0	0	-0	0	0.05595	0	0	0	-0	0	0	0	0	0	-0	0	582.082	607.566	246.707	245.169	15.0471	-114.763	-0.351773	0.0931619	49.3469
85	-0.106648	0.025302	-0.0404582	0.249661	0.0788671	0.0607197	0.0240377	-0.0272751	0.0248705	-0.180051	0.287473	0.0526288	0.0263084	0.00291393	0.0639162	-2.45831	0.0988324	-1.5726	0	0	0	0	-0	0	0	0	-0.1265	0	-0	0	0	0	0	0	-0	0	0.105	0.015	0	0	-0	0	0	0.098	0.1	0	-0	0	0	0	0	0	-0	0	0.05595	0	0	0	-0	0	0	0	0	0	-0	0	582.15	607.632	246.712	245.18	15.0534	-114.872	-0.351662	0.0932465	49.3609
86	-0.113525	0.0253109	-0.04045	0.249712	0.0788758	0.0607309	0.0240362	-0.0272742	0.0248714	-0.176754	0.285002	0.0684023	0.0267268	0.00291454	0.0637662	-2.46526	0.098786	-1.57331	0	0	0	0	-0	0	0	0	-0.1265	0	-0	0	0	0	0	0	-0	0	0.105	0.015	0	0	-0	0	0	0.098	0.1	0	-0	0	0	0	0	0	-0	0	0.05595	0	0	0	-0	0	0	0	0	0	-0	0	582.245	607.718	246.721	245.193	15.0635	-115.021	-0.351661	0.0933392	49.3808
87	-0.113283	0.0253259	-0.0404694	0.249737	0.0788741	0.0607583	0.0240435	-0.0272812	0.0248733	-0.175248	0.282111	0.0981557	0.0266819	0.00291679	0.0638216	-2.46509	0.0987495	-1.57332	0	0	0	0	-0	0	0	0	-0.1265	0	-0	0	0	0	0	0	-0	0	0.105	0.015	0	0	-0	0	0	0.098	0.1	0	-0	0	0	0	0	0	-0	0	0.05595	0	0	0	-0	0	0	0	0	0	-0	0	582.391	607.848	246.733	245.215	15.0775	-115.241	-0.351554	0.0935056	49.4122
88	-0.130784	0.0253616	-0.0405037	0.249796	0.0788742	0.0607772	0.0240376	-0.0272925	0.0248906	-0.144431	0.293542	0.123578	0.02773	0.00292169	0.0634715	-2.48284	0.0985988	-1.57515	0	0	0	0	-0	0	0	0	-0.1265	0	-0	0	0	0	0	0	-0	0	0.105	0.015	0	0	-0	0	0	0.098	0.1	0	-0	0	0	0	0	0	-0	0	0.05595	0	0	0	-0	0	0	0	0	0	-0	0	582.718	608.145	246.754	245.262	15.1107	-115.728	-0.351507	0.0938038	49.4725
89	-0.131343	0.0253745	-0.0404712	0.249757	0.0788748	0.0607923	0.0240385	-0.0272828	0.0248873	-0.171143	0.286769	0.115277	0.0277313	0.00292064	0.0635059	-2.48348	0.098567	-1.57526	0	0	0	0	-0	0	0	0	-0.1265	0	-0	0	0	0	0	0	-0	0	0.105	0.015	0	0	-0	0	0	0.098	0.1	0	-0	0	0	0	0	0	-0	0	0.05595	0	0	0	-0	0	0	0	0	0	-0	0	582.881	608.286	246.762	245.289	15.1264	-115.972	-0.35144	0.0940921	49.507
90	-0.12429	0.0253775	-0.0404799	0.249866	0.0788731	0.0608152	0.0240395	-0.0272869	0.0248947	-0.191059	0.273948	0.0903142	0.027255	0.00291937	0.0637502	-2.47646	0.0985664	-1.57457	0	0	0	0	-0	0	0	0	-0.1265	0	-0	0	0	0	0	0	-0	0	0.105	0.015	0	0	-0	0	0	0.098	0.1	0	-0	0	0	0	0	0	-0	0	0.05595	0	0	0	-0	0	0	0	0	0	-0	0	583.029	608.426	246.773	245.312	15.1406	-116.196	-0.351361	0.0941956	49.5371
91	-0.131527	0.0253974	-0.0404924	0.249866	0.0788734	0.0608343	0.0240468	-0.0272807	0.0248958	-0.209735	0.267811	0.108324	0.027693	0.00292301	0.063591	-2.48379	0.0985009	-1.57533	0	0	0	0	-0	0	0	0	-0.1265	0	-0	0	0	0	0	0	-0	0	0.105	0.015	0	0	-0	0	0	0.098	0.1	0	-0	0	0	0	0	0	-0	0	0.05595	0	0	0	-0	0	0	0	0	0	-0	0	583.133	608.528	246.781	245.329	15.1519	-116.363	-0.351357	0.0943336	49.5593
92	-0.106296	0.0254234	-0.0405213	0.249966	0.0788735	0.060857	0.0240474	-0.0272573	0.0249023	-0.232057	0.319568	0.0671687	0.02604	0.00292707	0.0643717	-2.45856	0.0985102	-1.5729	0	0	0	0	-0	0	0	0	-0.1265	0	-0	0	0	0	0	0	-0	0	0.105	0.015	0	0	-0	0	0	0.098	0.1	0	-0	0	0	0	0	0	-0	0	0.05595	0	0	0	-0	0	0	0	0	0	-0	0	583.373	608.758	246.798	245.366	15.1761	-116.735	-0.351266	0.0945725	49.609
93	-0.123752	0.0254723	-0.0405749	0.250061	0.0788882	0.0609512	0.0240334	-0.0272665	0.0249137	-0.231883	0.298299	0.0649646	0.0270782	0.0029387	0.0640215	-2.47627	0.098351	-1.57472	0	0	0	0	-0	0	0	0	-0.1265	0	-0	0	0	0	0	0	-0	0	0.105	0.015	0	0	-0	0	0	0.098	0.1	0	-0	0	0	0	0	0	-0	0	0.05595	0	0	0	-0	0	0	0	0	0	-0	0	583.738	609.09	246.821	245.415	15.2107	-117.292	-0.35097	0.0949659	49.6888
94	-0.129062	0.0254777	-0.0405397	0.250047	0.0788772	0.0609655	0.0240321	-0.0272656	0.024911	-0.24579	0.320271	0.050189	0.0273968	0.00293399	0.063904	-2.48164	0.0983226	-1.57527	0	0	0	0	-0	0	0	0	-0.1265	0	-0	0	0	0	0	0	-0	0	0.105	0.015	0	0	-0	0	0	0.098	0.1	0	-0	0	0	0	0	0	-0	0	0.05595	0	0	0	-0	0	0	0	0	0	-0	0	583.833	609.185	246.828	245.427	15.2207	-117.438	-0.351017	0.0951009	49.709
95	-0.116069	0.025486	-0.0405456	0.250084	0.0788708	0.0609825	0.024032	-0.0272757	0.0249162	-0.222452	0.323485	0.0617308	0.0265407	0.00293263	0.064305	-2.46864	0.0983468	-1.57401	0	0	0	0	-0	0	0	0	-0.1265	0	-0	0	0	0	0	0	-0	0	0.105	0.015	0	0	-0	0	0	0.098	0.1	0	-0	0	0	0	0	0	-0	0	0.05595	0	0	0	-0	0	0	0	0	0	-0	0	583.965	609.313	246.839	245.446	15.2342	-117.642	-0.351003	0.0952114	49.7377
96	-0.109813	0.0255114	-0.040554	0.250059	0.0788702	0.0609992	0.0240333	-0.0272748	0.0249129	-0.205954	0.330647	0.0781266	0.0260935	0.00293513	0.0645398	-2.46246	0.0983156	-1.57346	0	0	0	0	-0	0	0	0	-0.1265	0	-0	0	0	0	0	0	-0	0	0.105	0.015	0	0	-0	0	0	0.098	0.1	0	-0	0	0	0	0	0	-0	0	0.05595	0	0	0	-0	0	0	0	0	0	-0	0	584.169	609.499	246.852	245.474	15.2549	-117.946	-0.350997	0.0954326	49.7749
97	-0.0858393	0.0255391	-0.0405809	0.250137	0.0788608	0.0610244	0.0240447	-0.0272728	0.024929	-0.222101	0.303217	0.0745852	0.0244848	0.00293726	0.0652656	-2.43851	0.0982793	-1.57116	0	0	0	0	-0	0	0	0	-0.1265	0	-0	0	0	0	0	0	-0	0	0.105	0.015	0	0	-0	0	0	0.098	0.1	0	-0	0	0	0	0	0	-0	0	0.05595	0	0	0	-0	0	0	0	0	0	-0	0	584.465	609.789	246.871	245.516	15.2841	-118.393	-0.350942	0.0957028	49.8426
98	-0.086227	0.025552	-0.0405918	0.250201	0.0788798	0.0610515	0.0240316	-0.027266	0.0249234	-0.223314	0.293076	0.0845431	0.0244856	0.00294479	0.0652573	-2.43892	0.098244	-1.57125	0	0	0	0	-0	0	0	0	-0.1265	0	-0	0	0	0	0	0	-0	0	0.105	0.015	0	0	-0	0	0	0.098	0.1	0	-0	0	0	0	0	0	-0	0	0.05595	0	0	0	-0	0	0	0	0	0	-0	0	584.527	609.845	246.874	245.524	15.2894	-118.483	-0.35089	0.0958552	49.855
99	-0.0829557	0.0255714	-0.0406057	0.250237	0.0788617	0.0610811	0.0240255	-0.0272685	0.0249278	-0.247429	0.31298	0.057962	0.024221	0.00294256	0.0654201	-2.43575	0.0982021	-1.57096	0	0	0	0	-0	0	0	0	-0.1265	0	-0	0	0	0	0	0	-0	0	0.105	0.015	0	0	-0	0	0	0.098	0.1	0	-0	0	0	0	0	0	-0	0	0.05595	0	0	0	-0	0	0	0	0	0	-0	0	584.774	610.084	246.89	245.556	15.3134	-118.855	-0.350816	0.0960285	49.9109
100	-0.0943919	0.0255965	-0.0406043	0.250224	0.0788569	0.0611123	0.0240361	-0.0272732	0.0249294	-0.244989	0.307318	0.0374712	0.0249182	0.00294298	0.0652255	-2.44735	0.0981461	-1.57215	0	0	0	0	-0	0	0	0	-0.1265	0	-0	0	0	0	0	0	-0	0	0.105	0.015	0	0	-0	0	0	0.098	0.1	0	-0	0	0	0	0	0	-0	0	0.05595	0	0	0	-0	0	0	0	0	0	-0	0	585.018	610.317	246.905	245.588	15.3367	-119.211	-0.3508	0.0962672	49.9688
