Stefan210/kinematic_calibration/src/kinematic_calibration/validation/experiments/experiments/single_point_vs_pose/marker_single_point/rarm_250/optimization_intermediate_results.csv
iteration	HeadPitch_offset	HeadYaw_offset	RElbowRoll_offset	RElbowYaw_offset	RShoulderPitch_offset	RShoulderRoll_offset	marker_transform_rarm_tx	marker_transform_rarm_ty	marker_transform_rarm_tz	marker_transform_rarm_rr	marker_transform_rarm_rp	marker_transform_rarm_ry	camera_transform_tx	camera_transform_ty	camera_transform_tz	camera_transform_rr	camera_transform_rp	camera_transform_ry	HeadPitch_transform_tx	HeadPitch_transform_ty	HeadPitch_transform_tz	HeadPitch_transform_rr	HeadPitch_transform_rp	HeadPitch_transform_ry	HeadYaw_transform_tx	HeadYaw_transform_ty	HeadYaw_transform_tz	HeadYaw_transform_rr	HeadYaw_transform_rp	HeadYaw_transform_ry	RElbowRoll_transform_tx	RElbowRoll_transform_ty	RElbowRoll_transform_tz	RElbowRoll_transform_rr	RElbowRoll_transform_rp	RElbowRoll_transform_ry	RElbowYaw_transform_tx	RElbowYaw_transform_ty	RElbowYaw_transform_tz	RElbowYaw_transform_rr	RElbowYaw_transform_rp	RElbowYaw_transform_ry	RShoulderPitch_transform_tx	RShoulderPitch_transform_ty	RShoulderPitch_transform_tz	RShoulderPitch_transform_rr	RShoulderPitch_transform_rp	RShoulderPitch_transform_ry	RShoulderRoll_transform_tx	RShoulderRoll_transform_ty	RShoulderRoll_transform_tz	RShoulderRoll_transform_rr	RShoulderRoll_transform_rp	RShoulderRoll_transform_ry	RWristYaw_transform_tx	RWristYaw_transform_ty	RWristYaw_transform_tz	RWristYaw_transform_rr	RWristYaw_transform_rp	RWristYaw_transform_ry	r_wrist_joint_transform_tx	r_wrist_joint_transform_ty	r_wrist_joint_transform_tz	r_wrist_joint_transform_rr	r_wrist_joint_transform_rp	r_wrist_joint_transform_ry	camera_fx	camera_fy	camera_cx	camera_cy	camera_D0	camera_D1	camera_D2	camera_D3	camera_D4	
0	0.0230449	0.0294606	-0.0013508	-0.00116347	0.000678263	0.00258603	0.05071	0	0.01774	-2.26369	1.66533e-16	-1.5708	545.901	551.038	324.928	201.58	0.0255298	2.61142	-0.0636736	-0.0350419	0.213964
1	-0.0148784	-0.0180856	0.00399107	0.0126902	-0.0158286	-0.0306084	0.0209568	0.0285954	-0.000734078	-0.00109569	0.000632923	0.0027516	0.0540402	-0.00252277	0.018487	-2.20385	0.0129424	-1.53568	0	0	0	0	-0	0	0	0	-0.1265	0	-0	0	0	0	0	0	-0	0	0.105	-0.015	0	0	-0	0	0	-0.098	0.1	0	-0	0	0	0	0	0	-0	0	0.05595	0	0	0	-0	0	0	0	0	0	-0	0	545.901	551.039	324.929	201.581	-0.0424826	2.58739	-0.083066	-0.0669583	0.208321
2	-0.012886	-0.0371062	-0.00141994	0.0111012	-0.0312228	-0.0262059	0.0209001	0.0287108	-0.000525956	-0.00107122	0.000615465	0.00276661	0.0528548	-0.001173	0.0225219	-2.21242	0.022068	-1.5264	0	0	0	0	-0	0	0	0	-0.1265	0	-0	0	0	0	0	0	-0	0	0.105	-0.015	0	0	-0	0	0	-0.098	0.1	0	-0	0	0	0	0	0	-0	0	0.05595	0	0	0	-0	0	0	0	0	0	-0	0	545.903	551.04	324.935	201.587	-0.239071	2.44599	-0.0152131	-0.0315065	0.157425
3	-0.0143177	-0.0295252	0.00125121	0.0126633	-0.0242126	-0.0302463	0.0209949	0.0287425	-0.000824051	-0.00110484	0.000640058	0.00275773	0.0546779	-0.0022079	0.0185629	-2.20574	0.0208792	-1.52843	0	0	0	0	-0	0	0	0	-0.1265	0	-0	0	0	0	0	0	-0	0	0.105	-0.015	0	0	-0	0	0	-0.098	0.1	0	-0	0	0	0	0	0	-0	0	0.05595	0	0	0	-0	0	0	0	0	0	-0	0	545.905	551.04	324.939	201.592	-0.456253	2.30416	-0.0127482	-0.0303429	0.109425
4	-0.0144293	-0.0264372	0.00211327	0.0110172	-0.0209705	-0.0337688	0.0211689	0.0287982	-0.000958511	-0.00111836	0.000650325	0.00274185	0.0557228	-0.00277732	0.0162631	-2.20471	0.0207763	-1.53214	0	0	0	0	-0	0	0	0	-0.1265	0	-0	0	0	0	0	0	-0	0	0.105	-0.015	0	0	-0	0	0	-0.098	0.1	0	-0	0	0	0	0	0	-0	0	0.05595	0	0	0	-0	0	0	0	0	0	-0	0	545.91	551.041	324.948	201.6	-0.695637	2.04646	0.0231814	-0.00755335	0.00701464
5	-0.0145983	-0.0239143	0.00353185	0.0103819	-0.0184673	-0.0364246	0.021246	0.0288086	-0.00105125	-0.00112613	0.000660071	0.00272908	0.0558433	-0.00322794	0.015388	-2.20384	0.0202401	-1.53396	0	0	0	0	-0	0	0	0	-0.1265	0	-0	0	0	0	0	0	-0	0	0.105	-0.015	0	0	-0	0	0	-0.098	0.1	0	-0	0	0	0	0	0	-0	0	0.05595	0	0	0	-0	0	0	0	0	0	-0	0	545.919	551.04	324.96	201.61	-0.682765	1.69857	0.0298748	-0.00192315	-0.15824
6	-0.0146214	-0.0226124	0.00516327	0.00990684	-0.0172598	-0.0380434	0.0212516	0.0287728	-0.00103322	-0.00113359	0.00066317	0.00274663	0.0548345	-0.00345605	0.0162066	-2.20397	0.0192761	-1.53472	0	0	0	0	-0	0	0	0	-0.1265	0	-0	0	0	0	0	0	-0	0	0.105	-0.015	0	0	-0	0	0	-0.098	0.1	0	-0	0	0	0	0	0	-0	0	0.05595	0	0	0	-0	0	0	0	0	0	-0	0	545.935	551.037	324.975	201.62	-0.445162	1.1945	0.0173891	-0.00633794	-0.417434
7	-0.014583	-0.0217913	0.00646419	0.00935804	-0.0166246	-0.0390971	0.0212449	0.0287363	-0.000984311	-0.00114562	0.000689133	0.00274157	0.0537761	-0.0035839	0.0172274	-2.20431	0.0184331	-1.53526	0	0	0	0	-0	0	0	0	-0.1265	0	-0	0	0	0	0	0	-0	0	0.105	-0.015	0	0	-0	0	0	-0.098	0.1	0	-0	0	0	0	0	0	-0	0	0.05595	0	0	0	-0	0	0	0	0	0	-0	0	545.954	551.033	324.988	201.626	-0.191874	0.678401	0.00351557	-0.0116574	-0.683749
8	-0.0145482	-0.0216368	0.00702426	0.00897042	-0.0165572	-0.0394936	0.0212384	0.0287179	-0.000947403	-0.00118539	0.000613237	0.00280119	0.053206	-0.00361684	0.0178396	-2.2047	0.0180852	-1.53544	0	0	0	0	-0	0	0	0	-0.1265	0	-0	0	0	0	0	0	-0	0	0.105	-0.015	0	0	-0	0	0	-0.098	0.1	0	-0	0	0	0	0	0	-0	0	0.05595	0	0	0	-0	0	0	0	0	0	-0	0	545.977	551.03	324.996	201.627	-0.054927	0.383118	-0.00322215	-0.0141856	-0.83299
9	-0.0146073	-0.0216477	0.00715146	0.00885287	-0.0165879	-0.0395578	0.0212356	0.0287127	-0.000936197	-0.000881107	0.000620231	0.0028308	0.0530574	-0.00361927	0.018009	-2.20494	0.0179993	-1.53548	0	0	0	0	-0	0	0	0	-0.1265	0	-0	0	0	0	0	0	-0	0	0.105	-0.015	0	0	-0	0	0	-0.098	0.1	0	-0	0	0	0	0	0	-0	0	0.05595	0	0	0	-0	0	0	0	0	0	-0	0	546.026	551.03	325.009	201.631	-0.0205443	0.303409	-0.00467673	-0.0147418	-0.865539
10	-0.0137699	-0.0216519	0.00716917	0.00882721	-0.0166007	-0.0395517	0.0212346	0.0287116	-0.000934725	-0.000234897	-0.000213711	0.00303772	0.0530111	-0.00361761	0.0180898	-2.20418	0.0179108	-1.53553	0	0	0	0	-0	0	0	0	-0.1265	0	-0	0	0	0	0	0	-0	0	0.105	-0.015	0	0	-0	0	0	-0.098	0.1	0	-0	0	0	0	0	0	-0	0	0.05595	0	0	0	-0	0	0	0	0	0	-0	0	546.155	551.04	325.043	201.646	-0.0176614	0.291409	-0.00457501	-0.0147685	-0.85631
11	-0.0142849	-0.0216543	0.00717719	0.00879786	-0.0166177	-0.039532	0.0212334	0.0287107	-0.000934043	0.00170469	-0.00251744	0.00279718	0.0529839	-0.00361373	0.0181037	-2.20487	0.0177991	-1.5357	0	0	0	0	-0	0	0	0	-0.1265	0	-0	0	0	0	0	0	-0	0	0.105	-0.015	0	0	-0	0	0	-0.098	0.1	0	-0	0	0	0	0	0	-0	0	0.05595	0	0	0	-0	0	0	0	0	0	-0	0	546.455	551.123	325.129	201.695	-0.0199346	0.293267	-0.00409656	-0.0147035	-0.854686
12	-0.0154189	-0.0216585	0.00718618	0.00875901	-0.0166392	-0.0395036	0.0212326	0.0287105	-0.000932915	0.00925133	-0.00798835	0.00423912	0.0529493	-0.00360778	0.0181077	-2.20645	0.0175319	-1.53608	0	0	0	0	-0	0	0	0	-0.1265	0	-0	0	0	0	0	0	-0	0	0.105	-0.015	0	0	-0	0	0	-0.098	0.1	0	-0	0	0	0	0	0	-0	0	0.05595	0	0	0	-0	0	0	0	0	0	-0	0	547.044	551.533	325.348	201.846	-0.0278567	0.330117	-0.0035373	-0.0145507	-0.922072
13	-0.0131809	-0.021666	0.00719639	0.00872061	-0.016663	-0.0394702	0.0212298	0.0287079	-0.000930695	0.00952466	-0.0086437	0.00490569	0.0528245	-0.0035999	0.0183286	-2.20544	0.0166407	-1.53697	0	0	0	0	-0	0	0	0	-0.1265	0	-0	0	0	0	0	0	-0	0	0.105	-0.015	0	0	-0	0	0	-0.098	0.1	0	-0	0	0	0	0	0	-0	0	0.05595	0	0	0	-0	0	0	0	0	0	-0	0	548.133	552.833	325.967	202.306	-0.0439287	0.431188	-0.00336888	-0.0141857	-1.12374
14	-0.0176391	-0.0216774	0.0071999	0.00869625	-0.0166826	-0.0394459	0.0212304	0.0287106	-0.00092945	-0.00276397	-0.00417667	-0.00225557	0.0528453	-0.00359424	0.0181674	-2.21106	0.0160129	-1.53793	0	0	0	0	-0	0	0	0	-0.1265	0	-0	0	0	0	0	0	-0	0	0.105	-0.015	0	0	-0	0	0	-0.098	0.1	0	-0	0	0	0	0	0	-0	0	0.05595	0	0	0	-0	0	0	0	0	0	-0	0	548.963	553.96	326.577	202.77	-0.056482	0.517284	-0.00341116	-0.0138385	-1.30237
15	-0.0431983	-0.021698	0.00720161	0.00867024	-0.0167089	-0.0394186	0.0212306	0.0287068	-0.00092627	-0.00449336	0.0115605	-0.00458935	0.0532446	-0.00358844	0.0168984	-2.23817	0.0157112	-1.53958	0	0	0	0	-0	0	0	0	-0.1265	0	-0	0	0	0	0	0	-0	0	0.105	-0.015	0	0	-0	0	0	-0.098	0.1	0	-0	0	0	0	0	0	-0	0	0.05595	0	0	0	-0	0	0	0	0	0	-0	0	549.884	555.284	327.468	203.433	-0.0705571	0.619895	-0.00351968	-0.0133568	-1.52253
16	-0.0446815	-0.0217178	0.00719777	0.00865543	-0.0167303	-0.0393982	0.0212351	0.0287278	-0.000919475	0.0244447	0.00756311	-0.0286802	0.0532178	-0.00358457	0.0168645	-2.24075	0.0149248	-1.54046	0	0	0	0	-0	0	0	0	-0.1265	0	-0	0	0	0	0	0	-0	0	0.105	-0.015	0	0	-0	0	0	-0.098	0.1	0	-0	0	0	0	0	0	-0	0	0.05595	0	0	0	-0	0	0	0	0	0	-0	0	550.45	556.096	328.11	203.918	-0.0800038	0.689712	-0.00351962	-0.0130029	-1.6768
17	-0.0290878	-0.0217549	0.00719426	0.00862024	-0.0167673	-0.0393663	0.0212265	0.0287051	-0.00092159	0.0154244	-0.0104972	-0.0258359	0.0529014	-0.0035794	0.0177673	-2.22719	0.0127743	-1.54203	0	0	0	0	-0	0	0	0	-0.1265	0	-0	0	0	0	0	0	-0	0	0.105	-0.015	0	0	-0	0	0	-0.098	0.1	0	-0	0	0	0	0	0	-0	0	0.05595	0	0	0	-0	0	0	0	0	0	-0	0	551.293	557.382	329.448	204.843	-0.0941296	0.80254	-0.00358006	-0.0123041	-1.93574
18	-0.0266286	-0.0217889	0.00718235	0.00860818	-0.0167971	-0.0393463	0.0212272	0.0287109	-0.000918439	0.00503819	-0.0161227	-0.00826784	0.0528281	-0.00357634	0.0179254	-2.22583	0.0118105	-1.543	0	0	0	0	-0	0	0	0	-0.1265	0	-0	0	0	0	0	0	-0	0	0.105	-0.015	0	0	-0	0	0	-0.098	0.1	0	-0	0	0	0	0	0	-0	0	0.05595	0	0	0	-0	0	0	0	0	0	-0	0	551.695	557.969	330.192	205.366	-0.102647	0.868444	-0.00345974	-0.0118908	-2.09109
19	-0.0315272	-0.0217982	0.00717875	0.00859842	-0.0168053	-0.0393384	0.021225	0.0287058	-0.000921282	0.00581079	-0.0214329	-0.0119409	0.0529095	-0.00357513	0.0176752	-2.2311	0.011641	-1.5434	0	0	0	0	-0	0	0	0	-0.1265	0	-0	0	0	0	0	0	-0	0	0.105	-0.015	0	0	-0	0	0	-0.098	0.1	0	-0	0	0	0	0	0	-0	0	0.05595	0	0	0	-0	0	0	0	0	0	-0	0	551.828	558.151	330.443	205.546	-0.106007	0.892299	-0.00336517	-0.0117376	-2.14641
20	-0.0198235	-0.0218126	0.00717479	0.00859292	-0.0168174	-0.0393305	0.0212244	0.0287067	-0.000921019	-0.0015934	-0.021719	-0.0166825	0.0526935	-0.00357411	0.0183062	-2.21989	0.0109103	-1.54372	0	0	0	0	-0	0	0	0	-0.1265	0	-0	0	0	0	0	0	-0	0	0.105	-0.015	0	0	-0	0	0	-0.098	0.1	0	-0	0	0	0	0	0	-0	0	0.05595	0	0	0	-0	0	0	0	0	0	-0	0	551.984	558.383	330.779	205.784	-0.109306	0.919504	-0.00332213	-0.0115605	-2.21237
21	-0.00797193	-0.0218223	0.00717155	0.00858821	-0.0168256	-0.0393246	0.0212252	0.0287065	-0.000921113	-0.00143245	-0.0147428	-0.00851509	0.0524675	-0.00357337	0.0189368	-2.20839	0.0102961	-1.54392	0	0	0	0	-0	0	0	0	-0.1265	0	-0	0	0	0	0	0	-0	0	0.105	-0.015	0	0	-0	0	0	-0.098	0.1	0	-0	0	0	0	0	0	-0	0	0.05595	0	0	0	-0	0	0	0	0	0	-0	0	552.09	558.542	331.026	205.956	-0.111729	0.938946	-0.00327838	-0.0114256	-2.25951
22	-0.0150674	-0.021842	0.00716632	0.00857989	-0.0168421	-0.0393141	0.0212238	0.0287054	-0.000919727	-0.00842483	-0.0261904	-0.00868772	0.0525874	-0.00357221	0.0185776	-2.2162	0.00985895	-1.5447	0	0	0	0	-0	0	0	0	-0.1265	0	-0	0	0	0	0	0	-0	0	0.105	-0.015	0	0	-0	0	0	-0.098	0.1	0	-0	0	0	0	0	0	-0	0	0.05595	0	0	0	-0	0	0	0	0	0	-0	0	552.282	558.852	331.552	206.308	-0.115762	0.974998	-0.00324413	-0.0111539	-2.35022
23	-0.0128628	-0.0218491	0.00716314	0.00857573	-0.0168479	-0.0393099	0.0212239	0.0287055	-0.000919365	-0.00938949	-0.0337286	-0.00878191	0.0525435	-0.00357162	0.0186961	-2.21419	0.0096312	-1.54487	0	0	0	0	-0	0	0	0	-0.1265	0	-0	0	0	0	0	0	-0	0	0.105	-0.015	0	0	-0	0	0	-0.098	0.1	0	-0	0	0	0	0	0	-0	0	0.05595	0	0	0	-0	0	0	0	0	0	-0	0	552.337	558.927	331.693	206.404	-0.117438	0.986468	-0.00317681	-0.0110649	-2.37717
24	-0.0163992	-0.0218513	0.00716207	0.00857449	-0.0168496	-0.0393085	0.0212237	0.0287059	-0.000919066	-0.00844528	-0.0317732	-0.0138014	0.0526087	-0.00357143	0.0185113	-2.2178	0.00965991	-1.54498	0	0	0	0	-0	0	0	0	-0.1265	0	-0	0	0	0	0	0	-0	0	0.105	-0.015	0	0	-0	0	0	-0.098	0.1	0	-0	0	0	0	0	0	-0	0	0.05595	0	0	0	-0	0	0	0	0	0	-0	0	552.357	558.955	331.746	206.44	-0.118038	0.990791	-0.00315558	-0.0110332	-2.38746
25	-0.020072	-0.0218542	0.00716129	0.00857293	-0.016852	-0.0393068	0.0212235	0.0287058	-0.000919248	-0.00947474	-0.0326984	-0.0179418	0.0526751	-0.00357124	0.0183197	-2.22157	0.00966787	-1.54511	0	0	0	0	-0	0	0	0	-0.1265	0	-0	0	0	0	0	0	-0	0	0.105	-0.015	0	0	-0	0	0	-0.098	0.1	0	-0	0	0	0	0	0	-0	0	0.05595	0	0	0	-0	0	0	0	0	0	-0	0	552.383	558.993	331.818	206.489	-0.118686	0.996211	-0.00314055	-0.0109947	-2.40099
26	-0.019889	-0.0218585	0.00716008	0.00857091	-0.0168556	-0.0393045	0.0212238	0.0287059	-0.000918505	-0.00847427	-0.0268546	-0.023385	0.0526695	-0.00357098	0.018332	-2.22153	0.0095345	-1.54525	0	0	0	0	-0	0	0	0	-0.1265	0	-0	0	0	0	0	0	-0	0	0.105	-0.015	0	0	-0	0	0	-0.098	0.1	0	-0	0	0	0	0	0	-0	0	0.05595	0	0	0	-0	0	0	0	0	0	-0	0	552.421	559.049	331.925	206.56	-0.119556	1.0037	-0.003122	-0.0109384	-2.41993
27	-0.0172318	-0.0218602	0.00715927	0.00857003	-0.016857	-0.0393034	0.0212234	0.0287058	-0.000918975	-0.00655696	-0.0288611	-0.0259256	0.0526203	-0.00357085	0.0184727	-2.21893	0.00941445	-1.54528	0	0	0	0	-0	0	0	0	-0.1265	0	-0	0	0	0	0	0	-0	0	0.105	-0.015	0	0	-0	0	0	-0.098	0.1	0	-0	0	0	0	0	0	-0	0	0.05595	0	0	0	-0	0	0	0	0	0	-0	0	552.435	559.072	331.968	206.59	-0.119973	1.00685	-0.00310914	-0.010913	-2.4276
28	-0.0139011	-0.0218672	0.00715751	0.00856729	-0.0168627	-0.0393001	0.0212236	0.0287075	-0.000918626	-0.0168121	-0.0264252	-0.0232995	0.0525558	-0.00357054	0.0186519	-2.21583	0.00911909	-1.54548	0	0	0	0	-0	0	0	0	-0.1265	0	-0	0	0	0	0	0	-0	0	0.105	-0.015	0	0	-0	0	0	-0.098	0.1	0	-0	0	0	0	0	0	-0	0	0.05595	0	0	0	-0	0	0	0	0	0	-0	0	552.49	559.16	332.144	206.706	-0.121198	1.0183	-0.00309379	-0.0108232	-2.45728
29	-0.017871	-0.0218707	0.00715616	0.00856535	-0.0168655	-0.039298	0.0212236	0.0287064	-0.000918409	-0.0168272	-0.0246725	-0.0306954	0.0526286	-0.00357031	0.0184447	-2.21992	0.00911606	-1.54564	0	0	0	0	-0	0	0	0	-0.1265	0	-0	0	0	0	0	0	-0	0	0.105	-0.015	0	0	-0	0	0	-0.098	0.1	0	-0	0	0	0	0	0	-0	0	0.05595	0	0	0	-0	0	0	0	0	0	-0	0	552.517	559.202	332.231	206.763	-0.121986	1.02445	-0.00306944	-0.0107733	-2.47247
30	-0.0189911	-0.0218759	0.00715449	0.00856371	-0.0168697	-0.0392955	0.0212243	0.0287063	-0.000918351	-0.0211646	-0.0161219	-0.0325484	0.0526472	-0.00357007	0.0183881	-2.2212	0.00898966	-1.54582	0	0	0	0	-0	0	0	0	-0.1265	0	-0	0	0	0	0	0	-0	0	0.105	-0.015	0	0	-0	0	0	-0.098	0.1	0	-0	0	0	0	0	0	-0	0	0.05595	0	0	0	-0	0	0	0	0	0	-0	0	552.555	559.264	332.36	206.848	-0.122923	1.03294	-0.00305437	-0.0107059	-2.49435
31	-0.0234449	-0.0218798	0.007153	0.00856219	-0.0168729	-0.0392935	0.021223	0.0287057	-0.000918507	-0.02226	-0.0197213	-0.0345528	0.0527279	-0.00356986	0.0181553	-2.22578	0.00898617	-1.54598	0	0	0	0	-0	0	0	0	-0.1265	0	-0	0	0	0	0	0	-0	0	0.105	-0.015	0	0	-0	0	0	-0.098	0.1	0	-0	0	0	0	0	0	-0	0	0.05595	0	0	0	-0	0	0	0	0	0	-0	0	552.584	559.308	332.455	206.91	-0.123706	1.0394	-0.00303164	-0.0106536	-2.51067
32	-0.0260247	-0.0218858	0.00715139	0.00855981	-0.0168777	-0.0392907	0.0212233	0.0287063	-0.000918755	-0.0198842	-0.0158596	-0.0276678	0.0527724	-0.00356959	0.0180218	-2.22854	0.00888026	-1.54619	0	0	0	0	-0	0	0	0	-0.1265	0	-0	0	0	0	0	0	-0	0	0.105	-0.015	0	0	-0	0	0	-0.098	0.1	0	-0	0	0	0	0	0	-0	0	0.05595	0	0	0	-0	0	0	0	0	0	-0	0	552.623	559.372	332.596	207	-0.12466	1.04812	-0.00301278	-0.0105798	-2.53342
33	-0.036623	-0.0218939	0.0071489	0.0085567	-0.0168842	-0.0392869	0.0212227	0.0287057	-0.000917977	-0.0203255	-0.0131843	-0.0268482	0.052961	-0.00356925	0.017466	-2.23939	0.00889076	-1.54655	0	0	0	0	-0	0	0	0	-0.1265	0	-0	0	0	0	0	0	-0	0	0.105	-0.015	0	0	-0	0	0	-0.098	0.1	0	-0	0	0	0	0	0	-0	0	0.05595	0	0	0	-0	0	0	0	0	0	-0	0	552.677	559.463	332.801	207.13	-0.126072	1.06103	-0.00298669	-0.0104718	-2.56708
34	-0.0303761	-0.0219004	0.00714659	0.0085546	-0.0168894	-0.0392837	0.0212224	0.028707	-0.000917289	-0.0294465	-0.0157477	-0.0223558	0.0528476	-0.00356895	0.0177982	-2.23333	0.00855461	-1.54669	0	0	0	0	-0	0	0	0	-0.1265	0	-0	0	0	0	0	0	-0	0	0.105	-0.015	0	0	-0	0	0	-0.098	0.1	0	-0	0	0	0	0	0	-0	0	0.05595	0	0	0	-0	0	0	0	0	0	-0	0	552.715	559.523	332.951	207.225	-0.127164	1.07025	-0.00295191	-0.0103893	-2.5909
35	-0.0288792	-0.0219089	0.00714409	0.0085505	-0.0168963	-0.0392796	0.0212211	0.02871	-0.000916466	-0.0100191	-0.00843928	-0.0264834	0.052818	-0.0035686	0.0178801	-2.2321	0.00825315	-1.54697	0	0	0	0	-0	0	0	0	-0.1265	0	-0	0	0	0	0	0	-0	0	0.105	-0.015	0	0	-0	0	0	-0.098	0.1	0	-0	0	0	0	0	0	-0	0	0.05595	0	0	0	-0	0	0	0	0	0	-0	0	552.767	559.61	333.17	207.36	-0.128594	1.08341	-0.00291949	-0.0102733	-2.62559
36	-0.0313483	-0.0219128	0.0071429	0.00854744	-0.0168994	-0.0392775	0.021223	0.0287062	-0.000917603	-0.0119089	-0.00294556	-0.021868	0.0528616	-0.00356837	0.0177506	-2.23468	0.00820482	-1.5471	0	0	0	0	-0	0	0	0	-0.1265	0	-0	0	0	0	0	0	-0	0	0.105	-0.015	0	0	-0	0	0	-0.098	0.1	0	-0	0	0	0	0	0	-0	0	0.05595	0	0	0	-0	0	0	0	0	0	-0	0	552.79	559.645	333.259	207.415	-0.129389	1.08936	-0.00288744	-0.0102204	-2.64038
37	-0.0297205	-0.0219167	0.00714094	0.00854803	-0.0169024	-0.0392759	0.0212226	0.0287063	-0.000917292	-0.008744	-0.00404615	-0.02674	0.0528319	-0.00356823	0.0178379	-2.23315	0.00806268	-1.5472	0	0	0	0	-0	0	0	0	-0.1265	0	-0	0	0	0	0	0	-0	0	0.105	-0.015	0	0	-0	0	0	-0.098	0.1	0	-0	0	0	0	0	0	-0	0	0.05595	0	0	0	-0	0	0	0	0	0	-0	0	552.81	559.677	333.344	207.468	-0.13	1.09471	-0.00286875	-0.010175	-2.65436
38	-0.028956	-0.0219183	0.00714029	0.00854715	-0.0169037	-0.0392751	0.0212226	0.0287062	-0.000917226	-0.0110963	-0.000717019	-0.0305708	0.0528181	-0.00356814	0.0178785	-2.23243	0.00800271	-1.54724	0	0	0	0	-0	0	0	0	-0.1265	0	-0	0	0	0	0	0	-0	0	0.105	-0.015	0	0	-0	0	0	-0.098	0.1	0	-0	0	0	0	0	0	-0	0	0.05595	0	0	0	-0	0	0	0	0	0	-0	0	552.819	559.689	333.379	207.49	-0.130322	1.09708	-0.00285482	-0.0101544	-2.66022
39	-0.022227	-0.0219215	0.00713933	0.00854603	-0.0169062	-0.0392736	0.0212226	0.0287059	-0.000917446	-0.0110412	0.00515655	-0.0282538	0.0526971	-0.00356803	0.018235	-2.2258	0.00774755	-1.54729	0	0	0	0	-0	0	0	0	-0.1265	0	-0	0	0	0	0	0	-0	0	0.105	-0.015	0	0	-0	0	0	-0.098	0.1	0	-0	0	0	0	0	0	-0	0	0.05595	0	0	0	-0	0	0	0	0	0	-0	0	552.837	559.719	333.459	207.539	-0.13083	1.10192	-0.00284376	-0.0101128	-2.67316
40	-0.018855	-0.0219264	0.00713773	0.00854469	-0.0169101	-0.0392715	0.0212224	0.028706	-0.000917499	-0.0125648	-0.000550404	-0.031802	0.0526335	-0.00356787	0.0184137	-2.22257	0.00752736	-1.54742	0	0	0	0	-0	0	0	0	-0.1265	0	-0	0	0	0	0	0	-0	0	0.105	-0.015	0	0	-0	0	0	-0.098	0.1	0	-0	0	0	0	0	0	-0	0	0.05595	0	0	0	-0	0	0	0	0	0	-0	0	552.862	559.764	333.577	207.61	-0.1316	1.1091	-0.00282622	-0.0100508	-2.69224
41	-0.02109	-0.0219296	0.00713657	0.00854327	-0.0169128	-0.03927	0.0212227	0.0287062	-0.000917172	-0.0153319	0.00548869	-0.0299975	0.0526739	-0.00356773	0.0182969	-2.22489	0.00748773	-1.54754	0	0	0	0	-0	0	0	0	-0.1265	0	-0	0	0	0	0	0	-0	0	0.105	-0.015	0	0	-0	0	0	-0.098	0.1	0	-0	0	0	0	0	0	-0	0	0.05595	0	0	0	-0	0	0	0	0	0	-0	0	552.879	559.791	333.654	207.657	-0.132107	1.11334	-0.00280666	-0.0100079	-2.70336
42	-0.0207634	-0.0219309	0.00713598	0.00854277	-0.0169137	-0.0392694	0.0212221	0.0287063	-0.000917003	-0.0203847	0.00653327	-0.0293682	0.0526677	-0.00356766	0.0183144	-2.2246	0.00744643	-1.54757	0	0	0	0	-0	0	0	0	-0.1265	0	-0	0	0	0	0	0	-0	0	0.105	-0.015	0	0	-0	0	0	-0.098	0.1	0	-0	0	0	0	0	0	-0	0	0.05595	0	0	0	-0	0	0	0	0	0	-0	0	552.886	559.8	333.682	207.674	-0.132345	1.1151	-0.00279532	-0.00999114	-2.7078
43	-0.0265123	-0.0219353	0.00713488	0.00854085	-0.0169173	-0.0392673	0.0212225	0.0287073	-0.000916608	-0.0276552	0.00823836	-0.0235254	0.0527719	-0.0035675	0.0180132	-2.23048	0.00744273	-1.54777	0	0	0	0	-0	0	0	0	-0.1265	0	-0	0	0	0	0	0	-0	0	0.105	-0.015	0	0	-0	0	0	-0.098	0.1	0	-0	0	0	0	0	0	-0	0	0.05595	0	0	0	-0	0	0	0	0	0	-0	0	552.91	559.842	333.795	207.742	-0.132995	1.12155	-0.00278265	-0.00993252	-2.7253
44	-0.0227124	-0.0219376	0.00713393	0.00853997	-0.0169192	-0.0392662	0.0212223	0.0287058	-0.000916802	-0.0285263	0.00132377	-0.0231942	0.0527023	-0.00356739	0.018214	-2.22675	0.00728701	-1.54781	0	0	0	0	-0	0	0	0	-0.1265	0	-0	0	0	0	0	0	-0	0	0.105	-0.015	0	0	-0	0	0	-0.098	0.1	0	-0	0	0	0	0	0	-0	0	0.05595	0	0	0	-0	0	0	0	0	0	-0	0	552.922	559.862	333.851	207.776	-0.133399	1.12478	-0.00276589	-0.0099003	-2.73365
45	-0.0172911	-0.0219472	0.00713116	0.00853707	-0.0169268	-0.0392622	0.0212233	0.0287103	-0.000915029	-0.0158434	0.00161682	-0.0350535	0.0526016	-0.00356714	0.0185024	-2.2216	0.00687084	-1.54809	0	0	0	0	-0	0	0	0	-0.1265	0	-0	0	0	0	0	0	-0	0	0.105	-0.015	0	0	-0	0	0	-0.098	0.1	0	-0	0	0	0	0	0	-0	0	0.05595	0	0	0	-0	0	0	0	0	0	-0	0	552.967	559.944	334.094	207.916	-0.134658	1.13781	-0.00274466	-0.00977581	-2.76962
46	-0.0227298	-0.0219516	0.00712948	0.00853423	-0.0169304	-0.0392597	0.0212232	0.0287063	-0.000916323	-0.0187925	0.0119242	-0.0360518	0.052701	-0.00356691	0.0182169	-2.22717	0.00685261	-1.54828	0	0	0	0	-0	0	0	0	-0.1265	0	-0	0	0	0	0	0	-0	0	0.105	-0.015	0	0	-0	0	0	-0.098	0.1	0	-0	0	0	0	0	0	-0	0	0.05595	0	0	0	-0	0	0	0	0	0	-0	0	552.991	559.982	334.213	207.986	-0.13555	1.14483	-0.00270647	-0.00970685	-2.78772
47	-0.019721	-0.0219562	0.00712752	0.00853418	-0.0169339	-0.0392581	0.0212216	0.0287063	-0.000916521	-0.0232351	0.011333	-0.0377489	0.0526451	-0.00356677	0.018376	-2.22426	0.00667914	-1.54838	0	0	0	0	-0	0	0	0	-0.1265	0	-0	0	0	0	0	0	-0	0	0.105	-0.015	0	0	-0	0	0	-0.098	0.1	0	-0	0	0	0	0	0	-0	0	0.05595	0	0	0	-0	0	0	0	0	0	-0	0	553.008	560.01	334.301	208.037	-0.136198	1.15036	-0.00268306	-0.00965868	-2.80223
48	-0.0202804	-0.0219581	0.00712695	0.00853299	-0.0169354	-0.0392572	0.0212217	0.0287062	-0.000916437	-0.0246472	0.0105489	-0.0410632	0.0526551	-0.00356668	0.0183467	-2.22486	0.00664908	-1.54843	0	0	0	0	-0	0	0	0	-0.1265	0	-0	0	0	0	0	0	-0	0	0.105	-0.015	0	0	-0	0	0	-0.098	0.1	0	-0	0	0	0	0	0	-0	0	0.05595	0	0	0	-0	0	0	0	0	0	-0	0	553.016	560.02	334.336	208.058	-0.136521	1.15276	-0.00266798	-0.00963725	-2.80829
49	-0.022129	-0.0219601	0.00712629	0.00853234	-0.016937	-0.0392564	0.0212214	0.0287069	-0.000916026	-0.0165656	0.013304	-0.0435183	0.0526888	-0.00356662	0.0182498	-2.22677	0.00663159	-1.5485	0	0	0	0	-0	0	0	0	-0.1265	0	-0	0	0	0	0	0	-0	0	0.105	-0.015	0	0	-0	0	0	-0.098	0.1	0	-0	0	0	0	0	0	-0	0	0.05595	0	0	0	-0	0	0	0	0	0	-0	0	553.025	560.036	334.385	208.087	-0.136812	1.15548	-0.00265935	-0.00961114	-2.81566
50	-0.0266001	-0.021963	0.0071255	0.00853099	-0.0169393	-0.0392551	0.021222	0.0287072	-0.000915601	-0.0111406	0.0153136	-0.0509106	0.0527699	-0.00356652	0.0180149	-2.23132	0.00664376	-1.54863	0	0	0	0	-0	0	0	0	-0.1265	0	-0	0	0	0	0	0	-0	0	0.105	-0.015	0	0	-0	0	0	-0.098	0.1	0	-0	0	0	0	0	0	-0	0	0.05595	0	0	0	-0	0	0	0	0	0	-0	0	553.038	560.059	334.458	208.128	-0.137238	1.15952	-0.00264717	-0.00957257	-2.82663
51	-0.020213	-0.021969	0.00712363	0.00852898	-0.0169441	-0.0392524	0.0212221	0.0287068	-0.000915599	-0.0104237	0.0190434	-0.0584135	0.0526534	-0.00356634	0.0183534	-2.22511	0.00631146	-1.54879	0	0	0	0	-0	0	0	0	-0.1265	0	-0	0	0	0	0	0	-0	0	0.105	-0.015	0	0	-0	0	0	-0.098	0.1	0	-0	0	0	0	0	0	-0	0	0.05595	0	0	0	-0	0	0	0	0	0	-0	0	553.067	560.109	334.615	208.218	-0.13811	1.16815	-0.00262604	-0.00948995	-2.85041
52	-0.0137874	-0.0219726	0.0071221	0.00852806	-0.0169469	-0.0392508	0.0212215	0.0287062	-0.000915791	-0.012895	0.0145831	-0.0557828	0.0525342	-0.0035662	0.0186919	-2.21877	0.00607789	-1.54885	0	0	0	0	-0	0	0	0	-0.1265	0	-0	0	0	0	0	0	-0	0	0.105	-0.015	0	0	-0	0	0	-0.098	0.1	0	-0	0	0	0	0	0	-0	0	0.05595	0	0	0	-0	0	0	0	0	0	-0	0	553.082	560.132	334.693	208.262	-0.138707	1.17285	-0.0025995	-0.00944519	-2.86258
53	-0.0156334	-0.0219752	0.00712118	0.00852722	-0.0169491	-0.0392497	0.0212215	0.0287065	-0.000915559	-0.00921184	0.018156	-0.0604586	0.0525674	-0.0035661	0.018595	-2.22068	0.00604987	-1.54894	0	0	0	0	-0	0	0	0	-0.1265	0	-0	0	0	0	0	0	-0	0	0.105	-0.015	0	0	-0	0	0	-0.098	0.1	0	-0	0	0	0	0	0	-0	0	0.05595	0	0	0	-0	0	0	0	0	0	-0	0	553.092	560.149	334.751	208.295	-0.139084	1.17611	-0.00258452	-0.00941317	-2.87127
54	-0.015147	-0.0219786	0.00712015	0.00852566	-0.0169518	-0.0392482	0.0212218	0.0287069	-0.000915922	-0.0144911	0.0209543	-0.0645761	0.0525579	-0.00356598	0.0186213	-2.22028	0.0059373	-1.54905	0	0	0	0	-0	0	0	0	-0.1265	0	-0	0	0	0	0	0	-0	0	0.105	-0.015	0	0	-0	0	0	-0.098	0.1	0	-0	0	0	0	0	0	-0	0	0.05595	0	0	0	-0	0	0	0	0	0	-0	0	553.108	560.174	334.836	208.343	-0.139617	1.18106	-0.00256759	-0.00936751	-2.88472
55	-0.0207196	-0.0219817	0.00711907	0.00852472	-0.0169542	-0.0392469	0.0212215	0.0287066	-0.000915667	-0.0124342	0.0215573	-0.0695586	0.0526613	-0.00356589	0.0183291	-2.22593	0.00597118	-1.54918	0	0	0	0	-0	0	0	0	-0.1265	0	-0	0	0	0	0	0	-0	0	0.105	-0.015	0	0	-0	0	0	-0.098	0.1	0	-0	0	0	0	0	0	-0	0	0.05595	0	0	0	-0	0	0	0	0	0	-0	0	553.12	560.196	334.909	208.385	-0.140039	1.18485	-0.00255157	-0.0093276	-2.89503
56	-0.0153815	-0.0219841	0.00711818	0.00852405	-0.0169561	-0.0392459	0.0212213	0.0287064	-0.000915847	-0.0134806	0.020836	-0.0732558	0.0525626	-0.00356581	0.0186102	-2.22066	0.00579077	-1.54922	0	0	0	0	-0	0	0	0	-0.1265	0	-0	0	0	0	0	0	-0	0	0.105	-0.015	0	0	-0	0	0	-0.098	0.1	0	-0	0	0	0	0	0	-0	0	0.05595	0	0	0	-0	0	0	0	0	0	-0	0	553.129	560.211	334.963	208.415	-0.14041	1.18804	-0.00253708	-0.00929761	-2.90354
57	-0.0187128	-0.0219859	0.00711749	0.00852353	-0.0169575	-0.0392451	0.0212212	0.0287065	-0.000915903	-0.00937162	0.0221395	-0.0705536	0.0526238	-0.00356575	0.0184351	-2.22403	0.00581472	-1.54929	0	0	0	0	-0	0	0	0	-0.1265	0	-0	0	0	0	0	0	-0	0	0.105	-0.015	0	0	-0	0	0	-0.098	0.1	0	-0	0	0	0	0	0	-0	0	0.05595	0	0	0	-0	0	0	0	0	0	-0	0	553.136	560.222	335.003	208.438	-0.140694	1.19047	-0.00252614	-0.00927522	-2.90998
58	-0.0206058	-0.0219896	0.00711643	0.0085221	-0.0169605	-0.0392436	0.0212213	0.0287062	-0.000915691	-0.00851006	0.0186302	-0.0715235	0.052658	-0.00356565	0.0183361	-2.22602	0.00574424	-1.54942	0	0	0	0	-0	0	0	0	-0.1265	0	-0	0	0	0	0	0	-0	0	0.105	-0.015	0	0	-0	0	0	-0.098	0.1	0	-0	0	0	0	0	0	-0	0	0.05595	0	0	0	-0	0	0	0	0	0	-0	0	553.151	560.248	335.096	208.489	-0.141191	1.1954	-0.00251167	-0.00922654	-2.92373
59	-0.0235944	-0.0219907	0.00711579	0.00852187	-0.0169613	-0.0392431	0.0212211	0.0287063	-0.000915693	-0.0100343	0.0174385	-0.0732594	0.0527129	-0.0035656	0.0181787	-2.22903	0.0057818	-1.54947	0	0	0	0	-0	0	0	0	-0.1265	0	-0	0	0	0	0	0	-0	0	0.105	-0.015	0	0	-0	0	0	-0.098	0.1	0	-0	0	0	0	0	0	-0	0	0.05595	0	0	0	-0	0	0	0	0	0	-0	0	553.154	560.254	335.118	208.502	-0.141396	1.19676	-0.00250048	-0.00921245	-2.92704
60	-0.0216072	-0.0219925	0.00711528	0.00852125	-0.0169628	-0.0392424	0.0212212	0.0287069	-0.000915417	-0.00357923	0.0177763	-0.076003	0.0526763	-0.00356555	0.0182838	-2.22709	0.00568531	-1.54952	0	0	0	0	-0	0	0	0	-0.1265	0	-0	0	0	0	0	0	-0	0	0.105	-0.015	0	0	-0	0	0	-0.098	0.1	0	-0	0	0	0	0	0	-0	0	0.05595	0	0	0	-0	0	0	0	0	0	-0	0	553.162	560.267	335.162	208.527	-0.14162	1.19904	-0.00249398	-0.00918884	-2.93344
61	-0.0206171	-0.0219952	0.00711447	0.00852015	-0.0169648	-0.0392412	0.0212209	0.0287068	-0.000916409	-0.011378	0.0095471	-0.0803232	0.052658	-0.00356548	0.0183362	-2.22617	0.00558469	-1.5496	0	0	0	0	-0	0	0	0	-0.1265	0	-0	0	0	0	0	0	-0	0	0.105	-0.015	0	0	-0	0	0	-0.098	0.1	0	-0	0	0	0	0	0	-0	0	0.05595	0	0	0	-0	0	0	0	0	0	-0	0	553.172	560.284	335.229	208.563	-0.142031	1.2029	-0.00248134	-0.00915331	-2.94399
62	-0.0166907	-0.0219993	0.00711318	0.00851895	-0.0169681	-0.0392396	0.0212209	0.0287073	-0.000916049	-0.00261968	0.0136071	-0.076257	0.0525857	-0.00356539	0.0185436	-2.22235	0.00538511	-1.5497	0	0	0	0	-0	0	0	0	-0.1265	0	-0	0	0	0	0	0	-0	0	0.105	-0.015	0	0	-0	0	0	-0.098	0.1	0	-0	0	0	0	0	0	-0	0	0.05595	0	0	0	-0	0	0	0	0	0	-0	0	553.186	560.31	335.326	208.617	-0.142534	1.20784	-0.00246441	-0.00910164	-2.95784
63	-0.0212942	-0.022005	0.00711138	0.00851705	-0.0169725	-0.0392373	0.0212221	0.0287063	-0.000914037	0.00157475	0.0275174	-0.0816865	0.0526704	-0.00356525	0.0183022	-2.2271	0.00531311	-1.54991	0	0	0	0	-0	0	0	0	-0.1265	0	-0	0	0	0	0	0	-0	0	0.105	-0.015	0	0	-0	0	0	-0.098	0.1	0	-0	0	0	0	0	0	-0	0	0.05595	0	0	0	-0	0	0	0	0	0	-0	0	553.206	560.348	335.467	208.693	-0.143322	1.21551	-0.00244149	-0.0090263	-2.97908
64	-0.0199642	-0.0220127	0.00710866	0.00851502	-0.0169787	-0.039234	0.0212228	0.028707	-0.000915954	0.00444172	0.0162216	-0.0867063	0.0526449	-0.00356503	0.0183734	-2.22597	0.00504216	-1.55017	0	0	0	0	-0	0	0	0	-0.1265	0	-0	0	0	0	0	0	-0	0	0.105	-0.015	0	0	-0	0	0	-0.098	0.1	0	-0	0	0	0	0	0	-0	0	0.05595	0	0	0	-0	0	0	0	0	0	-0	0	553.235	560.403	335.668	208.8	-0.144381	1.22598	-0.00241209	-0.0089189	-3.0083
65	-0.0197745	-0.0220173	0.00710671	0.00851381	-0.0169823	-0.0392322	0.0212216	0.0287063	-0.000915684	0.0028213	0.00528786	-0.0894718	0.0526413	-0.00356488	0.0183839	-2.22589	0.00492062	-1.55029	0	0	0	0	-0	0	0	0	-0.1265	0	-0	0	0	0	0	0	-0	0	0.105	-0.015	0	0	-0	0	0	-0.098	0.1	0	-0	0	0	0	0	0	-0	0	0.05595	0	0	0	-0	0	0	0	0	0	-0	0	553.253	560.428	335.767	208.853	-0.145146	1.23192	-0.00237525	-0.00886161	-3.0238
66	-0.0181323	-0.0220189	0.00710608	0.00851319	-0.0169836	-0.0392316	0.0212209	0.0287064	-0.000915039	0.00328754	0.00166148	-0.0883459	0.0526112	-0.0035648	0.0184704	-2.22427	0.00485518	-1.55032	0	0	0	0	-0	0	0	0	-0.1265	0	-0	0	0	0	0	0	-0	0	0.105	-0.015	0	0	-0	0	0	-0.098	0.1	0	-0	0	0	0	0	0	-0	0	0.05595	0	0	0	-0	0	0	0	0	0	-0	0	553.257	560.434	335.793	208.867	-0.14539	1.23353	-0.0023602	-0.00884462	-3.0278
67	-0.0171585	-0.0220223	0.00710524	0.00851154	-0.0169864	-0.03923	0.0212211	0.0287071	-0.000914996	-0.00250541	0.00505024	-0.0876014	0.0525928	-0.00356469	0.0185223	-2.22339	0.00472957	-1.55043	0	0	0	0	-0	0	0	0	-0.1265	0	-0	0	0	0	0	0	-0	0	0.105	-0.015	0	0	-0	0	0	-0.098	0.1	0	-0	0	0	0	0	0	-0	0	0.05595	0	0	0	-0	0	0	0	0	0	-0	0	553.27	560.456	335.881	208.915	-0.145834	1.23804	-0.00234515	-0.00879832	-3.04061
68	-0.0194874	-0.0220242	0.00710446	0.00851089	-0.0169879	-0.0392292	0.0212206	0.0287065	-0.000915049	0.00075062	0.00961554	-0.0866327	0.0526359	-0.00356463	0.0183999	-2.22576	0.00472495	-1.5505	0	0	0	0	-0	0	0	0	-0.1265	0	-0	0	0	0	0	0	-0	0	0.105	-0.015	0	0	-0	0	0	-0.098	0.1	0	-0	0	0	0	0	0	-0	0	0.05595	0	0	0	-0	0	0	0	0	0	-0	0	553.277	560.467	335.925	208.938	-0.146141	1.24047	-0.0023306	-0.008773	-3.047
69	-0.0187424	-0.0220267	0.00710372	0.00850997	-0.01699	-0.0392281	0.0212208	0.0287074	-0.000914571	-0.00607183	0.0089838	-0.0820425	0.0526217	-0.00356454	0.0184397	-2.22508	0.00463789	-1.55057	0	0	0	0	-0	0	0	0	-0.1265	0	-0	0	0	0	0	0	-0	0	0.105	-0.015	0	0	-0	0	0	-0.098	0.1	0	-0	0	0	0	0	0	-0	0	0.05595	0	0	0	-0	0	0	0	0	0	-0	0	553.286	560.482	335.985	208.97	-0.146438	1.2433	-0.0023171	-0.00874088	-3.05504
70	-0.0136516	-0.0220317	0.00710227	0.0085082	-0.0169939	-0.0392262	0.0212212	0.0287081	-0.000915041	-0.0146614	0.0109039	-0.0870465	0.0525277	-0.00356445	0.0187082	-2.22012	0.00437919	-1.55072	0	0	0	0	-0	0	0	0	-0.1265	0	-0	0	0	0	0	0	-0	0	0.105	-0.015	0	0	-0	0	0	-0.098	0.1	0	-0	0	0	0	0	0	-0	0	0.05595	0	0	0	-0	0	0	0	0	0	-0	0	553.302	560.514	336.114	209.038	-0.147055	1.24985	-0.00230216	-0.00867232	-3.07378
71	-0.0139895	-0.0220346	0.00710102	0.00850745	-0.0169962	-0.0392249	0.0212217	0.0287072	-0.000915323	-0.0170999	0.0191323	-0.0815968	0.0525333	-0.00356435	0.0186904	-2.22052	0.00431064	-1.5508	0	0	0	0	-0	0	0	0	-0.1265	0	-0	0	0	0	0	0	-0	0	0.105	-0.015	0	0	-0	0	0	-0.098	0.1	0	-0	0	0	0	0	0	-0	0	0.05595	0	0	0	-0	0	0	0	0	0	-0	0	553.312	560.529	336.178	209.072	-0.14754	1.25355	-0.00227603	-0.00863516	-3.08344
72	-0.0196852	-0.0220401	0.00709916	0.00850621	-0.0170005	-0.0392229	0.0212224	0.0287059	-0.000915067	-0.0214704	0.000284358	-0.0824531	0.0526397	-0.00356425	0.0183918	-2.22635	0.0042586	-1.55101	0	0	0	0	-0	0	0	0	-0.1265	0	-0	0	0	0	0	0	-0	0	0.105	-0.015	0	0	-0	0	0	-0.098	0.1	0	-0	0	0	0	0	0	-0	0	0.05595	0	0	0	-0	0	0	0	0	0	-0	0	553.329	560.563	336.317	209.144	-0.14825	1.26092	-0.00225829	-0.00856223	-3.10438
73	-0.0234085	-0.0220432	0.00709769	0.00850602	-0.017003	-0.0392217	0.0212207	0.0287071	-0.000914787	-0.0189647	0.000330744	-0.0768716	0.0527073	-0.00356414	0.0181958	-2.23014	0.00425029	-1.55111	0	0	0	0	-0	0	0	0	-0.1265	0	-0	0	0	0	0	0	-0	0	0.105	-0.015	0	0	-0	0	0	-0.098	0.1	0	-0	0	0	0	0	0	-0	0	0.05595	0	0	0	-0	0	0	0	0	0	-0	0	553.339	560.578	336.384	209.179	-0.148685	1.2644	-0.00223536	-0.00852325	-3.11373
74	-0.021592	-0.0220443	0.00709759	0.00850459	-0.0170039	-0.0392211	0.0212206	0.0287069	-0.000914639	-0.0167683	-0.00244791	-0.0802711	0.0526739	-0.00356408	0.0182915	-2.22835	0.00419125	-1.55113	0	0	0	0	-0	0	0	0	-0.1265	0	-0	0	0	0	0	0	-0	0	0.105	-0.015	0	0	-0	0	0	-0.098	0.1	0	-0	0	0	0	0	0	-0	0	0.05595	0	0	0	-0	0	0	0	0	0	-0	0	553.343	560.582	336.404	209.189	-0.148857	1.26548	-0.00222289	-0.0085106	-3.11641
75	-0.0240009	-0.0220459	0.00709711	0.00850392	-0.0170052	-0.0392204	0.0212203	0.0287067	-0.000914607	-0.0198619	-0.00522232	-0.0813056	0.0527177	-0.00356402	0.0181649	-2.23079	0.00419119	-1.55119	0	0	0	0	-0	0	0	0	-0.1265	0	-0	0	0	0	0	0	-0	0	0.105	-0.015	0	0	-0	0	0	-0.098	0.1	0	-0	0	0	0	0	0	-0	0	0.05595	0	0	0	-0	0	0	0	0	0	-0	0	553.349	560.591	336.443	209.21	-0.149095	1.26766	-0.00221189	-0.00848948	-3.12249
76	-0.0254153	-0.0220468	0.00709678	0.00850353	-0.017006	-0.03922	0.0212204	0.0287067	-0.000914549	-0.0198576	-0.00645596	-0.0836782	0.0527433	-0.00356398	0.0180903	-2.23223	0.00419535	-1.55122	0	0	0	0	-0	0	0	0	-0.1265	0	-0	0	0	0	0	0	-0	0	0.105	-0.015	0	0	-0	0	0	-0.098	0.1	0	-0	0	0	0	0	0	-0	0	0.05595	0	0	0	-0	0	0	0	0	0	-0	0	553.352	560.595	336.462	209.22	-0.149232	1.26874	-0.00220428	-0.00847811	-3.12539
77	-0.0264539	-0.0220474	0.00709651	0.00850336	-0.0170065	-0.0392197	0.0212205	0.0287069	-0.000914475	-0.0230878	-0.00508518	-0.0808876	0.052762	-0.00356396	0.0180355	-2.23328	0.00419802	-1.55125	0	0	0	0	-0	0	0	0	-0.1265	0	-0	0	0	0	0	0	-0	0	0.105	-0.015	0	0	-0	0	0	-0.098	0.1	0	-0	0	0	0	0	0	-0	0	0.05595	0	0	0	-0	0	0	0	0	0	-0	0	553.354	560.598	336.477	209.228	-0.149345	1.26972	-0.00219995	-0.0084699	-3.128
78	-0.0281767	-0.0220487	0.00709614	0.00850285	-0.0170075	-0.0392192	0.0212203	0.0287066	-0.000914604	-0.0195194	0.00142209	-0.0800391	0.052793	-0.00356393	0.0179448	-2.23503	0.00419228	-1.55129	0	0	0	0	-0	0	0	0	-0.1265	0	-0	0	0	0	0	0	-0	0	0.105	-0.015	0	0	-0	0	0	-0.098	0.1	0	-0	0	0	0	0	0	-0	0	0.05595	0	0	0	-0	0	0	0	0	0	-0	0	553.358	560.605	336.509	209.245	-0.149509	1.27129	-0.00219224	-0.00845255	-3.13246
79	-0.0266975	-0.0220495	0.00709583	0.00850266	-0.0170082	-0.0392189	0.0212205	0.0287069	-0.000914446	-0.0159308	-0.00140543	-0.0779424	0.0527663	-0.0035639	0.018023	-2.23357	0.00414387	-1.55131	0	0	0	0	-0	0	0	0	-0.1265	0	-0	0	0	0	0	0	-0	0	0.105	-0.015	0	0	-0	0	0	-0.098	0.1	0	-0	0	0	0	0	0	-0	0	0.05595	0	0	0	-0	0	0	0	0	0	-0	0	553.36	560.608	336.526	209.254	-0.149601	1.27205	-0.00218709	-0.00844327	-3.13459
80	-0.0257402	-0.0220508	0.00709541	0.00850223	-0.0170092	-0.0392183	0.0212204	0.0287067	-0.00091465	-0.0174779	-0.00548008	-0.0807618	0.052749	-0.00356387	0.0180737	-2.23265	0.00408162	-1.55135	0	0	0	0	-0	0	0	0	-0.1265	0	-0	0	0	0	0	0	-0	0	0.105	-0.015	0	0	-0	0	0	-0.098	0.1	0	-0	0	0	0	0	0	-0	0	0.05595	0	0	0	-0	0	0	0	0	0	-0	0	553.365	560.617	336.561	209.273	-0.149774	1.27386	-0.00218211	-0.0084242	-3.13978
81	-0.0233283	-0.0220531	0.00709472	0.00850155	-0.017011	-0.0392175	0.0212202	0.0287067	-0.000914235	-0.0146552	-0.00195442	-0.0827188	0.0527053	-0.00356382	0.0182011	-2.23029	0.00397077	-1.55141	0	0	0	0	-0	0	0	0	-0.1265	0	-0	0	0	0	0	0	-0	0	0.105	-0.015	0	0	-0	0	0	-0.098	0.1	0	-0	0	0	0	0	0	-0	0	0.05595	0	0	0	-0	0	0	0	0	0	-0	0	553.371	560.629	336.614	209.3	-0.150044	1.27653	-0.00217201	-0.00839581	-3.14736
82	-0.0292057	-0.0220562	0.0070937	0.00850048	-0.0170135	-0.0392162	0.0212204	0.0287067	-0.000914413	-0.014388	-0.00709935	-0.0839077	0.0528121	-0.00356374	0.0178916	-2.23624	0.0039909	-1.55153	0	0	0	0	-0	0	0	0	-0.1265	0	-0	0	0	0	0	0	-0	0	0.105	-0.015	0	0	-0	0	0	-0.098	0.1	0	-0	0	0	0	0	0	-0	0	0.05595	0	0	0	-0	0	0	0	0	0	-0	0	553.381	560.646	336.692	209.341	-0.150508	1.281	-0.00215644	-0.00835404	-3.15984
83	-0.0244862	-0.0220609	0.00709208	0.00849954	-0.017017	-0.0392145	0.0212198	0.0287074	-0.000913575	-0.00530068	0.00193716	-0.0872495	0.052727	-0.00356367	0.0181406	-2.23163	0.00376396	-1.55166	0	0	0	0	-0	0	0	0	-0.1265	0	-0	0	0	0	0	0	-0	0	0.105	-0.015	0	0	-0	0	0	-0.098	0.1	0	-0	0	0	0	0	0	-0	0	0.05595	0	0	0	-0	0	0	0	0	0	-0	0	553.394	560.671	336.804	209.398	-0.15114	1.28725	-0.00213767	-0.00829393	-3.17744
84	-0.0171401	-0.0220637	0.00709116	0.00849806	-0.0170192	-0.0392132	0.0212204	0.0287069	-0.000913565	-0.00246368	0.00884113	-0.0920107	0.0525932	-0.00356356	0.018528	-2.22435	0.00354535	-1.55172	0	0	0	0	-0	0	0	0	-0.1265	0	-0	0	0	0	0	0	-0	0	0.105	-0.015	0	0	-0	0	0	-0.098	0.1	0	-0	0	0	0	0	0	-0	0	0.05595	0	0	0	-0	0	0	0	0	0	-0	0	553.403	560.686	336.869	209.432	-0.151599	1.29096	-0.00211487	-0.00825631	-3.18737
85	-0.0153282	-0.0220657	0.00709024	0.00849802	-0.0170208	-0.0392124	0.0212205	0.0287066	-0.000914315	-0.00107146	0.0171117	-0.0911826	0.0525582	-0.00356351	0.018623	-2.22259	0.0034534	-1.55177	0	0	0	0	-0	0	0	0	-0.1265	0	-0	0	0	0	0	0	-0	0	0.105	-0.015	0	0	-0	0	0	-0.098	0.1	0	-0	0	0	0	0	0	-0	0	0.05595	0	0	0	-0	0	0	0	0	0	-0	0	553.41	560.697	336.917	209.457	-0.151878	1.29345	-0.00210285	-0.00822954	-3.1943
86	-0.0140682	-0.0220674	0.00708968	0.00849735	-0.0170223	-0.0392118	0.0212202	0.0287067	-0.000914023	-0.00201682	0.0123203	-0.0896547	0.0525345	-0.00356346	0.0186895	-2.22137	0.00338348	-1.55182	0	0	0	0	-0	0	0	0	-0.1265	0	-0	0	0	0	0	0	-0	0	0.105	-0.015	0	0	-0	0	0	-0.098	0.1	0	-0	0	0	0	0	0	-0	0	0.05595	0	0	0	-0	0	0	0	0	0	-0	0	553.415	560.705	336.956	209.477	-0.152053	1.29501	-0.00209149	-0.00820808	-3.19879
87	-0.0164452	-0.0220687	0.00708926	0.00849672	-0.0170234	-0.0392112	0.02122	0.0287072	-0.000913953	0.00323111	0.0135789	-0.0919097	0.0525788	-0.00356341	0.0185647	-2.22378	0.00339082	-1.55187	0	0	0	0	-0	0	0	0	-0.1265	0	-0	0	0	0	0	0	-0	0	0.105	-0.015	0	0	-0	0	0	-0.098	0.1	0	-0	0	0	0	0	0	-0	0	0.05595	0	0	0	-0	0	0	0	0	0	-0	0	553.419	560.712	336.987	209.493	-0.152245	1.29668	-0.00208259	-0.0081904	-3.20341
88	-0.0148132	-0.0220697	0.00708898	0.00849622	-0.0170242	-0.0392108	0.0212203	0.0287071	-0.000914121	0.00105322	0.0156426	-0.0877137	0.0525483	-0.00356337	0.0186507	-2.22217	0.00333176	-1.55189	0	0	0	0	-0	0	0	0	-0.1265	0	-0	0	0	0	0	0	-0	0	0.105	-0.015	0	0	-0	0	0	-0.098	0.1	0	-0	0	0	0	0	0	-0	0	0.05595	0	0	0	-0	0	0	0	0	0	-0	0	553.423	560.717	337.011	209.505	-0.152373	1.29779	-0.00207582	-0.00817715	-3.20649
89	-0.0149116	-0.0220705	0.00708863	0.00849611	-0.0170248	-0.0392105	0.0212201	0.0287068	-0.000914141	0.00152801	0.0123753	-0.0891966	0.0525501	-0.00356336	0.0186455	-2.22228	0.00331277	-1.55192	0	0	0	0	-0	0	0	0	-0.1265	0	-0	0	0	0	0	0	-0	0	0.105	-0.015	0	0	-0	0	0	-0.098	0.1	0	-0	0	0	0	0	0	-0	0	0.05595	0	0	0	-0	0	0	0	0	0	-0	0	553.425	560.72	337.028	209.514	-0.152492	1.29881	-0.00206977	-0.00816733	-3.20929
90	-0.0134469	-0.0220711	0.00708842	0.00849592	-0.0170253	-0.0392102	0.0212199	0.0287068	-0.000914091	-0.000430317	0.011032	-0.0899851	0.0525228	-0.00356333	0.0187225	-2.22083	0.00326949	-1.55193	0	0	0	0	-0	0	0	0	-0.1265	0	-0	0	0	0	0	0	-0	0	0.105	-0.015	0	0	-0	0	0	-0.098	0.1	0	-0	0	0	0	0	0	-0	0	0.05595	0	0	0	-0	0	0	0	0	0	-0	0	553.427	560.723	337.041	209.521	-0.152574	1.29951	-0.00206546	-0.00815999	-3.21123
91	-0.0130762	-0.0220723	0.00708807	0.00849551	-0.0170262	-0.0392098	0.0212204	0.0287075	-0.00091391	0.00282926	0.0103455	-0.0962683	0.0525158	-0.00356331	0.018742	-2.22049	0.0032278	-1.55197	0	0	0	0	-0	0	0	0	-0.1265	0	-0	0	0	0	0	0	-0	0	0.105	-0.015	0	0	-0	0	0	-0.098	0.1	0	-0	0	0	0	0	0	-0	0	0.05595	0	0	0	-0	0	0	0	0	0	-0	0	553.43	560.729	337.07	209.536	-0.152721	1.30102	-0.00206044	-0.00814451	-3.21557
92	-0.0124909	-0.0220728	0.00708781	0.00849528	-0.0170266	-0.0392095	0.0212201	0.0287071	-0.000914015	0.000729369	0.0115043	-0.0926992	0.0525049	-0.0035633	0.0187727	-2.21992	0.00319953	-1.55198	0	0	0	0	-0	0	0	0	-0.1265	0	-0	0	0	0	0	0	-0	0	0.105	-0.015	0	0	-0	0	0	-0.098	0.1	0	-0	0	0	0	0	0	-0	0	0.05595	0	0	0	-0	0	0	0	0	0	-0	0	553.431	560.731	337.085	209.544	-0.152837	1.30194	-0.0020545	-0.00813596	-3.21801
93	-0.00945289	-0.0220742	0.00708742	0.00849486	-0.0170277	-0.039209	0.0212199	0.0287068	-0.000913994	0.000173816	0.0118456	-0.091173	0.0524478	-0.00356326	0.0189324	-2.21691	0.003104	-1.55202	0	0	0	0	-0	0	0	0	-0.1265	0	-0	0	0	0	0	0	-0	0	0.105	-0.015	0	0	-0	0	0	-0.098	0.1	0	-0	0	0	0	0	0	-0	0	0.05595	0	0	0	-0	0	0	0	0	0	-0	0	553.436	560.739	337.117	209.56	-0.152996	1.30355	-0.0020486	-0.00811889	-3.22266
94	-0.00825882	-0.0220749	0.0070871	0.00849474	-0.0170283	-0.0392087	0.0212201	0.0287071	-0.000913997	-0.0024083	0.0133317	-0.0943481	0.052425	-0.00356324	0.018995	-2.21573	0.00306269	-1.55203	0	0	0	0	-0	0	0	0	-0.1265	0	-0	0	0	0	0	0	-0	0	0.105	-0.015	0	0	-0	0	0	-0.098	0.1	0	-0	0	0	0	0	0	-0	0	0.05595	0	0	0	-0	0	0	0	0	0	-0	0	553.438	560.742	337.133	209.568	-0.153096	1.30439	-0.00204383	-0.00810969	-3.22495
95	-0.00701901	-0.0220763	0.00708671	0.00849426	-0.0170294	-0.0392082	0.0212199	0.028707	-0.000914067	-0.00547658	0.0121544	-0.0966665	0.0524013	-0.00356321	0.0190602	-2.21453	0.00299724	-1.55208	0	0	0	0	-0	0	0	0	-0.1265	0	-0	0	0	0	0	0	-0	0	0.105	-0.015	0	0	-0	0	0	-0.098	0.1	0	-0	0	0	0	0	0	-0	0	0.05595	0	0	0	-0	0	0	0	0	0	-0	0	553.442	560.75	337.169	209.587	-0.153245	1.30598	-0.00203786	-0.00809081	-3.22964
96	-0.0073548	-0.0220771	0.00708639	0.00849395	-0.0170301	-0.0392078	0.0212199	0.0287069	-0.000913951	-0.00782094	0.0132295	-0.097722	0.0524077	-0.00356318	0.0190426	-2.21488	0.00298274	-1.5521	0	0	0	0	-0	0	0	0	-0.1265	0	-0	0	0	0	0	0	-0	0	0.105	-0.015	0	0	-0	0	0	-0.098	0.1	0	-0	0	0	0	0	0	-0	0	0.05595	0	0	0	-0	0	0	0	0	0	-0	0	553.444	560.753	337.186	209.596	-0.153379	1.30702	-0.00203072	-0.0080805	-3.2324
97	-0.0100841	-0.0220787	0.00708591	0.0084935	-0.0170313	-0.0392073	0.0212199	0.0287069	-0.000913762	-0.00599134	0.0156408	-0.100539	0.0524596	-0.00356315	0.0188997	-2.21765	0.00298722	-1.55216	0	0	0	0	-0	0	0	0	-0.1265	0	-0	0	0	0	0	0	-0	0	0.105	-0.015	0	0	-0	0	0	-0.098	0.1	0	-0	0	0	0	0	0	-0	0	0.05595	0	0	0	-0	0	0	0	0	0	-0	0	553.449	560.762	337.225	209.616	-0.153575	1.30908	-0.00202499	-0.00805975	-3.23834
98	-0.0120301	-0.0220795	0.0070856	0.00849322	-0.0170321	-0.0392069	0.0212198	0.0287069	-0.000913918	-0.00633877	0.0150517	-0.102186	0.0524961	-0.00356312	0.0187977	-2.21961	0.00300029	-1.55219	0	0	0	0	-0	0	0	0	-0.1265	0	-0	0	0	0	0	0	-0	0	0.105	-0.015	0	0	-0	0	0	-0.098	0.1	0	-0	0	0	0	0	0	-0	0	0.05595	0	0	0	-0	0	0	0	0	0	-0	0	553.452	560.767	337.245	209.626	-0.153669	1.30983	-0.00201842	-0.0080485	-3.24046
99	-0.0104402	-0.0220802	0.00708536	0.00849301	-0.0170326	-0.0392066	0.0212198	0.028707	-0.000913865	-0.0034372	0.0147257	-0.103431	0.0524661	-0.00356309	0.0188812	-2.21804	0.00295347	-1.55221	0	0	0	0	-0	0	0	0	-0.1265	0	-0	0	0	0	0	0	-0	0	0.105	-0.015	0	0	-0	0	0	-0.098	0.1	0	-0	0	0	0	0	0	-0	0	0.05595	0	0	0	-0	0	0	0	0	0	-0	0	553.454	560.769	337.259	209.633	-0.153761	1.31061	-0.00201362	-0.00804036	-3.2426
100	-0.00964598	-0.0220814	0.00708501	0.00849248	-0.0170336	-0.0392061	0.0212198	0.028707	-0.000913887	-0.00648018	0.0142874	-0.104317	0.052451	-0.00356306	0.0189231	-2.21727	0.00290043	-1.55225	0	0	0	0	-0	0	0	0	-0.1265	0	-0	0	0	0	0	0	-0	0	0.105	-0.015	0	0	-0	0	0	-0.098	0.1	0	-0	0	0	0	0	0	-0	0	0.05595	0	0	0	-0	0	0	0	0	0	-0	0	553.458	560.776	337.291	209.65	-0.15393	1.3123	-0.00200732	-0.0080232	-3.24747
