Stefan210/kinematic_calibration/src/kinematic_calibration/validation/experiments/experiments/single_point_vs_pose/marker_pose/rarm_130/optimization_intermediate_results.csv
iteration	HeadPitch_offset	HeadYaw_offset	RElbowRoll_offset	RElbowYaw_offset	RShoulderPitch_offset	RShoulderRoll_offset	marker_transform_rarm_tx	marker_transform_rarm_ty	marker_transform_rarm_tz	marker_transform_rarm_rr	marker_transform_rarm_rp	marker_transform_rarm_ry	camera_transform_tx	camera_transform_ty	camera_transform_tz	camera_transform_rr	camera_transform_rp	camera_transform_ry	HeadPitch_transform_tx	HeadPitch_transform_ty	HeadPitch_transform_tz	HeadPitch_transform_rr	HeadPitch_transform_rp	HeadPitch_transform_ry	HeadYaw_transform_tx	HeadYaw_transform_ty	HeadYaw_transform_tz	HeadYaw_transform_rr	HeadYaw_transform_rp	HeadYaw_transform_ry	RElbowRoll_transform_tx	RElbowRoll_transform_ty	RElbowRoll_transform_tz	RElbowRoll_transform_rr	RElbowRoll_transform_rp	RElbowRoll_transform_ry	RElbowYaw_transform_tx	RElbowYaw_transform_ty	RElbowYaw_transform_tz	RElbowYaw_transform_rr	RElbowYaw_transform_rp	RElbowYaw_transform_ry	RShoulderPitch_transform_tx	RShoulderPitch_transform_ty	RShoulderPitch_transform_tz	RShoulderPitch_transform_rr	RShoulderPitch_transform_rp	RShoulderPitch_transform_ry	RShoulderRoll_transform_tx	RShoulderRoll_transform_ty	RShoulderRoll_transform_tz	RShoulderRoll_transform_rr	RShoulderRoll_transform_rp	RShoulderRoll_transform_ry	RWristYaw_transform_tx	RWristYaw_transform_ty	RWristYaw_transform_tz	RWristYaw_transform_rr	RWristYaw_transform_rp	RWristYaw_transform_ry	r_wrist_joint_transform_tx	r_wrist_joint_transform_ty	r_wrist_joint_transform_tz	r_wrist_joint_transform_rr	r_wrist_joint_transform_rp	r_wrist_joint_transform_ry	camera_fx	camera_fy	camera_cx	camera_cy	camera_D0	camera_D1	camera_D2	camera_D3	camera_D4	
0	0.0230449	0.0294606	-0.0013508	-0.00116347	0.000678263	0.00258603	0.05071	0	0.01774	-2.26369	1.66533e-16	-1.5708	545.901	551.038	324.928	201.58	0.0255298	2.61142	-0.0636736	-0.0350419	0.213964
1	-0.0135154	-0.0343306	-0.0110605	-0.0206857	-0.00793084	-0.0452295	0.0259934	0.036234	-0.00123411	-0.596489	0.260426	0.175719	0.0524221	0.00166173	0.0225018	-2.21036	0.00632629	-1.53837	0	0	0	0	-0	0	0	0	-0.1265	0	-0	0	0	0	0	0	-0	0	0.105	-0.015	0	0	-0	0	0	-0.098	0.1	0	-0	0	0	0	0	0	-0	0	0.05595	0	0	0	-0	0	0	0	0	0	-0	0	545.902	551.039	324.931	201.582	-0.0723212	2.55986	-0.0859536	-0.0713179	0.198528
2	-0.00770016	-0.0550769	-0.0401742	0.0155897	-0.0171028	-0.0361492	0.0233071	0.0293835	0.000145314	-0.864728	0.27228	0.0670398	0.0506921	0.00304772	0.0285418	-2.23442	0.0244337	-1.53261	0	0	0	0	-0	0	0	0	-0.1265	0	-0	0	0	0	0	0	-0	0	0.105	-0.015	0	0	-0	0	0	-0.098	0.1	0	-0	0	0	0	0	0	-0	0	0.05595	0	0	0	-0	0	0	0	0	0	-0	0	545.905	551.039	324.937	201.588	-0.197515	2.41582	0.0342381	-0.0262562	0.134383
3	-0.0131907	-0.0328201	-0.0331801	0.00915466	-0.003938	-0.0485193	0.0239104	0.0274568	-0.000465313	-1.08008	0.239348	0.0264913	0.0536714	0.00163057	0.021377	-2.21102	0.0125513	-1.54796	0	0	0	0	-0	0	0	0	-0.1265	0	-0	0	0	0	0	0	-0	0	0.105	-0.015	0	0	-0	0	0	-0.098	0.1	0	-0	0	0	0	0	0	-0	0	0.05595	0	0	0	-0	0	0	0	0	0	-0	0	545.911	551.039	324.948	201.597	-0.545335	2.12824	-0.0323557	-0.00458082	0.0255669
4	-0.0132369	-0.0260617	-0.0246348	-0.0017714	-0.0017111	-0.0548247	0.0237159	0.0281321	6.17608e-05	-1.26916	0.164765	0.0911551	0.055381	-0.000245107	0.0179277	-2.20999	0.0106904	-1.55208	0	0	0	0	-0	0	0	0	-0.1265	0	-0	0	0	0	0	0	-0	0	0.105	-0.015	0	0	-0	0	0	-0.098	0.1	0	-0	0	0	0	0	0	-0	0	0.05595	0	0	0	-0	0	0	0	0	0	-0	0	545.919	551.039	324.958	201.608	-0.791643	1.74033	0.0229577	0.0257011	-0.162016
5	-0.0139253	-0.0149679	-0.00738442	-0.0116085	-0.000936898	-0.0580971	0.0228183	0.0298628	0.000975118	-1.54917	0.113933	0.22907	0.0562241	-0.00271393	0.0154435	-2.20664	0.00932705	-1.5526	0	0	0	0	-0	0	0	0	-0.1265	0	-0	0	0	0	0	0	-0	0	0.105	-0.015	0	0	-0	0	0	-0.098	0.1	0	-0	0	0	0	0	0	-0	0	0.05595	0	0	0	-0	0	0	0	0	0	-0	0	545.933	551.035	324.965	201.616	-0.695126	1.28557	0.0171804	0.0190548	-0.431404
6	-0.013803	-0.0168512	0.00533755	-0.00455632	-0.0101039	-0.0477015	0.0220172	0.0288423	0.000113115	-1.69365	0.141554	0.248991	0.0544457	-0.00345315	0.0171622	-2.20751	0.0137908	-1.54352	0	0	0	0	-0	0	0	0	-0.1265	0	-0	0	0	0	0	0	-0	0	0.105	-0.015	0	0	-0	0	0	-0.098	0.1	0	-0	0	0	0	0	0	-0	0	0.05595	0	0	0	-0	0	0	0	0	0	-0	0	545.952	551.027	324.969	201.619	-0.385067	0.933091	0.00965033	0.00216643	-0.667902
7	-0.013937	-0.0158713	0.0070047	2.20371e-05	-0.0105322	-0.0467093	0.0218316	0.0286352	-0.000380571	-1.69677	0.15052	0.232353	0.0535659	-0.00363809	0.0179743	-2.2073	0.0138612	-1.54321	0	0	0	0	-0	0	0	0	-0.1265	0	-0	0	0	0	0	0	-0	0	0.105	-0.015	0	0	-0	0	0	-0.098	0.1	0	-0	0	0	0	0	0	-0	0	0.05595	0	0	0	-0	0	0	0	0	0	-0	0	545.991	551.005	324.973	201.619	-0.167836	0.626769	-0.0027633	-0.00837369	-0.825336
8	-0.0138769	-0.0154964	0.00735165	0.000790795	-0.0103867	-0.0468257	0.02182	0.0286039	-0.000412827	-1.69691	0.151914	0.227785	0.0531616	-0.0036356	0.0184081	-2.20737	0.0134355	-1.54369	0	0	0	0	-0	0	0	0	-0.1265	0	-0	0	0	0	0	0	-0	0	0.105	-0.015	0	0	-0	0	0	-0.098	0.1	0	-0	0	0	0	0	0	-0	0	0.05595	0	0	0	-0	0	0	0	0	0	-0	0	546.097	550.943	324.986	201.616	-0.0723357	0.442821	-0.00822887	-0.0117556	-0.785456
9	-0.0139045	-0.0153935	0.00743981	0.000815125	-0.0103436	-0.0468234	0.0218162	0.0285958	-0.000410854	-1.69667	0.151953	0.226745	0.0529571	-0.00361031	0.0186219	-2.20763	0.0131398	-1.54411	0	0	0	0	-0	0	0	0	-0.1265	0	-0	0	0	0	0	0	-0	0	0.105	-0.015	0	0	-0	0	0	-0.098	0.1	0	-0	0	0	0	0	0	-0	0	0.05595	0	0	0	-0	0	0	0	0	0	-0	0	546.391	550.766	325.029	201.606	-0.026361	0.241743	-0.00891589	-0.0123978	-0.509199
10	-0.0143207	-0.0152407	0.00758308	0.000642688	-0.0102754	-0.0468085	0.0218084	0.0285886	-0.000399886	-1.69604	0.151637	0.226186	0.05267	-0.0035694	0.0188923	-2.20836	0.0126266	-1.54489	0	0	0	0	-0	0	0	0	-0.1265	0	-0	0	0	0	0	0	-0	0	0.105	-0.015	0	0	-0	0	0	-0.098	0.1	0	-0	0	0	0	0	0	-0	0	0.05595	0	0	0	-0	0	0	0	0	0	-0	0	547.152	550.309	325.134	201.578	0.0325223	-0.0915669	-0.0083176	-0.0128048	0.0230773
11	-0.0150211	-0.015058	0.00779175	0.000447885	-0.0101884	-0.0466916	0.0217891	0.0285822	-0.000391214	-1.69472	0.151178	0.226071	0.0523016	-0.0035126	0.0192126	-2.20924	0.0118615	-1.54604	0	0	0	0	-0	0	0	0	-0.1265	0	-0	0	0	0	0	0	-0	0	0.105	-0.015	0	0	-0	0	0	-0.098	0.1	0	-0	0	0	0	0	0	-0	0	0.05595	0	0	0	-0	0	0	0	0	0	-0	0	548.78	549.373	325.355	201.523	0.0855334	-0.425643	-0.006178	-0.0134114	0.580583
12	-0.0188352	-0.0149091	0.0079978	0.000359536	-0.0101093	-0.0464507	0.0217595	0.0285808	-0.000394103	-1.69286	0.15079	0.226739	0.0520519	-0.00346023	0.0192859	-2.213	0.0110571	-1.54734	0	0	0	0	-0	0	0	0	-0.1265	0	-0	0	0	0	0	0	-0	0	0.105	-0.015	0	0	-0	0	0	-0.098	0.1	0	-0	0	0	0	0	0	-0	0	0.05595	0	0	0	-0	0	0	0	0	0	-0	0	551.267	548.346	325.728	201.514	0.0893441	-0.516858	-0.00244492	-0.0140334	0.769285
13	-0.0158499	-0.0147852	0.00811187	0.000351421	-0.0100395	-0.046262	0.0217388	0.0285813	-0.000399768	-1.69152	0.150633	0.227333	0.0517637	-0.00341819	0.0196475	-2.21059	0.00994976	-1.5486	0	0	0	0	-0	0	0	0	-0.1265	0	-0	0	0	0	0	0	-0	0	0.105	-0.015	0	0	-0	0	0	-0.098	0.1	0	-0	0	0	0	0	0	-0	0	0.05595	0	0	0	-0	0	0	0	0	0	-0	0	553.921	548.775	326.287	201.731	0.061779	-0.422866	0.00034185	-0.0142144	0.657813
14	-0.0227879	-0.0146602	0.00812141	0.000353201	-0.0099807	-0.0461832	0.0217344	0.0285783	-0.000399443	-1.69124	0.150683	0.227063	0.0516437	-0.00336613	0.0195748	-2.21992	0.00820487	-1.55082	0	0	0	0	-0	0	0	0	-0.1265	0	-0	0	0	0	0	0	-0	0	0.105	-0.015	0	0	-0	0	0	-0.098	0.1	0	-0	0	0	0	0	0	-0	0	0.05595	0	0	0	-0	0	0	0	0	0	-0	0	557.035	551.898	327.513	202.529	0.0300051	-0.283493	0.00101265	-0.0136507	0.474349
15	-0.0453461	-0.014598	0.0081075	0.000332819	-0.00996067	-0.0461483	0.0217351	0.0285747	-0.000396262	-1.69133	0.150715	0.226632	0.0519186	-0.0033304	0.018614	-2.24466	0.00705547	-1.55274	0	0	0	0	-0	0	0	0	-0.1265	0	-0	0	0	0	0	0	-0	0	0.105	-0.015	0	0	-0	0	0	-0.098	0.1	0	-0	0	0	0	0	0	-0	0	0.05595	0	0	0	-0	0	0	0	0	0	-0	0	559.04	554.388	328.607	203.331	0.0114264	-0.192464	0.00100907	-0.0130947	0.34854
16	-0.0648745	-0.0145598	0.00808935	0.000303382	-0.00995806	-0.0461065	0.0217358	0.028571	-0.000392293	-1.69149	0.150728	0.226208	0.0521194	-0.0032965	0.0177975	-2.26689	0.00533505	-1.55501	0	0	0	0	-0	0	0	0	-0.1265	0	-0	0	0	0	0	0	-0	0	0.105	-0.015	0	0	-0	0	0	-0.098	0.1	0	-0	0	0	0	0	0	-0	0	0.05595	0	0	0	-0	0	0	0	0	0	-0	0	560.953	556.878	330.08	204.427	-0.0058901	-0.104127	0.0010101	-0.0123824	0.225195
17	-0.0772288	-0.014551	0.00808308	0.000279455	-0.00996196	-0.0460895	0.0217362	0.0285693	-0.000389903	-1.69156	0.150707	0.226029	0.0522797	-0.00328395	0.017225	-2.28024	0.00474727	-1.55584	0	0	0	0	-0	0	0	0	-0.1265	0	-0	0	0	0	0	0	-0	0	0.105	-0.015	0	0	-0	0	0	-0.098	0.1	0	-0	0	0	0	0	0	-0	0	0.05595	0	0	0	-0	0	0	0	0	0	-0	0	561.584	557.706	330.63	204.851	-0.0108278	-0.0768955	0.00102726	-0.0121105	0.184955
18	-0.103366	-0.0145606	0.00806193	0.000239254	-0.0099874	-0.0460419	0.0217364	0.028567	-0.000385615	-1.69167	0.150676	0.225811	0.0526212	-0.00325975	0.0160056	-2.30922	0.00250143	-1.5585	0	0	0	0	-0	0	0	0	-0.1265	0	-0	0	0	0	0	0	-0	0	0.105	-0.015	0	0	-0	0	0	-0.098	0.1	0	-0	0	0	0	0	0	-0	0	0.05595	0	0	0	-0	0	0	0	0	0	-0	0	562.988	559.639	332.58	206.132	-0.024052	-0.00401174	0.00111437	-0.011222	0.0803347
19	-0.0966018	-0.0145634	0.00806013	0.000219894	-0.00999426	-0.0460334	0.0217365	0.0285662	-0.000383999	-1.6917	0.150644	0.225747	0.0524808	-0.00325492	0.016385	-2.30283	0.00205328	-1.55878	0	0	0	0	-0	0	0	0	-0.1265	0	-0	0	0	0	0	0	-0	0	0.105	-0.015	0	0	-0	0	0	-0.098	0.1	0	-0	0	0	0	0	0	-0	0	0.05595	0	0	0	-0	0	0	0	0	0	-0	0	563.151	559.861	332.824	206.301	-0.0240131	-0.00422429	0.00115644	-0.0110786	0.0813675
20	-0.0847863	-0.0145665	0.00805632	0.000209448	-0.00999943	-0.0460261	0.0217366	0.0285659	-0.000383072	-1.69171	0.15063	0.225718	0.052271	-0.00325132	0.0170262	-2.29148	0.00147984	-1.55917	0	0	0	0	-0	0	0	0	-0.1265	0	-0	0	0	0	0	0	-0	0	0.105	-0.015	0	0	-0	0	0	-0.098	0.1	0	-0	0	0	0	0	0	-0	0	0.05595	0	0	0	-0	0	0	0	0	0	-0	0	563.343	560.128	333.149	206.517	-0.0255324	0.00447639	0.00118286	-0.010928	0.0690024
21	-0.0916943	-0.0145702	0.00805387	0.000202623	-0.0100042	-0.04602	0.0217366	0.0285656	-0.000382446	-1.69172	0.150621	0.2257	0.0523746	-0.00324888	0.0166783	-2.29871	0.00125103	-1.55949	0	0	0	0	-0	0	0	0	-0.1265	0	-0	0	0	0	0	0	-0	0	0.105	-0.015	0	0	-0	0	0	-0.098	0.1	0	-0	0	0	0	0	0	-0	0	0.05595	0	0	0	-0	0	0	0	0	0	-0	0	563.47	560.308	333.386	206.671	-0.0265112	0.0100729	0.00120519	-0.0108161	0.0611025
22	-0.104512	-0.0145907	0.00804505	0.000182173	-0.0100248	-0.0459993	0.0217365	0.0285652	-0.000380581	-1.69174	0.150592	0.225677	0.0525596	-0.00324245	0.0160476	-2.31264	0.000146201	-1.56068	0	0	0	0	-0	0	0	0	-0.1265	0	-0	0	0	0	0	0	-0	0	0.105	-0.015	0	0	-0	0	0	-0.098	0.1	0	-0	0	0	0	0	0	-0	0	0.05595	0	0	0	-0	0	0	0	0	0	-0	0	563.852	560.882	334.338	207.204	-0.030305	0.0333391	0.00125988	-0.0103855	0.026512
23	-0.114581	-0.0146233	0.00803555	0.000154241	-0.0100549	-0.0459756	0.0217363	0.0285648	-0.000378207	-1.69176	0.150545	0.225678	0.0526926	-0.00323654	0.0155563	-2.32383	-0.00130339	-1.56207	0	0	0	0	-0	0	0	0	-0.1265	0	-0	0	0	0	0	0	-0	0	0.105	-0.015	0	0	-0	0	0	-0.098	0.1	0	-0	0	0	0	0	0	-0	0	0.05595	0	0	0	-0	0	0	0	0	0	-0	0	564.17	561.405	335.514	207.751	-0.032892	0.0498714	0.00132082	-0.00983687	0.00343018
24	-0.123481	-0.0146324	0.00803308	0.000141047	-0.010064	-0.045969	0.0217363	0.0285646	-0.000377198	-1.69177	0.15052	0.22568	0.052821	-0.00323442	0.015099	-2.33301	-0.00162715	-1.56241	0	0	0	0	-0	0	0	0	-0.1265	0	-0	0	0	0	0	0	-0	0	0.105	-0.015	0	0	-0	0	0	-0.098	0.1	0	-0	0	0	0	0	0	-0	0	0.05595	0	0	0	-0	0	0	0	0	0	-0	0	564.234	561.511	335.811	207.891	-0.0324154	0.0460151	0.00136581	-0.00967801	0.0123164
25	-0.119388	-0.014634	0.00803243	0.000137993	-0.0100657	-0.0459677	0.0217363	0.0285645	-0.000376975	-1.69177	0.150514	0.225681	0.0527556	-0.00323394	0.0153172	-2.32897	-0.00173757	-1.56248	0	0	0	0	-0	0	0	0	-0.1265	0	-0	0	0	0	0	0	-0	0	0.105	-0.015	0	0	-0	0	0	-0.098	0.1	0	-0	0	0	0	0	0	-0	0	0.05595	0	0	0	-0	0	0	0	0	0	-0	0	564.245	561.53	335.867	207.917	-0.0322594	0.0446804	0.00137709	-0.00964614	0.0152161
26	-0.124377	-0.0146409	0.00803087	0.000132846	-0.0100717	-0.0459636	0.0217362	0.0285645	-0.000376556	-1.69177	0.150505	0.225686	0.0528286	-0.00323325	0.0150589	-2.33415	-0.0019863	-1.56273	0	0	0	0	-0	0	0	0	-0.1265	0	-0	0	0	0	0	0	-0	0	0.105	-0.015	0	0	-0	0	0	-0.098	0.1	0	-0	0	0	0	0	0	-0	0	0.05595	0	0	0	-0	0	0	0	0	0	-0	0	564.285	561.604	336.088	208.013	-0.0325371	0.0467146	0.00138683	-0.00954497	0.0126324
27	-0.113474	-0.0146604	0.00802655	0.000121318	-0.0100882	-0.0459534	0.0217361	0.0285645	-0.000375618	-1.69177	0.150484	0.225707	0.0526576	-0.00323184	0.0156457	-2.32368	-0.00284476	-1.56342	0	0	0	0	-0	0	0	0	-0.1265	0	-0	0	0	0	0	0	-0	0	0.105	-0.015	0	0	-0	0	0	-0.098	0.1	0	-0	0	0	0	0	0	-0	0	0.05595	0	0	0	-0	0	0	0	0	0	-0	0	564.374	561.781	336.675	208.231	-0.0334623	0.0533026	0.00140169	-0.00927223	0.0033557
28	-0.11948	-0.0146702	0.00802454	0.000113629	-0.0100968	-0.0459483	0.021736	0.0285645	-0.000375035	-1.69177	0.150468	0.22572	0.0527448	-0.00323095	0.0153344	-2.32988	-0.00315289	-1.56372	0	0	0	0	-0	0	0	0	-0.1265	0	-0	0	0	0	0	0	-0	0	0.105	-0.015	0	0	-0	0	0	-0.098	0.1	0	-0	0	0	0	0	0	-0	0	0.05595	0	0	0	-0	0	0	0	0	0	-0	0	564.403	561.846	336.948	208.329	-0.0332588	0.051707	0.00142394	-0.00913591	0.00777049
29	-0.107755	-0.0147042	0.00801861	9.63408e-05	-0.0101248	-0.0459343	0.0217358	0.0285647	-0.000373682	-1.69176	0.150436	0.225767	0.0525583	-0.00322981	0.0159644	-2.31864	-0.00448292	-1.56484	0	0	0	0	-0	0	0	0	-0.1265	0	-0	0	0	0	0	0	-0	0	0.105	-0.015	0	0	-0	0	0	-0.098	0.1	0	-0	0	0	0	0	0	-0	0	0.05595	0	0	0	-0	0	0	0	0	0	-0	0	564.482	562.059	337.904	208.569	-0.0342455	0.0594044	0.00140848	-0.00868704	-0.00250753
30	-0.0977657	-0.0147197	0.00801588	8.51734e-05	-0.0101382	-0.045928	0.0217357	0.0285647	-0.000372871	-1.69176	0.150412	0.225794	0.0523911	-0.00322885	0.0164953	-2.30885	-0.00505839	-1.56537	0	0	0	0	-0	0	0	0	-0.1265	0	-0	0	0	0	0	0	-0	0	0.105	-0.015	0	0	-0	0	0	-0.098	0.1	0	-0	0	0	0	0	0	-0	0	0.05595	0	0	0	-0	0	0	0	0	0	-0	0	564.501	562.127	338.308	208.67	-0.0335945	0.0545362	0.00142933	-0.00848023	0.008833
31	-0.0885807	-0.0147229	0.00801533	8.13133e-05	-0.0101412	-0.0459264	0.0217357	0.0285647	-0.000372609	-1.69176	0.150404	0.225801	0.0522356	-0.00322845	0.0169778	-2.29971	-0.00521052	-1.56551	0	0	0	0	-0	0	0	0	-0.1265	0	-0	0	0	0	0	0	-0	0	0.105	-0.015	0	0	-0	0	0	-0.098	0.1	0	-0	0	0	0	0	0	-0	0	0.05595	0	0	0	-0	0	0	0	0	0	-0	0	564.504	562.137	338.389	208.691	-0.033229	0.051587	0.00144267	-0.00843403	0.015067
32	-0.0937808	-0.014729	0.00801449	7.79702e-05	-0.0101462	-0.0459241	0.0217356	0.0285648	-0.000372362	-1.69176	0.150398	0.225811	0.0523211	-0.00322837	0.0167066	-2.30498	-0.00538464	-1.56567	0	0	0	0	-0	0	0	0	-0.1265	0	-0	0	0	0	0	0	-0	0	0.105	-0.015	0	0	-0	0	0	-0.098	0.1	0	-0	0	0	0	0	0	-0	0	0.05595	0	0	0	-0	0	0	0	0	0	-0	0	564.508	562.16	338.548	208.729	-0.0331894	0.051532	0.00144272	-0.00835834	0.0158042
33	-0.0924847	-0.0147294	0.00801424	7.7226e-05	-0.0101465	-0.045924	0.0217356	0.0285648	-0.00037232	-1.69176	0.150396	0.225814	0.0522987	-0.00322829	0.0167744	-2.30369	-0.00539853	-1.56568	0	0	0	0	-0	0	0	0	-0.1265	0	-0	0	0	0	0	0	-0	0	0.105	-0.015	0	0	-0	0	0	-0.098	0.1	0	-0	0	0	0	0	0	-0	0	0.05595	0	0	0	-0	0	0	0	0	0	-0	0	564.508	562.16	338.553	208.73	-0.0331696	0.0511654	0.00144801	-0.00835259	0.0166133
34	-0.0915112	-0.0147297	0.00801423	7.68169e-05	-0.0101468	-0.0459239	0.0217356	0.0285648	-0.00037229	-1.69176	0.150395	0.225815	0.0522821	-0.00322825	0.0168256	-2.30272	-0.00541541	-1.5657	0	0	0	0	-0	0	0	0	-0.1265	0	-0	0	0	0	0	0	-0	0	0.105	-0.015	0	0	-0	0	0	-0.098	0.1	0	-0	0	0	0	0	0	-0	0	0.05595	0	0	0	-0	0	0	0	0	0	-0	0	564.508	562.161	338.562	208.732	-0.0331055	0.0507465	0.00144805	-0.00834818	0.0174501
35	-0.0914513	-0.0147301	0.00801421	7.63603e-05	-0.0101472	-0.0459237	0.0217356	0.0285648	-0.000372254	-1.69176	0.150395	0.225815	0.0522809	-0.00322821	0.0168291	-2.30267	-0.00543328	-1.56572	0	0	0	0	-0	0	0	0	-0.1265	0	-0	0	0	0	0	0	-0	0	0.105	-0.015	0	0	-0	0	0	-0.098	0.1	0	-0	0	0	0	0	0	-0	0	0.05595	0	0	0	-0	0	0	0	0	0	-0	0	564.509	562.163	338.576	208.736	-0.0330485	0.0503833	0.0014478	-0.00834163	0.0182023
36	-0.0903185	-0.0147309	0.00801411	7.58533e-05	-0.0101478	-0.0459235	0.0217356	0.0285648	-0.000372215	-1.69176	0.150394	0.225816	0.0522617	-0.00322819	0.0168885	-2.30154	-0.00546496	-1.56575	0	0	0	0	-0	0	0	0	-0.1265	0	-0	0	0	0	0	0	-0	0	0.105	-0.015	0	0	-0	0	0	-0.098	0.1	0	-0	0	0	0	0	0	-0	0	0.05595	0	0	0	-0	0	0	0	0	0	-0	0	564.509	562.167	338.596	208.741	-0.0330218	0.0502369	0.00144723	-0.00833184	0.0185649
37	-0.088777	-0.0147321	0.00801393	7.52186e-05	-0.0101488	-0.045923	0.0217356	0.0285648	-0.000372167	-1.69176	0.150392	0.225818	0.0522355	-0.00322818	0.0169693	-2.30002	-0.00551094	-1.56579	0	0	0	0	-0	0	0	0	-0.1265	0	-0	0	0	0	0	0	-0	0	0.105	-0.015	0	0	-0	0	0	-0.098	0.1	0	-0	0	0	0	0	0	-0	0	0.05595	0	0	0	-0	0	0	0	0	0	-0	0	564.509	562.17	338.627	208.748	-0.0329813	0.0500193	0.00144691	-0.00831742	0.0190895
38	-0.089294	-0.0147339	0.00801366	7.43986e-05	-0.0101502	-0.0459224	0.0217356	0.0285648	-0.000372106	-1.69176	0.150391	0.22582	0.0522441	-0.00322817	0.0169425	-2.30055	-0.00556462	-1.56584	0	0	0	0	-0	0	0	0	-0.1265	0	-0	0	0	0	0	0	-0	0	0.105	-0.015	0	0	-0	0	0	-0.098	0.1	0	-0	0	0	0	0	0	-0	0	0.05595	0	0	0	-0	0	0	0	0	0	-0	0	564.509	562.176	338.671	208.758	-0.0329742	0.0500327	0.00144664	-0.00829612	0.0192355
39	-0.0906857	-0.0147341	0.00801359	7.41153e-05	-0.0101505	-0.0459223	0.0217356	0.0285648	-0.000372088	-1.69176	0.15039	0.225821	0.0522676	-0.00322815	0.01687	-2.30195	-0.00556546	-1.56584	0	0	0	0	-0	0	0	0	-0.1265	0	-0	0	0	0	0	0	-0	0	0.105	-0.015	0	0	-0	0	0	-0.098	0.1	0	-0	0	0	0	0	0	-0	0	0.05595	0	0	0	-0	0	0	0	0	0	-0	0	564.51	562.177	338.677	208.759	-0.032958	0.0498643	0.00144819	-0.00829244	0.0196079
40	-0.0902308	-0.0147346	0.00801353	7.38398e-05	-0.0101509	-0.0459221	0.0217356	0.0285648	-0.000372068	-1.69176	0.15039	0.225822	0.0522599	-0.00322814	0.0168938	-2.3015	-0.00558347	-1.56585	0	0	0	0	-0	0	0	0	-0.1265	0	-0	0	0	0	0	0	-0	0	0.105	-0.015	0	0	-0	0	0	-0.098	0.1	0	-0	0	0	0	0	0	-0	0	0.05595	0	0	0	-0	0	0	0	0	0	-0	0	564.51	562.178	338.689	208.762	-0.0329377	0.0497442	0.00144823	-0.00828653	0.0198858
41	-0.0913665	-0.0147353	0.00801345	7.34572e-05	-0.0101515	-0.0459218	0.0217356	0.0285648	-0.000372041	-1.69176	0.150389	0.225824	0.052279	-0.00322814	0.0168345	-2.30264	-0.00560121	-1.56587	0	0	0	0	-0	0	0	0	-0.1265	0	-0	0	0	0	0	0	-0	0	0.105	-0.015	0	0	-0	0	0	-0.098	0.1	0	-0	0	0	0	0	0	-0	0	0.05595	0	0	0	-0	0	0	0	0	0	-0	0	564.51	562.18	338.708	208.766	-0.0329295	0.0497028	0.00144877	-0.0082777	0.0200382
42	-0.0918151	-0.0147364	0.0080133	7.28978e-05	-0.0101523	-0.0459215	0.0217356	0.0285648	-0.000371999	-1.69176	0.150388	0.225825	0.0522864	-0.00322813	0.0168113	-2.3031	-0.00563379	-1.5659	0	0	0	0	-0	0	0	0	-0.1265	0	-0	0	0	0	0	0	-0	0	0.105	-0.015	0	0	-0	0	0	-0.098	0.1	0	-0	0	0	0	0	0	-0	0	0.05595	0	0	0	-0	0	0	0	0	0	-0	0	564.51	562.184	338.735	208.772	-0.0329099	0.0496126	0.0014485	-0.00826464	0.020314
43	-0.0969439	-0.014738	0.00801306	7.21619e-05	-0.0101536	-0.0459209	0.0217355	0.0285648	-0.000371946	-1.69176	0.150386	0.225829	0.0523726	-0.00322813	0.0165433	-2.30825	-0.0056598	-1.56592	0	0	0	0	-0	0	0	0	-0.1265	0	-0	0	0	0	0	0	-0	0	0.105	-0.015	0	0	-0	0	0	-0.098	0.1	0	-0	0	0	0	0	0	-0	0	0.05595	0	0	0	-0	0	0	0	0	0	-0	0	564.51	562.189	338.775	208.781	-0.0329261	0.0497595	0.0014488	-0.00824533	0.0201969
44	-0.0994618	-0.0147403	0.00801275	7.10935e-05	-0.0101555	-0.04592	0.0217355	0.0285649	-0.000371868	-1.69176	0.150384	0.225833	0.0524135	-0.00322813	0.0164115	-2.31079	-0.00572261	-1.56597	0	0	0	0	-0	0	0	0	-0.1265	0	-0	0	0	0	0	0	-0	0	0.105	-0.015	0	0	-0	0	0	-0.098	0.1	0	-0	0	0	0	0	0	-0	0	0.05595	0	0	0	-0	0	0	0	0	0	-0	0	564.511	562.195	338.834	208.793	-0.0329054	0.0496777	0.00144883	-0.00821716	0.0205904
45	-0.0936274	-0.0147446	0.00801215	6.90941e-05	-0.0101589	-0.0459186	0.0217355	0.0285649	-0.000371722	-1.69175	0.15038	0.225841	0.0523175	-0.00322814	0.0167178	-2.30499	-0.00588535	-1.56612	0	0	0	0	-0	0	0	0	-0.1265	0	-0	0	0	0	0	0	-0	0	0.105	-0.015	0	0	-0	0	0	-0.098	0.1	0	-0	0	0	0	0	0	-0	0	0.05595	0	0	0	-0	0	0	0	0	0	-0	0	564.51	562.208	338.94	208.813	-0.0328892	0.0497224	0.00144703	-0.00816665	0.0208947
46	-0.0979069	-0.0147466	0.00801183	6.79159e-05	-0.0101606	-0.0459178	0.0217355	0.0285649	-0.00037164	-1.69175	0.150377	0.225845	0.0523878	-0.00322807	0.0164942	-2.30929	-0.00593078	-1.56616	0	0	0	0	-0	0	0	0	-0.1265	0	-0	0	0	0	0	0	-0	0	0.105	-0.015	0	0	-0	0	0	-0.098	0.1	0	-0	0	0	0	0	0	-0	0	0.05595	0	0	0	-0	0	0	0	0	0	-0	0	564.511	562.214	338.991	208.823	-0.0328205	0.0491784	0.00144899	-0.00814059	0.0222154
47	-0.101953	-0.0147481	0.00801162	6.6989e-05	-0.0101619	-0.0459173	0.0217355	0.0285649	-0.000371573	-1.69175	0.150375	0.225848	0.0524539	-0.00322803	0.0162825	-2.31335	-0.00596079	-1.56618	0	0	0	0	-0	0	0	0	-0.1265	0	-0	0	0	0	0	0	-0	0	0.105	-0.015	0	0	-0	0	0	-0.098	0.1	0	-0	0	0	0	0	0	-0	0	0.05595	0	0	0	-0	0	0	0	0	0	-0	0	564.512	562.219	339.029	208.83	-0.0327819	0.0489279	0.00144885	-0.0081218	0.0228603
48	-0.0971001	-0.0147492	0.00801144	6.62945e-05	-0.0101628	-0.045917	0.0217355	0.0285649	-0.000371521	-1.69175	0.150374	0.225849	0.0523743	-0.00322801	0.0165372	-2.30851	-0.00601931	-1.56624	0	0	0	0	-0	0	0	0	-0.1265	0	-0	0	0	0	0	0	-0	0	0.105	-0.015	0	0	-0	0	0	-0.098	0.1	0	-0	0	0	0	0	0	-0	0	0.05595	0	0	0	-0	0	0	0	0	0	-0	0	564.511	562.223	339.057	208.836	-0.0327235	0.0485602	0.00144789	-0.00810787	0.0236819
49	-0.101973	-0.0147501	0.00801131	6.59187e-05	-0.0101635	-0.0459167	0.0217355	0.0285649	-0.000371496	-1.69175	0.150373	0.225851	0.0524543	-0.003228	0.0162819	-2.31339	-0.00602364	-1.56623	0	0	0	0	-0	0	0	0	-0.1265	0	-0	0	0	0	0	0	-0	0	0.105	-0.015	0	0	-0	0	0	-0.098	0.1	0	-0	0	0	0	0	0	-0	0	0.05595	0	0	0	-0	0	0	0	0	0	-0	0	564.511	562.225	339.078	208.839	-0.0327235	0.048541	0.00144864	-0.00809754	0.0238228
50	-0.106362	-0.0147507	0.00801122	6.55501e-05	-0.010164	-0.0459165	0.0217355	0.0285649	-0.000371469	-1.69175	0.150372	0.225852	0.0525251	-0.003228	0.0160516	-2.31778	-0.00602358	-1.56622	0	0	0	0	-0	0	0	0	-0.1265	0	-0	0	0	0	0	0	-0	0	0.105	-0.015	0	0	-0	0	0	-0.098	0.1	0	-0	0	0	0	0	0	-0	0	0.05595	0	0	0	-0	0	0	0	0	0	-0	0	564.511	562.227	339.093	208.842	-0.032714	0.0484888	0.00144835	-0.00808986	0.0239852
51	-0.108825	-0.014752	0.00801107	6.49421e-05	-0.0101651	-0.045916	0.0217354	0.028565	-0.000371426	-1.69175	0.150371	0.225855	0.052564	-0.00322798	0.0159223	-2.32026	-0.00605657	-1.56625	0	0	0	0	-0	0	0	0	-0.1265	0	-0	0	0	0	0	0	-0	0	0.105	-0.015	0	0	-0	0	0	-0.098	0.1	0	-0	0	0	0	0	0	-0	0	0.05595	0	0	0	-0	0	0	0	0	0	-0	0	564.512	562.231	339.127	208.848	-0.0327062	0.0484606	0.00144857	-0.00807359	0.0241802
52	-0.108054	-0.014754	0.00801077	6.39586e-05	-0.0101667	-0.0459154	0.0217354	0.028565	-0.000371354	-1.69175	0.150369	0.225858	0.0525515	-0.00322798	0.0159631	-2.3195	-0.00612474	-1.56631	0	0	0	0	-0	0	0	0	-0.1265	0	-0	0	0	0	0	0	-0	0	0.105	-0.015	0	0	-0	0	0	-0.098	0.1	0	-0	0	0	0	0	0	-0	0	0.05595	0	0	0	-0	0	0	0	0	0	-0	0	564.512	562.237	339.177	208.857	-0.0326967	0.0484572	0.00144693	-0.00804938	0.0243849
53	-0.109992	-0.0147568	0.00801042	6.25394e-05	-0.010169	-0.0459144	0.0217354	0.028565	-0.000371252	-1.69175	0.150366	0.225863	0.0525822	-0.00322795	0.0158618	-2.32146	-0.00620923	-1.56638	0	0	0	0	-0	0	0	0	-0.1265	0	-0	0	0	0	0	0	-0	0	0.105	-0.015	0	0	-0	0	0	-0.098	0.1	0	-0	0	0	0	0	0	-0	0	0.05595	0	0	0	-0	0	0	0	0	0	-0	0	564.513	562.246	339.249	208.868	-0.0326715	0.0483353	0.00144556	-0.00801459	0.0249273
54	-0.112863	-0.0147573	0.00801026	6.21527e-05	-0.0101694	-0.0459143	0.0217354	0.028565	-0.000371227	-1.69175	0.150365	0.225865	0.0526275	-0.00322791	0.015711	-2.32434	-0.00620935	-1.56637	0	0	0	0	-0	0	0	0	-0.1265	0	-0	0	0	0	0	0	-0	0	0.105	-0.015	0	0	-0	0	0	-0.098	0.1	0	-0	0	0	0	0	0	-0	0	0.05595	0	0	0	-0	0	0	0	0	0	-0	0	564.513	562.248	339.259	208.87	-0.0326303	0.0479688	0.00144687	-0.00800856	0.0257199
55	-0.117105	-0.014758	0.00801014	6.17892e-05	-0.01017	-0.0459141	0.0217354	0.028565	-0.000371198	-1.69175	0.150364	0.225866	0.0526939	-0.00322791	0.0154878	-2.32859	-0.0062166	-1.56637	0	0	0	0	-0	0	0	0	-0.1265	0	-0	0	0	0	0	0	-0	0	0.105	-0.015	0	0	-0	0	0	-0.098	0.1	0	-0	0	0	0	0	0	-0	0	0.05595	0	0	0	-0	0	0	0	0	0	-0	0	564.513	562.25	339.279	208.873	-0.0326078	0.0478613	0.00144534	-0.00799895	0.0259995
56	-0.118231	-0.0147592	0.00801005	6.12508e-05	-0.010171	-0.0459136	0.0217354	0.028565	-0.000371161	-1.69175	0.150363	0.225868	0.0527109	-0.00322791	0.0154285	-2.32972	-0.00624988	-1.56639	0	0	0	0	-0	0	0	0	-0.1265	0	-0	0	0	0	0	0	-0	0	0.105	-0.015	0	0	-0	0	0	-0.098	0.1	0	-0	0	0	0	0	0	-0	0	0.05595	0	0	0	-0	0	0	0	0	0	-0	0	564.512	562.253	339.308	208.878	-0.0326008	0.0478221	0.00144583	-0.00798482	0.0261962
57	-0.115131	-0.0147598	0.00800994	6.08764e-05	-0.0101715	-0.0459134	0.0217354	0.028565	-0.000371137	-1.69175	0.150362	0.22587	0.052663	-0.0032279	0.015592	-2.32663	-0.00628252	-1.56643	0	0	0	0	-0	0	0	0	-0.1265	0	-0	0	0	0	0	0	-0	0	0.105	-0.015	0	0	-0	0	0	-0.098	0.1	0	-0	0	0	0	0	0	-0	0	0.05595	0	0	0	-0	0	0	0	0	0	-0	0	564.513	562.254	339.323	208.88	-0.0326038	0.0478111	0.00144655	-0.00797737	0.0262976
58	-0.113047	-0.0147603	0.00800986	6.06914e-05	-0.0101718	-0.0459133	0.0217354	0.028565	-0.000371123	-1.69175	0.150362	0.22587	0.0526302	-0.0032279	0.0157017	-2.32455	-0.00630571	-1.56645	0	0	0	0	-0	0	0	0	-0.1265	0	-0	0	0	0	0	0	-0	0	0.105	-0.015	0	0	-0	0	0	-0.098	0.1	0	-0	0	0	0	0	0	-0	0	0.05595	0	0	0	-0	0	0	0	0	0	-0	0	564.513	562.256	339.334	208.882	-0.0325959	0.0477692	0.00144597	-0.00797198	0.0264224
59	-0.115416	-0.0147612	0.00800974	6.02091e-05	-0.0101726	-0.045913	0.0217354	0.028565	-0.000371087	-1.69175	0.150361	0.225872	0.0526672	-0.00322789	0.0155772	-2.32692	-0.00632682	-1.56646	0	0	0	0	-0	0	0	0	-0.1265	0	-0	0	0	0	0	0	-0	0	0.105	-0.015	0	0	-0	0	0	-0.098	0.1	0	-0	0	0	0	0	0	-0	0	0.05595	0	0	0	-0	0	0	0	0	0	-0	0	564.513	562.259	339.358	208.886	-0.0325698	0.0476318	0.0014447	-0.00796041	0.0267801
60	-0.117109	-0.0147617	0.00800968	5.99017e-05	-0.010173	-0.0459128	0.0217354	0.028565	-0.000371066	-1.69175	0.15036	0.225873	0.0526934	-0.00322788	0.0154881	-2.32862	-0.00633511	-1.56647	0	0	0	0	-0	0	0	0	-0.1265	0	-0	0	0	0	0	0	-0	0	0.105	-0.015	0	0	-0	0	0	-0.098	0.1	0	-0	0	0	0	0	0	-0	0	0.05595	0	0	0	-0	0	0	0	0	0	-0	0	564.513	562.26	339.37	208.887	-0.0325632	0.0475643	0.00144523	-0.00795431	0.0269733
61	-0.114583	-0.0147627	0.00800954	5.94331e-05	-0.0101738	-0.0459125	0.0217354	0.0285651	-0.000371032	-1.69175	0.150359	0.225875	0.0526541	-0.00322788	0.0156213	-2.3261	-0.00638056	-1.56651	0	0	0	0	-0	0	0	0	-0.1265	0	-0	0	0	0	0	0	-0	0	0.105	-0.015	0	0	-0	0	0	-0.098	0.1	0	-0	0	0	0	0	0	-0	0	0.05595	0	0	0	-0	0	0	0	0	0	-0	0	564.513	562.263	339.396	208.891	-0.0325498	0.0475094	0.00144423	-0.0079416	0.0271814
62	-0.11802	-0.0147642	0.00800935	5.86964e-05	-0.0101751	-0.045912	0.0217354	0.0285651	-0.000370976	-1.69175	0.150358	0.225877	0.0527075	-0.00322786	0.0154407	-2.32955	-0.00641646	-1.56653	0	0	0	0	-0	0	0	0	-0.1265	0	-0	0	0	0	0	0	-0	0	0.105	-0.015	0	0	-0	0	0	-0.098	0.1	0	-0	0	0	0	0	0	-0	0	0.05595	0	0	0	-0	0	0	0	0	0	-0	0	564.513	562.268	339.435	208.897	-0.0325178	0.0473346	0.00144233	-0.00792279	0.0276813
63	-0.115288	-0.0147663	0.00800901	5.7803e-05	-0.0101768	-0.0459113	0.0217353	0.0285651	-0.000370913	-1.69175	0.150356	0.225881	0.0526649	-0.00322784	0.015585	-2.32683	-0.00650153	-1.56661	0	0	0	0	-0	0	0	0	-0.1265	0	-0	0	0	0	0	0	-0	0	0.105	-0.015	0	0	-0	0	0	-0.098	0.1	0	-0	0	0	0	0	0	-0	0	0.05595	0	0	0	-0	0	0	0	0	0	-0	0	564.515	562.277	339.491	208.904	-0.0325656	0.0476701	0.00144078	-0.0078955	0.0273024
64	-0.113935	-0.0147667	0.00800892	5.74541e-05	-0.0101772	-0.0459112	0.0217353	0.0285651	-0.000370891	-1.69175	0.150355	0.225883	0.0526435	-0.00322781	0.0156563	-2.32548	-0.00651708	-1.56663	0	0	0	0	-0	0	0	0	-0.1265	0	-0	0	0	0	0	0	-0	0	0.105	-0.015	0	0	-0	0	0	-0.098	0.1	0	-0	0	0	0	0	0	-0	0	0.05595	0	0	0	-0	0	0	0	0	0	-0	0	564.515	562.278	339.499	208.905	-0.0325367	0.0473984	0.00144213	-0.00789084	0.0278953
65	-0.111244	-0.0147673	0.00800886	5.71082e-05	-0.0101777	-0.045911	0.0217353	0.0285651	-0.000370866	-1.69175	0.150355	0.225883	0.0526013	-0.00322781	0.0157981	-2.3228	-0.00654851	-1.56667	0	0	0	0	-0	0	0	0	-0.1265	0	-0	0	0	0	0	0	-0	0	0.105	-0.015	0	0	-0	0	0	-0.098	0.1	0	-0	0	0	0	0	0	-0	0	0.05595	0	0	0	-0	0	0	0	0	0	-0	0	564.514	562.279	339.514	208.908	-0.0325062	0.0472219	0.00144118	-0.00788333	0.0282889
66	-0.109791	-0.0147676	0.00800882	5.69489e-05	-0.0101779	-0.0459109	0.0217353	0.0285651	-0.000370854	-1.69175	0.150354	0.225884	0.0525781	-0.0032278	0.0158745	-2.32134	-0.00656453	-1.56668	0	0	0	0	-0	0	0	0	-0.1265	0	-0	0	0	0	0	0	-0	0	0.105	-0.015	0	0	-0	0	0	-0.098	0.1	0	-0	0	0	0	0	0	-0	0	0.05595	0	0	0	-0	0	0	0	0	0	-0	0	564.514	562.28	339.522	208.909	-0.0324919	0.0471246	0.00144117	-0.00787943	0.0285074
67	-0.106965	-0.0147683	0.00800874	5.65749e-05	-0.0101784	-0.0459107	0.0217353	0.0285651	-0.000370828	-1.69175	0.150353	0.225885	0.0525331	-0.00322778	0.0160233	-2.31852	-0.00659853	-1.56672	0	0	0	0	-0	0	0	0	-0.1265	0	-0	0	0	0	0	0	-0	0	0.105	-0.015	0	0	-0	0	0	-0.098	0.1	0	-0	0	0	0	0	0	-0	0	0.05595	0	0	0	-0	0	0	0	0	0	-0	0	564.515	562.282	339.539	208.911	-0.0324889	0.0470997	0.00144091	-0.00787111	0.0286446
68	-0.107315	-0.0147692	0.00800861	5.61528e-05	-0.0101792	-0.0459104	0.0217353	0.0285651	-0.000370796	-1.69175	0.150353	0.225887	0.0525384	-0.00322778	0.016005	-2.31888	-0.00662996	-1.56675	0	0	0	0	-0	0	0	0	-0.1265	0	-0	0	0	0	0	0	-0	0	0.105	-0.015	0	0	-0	0	0	-0.098	0.1	0	-0	0	0	0	0	0	-0	0	0.05595	0	0	0	-0	0	0	0	0	0	-0	0	564.515	562.286	339.565	208.914	-0.032485	0.0470995	0.00143954	-0.00785879	0.0287531
69	-0.107776	-0.0147708	0.00800841	5.54493e-05	-0.0101805	-0.04591	0.0217353	0.0285651	-0.000370745	-1.69174	0.150351	0.225889	0.0525458	-0.0032278	0.0159809	-2.31935	-0.006676	-1.56679	0	0	0	0	-0	0	0	0	-0.1265	0	-0	0	0	0	0	0	-0	0	0.105	-0.015	0	0	-0	0	0	-0.098	0.1	0	-0	0	0	0	0	0	-0	0	0.05595	0	0	0	-0	0	0	0	0	0	-0	0	564.513	562.289	339.602	208.919	-0.0324475	0.0469139	0.00143753	-0.00784079	0.0292303
70	-0.111289	-0.0147715	0.0080083	5.50242e-05	-0.0101811	-0.0459097	0.0217353	0.0285651	-0.000370716	-1.69174	0.15035	0.225891	0.0526019	-0.00322778	0.0157965	-2.32287	-0.00668575	-1.56678	0	0	0	0	-0	0	0	0	-0.1265	0	-0	0	0	0	0	0	-0	0	0.105	-0.015	0	0	-0	0	0	-0.098	0.1	0	-0	0	0	0	0	0	-0	0	0.05595	0	0	0	-0	0	0	0	0	0	-0	0	564.514	562.291	339.62	208.921	-0.032425	0.0467264	0.00143774	-0.00783142	0.0296963
71	-0.113391	-0.0147731	0.00800811	5.43783e-05	-0.0101824	-0.0459092	0.0217353	0.0285651	-0.00037067	-1.69174	0.150349	0.225894	0.0526347	-0.00322779	0.015686	-2.32498	-0.00672938	-1.56682	0	0	0	0	-0	0	0	0	-0.1265	0	-0	0	0	0	0	0	-0	0	0.105	-0.015	0	0	-0	0	0	-0.098	0.1	0	-0	0	0	0	0	0	-0	0	0.05595	0	0	0	-0	0	0	0	0	0	-0	0	564.514	562.295	339.66	208.926	-0.0324263	0.0467735	0.00143613	-0.00781216	0.02977
72	-0.112216	-0.0147754	0.0080078	5.33308e-05	-0.0101842	-0.0459086	0.0217353	0.0285652	-0.000370594	-1.69174	0.150347	0.225898	0.0526161	-0.00322778	0.0157482	-2.32382	-0.00680898	-1.56689	0	0	0	0	-0	0	0	0	-0.1265	0	-0	0	0	0	0	0	-0	0	0.105	-0.015	0	0	-0	0	0	-0.098	0.1	0	-0	0	0	0	0	0	-0	0	0.05595	0	0	0	-0	0	0	0	0	0	-0	0	564.513	562.302	339.718	208.932	-0.0324044	0.0466778	0.00143314	-0.00778415	0.030191
73	-0.108855	-0.0147765	0.00800766	5.26595e-05	-0.0101852	-0.0459082	0.0217353	0.0285652	-0.00037055	-1.69174	0.150345	0.225901	0.052563	-0.00322776	0.0159253	-2.32046	-0.00685851	-1.56694	0	0	0	0	-0	0	0	0	-0.1265	0	-0	0	0	0	0	0	-0	0	0.105	-0.015	0	0	-0	0	0	-0.098	0.1	0	-0	0	0	0	0	0	-0	0	0.05595	0	0	0	-0	0	0	0	0	0	-0	0	564.513	562.304	339.746	208.936	-0.032362	0.0463373	0.00143388	-0.00776982	0.0309949
74	-0.110945	-0.0147768	0.00800758	5.25354e-05	-0.0101854	-0.0459081	0.0217353	0.0285652	-0.000370543	-1.69174	0.150345	0.225902	0.052596	-0.00322776	0.0158153	-2.32255	-0.00685778	-1.56693	0	0	0	0	-0	0	0	0	-0.1265	0	-0	0	0	0	0	0	-0	0	0.105	-0.015	0	0	-0	0	0	-0.098	0.1	0	-0	0	0	0	0	0	-0	0	0.05595	0	0	0	-0	0	0	0	0	0	-0	0	564.513	562.305	339.752	208.936	-0.032364	0.0463167	0.00143431	-0.00776657	0.0310786
75	-0.109375	-0.0147772	0.00800756	5.22214e-05	-0.0101858	-0.045908	0.0217353	0.0285652	-0.000370519	-1.69174	0.150344	0.225902	0.052571	-0.00322774	0.015898	-2.32099	-0.00687915	-1.56696	0	0	0	0	-0	0	0	0	-0.1265	0	-0	0	0	0	0	0	-0	0	0.105	-0.015	0	0	-0	0	0	-0.098	0.1	0	-0	0	0	0	0	0	-0	0	0.05595	0	0	0	-0	0	0	0	0	0	-0	0	564.513	562.306	339.763	208.938	-0.0323264	0.0460836	0.00143339	-0.00776092	0.0315712
76	-0.108099	-0.0147775	0.00800752	5.20926e-05	-0.010186	-0.0459079	0.0217353	0.0285652	-0.00037051	-1.69174	0.150344	0.225903	0.0525506	-0.00322774	0.0159652	-2.31971	-0.00689163	-1.56697	0	0	0	0	-0	0	0	0	-0.1265	0	-0	0	0	0	0	0	-0	0	0.105	-0.015	0	0	-0	0	0	-0.098	0.1	0	-0	0	0	0	0	0	-0	0	0.05595	0	0	0	-0	0	0	0	0	0	-0	0	564.513	562.307	339.769	208.938	-0.0323207	0.0460421	0.00143321	-0.00775793	0.0316773
77	-0.108552	-0.0147779	0.00800749	5.1795e-05	-0.0101864	-0.0459078	0.0217353	0.0285652	-0.000370489	-1.69174	0.150344	0.225904	0.0525577	-0.00322772	0.0159415	-2.32017	-0.00690683	-1.56699	0	0	0	0	-0	0	0	0	-0.1265	0	-0	0	0	0	0	0	-0	0	0.105	-0.015	0	0	-0	0	0	-0.098	0.1	0	-0	0	0	0	0	0	-0	0	0.05595	0	0	0	-0	0	0	0	0	0	-0	0	564.513	562.308	339.782	208.94	-0.0323083	0.0459557	0.00143307	-0.00775168	0.0319071
78	-0.109972	-0.0147787	0.00800741	5.14161e-05	-0.010187	-0.0459075	0.0217352	0.0285652	-0.000370462	-1.69174	0.150343	0.225905	0.0525804	-0.00322773	0.0158669	-2.32159	-0.00692616	-1.567	0	0	0	0	-0	0	0	0	-0.1265	0	-0	0	0	0	0	0	-0	0	0.105	-0.015	0	0	-0	0	0	-0.098	0.1	0	-0	0	0	0	0	0	-0	0	0.05595	0	0	0	-0	0	0	0	0	0	-0	0	564.512	562.31	339.801	208.942	-0.0322888	0.0458465	0.00143225	-0.00774239	0.0321878
79	-0.107339	-0.0147799	0.00800721	5.10133e-05	-0.0101879	-0.0459073	0.0217352	0.0285652	-0.000370432	-1.69174	0.150342	0.225907	0.0525386	-0.00322775	0.0160054	-2.31896	-0.00697253	-1.56705	0	0	0	0	-0	0	0	0	-0.1265	0	-0	0	0	0	0	0	-0	0	0.105	-0.015	0	0	-0	0	0	-0.098	0.1	0	-0	0	0	0	0	0	-0	0	0.05595	0	0	0	-0	0	0	0	0	0	-0	0	564.511	562.313	339.829	208.945	-0.0322864	0.045878	0.00143012	-0.00772868	0.0322281
80	-0.107712	-0.0147814	0.00800698	5.03972e-05	-0.0101892	-0.0459068	0.0217352	0.0285652	-0.000370387	-1.69174	0.150341	0.22591	0.0525442	-0.00322773	0.0159862	-2.31935	-0.00702425	-1.56709	0	0	0	0	-0	0	0	0	-0.1265	0	-0	0	0	0	0	0	-0	0	0.105	-0.015	0	0	-0	0	0	-0.098	0.1	0	-0	0	0	0	0	0	-0	0	0.05595	0	0	0	-0	0	0	0	0	0	-0	0	564.513	562.32	339.87	208.949	-0.0323034	0.0460038	0.00142767	-0.00770875	0.0321873
81	-0.104442	-0.0147837	0.00800665	4.93724e-05	-0.0101911	-0.0459062	0.0217352	0.0285653	-0.000370312	-1.69174	0.150339	0.225914	0.0524917	-0.0032277	0.0161585	-2.31609	-0.00711201	-1.56718	0	0	0	0	-0	0	0	0	-0.1265	0	-0	0	0	0	0	0	-0	0	0.105	-0.015	0	0	-0	0	0	-0.098	0.1	0	-0	0	0	0	0	0	-0	0	0.05595	0	0	0	-0	0	0	0	0	0	-0	0	564.514	562.328	339.928	208.954	-0.0323031	0.0460385	0.00142372	-0.00768027	0.032385
82	-0.105559	-0.0147867	0.00800626	4.79345e-05	-0.0101936	-0.0459053	0.0217352	0.0285653	-0.000370207	-1.69174	0.150336	0.225919	0.0525092	-0.00322767	0.0161004	-2.31722	-0.00721277	-1.56726	0	0	0	0	-0	0	0	0	-0.1265	0	-0	0	0	0	0	0	-0	0	0.105	-0.015	0	0	-0	0	0	-0.098	0.1	0	-0	0	0	0	0	0	-0	0	0.05595	0	0	0	-0	0	0	0	0	0	-0	0	564.514	562.338	340.009	208.96	-0.0322591	0.0457854	0.00141847	-0.00764076	0.0332345
83	-0.106324	-0.014787	0.00800613	4.77063e-05	-0.0101938	-0.0459052	0.0217352	0.0285653	-0.000370198	-1.69174	0.150335	0.225921	0.0525215	-0.00322765	0.0160603	-2.31798	-0.00721214	-1.56726	0	0	0	0	-0	0	0	0	-0.1265	0	-0	0	0	0	0	0	-0	0	0.105	-0.015	0	0	-0	0	0	-0.098	0.1	0	-0	0	0	0	0	0	-0	0	0.05595	0	0	0	-0	0	0	0	0	0	-0	0	564.514	562.338	340.011	208.96	-0.0322658	0.0456868	0.00142137	-0.00763848	0.033504
84	-0.104635	-0.014787	0.00800615	4.75616e-05	-0.0101939	-0.0459052	0.0217352	0.0285653	-0.000370187	-1.69174	0.150335	0.225921	0.0524943	-0.00322763	0.0161491	-2.31629	-0.00722192	-1.56727	0	0	0	0	-0	0	0	0	-0.1265	0	-0	0	0	0	0	0	-0	0	0.105	-0.015	0	0	-0	0	0	-0.098	0.1	0	-0	0	0	0	0	0	-0	0	0.05595	0	0	0	-0	0	0	0	0	0	-0	0	564.515	562.339	340.014	208.961	-0.0322358	0.0454818	0.0014212	-0.00763708	0.0339173
85	-0.104969	-0.0147872	0.00800618	4.74352e-05	-0.010194	-0.0459051	0.0217352	0.0285653	-0.000370178	-1.69174	0.150335	0.225921	0.0524995	-0.00322761	0.0161317	-2.31663	-0.00722634	-1.56728	0	0	0	0	-0	0	0	0	-0.1265	0	-0	0	0	0	0	0	-0	0	0.105	-0.015	0	0	-0	0	0	-0.098	0.1	0	-0	0	0	0	0	0	-0	0	0.05595	0	0	0	-0	0	0	0	0	0	-0	0	564.515	562.339	340.018	208.961	-0.0322147	0.0453303	0.00142127	-0.00763502	0.034236
86	-0.103951	-0.0147874	0.00800617	4.724e-05	-0.0101942	-0.045905	0.0217352	0.0285653	-0.000370164	-1.69174	0.150334	0.225921	0.052483	-0.0032276	0.0161852	-2.31561	-0.00723813	-1.56729	0	0	0	0	-0	0	0	0	-0.1265	0	-0	0	0	0	0	0	-0	0	0.105	-0.015	0	0	-0	0	0	-0.098	0.1	0	-0	0	0	0	0	0	-0	0	0.05595	0	0	0	-0	0	0	0	0	0	-0	0	564.515	562.34	340.024	208.962	-0.0321977	0.0452101	0.00142122	-0.00763194	0.0345002
87	-0.102887	-0.0147878	0.00800612	4.70581e-05	-0.0101945	-0.0459049	0.0217352	0.0285653	-0.000370151	-1.69174	0.150334	0.225922	0.0524658	-0.00322761	0.0162411	-2.31455	-0.00725394	-1.56731	0	0	0	0	-0	0	0	0	-0.1265	0	-0	0	0	0	0	0	-0	0	0.105	-0.015	0	0	-0	0	0	-0.098	0.1	0	-0	0	0	0	0	0	-0	0	0.05595	0	0	0	-0	0	0	0	0	0	-0	0	564.514	562.34	340.034	208.963	-0.0321877	0.04516	0.00142044	-0.00762736	0.0346288
88	-0.103767	-0.0147883	0.00800606	4.68701e-05	-0.010195	-0.0459048	0.0217352	0.0285653	-0.000370138	-1.69174	0.150333	0.225923	0.0524801	-0.00322762	0.0161949	-2.31543	-0.00726869	-1.56732	0	0	0	0	-0	0	0	0	-0.1265	0	-0	0	0	0	0	0	-0	0	0.105	-0.015	0	0	-0	0	0	-0.098	0.1	0	-0	0	0	0	0	0	-0	0	0.05595	0	0	0	-0	0	0	0	0	0	-0	0	564.514	562.341	340.047	208.964	-0.0321856	0.0451581	0.00142008	-0.00762066	0.0346808
89	-0.101248	-0.0147891	0.00800591	4.65446e-05	-0.0101956	-0.0459046	0.0217352	0.0285653	-0.000370113	-1.69174	0.150333	0.225924	0.0524392	-0.00322762	0.0163272	-2.31292	-0.00730385	-1.56736	0	0	0	0	-0	0	0	0	-0.1265	0	-0	0	0	0	0	0	-0	0	0.105	-0.015	0	0	-0	0	0	-0.098	0.1	0	-0	0	0	0	0	0	-0	0	0.05595	0	0	0	-0	0	0	0	0	0	-0	0	564.514	562.345	340.068	208.966	-0.0321799	0.0451525	0.00141778	-0.00761063	0.034778
90	-0.102901	-0.0147896	0.00800588	4.63201e-05	-0.010196	-0.0459044	0.0217352	0.0285653	-0.000370098	-1.69174	0.150332	0.225925	0.052466	-0.00322761	0.0162407	-2.31457	-0.0073112	-1.56736	0	0	0	0	-0	0	0	0	-0.1265	0	-0	0	0	0	0	0	-0	0	0.105	-0.015	0	0	-0	0	0	-0.098	0.1	0	-0	0	0	0	0	0	-0	0	0.05595	0	0	0	-0	0	0	0	0	0	-0	0	564.514	562.345	340.078	208.967	-0.0321571	0.0449743	0.00141801	-0.00760551	0.0351808
91	-0.100131	-0.0147898	0.00800585	4.61028e-05	-0.0101962	-0.0459043	0.0217352	0.0285653	-0.000370084	-1.69174	0.150332	0.225926	0.0524209	-0.00322759	0.016386	-2.31181	-0.00733045	-1.56739	0	0	0	0	-0	0	0	0	-0.1265	0	-0	0	0	0	0	0	-0	0	0.105	-0.015	0	0	-0	0	0	-0.098	0.1	0	-0	0	0	0	0	0	-0	0	0.05595	0	0	0	-0	0	0	0	0	0	-0	0	564.514	562.346	340.085	208.967	-0.0321586	0.0449612	0.00141837	-0.00760172	0.0352527
92	-0.0983891	-0.0147901	0.00800581	4.60371e-05	-0.0101964	-0.0459043	0.0217352	0.0285653	-0.000370079	-1.69174	0.150332	0.225926	0.0523922	-0.0032276	0.0164773	-2.31006	-0.00734355	-1.56741	0	0	0	0	-0	0	0	0	-0.1265	0	-0	0	0	0	0	0	-0	0	0.105	-0.015	0	0	-0	0	0	-0.098	0.1	0	-0	0	0	0	0	0	-0	0	0.05595	0	0	0	-0	0	0	0	0	0	-0	0	564.514	562.347	340.091	208.968	-0.0321631	0.0450024	0.0014178	-0.00759896	0.0351927
93	-0.0973415	-0.0147903	0.00800577	4.5921e-05	-0.0101966	-0.0459043	0.0217352	0.0285653	-0.00037007	-1.69174	0.150332	0.225926	0.0523748	-0.0032276	0.0165322	-2.30902	-0.00735248	-1.56742	0	0	0	0	-0	0	0	0	-0.1265	0	-0	0	0	0	0	0	-0	0	0.105	-0.015	0	0	-0	0	0	-0.098	0.1	0	-0	0	0	0	0	0	-0	0	0.05595	0	0	0	-0	0	0	0	0	0	-0	0	564.514	562.348	340.095	208.968	-0.0321564	0.0449617	0.00141725	-0.00759683	0.0352912
94	-0.0968247	-0.0147906	0.00800572	4.57855e-05	-0.0101968	-0.0459041	0.0217352	0.0285653	-0.000370061	-1.69174	0.150331	0.225927	0.0523662	-0.00322759	0.0165593	-2.3085	-0.00736626	-1.56743	0	0	0	0	-0	0	0	0	-0.1265	0	-0	0	0	0	0	0	-0	0	0.105	-0.015	0	0	-0	0	0	-0.098	0.1	0	-0	0	0	0	0	0	-0	0	0.05595	0	0	0	-0	0	0	0	0	0	-0	0	564.514	562.349	340.104	208.969	-0.0321625	0.0450065	0.00141674	-0.00759231	0.0352486
95	-0.0952698	-0.0147908	0.00800571	4.56536e-05	-0.010197	-0.0459041	0.0217352	0.0285653	-0.000370052	-1.69174	0.150331	0.225927	0.0523404	-0.00322758	0.0166408	-2.30695	-0.00737749	-1.56745	0	0	0	0	-0	0	0	0	-0.1265	0	-0	0	0	0	0	0	-0	0	0.105	-0.015	0	0	-0	0	0	-0.098	0.1	0	-0	0	0	0	0	0	-0	0	0.05595	0	0	0	-0	0	0	0	0	0	-0	0	564.514	562.349	340.109	208.969	-0.0321428	0.0448593	0.00141687	-0.00758994	0.0355625
96	-0.0974888	-0.0147912	0.0080057	4.54657e-05	-0.0101973	-0.0459039	0.0217352	0.0285653	-0.00037004	-1.69174	0.15033	0.225929	0.0523773	-0.00322759	0.0165247	-2.30917	-0.00738316	-1.56744	0	0	0	0	-0	0	0	0	-0.1265	0	-0	0	0	0	0	0	-0	0	0.105	-0.015	0	0	-0	0	0	-0.098	0.1	0	-0	0	0	0	0	0	-0	0	0.05595	0	0	0	-0	0	0	0	0	0	-0	0	564.514	562.35	340.119	208.97	-0.0321454	0.0448741	0.00141717	-0.00758501	0.0355737
97	-0.0992446	-0.0147918	0.00800559	4.52609e-05	-0.0101978	-0.0459038	0.0217352	0.0285653	-0.000370024	-1.69174	0.15033	0.22593	0.0524062	-0.00322761	0.0164326	-2.31093	-0.00739673	-1.56745	0	0	0	0	-0	0	0	0	-0.1265	0	-0	0	0	0	0	0	-0	0	0.105	-0.015	0	0	-0	0	0	-0.098	0.1	0	-0	0	0	0	0	0	-0	0	0.05595	0	0	0	-0	0	0	0	0	0	-0	0	564.513	562.351	340.135	208.971	-0.0321502	0.0449432	0.00141544	-0.00757758	0.0354893
98	-0.0977276	-0.0147921	0.00800553	4.50768e-05	-0.0101981	-0.0459038	0.0217352	0.0285653	-0.00037001	-1.69174	0.15033	0.22593	0.0523811	-0.0032276	0.0165122	-2.30941	-0.0074116	-1.56747	0	0	0	0	-0	0	0	0	-0.1265	0	-0	0	0	0	0	0	-0	0	0.105	-0.015	0	0	-0	0	0	-0.098	0.1	0	-0	0	0	0	0	0	-0	0	0.05595	0	0	0	-0	0	0	0	0	0	-0	0	564.513	562.352	340.142	208.972	-0.0321232	0.0447639	0.00141466	-0.00757371	0.0358707
99	-0.0952658	-0.0147923	0.0080055	4.49732e-05	-0.0101983	-0.0459036	0.0217352	0.0285653	-0.000370004	-1.69174	0.150329	0.225931	0.0523404	-0.00322759	0.0166412	-2.30695	-0.007427	-1.56749	0	0	0	0	-0	0	0	0	-0.1265	0	-0	0	0	0	0	0	-0	0	0.105	-0.015	0	0	-0	0	0	-0.098	0.1	0	-0	0	0	0	0	0	-0	0	0.05595	0	0	0	-0	0	0	0	0	0	-0	0	564.513	562.353	340.148	208.972	-0.0321194	0.0447177	0.00141503	-0.00757088	0.0359974
100	-0.0937407	-0.0147928	0.00800545	4.47781e-05	-0.0101987	-0.0459035	0.0217352	0.0285653	-0.000369991	-1.69174	0.150329	0.225932	0.0523148	-0.00322759	0.0167211	-2.30543	-0.00744804	-1.56752	0	0	0	0	-0	0	0	0	-0.1265	0	-0	0	0	0	0	0	-0	0	0.105	-0.015	0	0	-0	0	0	-0.098	0.1	0	-0	0	0	0	0	0	-0	0	0.05595	0	0	0	-0	0	0	0	0	0	-0	0	564.514	562.355	340.16	208.973	-0.0321317	0.044803	0.00141442	-0.00756484	0.035893
