Stefan210/kinematic_calibration/src/kinematic_calibration/validation/experiments/experiments/impact_noise/outlier/larm_randomize_17_measurements_rk_false/optimization_intermediate_results.csv
iteration	HeadPitch_offset	HeadYaw_offset	LElbowRoll_offset	LElbowYaw_offset	LShoulderPitch_offset	LShoulderRoll_offset	marker_transform_larm_tx	marker_transform_larm_ty	marker_transform_larm_tz	marker_transform_larm_rr	marker_transform_larm_rp	marker_transform_larm_ry	camera_transform_tx	camera_transform_ty	camera_transform_tz	camera_transform_rr	camera_transform_rp	camera_transform_ry	HeadPitch_transform_tx	HeadPitch_transform_ty	HeadPitch_transform_tz	HeadPitch_transform_rr	HeadPitch_transform_rp	HeadPitch_transform_ry	HeadYaw_transform_tx	HeadYaw_transform_ty	HeadYaw_transform_tz	HeadYaw_transform_rr	HeadYaw_transform_rp	HeadYaw_transform_ry	LElbowRoll_transform_tx	LElbowRoll_transform_ty	LElbowRoll_transform_tz	LElbowRoll_transform_rr	LElbowRoll_transform_rp	LElbowRoll_transform_ry	LElbowYaw_transform_tx	LElbowYaw_transform_ty	LElbowYaw_transform_tz	LElbowYaw_transform_rr	LElbowYaw_transform_rp	LElbowYaw_transform_ry	LShoulderPitch_transform_tx	LShoulderPitch_transform_ty	LShoulderPitch_transform_tz	LShoulderPitch_transform_rr	LShoulderPitch_transform_rp	LShoulderPitch_transform_ry	LShoulderRoll_transform_tx	LShoulderRoll_transform_ty	LShoulderRoll_transform_tz	LShoulderRoll_transform_rr	LShoulderRoll_transform_rp	LShoulderRoll_transform_ry	LWristYaw_transform_tx	LWristYaw_transform_ty	LWristYaw_transform_tz	LWristYaw_transform_rr	LWristYaw_transform_rp	LWristYaw_transform_ry	l_wrist_joint_transform_tx	l_wrist_joint_transform_ty	l_wrist_joint_transform_tz	l_wrist_joint_transform_rr	l_wrist_joint_transform_rp	l_wrist_joint_transform_ry	camera_fx	camera_fy	camera_cx	camera_cy	camera_D0	camera_D1	camera_D2	camera_D3	camera_D4	
0	0.0249164	-0.0307543	0.000853157	4.65819e-06	-0.000318322	-0.00310766	0.05071	0	0.01774	-2.26369	1.66533e-16	-1.5708	545.901	551.038	324.928	201.58	0.0255298	2.61142	-0.0636736	-0.0350419	0.213964
1	-0.0339085	0.0359243	0.133949	0.172555	0.115915	-0.0300938	0.0324891	-0.0387727	0.0161099	-0.00182927	-0.00180951	-0.00297054	0.0215207	-0.00539553	0.0155909	-2.12934	0.00110754	-1.71493	0	0	0	0	-0	0	0	0	-0.1265	0	-0	0	0	0	0	0	-0	0	0.105	0.015	0	0	-0	0	0	0.098	0.1	0	-0	0	0	0	0	0	-0	0	0.05595	0	0	0	-0	0	0	0	0	0	-0	0	545.9	551.038	324.928	201.579	0.0843126	2.63866	0.0173738	-0.0627569	0.219883
2	-0.0363496	0.237377	0.118832	0.31504	0.0851128	0.0756989	0.0285663	-0.0408563	0.0403313	-0.00540033	-0.00518158	-0.0038339	0.0101323	0.0232682	0.0366548	-2.08565	-0.122107	-1.99645	0	0	0	0	-0	0	0	0	-0.1265	0	-0	0	0	0	0	0	-0	0	0.105	0.015	0	0	-0	0	0	0.098	0.1	0	-0	0	0	0	0	0	-0	0	0.05595	0	0	0	-0	0	0	0	0	0	-0	0	545.898	551.039	324.926	201.578	0.0284298	2.63517	0.162715	0.0205018	0.219611
3	-0.0417002	0.548278	0.041835	0.378833	0.0323435	0.114469	0.0185371	-0.0356235	0.0511186	-0.00795762	-0.00798638	-0.00483699	0.0421882	0.0609951	0.0246645	-1.94669	-0.258996	-2.43895	0	0	0	0	-0	0	0	0	-0.1265	0	-0	0	0	0	0	0	-0	0	0.105	0.015	0	0	-0	0	0	0.098	0.1	0	-0	0	0	0	0	0	-0	0	0.05595	0	0	0	-0	0	0	0	0	0	-0	0	545.897	551.039	324.926	201.58	-0.109277	2.60275	0.179381	0.168897	0.214002
4	-0.044281	0.663528	-0.0188174	0.427408	0.0142929	0.113922	0.0136286	-0.0332136	0.0503815	-0.00832826	-0.00892466	-0.00535459	0.0713357	0.0245486	-0.000934089	-1.88084	-0.283976	-2.5746	0	0	0	0	-0	0	0	0	-0.1265	0	-0	0	0	0	0	0	-0	0	0.105	0.015	0	0	-0	0	0	0.098	0.1	0	-0	0	0	0	0	0	-0	0	0.05595	0	0	0	-0	0	0	0	0	0	-0	0	545.897	551.04	324.928	201.582	-0.192418	2.58916	-0.00895008	0.225315	0.212221
5	-0.0463523	0.71672	-0.0464875	0.425886	-0.0149671	0.114341	0.0130987	-0.0327404	0.0490984	-0.00828064	-0.00896112	-0.00540884	0.071029	0.0223418	-0.00366316	-1.81259	-0.311259	-2.66077	0	0	0	0	-0	0	0	0	-0.1265	0	-0	0	0	0	0	0	-0	0	0.105	0.015	0	0	-0	0	0	0.098	0.1	0	-0	0	0	0	0	0	-0	0	0.05595	0	0	0	-0	0	0	0	0	0	-0	0	545.894	551.042	324.925	201.593	-0.535313	2.47909	0.0134841	0.180984	0.186123
6	-0.046737	0.728058	-0.0497801	0.429532	-0.0230831	0.118203	0.0131669	-0.0325614	0.0491015	-0.00833184	-0.00896641	-0.0054288	0.0728003	0.0181587	-0.0054805	-1.80777	-0.311101	-2.67101	0	0	0	0	-0	0	0	0	-0.1265	0	-0	0	0	0	0	0	-0	0	0.105	0.015	0	0	-0	0	0	0.098	0.1	0	-0	0	0	0	0	0	-0	0	0.05595	0	0	0	-0	0	0	0	0	0	-0	0	545.887	551.047	324.925	201.615	-1.24885	2.2261	0.0958357	0.111672	0.121095
7	-0.0471898	0.739679	-0.0518923	0.420826	-0.0210188	0.120023	0.0136116	-0.0332447	0.0481116	-0.00804976	-0.00876341	-0.0054468	0.0762277	0.0136031	-0.0101273	-1.78754	-0.317267	-2.7016	0	0	0	0	-0	0	0	0	-0.1265	0	-0	0	0	0	0	0	-0	0	0.105	0.015	0	0	-0	0	0	0.098	0.1	0	-0	0	0	0	0	0	-0	0	0.05595	0	0	0	-0	0	0	0	0	0	-0	0	545.862	551.057	324.956	201.643	-1.77009	2.10374	0.136059	0.0574306	0.113619
8	-0.0471423	0.75502	-0.0573232	0.41206	-0.0204566	0.12327	0.0139165	-0.0336619	0.0471884	-0.00796101	-0.00863279	-0.00539352	0.0780917	0.0117103	-0.0123508	-1.77019	-0.324327	-2.73147	0	0	0	0	-0	0	0	0	-0.1265	0	-0	0	0	0	0	0	-0	0	0.105	0.015	0	0	-0	0	0	0.098	0.1	0	-0	0	0	0	0	0	-0	0	0.05595	0	0	0	-0	0	0	0	0	0	-0	0	545.79	551.082	325.059	201.687	-1.89203	2.15288	0.142663	0.0450203	0.239826
9	-0.0474786	0.761604	-0.0609572	0.411698	-0.0223545	0.12587	0.0139162	-0.0336316	0.0470268	-0.00806152	-0.00851895	-0.00558438	0.0788638	0.00994805	-0.0130873	-1.7651	-0.324283	-2.74115	0	0	0	0	-0	0	0	0	-0.1265	0	-0	0	0	0	0	0	-0	0	0.105	0.015	0	0	-0	0	0	0.098	0.1	0	-0	0	0	0	0	0	-0	0	0.05595	0	0	0	-0	0	0	0	0	0	-0	0	545.563	551.162	325.377	201.795	-1.94229	2.07588	0.141868	0.0406128	0.526964
10	-0.0488376	0.766385	-0.0623041	0.409859	-0.0236011	0.126156	0.0139337	-0.0337055	0.0467768	-0.0101332	-0.00541967	-0.00732181	0.0791406	0.00957297	-0.0136122	-1.76062	-0.327843	-2.75046	0	0	0	0	-0	0	0	0	-0.1265	0	-0	0	0	0	0	0	-0	0	0.105	0.015	0	0	-0	0	0	0.098	0.1	0	-0	0	0	0	0	0	-0	0	0.05595	0	0	0	-0	0	0	0	0	0	-0	0	544.873	551.397	326.356	202.086	-1.88832	1.63775	0.138926	0.0383221	1.42329
11	-0.0422479	0.769371	-0.0638135	0.410502	-0.0256866	0.126975	0.0139038	-0.0336668	0.0467217	-0.00435292	-0.0125976	-0.017224	0.0793047	0.0091543	-0.0130946	-1.75682	-0.322661	-2.75936	0	0	0	0	-0	0	0	0	-0.1265	0	-0	0	0	0	0	0	-0	0	0.105	0.015	0	0	-0	0	0	0.098	0.1	0	-0	0	0	0	0	0	-0	0	0.05595	0	0	0	-0	0	0	0	0	0	-0	0	542.754	552.055	329.264	202.882	-1.66866	0.33265	0.130347	0.0344535	3.53614
12	-0.0265865	0.770565	-0.0629797	0.411091	-0.0274487	0.125946	0.0139116	-0.0337453	0.0466889	-0.0104089	0.0133108	-0.024334	0.0792743	0.0091017	-0.0118084	-1.75031	-0.31373	-2.77582	0	0	0	0	-0	0	0	0	-0.1265	0	-0	0	0	0	0	0	-0	0	0.105	0.015	0	0	-0	0	0	0.098	0.1	0	-0	0	0	0	0	0	-0	0	0.05595	0	0	0	-0	0	0	0	0	0	-0	0	536.712	553.489	337.115	205.135	-1.21535	-2.21288	0.113355	0.0225889	7.51308
13	0.0449577	0.767311	-0.0610336	0.412753	-0.0304767	0.124604	0.0140576	-0.0338704	0.0468158	0.00988358	0.0457914	0.00466027	0.0801178	0.00729393	-0.00634762	-1.72844	-0.257091	-2.80224	0	0	0	0	-0	0	0	0	-0.1265	0	-0	0	0	0	0	0	-0	0	0.105	0.015	0	0	-0	0	0	0.098	0.1	0	-0	0	0	0	0	0	-0	0	0.05595	0	0	0	-0	0	0	0	0	0	-0	0	522.171	554.483	351.902	210.776	-0.80369	-3.86816	0.0844298	-0.00454697	8.81025
14	0.010736	0.767115	-0.0597104	0.410427	-0.0337201	0.125109	0.0143593	-0.0342433	0.046625	0.0413983	0.0337691	-0.0767912	0.0799342	0.00570768	-0.00958693	-1.73832	-0.292631	-2.7969	0	0	0	0	-0	0	0	0	-0.1265	0	-0	0	0	0	0	0	-0	0	0.105	0.015	0	0	-0	0	0	0.098	0.1	0	-0	0	0	0	0	0	-0	0	0.05595	0	0	0	-0	0	0	0	0	0	-0	0	516.672	553.525	352	211.347	-1.15555	-2.25179	0.0990846	-0.0178659	6.25877
15	0.0394442	0.765486	-0.0606967	0.408114	-0.0311124	0.126156	0.0143396	-0.0340469	0.046456	-0.0237671	0.0456193	-0.142744	0.0812446	0.00359714	-0.00833883	-1.72152	-0.268403	-2.8185	0	0	0	0	-0	0	0	0	-0.1265	0	-0	0	0	0	0	0	-0	0	0.105	0.015	0	0	-0	0	0	0.098	0.1	0	-0	0	0	0	0	0	-0	0	0.05595	0	0	0	-0	0	0	0	0	0	-0	0	505.875	550.089	360.2	211.186	-1.15315	-1.07296	0.0793783	-0.0264584	3.09347
16	0.0887805	0.76741	-0.0581798	0.405861	-0.0273131	0.125838	0.0144083	-0.0341597	0.0464852	-0.0203414	0.0159216	-0.150677	0.0825547	0.00169118	-0.0058862	-1.69636	-0.229763	-2.83219	0	0	0	0	-0	0	0	0	-0.1265	0	-0	0	0	0	0	0	-0	0	0.105	0.015	0	0	-0	0	0	0.098	0.1	0	-0	0	0	0	0	0	-0	0	0.05595	0	0	0	-0	0	0	0	0	0	-0	0	501.653	548.187	362.341	210.967	-1.69677	1.02285	0.103479	-0.0445004	0.70555
17	0.0730201	0.782247	-0.0722907	0.39951	-0.0323933	0.137369	0.0142969	-0.0333939	0.0458841	-0.015372	0.0390829	-0.176663	0.0847372	-0.00140394	-0.00773349	-1.6922	-0.242815	-2.85745	0	0	0	0	-0	0	0	0	-0.1265	0	-0	0	0	0	0	0	-0	0	0.105	0.015	0	0	-0	0	0	0.098	0.1	0	-0	0	0	0	0	0	-0	0	0.05595	0	0	0	-0	0	0	0	0	0	-0	0	499.237	547.548	366.585	210.169	-1.82999	1.95887	0.0972378	-0.043764	-0.819751
18	0.0741246	0.775272	-0.0619543	0.402094	-0.0248164	0.13018	0.0141157	-0.0337826	0.0466533	-0.0184686	-0.0324569	-0.210112	0.0845872	-0.00127839	-0.00865982	-1.68236	-0.255959	-2.87599	0	0	0	0	-0	0	0	0	-0.1265	0	-0	0	0	0	0	0	-0	0	0.105	0.015	0	0	-0	0	0	0.098	0.1	0	-0	0	0	0	0	0	-0	0	0.05595	0	0	0	-0	0	0	0	0	0	-0	0	494.713	546.476	377.347	209.729	-2.00769	2.24685	0.110179	-0.0715978	-0.893441
19	0.072833	0.792075	-0.0776608	0.395483	-0.0341463	0.144384	0.0141033	-0.0330591	0.0458875	-0.0184614	-0.0323923	-0.210131	0.0863603	-0.0040376	-0.00873439	-1.67798	-0.251843	-2.89075	0	0	0	0	-0	0	0	0	-0.1265	0	-0	0	0	0	0	0	-0	0	0.105	0.015	0	0	-0	0	0	0.098	0.1	0	-0	0	0	0	0	0	-0	0	0.05595	0	0	0	-0	0	0	0	0	0	-0	0	494.695	546.473	377.39	209.721	-2.03446	2.30867	0.110004	-0.06858	-1.02806
20	0.0740364	0.785226	-0.0678986	0.396468	-0.0275399	0.137302	0.0140959	-0.0334971	0.0461383	-0.0185347	-0.0322756	-0.210125	0.0858793	-0.00324334	-0.00930469	-1.67564	-0.256256	-2.88819	0	0	0	0	-0	0	0	0	-0.1265	0	-0	0	0	0	0	0	-0	0	0.105	0.015	0	0	-0	0	0	0.098	0.1	0	-0	0	0	0	0	0	-0	0	0.05595	0	0	0	-0	0	0	0	0	0	-0	0	494.666	546.467	377.465	209.712	-2.11345	2.50969	0.114829	-0.0713484	-1.13803
21	0.0733856	0.795241	-0.0774373	0.393661	-0.0324388	0.145171	0.0140412	-0.0331238	0.0457933	-0.018496	-0.0322608	-0.210087	0.0868296	-0.00488724	-0.00941907	-1.67273	-0.254161	-2.89732	0	0	0	0	-0	0	0	0	-0.1265	0	-0	0	0	0	0	0	-0	0	0.105	0.015	0	0	-0	0	0	0.098	0.1	0	-0	0	0	0	0	0	-0	0	0.05595	0	0	0	-0	0	0	0	0	0	-0	0	494.619	546.461	377.584	209.694	-2.1655	2.70277	0.114665	-0.070398	-1.35203
22	0.0738943	0.791108	-0.0717966	0.394858	-0.0289505	0.141615	0.0140094	-0.0333057	0.0460863	-0.0188746	-0.0324433	-0.21001	0.0866495	-0.00474843	-0.00973739	-1.67138	-0.25717	-2.89483	0	0	0	0	-0	0	0	0	-0.1265	0	-0	0	0	0	0	0	-0	0	0.105	0.015	0	0	-0	0	0	0.098	0.1	0	-0	0	0	0	0	0	-0	0	0.05595	0	0	0	-0	0	0	0	0	0	-0	0	494.549	546.455	377.774	209.676	-2.26123	2.95304	0.11955	-0.0731883	-1.52631
23	0.0735093	0.797499	-0.0772306	0.392518	-0.0314305	0.146707	0.0139657	-0.0330863	0.0459146	-0.0196718	-0.032693	-0.209963	0.0873007	-0.00573346	-0.00988137	-1.66839	-0.257255	-2.90142	0	0	0	0	-0	0	0	0	-0.1265	0	-0	0	0	0	0	0	-0	0	0.105	0.015	0	0	-0	0	0	0.098	0.1	0	-0	0	0	0	0	0	-0	0	0.05595	0	0	0	-0	0	0	0	0	0	-0	0	494.435	546.451	378.098	209.647	-2.32681	3.15014	0.121607	-0.0736769	-1.6995
24	0.0744545	0.793831	-0.0733195	0.393937	-0.0294234	0.144481	0.0139163	-0.0331553	0.0462357	-0.0210799	-0.0338697	-0.209117	0.0871616	-0.0055348	-0.00986906	-1.66795	-0.259337	-2.89925	0	0	0	0	-0	0	0	0	-0.1265	0	-0	0	0	0	0	0	-0	0	0.105	0.015	0	0	-0	0	0	0.098	0.1	0	-0	0	0	0	0	0	-0	0	0.05595	0	0	0	-0	0	0	0	0	0	-0	0	494.119	546.453	379.049	209.598	-2.39365	3.29893	0.125984	-0.0779569	-1.80015
25	0.0766908	0.797356	-0.0763964	0.392221	-0.0304388	0.147579	0.0138956	-0.0330217	0.0461354	-0.0179142	-0.0297902	-0.204633	0.0875657	-0.00597665	-0.00973298	-1.66429	-0.258876	-2.90869	0	0	0	0	-0	0	0	0	-0.1265	0	-0	0	0	0	0	0	-0	0	0.105	0.015	0	0	-0	0	0	0.098	0.1	0	-0	0	0	0	0	0	-0	0	0.05595	0	0	0	-0	0	0	0	0	0	-0	0	493.18	546.473	382.003	209.448	-2.39863	3.26384	0.126616	-0.0827086	-1.7644
26	0.075316	0.797727	-0.0755284	0.392663	-0.0296638	0.147857	0.0138426	-0.0330211	0.0462875	-0.0119329	-0.0167037	-0.202805	0.087616	-0.00613096	-0.0100015	-1.65881	-0.267199	-2.92594	0	0	0	0	-0	0	0	0	-0.1265	0	-0	0	0	0	0	0	-0	0	0.105	0.015	0	0	-0	0	0	0.098	0.1	0	-0	0	0	0	0	0	-0	0	0.05595	0	0	0	-0	0	0	0	0	0	-0	0	490.369	546.565	390.692	209.005	-2.38574	3.02725	0.129024	-0.10071	-1.53633
27	0.0796093	0.807337	-0.0811124	0.389798	-0.0308485	0.154277	0.0136985	-0.0329181	0.0461976	0.0560173	-0.0351968	-0.169572	0.0883562	-0.00713009	-0.0100562	-1.63727	-0.278631	-2.98378	0	0	0	0	-0	0	0	0	-0.1265	0	-0	0	0	0	0	0	-0	0	0.105	0.015	0	0	-0	0	0	0.098	0.1	0	-0	0	0	0	0	0	-0	0	0.05595	0	0	0	-0	0	0	0	0	0	-0	0	482.015	546.962	414.462	207.019	-2.30711	2.33016	0.131948	-0.147286	-0.934204
28	0.100837	0.826163	-0.0893871	0.379653	-0.0329135	0.169342	0.0139068	-0.0329448	0.0456796	0.0602689	-0.0730624	-0.182669	0.0900491	-0.009476	-0.00922436	-1.60989	-0.272358	-3.03826	0	0	0	0	-0	0	0	0	-0.1265	0	-0	0	0	0	0	0	-0	0	0.105	0.015	0	0	-0	0	0	0.098	0.1	0	-0	0	0	0	0	0	-0	0	0.05595	0	0	0	-0	0	0	0	0	0	-0	0	473.997	548.602	432.401	205.799	-2.48678	2.36251	0.147198	-0.195994	-0.944426
29	0.0940114	0.789022	-0.0634269	0.400158	-0.0155745	0.1452	0.0133038	-0.0337004	0.0483042	0.0571711	-0.060638	-0.176892	0.0873874	-0.00523103	-0.00938026	-1.62313	-0.299043	-3.02785	0	0	0	0	-0	0	0	0	-0.1265	0	-0	0	0	0	0	0	-0	0	0.105	0.015	0	0	-0	0	0	0.098	0.1	0	-0	0	0	0	0	0	-0	0	0.05595	0	0	0	-0	0	0	0	0	0	-0	0	467.314	551.712	448.112	208.147	-2.56929	2.27306	0.151755	-0.243284	-0.860986
30	0.0733132	0.812273	-0.0843053	0.382344	-0.0174537	0.167195	0.0136573	-0.033427	0.0470191	0.00650866	-0.102311	-0.160681	0.0892355	-0.00674975	-0.0117463	-1.61066	-0.329688	-3.09086	0	0	0	0	-0	0	0	0	-0.1265	0	-0	0	0	0	0	0	-0	0	0.105	0.015	0	0	-0	0	0	0.098	0.1	0	-0	0	0	0	0	0	-0	0	0.05595	0	0	0	-0	0	0	0	0	0	-0	0	458.938	555.964	467.542	210.564	-2.54761	1.93692	0.147235	-0.281228	-0.611196
31	0.117565	0.827097	-0.0879602	0.373933	-0.0186299	0.179951	0.0135269	-0.0334377	0.046854	0.0420284	-0.0874416	-0.161558	0.0897351	-0.00530597	-0.00730949	-1.58203	-0.303871	3.1203	0	0	0	0	-0	0	0	0	-0.1265	0	-0	0	0	0	0	0	-0	0	0.105	0.015	0	0	-0	0	0	0.098	0.1	0	-0	0	0	0	0	0	-0	0	0.05595	0	0	0	-0	0	0	0	0	0	-0	0	439.792	564.187	500.606	208.178	-2.44684	1.38998	0.145411	-0.353266	-0.332893
32	0.210937	0.868046	-0.110953	0.353015	-0.0228358	0.205666	0.0133477	-0.0334462	0.0446937	0.124987	-0.0407091	-0.178269	0.0924301	-0.00722792	-0.00106903	-1.53679	-0.210617	3.02076	0	0	0	0	-0	0	0	0	-0.1265	0	-0	0	0	0	0	0	-0	0	0.105	0.015	0	0	-0	0	0	0.098	0.1	0	-0	0	0	0	0	0	-0	0	0.05595	0	0	0	-0	0	0	0	0	0	-0	0	413.614	573.808	527.99	197.075	-2.26088	1.03331	0.138275	-0.391225	-0.213397
33	0.285934	0.843023	-0.0904851	0.361468	-0.000784556	0.183258	0.0134404	-0.0350314	0.0467744	-0.0684059	-0.0699589	-0.0411735	0.0892827	0.00154577	0.00514456	-1.56557	-0.161258	2.9979	0	0	0	0	-0	0	0	0	-0.1265	0	-0	0	0	0	0	0	-0	0	0.105	0.015	0	0	-0	0	0	0.098	0.1	0	-0	0	0	0	0	0	-0	0	0.05595	0	0	0	-0	0	0	0	0	0	-0	0	387.986	593.937	552.407	206.186	-2.55994	1.15669	0.137871	-0.504498	-0.248696
34	0.285933	0.842943	-0.0904989	0.361552	-0.00056628	0.18353	0.0126804	-0.0341552	0.0453948	-0.0683741	-0.0700247	-0.0412343	0.0892226	-9.27669e-06	0.00470765	-1.56606	-0.161168	2.99818	0	0	0	0	-0	0	0	0	-0.1265	0	-0	0	0	0	0	0	-0	0	0.105	0.015	0	0	-0	0	0	0.098	0.1	0	-0	0	0	0	0	0	-0	0	0.05595	0	0	0	-0	0	0	0	0	0	-0	0	387.986	593.937	552.407	206.186	-2.56007	1.15654	0.137006	-0.504146	-0.249076
35	0.285883	0.842605	-0.0904867	0.361543	-0.000270712	0.183458	0.0124886	-0.0338804	0.0455669	-0.0684449	-0.0700707	-0.0412414	0.0895164	0.001347	0.00479637	-1.56573	-0.160945	2.9971	0	0	0	0	-0	0	0	0	-0.1265	0	-0	0	0	0	0	0	-0	0	0.105	0.015	0	0	-0	0	0	0.098	0.1	0	-0	0	0	0	0	0	-0	0	0.05595	0	0	0	-0	0	0	0	0	0	-0	0	387.986	593.937	552.407	206.186	-2.55983	1.15693	0.136823	-0.50469	-0.248571
36	0.285815	0.842277	-0.0905163	0.361547	0.000160353	0.183571	0.0123866	-0.0337515	0.0454218	-0.0684482	-0.070082	-0.0412485	0.0897731	0.00138532	0.00464661	-1.56598	-0.16065	2.99642	0	0	0	0	-0	0	0	0	-0.1265	0	-0	0	0	0	0	0	-0	0	0.105	0.015	0	0	-0	0	0	0.098	0.1	0	-0	0	0	0	0	0	-0	0	0.05595	0	0	0	-0	0	0	0	0	0	-0	0	387.986	593.937	552.407	206.186	-2.55967	1.1573	0.136405	-0.504898	-0.248074
37	0.285602	0.841402	-0.0906177	0.361474	0.00143205	0.183855	0.0123617	-0.0336975	0.0454414	-0.0684603	-0.0700879	-0.0412483	0.0901211	0.00144938	0.00453535	-1.5666	-0.159832	2.99461	0	0	0	0	-0	0	0	0	-0.1265	0	-0	0	0	0	0	0	-0	0	0.105	0.015	0	0	-0	0	0	0.098	0.1	0	-0	0	0	0	0	0	-0	0	0.05595	0	0	0	-0	0	0	0	0	0	-0	0	387.986	593.937	552.407	206.186	-2.55956	1.15773	0.13564	-0.504636	-0.247775
38	0.285085	0.839429	-0.0908375	0.360975	0.00486327	0.184307	0.0123992	-0.0337407	0.0455408	-0.0684658	-0.0700863	-0.0412451	0.0906411	0.00161292	0.00432265	-1.56806	-0.157868	2.99112	0	0	0	0	-0	0	0	0	-0.1265	0	-0	0	0	0	0	0	-0	0	0.105	0.015	0	0	-0	0	0	0.098	0.1	0	-0	0	0	0	0	0	-0	0	0.05595	0	0	0	-0	0	0	0	0	0	-0	0	387.986	593.937	552.407	206.186	-2.55915	1.15874	0.13465	-0.503826	-0.247669
39	0.284259	0.83562	-0.09066	0.35848	0.0123377	0.184214	0.0125063	-0.0338982	0.0456318	-0.0684502	-0.0700708	-0.0412397	0.0912869	0.00210288	0.00383708	-1.57033	-0.154682	2.98668	0	0	0	0	-0	0	0	0	-0.1265	0	-0	0	0	0	0	0	-0	0	0.105	0.015	0	0	-0	0	0	0.098	0.1	0	-0	0	0	0	0	0	-0	0	0.05595	0	0	0	-0	0	0	0	0	0	-0	0	387.986	593.937	552.407	206.186	-2.55738	1.16169	0.13347	-0.502314	-0.248606
40	0.28348	0.82849	-0.0874082	0.350418	0.0235689	0.182489	0.0128786	-0.0342273	0.0455075	-0.0683772	-0.0699946	-0.0412112	0.0918323	0.00297499	0.00320507	-1.5729	-0.151686	2.98409	0	0	0	0	-0	0	0	0	-0.1265	0	-0	0	0	0	0	0	-0	0	0.105	0.015	0	0	-0	0	0	0.098	0.1	0	-0	0	0	0	0	0	-0	0	0.05595	0	0	0	-0	0	0	0	0	0	-0	0	387.986	593.937	552.407	206.186	-2.55131	1.17031	0.131721	-0.498691	-0.252506
41	0.282996	0.816373	-0.0776838	0.337409	0.0354245	0.179637	0.0136236	-0.0347802	0.0452628	-0.0682498	-0.0698442	-0.0411474	0.0919193	0.00423996	0.00283324	-1.57528	-0.149956	2.98814	0	0	0	0	-0	0	0	0	-0.1265	0	-0	0	0	0	0	0	-0	0	0.105	0.015	0	0	-0	0	0	0.098	0.1	0	-0	0	0	0	0	0	-0	0	0.05595	0	0	0	-0	0	0	0	0	0	-0	0	387.986	593.937	552.408	206.187	-2.537	1.18844	0.128999	-0.490993	-0.261252
42	0.282916	0.801531	-0.0643368	0.330601	0.0438639	0.177165	0.0142886	-0.0353087	0.0455681	-0.0682015	-0.0697394	-0.0410885	0.0913367	0.00547496	0.00308245	-1.5785	-0.150207	3.00134	0	0	0	0	-0	0	0	0	-0.1265	0	-0	0	0	0	0	0	-0	0	0.105	0.015	0	0	-0	0	0	0.098	0.1	0	-0	0	0	0	0	0	-0	0	0.05595	0	0	0	-0	0	0	0	0	0	-0	0	387.985	593.937	552.408	206.187	-2.51727	1.20655	0.126116	-0.481682	-0.270535
43	0.2832	0.78929	-0.0542938	0.331214	0.0476907	0.17531	0.0146398	-0.035545	0.0462029	-0.0682577	-0.0697172	-0.0410393	0.0906627	0.00613899	0.00368327	-1.58237	-0.152083	3.01557	0	0	0	0	-0	0	0	0	-0.1265	0	-0	0	0	0	0	0	-0	0	0.105	0.015	0	0	-0	0	0	0.098	0.1	0	-0	0	0	0	0	0	-0	0	0.05595	0	0	0	-0	0	0	0	0	0	-0	0	387.984	593.939	552.41	206.19	-2.49512	1.20883	0.124083	-0.474242	-0.273228
44	0.283473	0.782377	-0.0491684	0.331961	0.0492969	0.174208	0.0148206	-0.0356026	0.0465496	-0.0682708	-0.069723	-0.0410181	0.0903907	0.00629863	0.00405504	-1.58467	-0.153655	3.02287	0	0	0	0	-0	0	0	0	-0.1265	0	-0	0	0	0	0	0	-0	0	0.105	0.015	0	0	-0	0	0	0.098	0.1	0	-0	0	0	0	0	0	-0	0	0.05595	0	0	0	-0	0	0	0	0	0	-0	0	387.98	593.944	552.414	206.198	-2.46064	1.18999	0.122131	-0.466503	-0.267722
45	0.283634	0.778673	-0.0464616	0.331269	0.0504826	0.173472	0.0149469	-0.035599	0.0466306	-0.0683347	-0.0697197	-0.0410734	0.0904274	0.00620919	0.00416999	-1.58575	-0.154727	3.02498	0	0	0	0	-0	0	0	0	-0.1265	0	-0	0	0	0	0	0	-0	0	0.105	0.015	0	0	-0	0	0	0.098	0.1	0	-0	0	0	0	0	0	-0	0	0.05595	0	0	0	-0	0	0	0	0	0	-0	0	387.97	593.959	552.428	206.222	-2.41141	1.15432	0.119703	-0.457038	-0.256161
46	0.283746	0.776997	-0.0450264	0.329791	0.0513892	0.173204	0.0150406	-0.0355754	0.0465855	-0.0684052	-0.0697612	-0.0411934	0.0905717	0.0061018	0.00419389	-1.58636	-0.155452	3.0249	0	0	0	0	-0	0	0	0	-0.1265	0	-0	0	0	0	0	0	-0	0	0.105	0.015	0	0	-0	0	0	0.098	0.1	0	-0	0	0	0	0	0	-0	0	0.05595	0	0	0	-0	0	0	0	0	0	-0	0	387.938	594.001	552.47	206.291	-2.37284	1.12528	0.11782	-0.449927	-0.246806
47	0.283668	0.776627	-0.0444906	0.328641	0.051857	0.173314	0.0150836	-0.0355569	0.0465273	-0.067983	-0.0689203	-0.0413338	0.0906635	0.00611136	0.004193	-1.58682	-0.156092	3.02439	0	0	0	0	-0	0	0	0	-0.1265	0	-0	0	0	0	0	0	-0	0	0.105	0.015	0	0	-0	0	0	0.098	0.1	0	-0	0	0	0	0	0	-0	0	0.05595	0	0	0	-0	0	0	0	0	0	-0	0	387.844	594.126	552.599	206.497	-2.35966	1.11521	0.117021	-0.447741	-0.243628
48	0.283578	0.777261	-0.044774	0.32817	0.0518139	0.173783	0.0150798	-0.0355338	0.0464906	-0.0700277	-0.0689359	-0.0394706	0.0907023	0.00613865	0.00419885	-1.58755	-0.156753	3.02312	0	0	0	0	-0	0	0	0	-0.1265	0	-0	0	0	0	0	0	-0	0	0.105	0.015	0	0	-0	0	0	0.098	0.1	0	-0	0	0	0	0	0	-0	0	0.05595	0	0	0	-0	0	0	0	0	0	-0	0	387.562	594.497	552.977	207.104	-2.35857	1.11278	0.116341	-0.448321	-0.242683
49	0.281227	0.779159	-0.0458778	0.328133	0.0511461	0.174727	0.015028	-0.0355009	0.046465	-0.062444	-0.067142	-0.0382354	0.0906426	0.00629028	0.00404548	-1.58923	-0.16034	3.02038	0	0	0	0	-0	0	0	0	-0.1265	0	-0	0	0	0	0	0	-0	0	0.105	0.015	0	0	-0	0	0	0.098	0.1	0	-0	0	0	0	0	0	-0	0	0.05595	0	0	0	-0	0	0	0	0	0	-0	0	386.742	595.592	554.067	208.872	-2.37263	1.11856	0.115117	-0.45329	-0.244122
50	0.284002	0.784608	-0.0493505	0.328592	0.0489488	0.177308	0.0148722	-0.0354144	0.0464063	-0.0723639	-0.0648163	-0.0263723	0.0904123	0.00665461	0.00445841	-1.59483	-0.160732	3.01305	0	0	0	0	-0	0	0	0	-0.1265	0	-0	0	0	0	0	0	-0	0	0.105	0.015	0	0	-0	0	0	0.098	0.1	0	-0	0	0	0	0	0	-0	0	0.05595	0	0	0	-0	0	0	0	0	0	-0	0	384.504	598.692	556.987	213.727	-2.41472	1.13683	0.111785	-0.467508	-0.248746
51	0.27211	0.796597	-0.0570977	0.329984	0.0439878	0.183084	0.0145288	-0.0352272	0.0464531	-0.0862977	0.00860136	-0.0188355	0.08985	0.00765812	0.00374544	-1.60563	-0.179659	2.9978	0	0	0	0	-0	0	0	0	-0.1265	0	-0	0	0	0	0	0	-0	0	0.105	0.015	0	0	-0	0	0	0.098	0.1	0	-0	0	0	0	0	0	-0	0	0.05595	0	0	0	-0	0	0	0	0	0	-0	0	379.289	606.753	563.438	225.219	-2.52914	1.19312	0.104038	-0.503272	-0.264067
52	0.218976	0.814685	-0.0700409	0.332392	0.0369922	0.193563	0.0139628	-0.0350099	0.0463147	-0.034508	0.0691419	0.0126701	0.0891121	0.00928339	-0.000585675	-1.61636	-0.241833	2.97632	0	0	0	0	-0	0	0	0	-0.1265	0	-0	0	0	0	0	0	-0	0	0.105	0.015	0	0	-0	0	0	0.098	0.1	0	-0	0	0	0	0	0	-0	0	0.05595	0	0	0	-0	0	0	0	0	0	-0	0	371.234	623.832	572.691	243.648	-2.73147	1.30022	0.0897703	-0.562145	-0.293536
53	0.182152	0.818209	-0.0735974	0.333622	0.0367342	0.199756	0.0137435	-0.0349681	0.045972	-0.0403398	0.0540842	0.081236	0.0885022	0.00968969	-0.00436922	-1.61026	-0.277627	2.96908	0	0	0	0	-0	0	0	0	-0.1265	0	-0	0	0	0	0	0	-0	0	0.105	0.015	0	0	-0	0	0	0.098	0.1	0	-0	0	0	0	0	0	-0	0	0.05595	0	0	0	-0	0	0	0	0	0	-0	0	368.228	630.763	576.604	249.449	-2.75327	1.29631	0.0823221	-0.573366	-0.288591
54	0.137785	0.824159	-0.0752307	0.331983	0.035202	0.200939	0.0136114	-0.0349875	0.0459695	-0.0576366	-0.0511676	0.145796	0.0868961	0.0124971	-0.00807327	-1.60721	-0.326861	2.9647	0	0	0	0	-0	0	0	0	-0.1265	0	-0	0	0	0	0	0	-0	0	0.105	0.015	0	0	-0	0	0	0.098	0.1	0	-0	0	0	0	0	0	-0	0	0.05595	0	0	0	-0	0	0	0	0	0	-0	0	364.462	641.704	580.812	258.165	-2.98665	1.46155	0.079445	-0.627315	-0.342858
55	0.170997	0.832478	-0.0845387	0.335822	0.0325326	0.208564	0.0132585	-0.0346732	0.045893	-0.109817	-0.0869832	0.157711	0.0877823	0.0105232	-0.00528424	-1.61399	-0.292081	2.95241	0	0	0	0	-0	0	0	0	-0.1265	0	-0	0	0	0	0	0	-0	0	0.105	0.015	0	0	-0	0	0	0.098	0.1	0	-0	0	0	0	0	0	-0	0	0.05595	0	0	0	-0	0	0	0	0	0	-0	0	363.126	647.469	583.464	260.303	-2.86087	1.33754	0.0714656	-0.607687	-0.295453
56	0.163454	0.828575	-0.0768644	0.329971	0.0364788	0.204237	0.0132682	-0.0352014	0.0456075	-0.105499	-0.0691112	0.153821	0.0863088	0.0136667	-0.00644448	-1.60834	-0.301032	2.96174	0	0	0	0	-0	0	0	0	-0.1265	0	-0	0	0	0	0	0	-0	0	0.105	0.015	0	0	-0	0	0	0.098	0.1	0	-0	0	0	0	0	0	-0	0	0.05595	0	0	0	-0	0	0	0	0	0	-0	0	362.652	649.027	584.064	261.463	-3.06032	1.50493	0.0764981	-0.646809	-0.354959
57	0.158958	0.835019	-0.0858892	0.334012	0.0330864	0.210021	0.013224	-0.0346611	0.0456996	-0.0891689	-0.0416639	0.113098	0.0874592	0.0109402	-0.00645788	-1.61212	-0.30473	2.94901	0	0	0	0	-0	0	0	0	-0.1265	0	-0	0	0	0	0	0	-0	0	0.105	0.015	0	0	-0	0	0	0.098	0.1	0	-0	0	0	0	0	0	-0	0	0.05595	0	0	0	-0	0	0	0	0	0	-0	0	362.06	651.531	585.086	262.425	-2.90429	1.3568	0.0700807	-0.619463	-0.299485
58	0.159044	0.831008	-0.0778593	0.328835	0.0369243	0.205477	0.0131874	-0.0352434	0.0454871	-0.0883641	-0.0419267	0.112102	0.0862021	0.013804	-0.00710451	-1.60555	-0.305282	2.95729	0	0	0	0	-0	0	0	0	-0.1265	0	-0	0	0	0	0	0	-0	0	0.105	0.015	0	0	-0	0	0	0.098	0.1	0	-0	0	0	0	0	0	-0	0	0.05595	0	0	0	-0	0	0	0	0	0	-0	0	362.042	651.592	585.115	262.469	-3.05415	1.49575	0.0749875	-0.647341	-0.351284
59	0.158143	0.835351	-0.0860627	0.332904	0.0338064	0.210253	0.0131727	-0.0346895	0.045593	-0.0882823	-0.0424073	0.111844	0.0874249	0.0111532	-0.00666688	-1.61152	-0.305146	2.94911	0	0	0	0	-0	0	0	0	-0.1265	0	-0	0	0	0	0	0	-0	0	0.105	0.015	0	0	-0	0	0	0.098	0.1	0	-0	0	0	0	0	0	-0	0	0.05595	0	0	0	-0	0	0	0	0	0	-0	0	362.018	651.686	585.147	262.51	-2.93129	1.37682	0.0707164	-0.624781	-0.306199
60	0.1587	0.831145	-0.0783566	0.328657	0.0370122	0.205328	0.0131655	-0.0352408	0.0454347	-0.0882859	-0.0424863	0.111946	0.0862828	0.0136072	-0.00731191	-1.60397	-0.306085	2.9551	0	0	0	0	-0	0	0	0	-0.1265	0	-0	0	0	0	0	0	-0	0	0.105	0.015	0	0	-0	0	0	0.098	0.1	0	-0	0	0	0	0	0	-0	0	0.05595	0	0	0	-0	0	0	0	0	0	-0	0	362.013	651.7	585.156	262.52	-3.01916	1.46939	0.0742537	-0.640592	-0.342969
61	0.158264	0.834842	-0.0860369	0.332269	0.0342681	0.209719	0.0131838	-0.03472	0.0455266	-0.0884263	-0.0420375	0.111732	0.087328	0.011557	-0.00670693	-1.61157	-0.304998	2.9503	0	0	0	0	-0	0	0	0	-0.1265	0	-0	0	0	0	0	0	-0	0	0.105	0.015	0	0	-0	0	0	0.098	0.1	0	-0	0	0	0	0	0	-0	0	0.05595	0	0	0	-0	0	0	0	0	0	-0	0	362.006	651.728	585.164	262.534	-2.96743	1.40621	0.0715895	-0.63188	-0.316802
62	0.15848	0.832077	-0.0799432	0.329765	0.0363395	0.205658	0.0131124	-0.0352205	0.0454461	-0.0878107	-0.041555	0.111646	0.0862645	0.013705	-0.00729685	-1.60443	-0.305477	2.95518	0	0	0	0	-0	0	0	0	-0.1265	0	-0	0	0	0	0	0	-0	0	0.105	0.015	0	0	-0	0	0	0.098	0.1	0	-0	0	0	0	0	0	-0	0	0.05595	0	0	0	-0	0	0	0	0	0	-0	0	361.991	651.774	585.187	262.567	-3.05737	1.49899	0.0748785	-0.647915	-0.353123
63	0.158274	0.834776	-0.0863836	0.333037	0.033972	0.20935	0.0131533	-0.0347314	0.0455497	-0.0871712	-0.0416748	0.112089	0.0872638	0.0115913	-0.00674478	-1.61114	-0.304924	2.95018	0	0	0	0	-0	0	0	0	-0.1265	0	-0	0	0	0	0	0	-0	0	0.105	0.015	0	0	-0	0	0	0.098	0.1	0	-0	0	0	0	0	0	-0	0	0.05595	0	0	0	-0	0	0	0	0	0	-0	0	361.974	651.836	585.208	262.598	-2.9696	1.40732	0.0715579	-0.632406	-0.316893
64	0.159073	0.832386	-0.0802714	0.329947	0.0362504	0.205869	0.0131091	-0.0352077	0.0454615	-0.087042	-0.0427868	0.113526	0.0862586	0.0137166	-0.00719665	-1.60517	-0.304647	2.95549	0	0	0	0	-0	0	0	0	-0.1265	0	-0	0	0	0	0	0	-0	0	0.105	0.015	0	0	-0	0	0	0.098	0.1	0	-0	0	0	0	0	0	-0	0	0.05595	0	0	0	-0	0	0	0	0	0	-0	0	361.941	651.94	585.255	262.673	-3.07009	1.50732	0.0749594	-0.65061	-0.35562
65	0.160893	0.834802	-0.0863037	0.33311	0.0339324	0.209318	0.0131457	-0.0347397	0.0455561	-0.0875711	-0.0455651	0.113859	0.0872589	0.0115894	-0.00653512	-1.61145	-0.302486	2.94994	0	0	0	0	-0	0	0	0	-0.1265	0	-0	0	0	0	0	0	-0	0	0.105	0.015	0	0	-0	0	0	0.098	0.1	0	-0	0	0	0	0	0	-0	0	0.05595	0	0	0	-0	0	0	0	0	0	-0	0	361.905	652.077	585.307	262.739	-2.96276	1.40174	0.0712658	-0.63125	-0.314915
66	0.161858	0.832368	-0.0802018	0.329757	0.03636	0.205996	0.0131177	-0.0351981	0.0454603	-0.0893847	-0.0441663	0.11248	0.0862901	0.013695	-0.0069382	-1.60602	-0.302043	2.95554	0	0	0	0	-0	0	0	0	-0.1265	0	-0	0	0	0	0	0	-0	0	0.105	0.015	0	0	-0	0	0	0.098	0.1	0	-0	0	0	0	0	0	-0	0	0.05595	0	0	0	-0	0	0	0	0	0	-0	0	361.881	652.154	585.342	262.794	-3.06581	1.5028	0.0747102	-0.650045	-0.353858
67	0.161421	0.834798	-0.0861385	0.332911	0.0340317	0.209353	0.0131469	-0.0347477	0.04555	-0.0887804	-0.0429174	0.113654	0.087237	0.0116481	-0.00649148	-1.61156	-0.302095	2.94993	0	0	0	0	-0	0	0	0	-0.1265	0	-0	0	0	0	0	0	-0	0	0.105	0.015	0	0	-0	0	0	0.098	0.1	0	-0	0	0	0	0	0	-0	0	0.05595	0	0	0	-0	0	0	0	0	0	-0	0	361.841	652.308	585.4	262.868	-2.96323	1.40235	0.0711565	-0.631483	-0.31526
68	0.161626	0.832492	-0.0803572	0.32975	0.0363178	0.206105	0.0131164	-0.0351909	0.045453	-0.0889371	-0.0440081	0.113663	0.086285	0.0137146	-0.00695056	-1.60613	-0.30235	2.95535	0	0	0	0	-0	0	0	0	-0.1265	0	-0	0	0	0	0	0	-0	0	0.105	0.015	0	0	-0	0	0	0.098	0.1	0	-0	0	0	0	0	0	-0	0	0.05595	0	0	0	-0	0	0	0	0	0	-0	0	361.814	652.394	585.439	262.929	-3.06741	1.50348	0.0745692	-0.65055	-0.354031
69	0.160305	0.834884	-0.0861808	0.332915	0.0340182	0.209382	0.0131423	-0.0347486	0.0455467	-0.0901597	-0.0438325	0.112289	0.087207	0.0116917	-0.00658902	-1.61138	-0.303271	2.94973	0	0	0	0	-0	0	0	0	-0.1265	0	-0	0	0	0	0	0	-0	0	0.105	0.015	0	0	-0	0	0	0.098	0.1	0	-0	0	0	0	0	0	-0	0	0.05595	0	0	0	-0	0	0	0	0	0	-0	0	361.77	652.566	585.504	263.01	-2.96503	1.40343	0.0710297	-0.632033	-0.315618
70	0.160172	0.832669	-0.0805152	0.329771	0.0362601	0.20621	0.0131117	-0.0351854	0.045449	-0.089586	-0.0438076	0.112358	0.0862645	0.0137397	-0.00706811	-1.60599	-0.303825	2.95508	0	0	0	0	-0	0	0	0	-0.1265	0	-0	0	0	0	0	0	-0	0	0.105	0.015	0	0	-0	0	0	0.098	0.1	0	-0	0	0	0	0	0	-0	0	0.05595	0	0	0	-0	0	0	0	0	0	-0	0	361.74	652.662	585.547	263.078	-3.07005	1.50491	0.0744277	-0.651287	-0.354445
71	0.163	0.835013	-0.0862623	0.332928	0.0339825	0.209437	0.0131347	-0.0347483	0.0455451	-0.0878054	-0.0432955	0.114788	0.0872058	0.0117295	-0.00635702	-1.61196	-0.300701	2.94969	0	0	0	0	-0	0	0	0	-0.1265	0	-0	0	0	0	0	0	-0	0	0.105	0.015	0	0	-0	0	0	0.098	0.1	0	-0	0	0	0	0	0	-0	0	0.05595	0	0	0	-0	0	0	0	0	0	-0	0	361.69	652.855	585.621	263.168	-2.96682	1.40433	0.0708775	-0.632609	-0.315881
72	0.163445	0.832386	-0.0803922	0.329691	0.0363665	0.20615	0.0131205	-0.0351734	0.0454455	-0.087551	-0.0431669	0.114736	0.0863174	0.0136518	-0.00679894	-1.60661	-0.300949	2.95468	0	0	0	0	-0	0	0	0	-0.1265	0	-0	0	0	0	0	0	-0	0	0.105	0.015	0	0	-0	0	0	0.098	0.1	0	-0	0	0	0	0	0	-0	0	0.05595	0	0	0	-0	0	0	0	0	0	-0	0	361.681	652.884	585.636	263.187	-3.05055	1.48906	0.0738746	-0.64777	-0.349075
73	0.16312	0.834879	-0.0860704	0.332555	0.0341715	0.209332	0.0131423	-0.0347666	0.04552	-0.0875514	-0.0434149	0.113876	0.0871482	0.0119273	-0.00635007	-1.61205	-0.300577	2.95032	0	0	0	0	-0	0	0	0	-0.1265	0	-0	0	0	0	0	0	-0	0	0.105	0.015	0	0	-0	0	0	0.098	0.1	0	-0	0	0	0	0	0	-0	0	0.05595	0	0	0	-0	0	0	0	0	0	-0	0	361.667	652.94	585.654	263.214	-2.98396	1.41904	0.071256	-0.635923	-0.321362
74	0.163266	0.83283	-0.0811332	0.330221	0.0359989	0.206313	0.0130954	-0.0351631	0.0454501	-0.0888109	-0.0426978	0.113834	0.0862946	0.0137203	-0.00679065	-1.60684	-0.300846	2.95474	0	0	0	0	-0	0	0	0	-0.1265	0	-0	0	0	0	0	0	-0	0	0.105	0.015	0	0	-0	0	0	0.098	0.1	0	-0	0	0	0	0	0	-0	0	0.05595	0	0	0	-0	0	0	0	0	0	-0	0	361.64	653.03	585.695	263.277	-3.06985	1.50406	0.0741129	-0.651526	-0.354252
75	0.16283	0.834877	-0.0862812	0.332969	0.0340002	0.209189	0.0131252	-0.0347664	0.0455319	-0.0907941	-0.0444252	0.113777	0.0871137	0.0119365	-0.00638773	-1.61188	-0.300917	2.9501	0	0	0	0	-0	0	0	0	-0.1265	0	-0	0	0	0	0	0	-0	0	0.105	0.015	0	0	-0	0	0	0.098	0.1	0	-0	0	0	0	0	0	-0	0	0.05595	0	0	0	-0	0	0	0	0	0	-0	0	361.608	653.154	585.741	263.336	-2.98269	1.41729	0.0710689	-0.635879	-0.320564
76	0.162997	0.83316	-0.0813484	0.330242	0.0359192	0.206495	0.01309	-0.0351553	0.0454507	-0.0903572	-0.0455784	0.112835	0.0862735	0.0137604	-0.00678578	-1.60716	-0.301073	2.95468	0	0	0	0	-0	0	0	0	-0.1265	0	-0	0	0	0	0	0	-0	0	0.105	0.015	0	0	-0	0	0	0.098	0.1	0	-0	0	0	0	0	0	-0	0	0.05595	0	0	0	-0	0	0	0	0	0	-0	0	361.549	653.359	585.826	263.475	-3.07817	1.50935	0.0740216	-0.653452	-0.355837
77	0.163329	0.8351	-0.0863795	0.333025	0.0339122	0.209299	0.0131183	-0.0347643	0.0455332	-0.0909674	-0.0441502	0.107893	0.0870937	0.0119538	-0.00634127	-1.61204	-0.300596	2.94965	0	0	0	0	-0	0	0	0	-0.1265	0	-0	0	0	0	0	0	-0	0	0.105	0.015	0	0	-0	0	0	0.098	0.1	0	-0	0	0	0	0	0	-0	0	0.05595	0	0	0	-0	0	0	0	0	0	-0	0	361.481	653.631	585.932	263.6	-2.9802	1.41439	0.0706905	-0.635773	-0.319432
78	0.166605	0.833648	-0.0815859	0.330142	0.0358248	0.206766	0.0130804	-0.0351471	0.0454413	-0.0910961	-0.0420824	0.104389	0.0862597	0.0138473	-0.0064466	-1.60825	-0.297704	2.95448	0	0	0	0	-0	0	0	0	-0.1265	0	-0	0	0	0	0	0	-0	0	0.105	0.015	0	0	-0	0	0	0.098	0.1	0	-0	0	0	0	0	0	-0	0	0.05595	0	0	0	-0	0	0	0	0	0	-0	0	361.356	654.087	586.111	263.9	-3.08591	1.51375	0.0736558	-0.655546	-0.357096
79	0.156379	0.83565	-0.0866958	0.33306	0.0337438	0.209609	0.0131013	-0.0347533	0.0455313	-0.0903204	-0.0509654	0.0996426	0.0870007	0.0120277	-0.00691431	-1.61102	-0.307725	2.94848	0	0	0	0	-0	0	0	0	-0.1265	0	-0	0	0	0	0	0	-0	0	0.105	0.015	0	0	-0	0	0	0.098	0.1	0	-0	0	0	0	0	0	-0	0	0.05595	0	0	0	-0	0	0	0	0	0	-0	0	361.222	654.682	586.344	264.151	-2.98254	1.41414	0.0700375	-0.637029	-0.319091
80	0.164589	0.834559	-0.082087	0.330057	0.035576	0.207217	0.0130582	-0.035133	0.0454228	-0.0928579	-0.0456299	0.0986771	0.0861612	0.0140285	-0.00657821	-1.60846	-0.300109	2.95343	0	0	0	0	-0	0	0	0	-0.1265	0	-0	0	0	0	0	0	-0	0	0.105	0.015	0	0	-0	0	0	0.098	0.1	0	-0	0	0	0	0	0	-0	0	0.05595	0	0	0	-0	0	0	0	0	0	-0	0	360.977	655.684	586.715	264.77	-3.09891	1.52106	0.0728384	-0.659234	-0.359249
81	0.164566	0.836816	-0.0874641	0.333142	0.0333748	0.210231	0.0130719	-0.0347274	0.0455115	-0.0900993	-0.0475191	0.0866177	0.0869518	0.0122146	-0.00615483	-1.61335	-0.300206	2.94746	0	0	0	0	-0	0	0	0	-0.1265	0	-0	0	0	0	0	0	-0	0	0.105	0.015	0	0	-0	0	0	0.098	0.1	0	-0	0	0	0	0	0	-0	0	0.05595	0	0	0	-0	0	0	0	0	0	-0	0	360.737	656.959	587.199	265.208	-2.99333	1.41843	0.0688691	-0.640712	-0.320071
82	0.165186	0.834575	-0.0820916	0.329829	0.0357396	0.207388	0.013055	-0.0351189	0.0453918	-0.0904943	-0.0477087	0.086202	0.0861457	0.0140238	-0.00658207	-1.60839	-0.300018	2.95203	0	0	0	0	-0	0	0	0	-0.1265	0	-0	0	0	0	0	0	-0	0	0.105	0.015	0	0	-0	0	0	0.098	0.1	0	-0	0	0	0	0	0	-0	0	0.05595	0	0	0	-0	0	0	0	0	0	-0	0	360.73	656.986	587.213	265.224	-3.07601	1.50101	0.071712	-0.655735	-0.352286
83	0.164892	0.836902	-0.0873771	0.332508	0.0336932	0.210284	0.0130694	-0.0347469	0.0454593	-0.0909911	-0.0473432	0.0860657	0.0869009	0.0124447	-0.00616995	-1.61333	-0.29971	2.94808	0	0	0	0	-0	0	0	0	-0.1265	0	-0	0	0	0	0	0	-0	0	0.105	0.015	0	0	-0	0	0	0.098	0.1	0	-0	0	0	0	0	0	-0	0	0.05595	0	0	0	-0	0	0	0	0	0	-0	0	360.721	657.033	587.227	265.242	-3.01678	1.43813	0.0694123	-0.645194	-0.327274
84	0.165584	0.83516	-0.0829961	0.330337	0.0353742	0.207556	0.0130226	-0.0351101	0.0453855	-0.0907443	-0.0463383	0.0858507	0.0861382	0.014075	-0.0065577	-1.60843	-0.299342	2.95182	0	0	0	0	-0	0	0	0	-0.1265	0	-0	0	0	0	0	0	-0	0	0.105	0.015	0	0	-0	0	0	0.098	0.1	0	-0	0	0	0	0	0	-0	0	0.05595	0	0	0	-0	0	0	0	0	0	-0	0	360.702	657.11	587.259	265.287	-3.09401	1.51516	0.0719571	-0.659185	-0.357229
85	0.164341	0.836943	-0.0876706	0.332884	0.0335549	0.210112	0.0130504	-0.0347475	0.0454645	-0.0898158	-0.0463116	0.0873794	0.086869	0.0124627	-0.00624485	-1.613	-0.300261	2.94781	0	0	0	0	-0	0	0	0	-0.1265	0	-0	0	0	0	0	0	-0	0	0.105	0.015	0	0	-0	0	0	0.098	0.1	0	-0	0	0	0	0	0	-0	0	0.05595	0	0	0	-0	0	0	0	0	0	-0	0	360.682	657.214	587.295	265.327	-3.01743	1.43786	0.0693138	-0.645499	-0.326999
86	0.1642	0.835538	-0.0832998	0.330388	0.035278	0.207732	0.0130149	-0.0351016	0.0453851	-0.0919935	-0.0446676	0.0872403	0.0861208	0.0140995	-0.0066595	-1.60842	-0.300595	2.95162	0	0	0	0	-0	0	0	0	-0.1265	0	-0	0	0	0	0	0	-0	0	0.105	0.015	0	0	-0	0	0	0.098	0.1	0	-0	0	0	0	0	0	-0	0	0.05595	0	0	0	-0	0	0	0	0	0	-0	0	360.641	657.386	587.362	265.427	-3.10216	1.52044	0.0719171	-0.66101	-0.358837
87	0.163613	0.837124	-0.0877681	0.332933	0.033489	0.210174	0.0130425	-0.0347466	0.0454631	-0.0925743	-0.0429638	0.0877856	0.0868447	0.0124797	-0.00631304	-1.61282	-0.301086	2.94735	0	0	0	0	-0	0	0	0	-0.1265	0	-0	0	0	0	0	0	-0	0	0.105	0.015	0	0	-0	0	0	0.098	0.1	0	-0	0	0	0	0	0	-0	0	0.05595	0	0	0	-0	0	0	0	0	0	-0	0	360.597	657.617	587.446	265.511	-3.0154	1.43557	0.0690401	-0.64538	-0.3261
88	0.165925	0.83595	-0.0835169	0.330302	0.0352068	0.20795	0.0130092	-0.0350947	0.0453732	-0.0850857	-0.048148	0.0927032	0.0861033	0.0141705	-0.00648969	-1.60904	-0.299004	2.95141	0	0	0	0	-0	0	0	0	-0.1265	0	-0	0	0	0	0	0	-0	0	0.105	0.015	0	0	-0	0	0	0.098	0.1	0	-0	0	0	0	0	0	-0	0	0.05595	0	0	0	-0	0	0	0	0	0	-0	0	360.513	658.001	587.588	265.729	-3.10922	1.52468	0.071671	-0.662818	-0.360093
89	0.166179	0.837557	-0.0880046	0.332957	0.0333606	0.210393	0.0130294	-0.0347391	0.0454596	-0.0822189	-0.0439675	0.0951713	0.0868227	0.0125416	-0.00607371	-1.61354	-0.298783	2.94686	0	0	0	0	-0	0	0	0	-0.1265	0	-0	0	0	0	0	0	-0	0	0.105	0.015	0	0	-0	0	0	0.098	0.1	0	-0	0	0	0	0	0	-0	0	0.05595	0	0	0	-0	0	0	0	0	0	-0	0	360.423	658.509	587.775	265.898	-3.0171	1.43538	0.0685629	-0.6463	-0.325845
90	0.160746	0.836686	-0.083936	0.330221	0.0350302	0.20831	0.0129883	-0.0350836	0.0453573	-0.0815657	-0.0443341	0.0851362	0.086007	0.0143171	-0.00691156	-1.60841	-0.304369	2.95033	0	0	0	0	-0	0	0	0	-0.1265	0	-0	0	0	0	0	0	-0	0	0.105	0.015	0	0	-0	0	0	0.098	0.1	0	-0	0	0	0	0	0	-0	0	0.05595	0	0	0	-0	0	0	0	0	0	-0	0	360.252	659.356	588.072	266.352	-3.12004	1.53096	0.0710811	-0.665789	-0.361973
91	0.149456	0.83849	-0.0886371	0.332984	0.0330965	0.210884	0.0130057	-0.0347225	0.045457	-0.0851309	-0.0194242	0.0960635	0.0866323	0.012693	-0.00747529	-1.61062	-0.315559	2.94466	0	0	0	0	-0	0	0	0	-0.1265	0	-0	0	0	0	0	0	-0	0	0.105	0.015	0	0	-0	0	0	0.098	0.1	0	-0	0	0	0	0	0	-0	0	0.05595	0	0	0	-0	0	0	0	0	0	-0	0	360.097	660.451	588.467	266.649	-3.02552	1.43876	0.0676997	-0.649126	-0.326608
92	0.159621	0.838078	-0.0847834	0.330122	0.0346753	0.208991	0.0129512	-0.0350565	0.0453262	-0.090458	-0.0115768	0.0869298	0.0858693	0.0145974	-0.00693759	-1.60895	-0.305998	2.94876	0	0	0	0	-0	0	0	0	-0.1265	0	-0	0	0	0	0	0	-0	0	0.105	0.015	0	0	-0	0	0	0.098	0.1	0	-0	0	0	0	0	0	-0	0	0.05595	0	0	0	-0	0	0	0	0	0	-0	0	359.825	662.266	589.056	267.498	-3.13923	1.54192	0.0699144	-0.671116	-0.36524
93	0.179219	0.840111	-0.0896576	0.332944	0.032684	0.211665	0.0129809	-0.0347367	0.0454403	-0.0974387	-0.0420143	0.0497001	0.0866521	0.0130775	-0.00484137	-1.61729	-0.286954	2.94446	0	0	0	0	-0	0	0	0	-0.1265	0	-0	0	0	0	0	0	-0	0	0.105	0.015	0	0	-0	0	0	0.098	0.1	0	-0	0	0	0	0	0	-0	0	0.05595	0	0	0	-0	0	0	0	0	0	-0	0	359.65	664.551	589.832	267.867	-3.04862	1.45188	0.0663853	-0.655598	-0.330551
94	0.182731	0.840485	-0.0864691	0.329985	0.0340574	0.210294	0.0127774	-0.0350946	0.0453284	-0.162512	-0.0115554	-0.0253502	0.0858379	0.0150082	-0.00482345	-1.61496	-0.283927	2.9472	0	0	0	0	-0	0	0	0	-0.1265	0	-0	0	0	0	0	0	-0	0	0.105	0.015	0	0	-0	0	0	0.098	0.1	0	-0	0	0	0	0	0	-0	0	0.05595	0	0	0	-0	0	0	0	0	0	-0	0	359.483	668.201	590.878	269.041	-3.16751	1.557	0.0680205	-0.678995	-0.369492
95	0.130992	0.842086	-0.0910179	0.332131	0.0324997	0.212844	0.0128962	-0.0346882	0.0452653	-0.205288	0.0305179	-0.0961477	0.0860449	0.0138033	-0.00888291	-1.60782	-0.334841	2.93935	0	0	0	0	-0	0	0	0	-0.1265	0	-0	0	0	0	0	0	-0	0	0.105	0.015	0	0	-0	0	0	0.098	0.1	0	-0	0	0	0	0	0	-0	0	0.05595	0	0	0	-0	0	0	0	0	0	-0	0	359.75	672.652	592.353	269.011	-3.0893	1.47665	0.064977	-0.66586	-0.33807
96	0.12966	0.844531	-0.0885617	0.329117	0.0333033	0.211813	0.0126654	-0.0351671	0.0451193	-0.112874	-0.0212804	0.0267436	0.0850688	0.0159761	-0.00922324	-1.60408	-0.336691	2.94013	0	0	0	0	-0	0	0	0	-0.1265	0	-0	0	0	0	0	0	-0	0	0.105	0.015	0	0	-0	0	0	0.098	0.1	0	-0	0	0	0	0	0	-0	0	0.05595	0	0	0	-0	0	0	0	0	0	-0	0	360.434	679.786	593.956	270.48	-3.23732	1.60838	0.0664741	-0.693816	-0.386423
97	0.151922	0.84615	-0.0933503	0.331274	0.0319743	0.21475	0.0130772	-0.0345335	0.0452794	-0.0831365	0.0838536	-0.0190849	0.0858074	0.0146047	-0.00691734	-1.61095	-0.313761	2.93628	0	0	0	0	-0	0	0	0	-0.1265	0	-0	0	0	0	0	0	-0	0	0.105	0.015	0	0	-0	0	0	0.098	0.1	0	-0	0	0	0	0	0	-0	0	0.05595	0	0	0	-0	0	0	0	0	0	-0	0	362.78	687.593	596.454	268.416	-3.13729	1.51037	0.0644594	-0.674849	-0.348118
98	0.144127	0.847467	-0.0895286	0.328441	0.0341953	0.213403	0.0127893	-0.0349332	0.0450225	-0.0824513	0.0716108	0.0104002	0.0851023	0.0163852	-0.00806895	-1.60421	-0.320428	2.93665	0	0	0	0	-0	0	0	0	-0.1265	0	-0	0	0	0	0	0	-0	0	0.105	0.015	0	0	-0	0	0	0.098	0.1	0	-0	0	0	0	0	0	-0	0	0.05595	0	0	0	-0	0	0	0	0	0	-0	0	363.082	688.854	596.71	268.597	-3.24182	1.61262	0.0670151	-0.693525	-0.387434
99	0.159834	0.848521	-0.0930752	0.330128	0.0325902	0.214892	0.0128266	-0.0346558	0.0450639	-0.0987141	0.0426308	0.000727965	0.0857528	0.0151156	-0.00641882	-1.61064	-0.305663	2.93463	0	0	0	0	-0	0	0	0	-0.1265	0	-0	0	0	0	0	0	-0	0	0.105	0.015	0	0	-0	0	0	0.098	0.1	0	-0	0	0	0	0	0	-0	0	0.05595	0	0	0	-0	0	0	0	0	0	-0	0	363.286	689.665	596.879	268.52	-3.17766	1.54814	0.0651356	-0.681841	-0.362244
100	0.153739	0.847982	-0.0903646	0.328125	0.0340465	0.213288	0.0127651	-0.0349194	0.0449402	-0.100898	0.045242	0.00505476	0.0851537	0.0164299	-0.0073474	-1.60542	-0.311254	2.93663	0	0	0	0	-0	0	0	0	-0.1265	0	-0	0	0	0	0	0	-0	0	0.105	0.015	0	0	-0	0	0	0.098	0.1	0	-0	0	0	0	0	0	-0	0	0.05595	0	0	0	-0	0	0	0	0	0	-0	0	363.317	689.853	596.922	268.559	-3.25425	1.62224	0.0671915	-0.695722	-0.390936
