Stefan210/kinematic_calibration/src/kinematic_calibration/validation/experiments/experiments/anzahl_messungen/AB_C/larm_17/optimization_intermediate_results.csv
iteration	HeadPitch_offset	HeadYaw_offset	LElbowRoll_offset	LElbowYaw_offset	LShoulderPitch_offset	LShoulderRoll_offset	marker_transform_larm_tx	marker_transform_larm_ty	marker_transform_larm_tz	marker_transform_larm_rr	marker_transform_larm_rp	marker_transform_larm_ry	camera_transform_tx	camera_transform_ty	camera_transform_tz	camera_transform_rr	camera_transform_rp	camera_transform_ry	HeadPitch_transform_tx	HeadPitch_transform_ty	HeadPitch_transform_tz	HeadPitch_transform_rr	HeadPitch_transform_rp	HeadPitch_transform_ry	HeadYaw_transform_tx	HeadYaw_transform_ty	HeadYaw_transform_tz	HeadYaw_transform_rr	HeadYaw_transform_rp	HeadYaw_transform_ry	LElbowRoll_transform_tx	LElbowRoll_transform_ty	LElbowRoll_transform_tz	LElbowRoll_transform_rr	LElbowRoll_transform_rp	LElbowRoll_transform_ry	LElbowYaw_transform_tx	LElbowYaw_transform_ty	LElbowYaw_transform_tz	LElbowYaw_transform_rr	LElbowYaw_transform_rp	LElbowYaw_transform_ry	LShoulderPitch_transform_tx	LShoulderPitch_transform_ty	LShoulderPitch_transform_tz	LShoulderPitch_transform_rr	LShoulderPitch_transform_rp	LShoulderPitch_transform_ry	LShoulderRoll_transform_tx	LShoulderRoll_transform_ty	LShoulderRoll_transform_tz	LShoulderRoll_transform_rr	LShoulderRoll_transform_rp	LShoulderRoll_transform_ry	LWristYaw_transform_tx	LWristYaw_transform_ty	LWristYaw_transform_tz	LWristYaw_transform_rr	LWristYaw_transform_rp	LWristYaw_transform_ry	l_wrist_joint_transform_tx	l_wrist_joint_transform_ty	l_wrist_joint_transform_tz	l_wrist_joint_transform_rr	l_wrist_joint_transform_rp	l_wrist_joint_transform_ry	camera_fx	camera_fy	camera_cx	camera_cy	camera_D0	camera_D1	camera_D2	camera_D3	camera_D4	
0	0.0249164	-0.0307543	0.000853157	4.65819e-06	-0.000318322	-0.00310766	0.05071	0	0.01774	-2.26369	1.66533e-16	-1.5708	545.901	551.038	324.928	201.58	0.0255298	2.61142	-0.0636736	-0.0350419	0.213964
1	-0.0158518	0.0119562	0.0239536	0.0412964	-0.0308899	0.0134982	0.0243354	-0.0298196	0.00391312	-0.00037186	-0.000624713	-0.00308581	0.0557915	-0.000440033	0.0209362	-2.20073	-0.0117054	-1.54142	0	0	0	0	-0	0	0	0	-0.1265	0	-0	0	0	0	0	0	-0	0	0.105	0.015	0	0	-0	0	0	0.098	0.1	0	-0	0	0	0	0	0	-0	0	0.05595	0	0	0	-0	0	0	0	0	0	-0	0	545.901	551.038	324.928	201.58	0.000293963	2.60323	-0.0815443	-0.00341115	0.21224
2	-0.016503	0.017664	0.0113539	0.0492651	-0.0309425	0.011521	0.0238981	-0.0297727	0.00441954	-0.000431555	-0.000681239	-0.00313188	0.053856	0.000266182	0.0217066	-2.19846	-0.0116911	-1.55139	0	0	0	0	-0	0	0	0	-0.1265	0	-0	0	0	0	0	0	-0	0	0.105	0.015	0	0	-0	0	0	0.098	0.1	0	-0	0	0	0	0	0	-0	0	0.05595	0	0	0	-0	0	0	0	0	0	-0	0	545.902	551.039	324.927	201.582	-0.0795118	2.56509	-0.0770341	-0.0216218	0.201722
3	-0.0176351	0.018377	0.0108423	0.0465857	-0.0272734	0.0130335	0.024031	-0.0297066	0.00405331	-0.000390152	-0.00064767	-0.00310962	0.054666	0.000499461	0.0192123	-2.19335	-0.0131928	-1.55322	0	0	0	0	-0	0	0	0	-0.1265	0	-0	0	0	0	0	0	-0	0	0.105	0.015	0	0	-0	0	0	0.098	0.1	0	-0	0	0	0	0	0	-0	0	0.05595	0	0	0	-0	0	0	0	0	0	-0	0	545.903	551.039	324.924	201.585	-0.280889	2.47418	-0.0580588	-0.0216589	0.177336
4	-0.0192029	0.021023	0.0107414	0.0399108	-0.0198592	0.0177435	0.02433	-0.0296428	0.00320558	-0.000286171	-0.000555422	-0.00307439	0.0561314	0.000969103	0.0148529	-2.18606	-0.0163353	-1.5589	0	0	0	0	-0	0	0	0	-0.1265	0	-0	0	0	0	0	0	-0	0	0.105	0.015	0	0	-0	0	0	0.098	0.1	0	-0	0	0	0	0	0	-0	0	0.05595	0	0	0	-0	0	0	0	0	0	-0	0	545.906	551.04	324.919	201.589	-0.647604	2.30071	-0.0146518	-0.0218992	0.128905
5	-0.0206499	0.024408	0.0102324	0.0339318	-0.0130025	0.0220712	0.0245914	-0.0295822	0.00239728	-0.000190744	-0.000481233	-0.00303203	0.0572737	0.00130725	0.0111009	-2.17934	-0.0193062	-1.56471	0	0	0	0	-0	0	0	0	-0.1265	0	-0	0	0	0	0	0	-0	0	0.105	0.015	0	0	-0	0	0	0.098	0.1	0	-0	0	0	0	0	0	-0	0	0.05595	0	0	0	-0	0	0	0	0	0	-0	0	545.907	551.045	324.911	201.592	-0.889662	2.13863	0.0154676	-0.0235387	0.0773894
6	-0.0207153	0.0252152	0.00914149	0.0338295	-0.0113727	0.023705	0.0246209	-0.0295737	0.00231098	-0.00016494	-0.000510424	-0.00304651	0.0571112	0.00135547	0.0108149	-2.17892	-0.0193686	-1.56517	0	0	0	0	-0	0	0	0	-0.1265	0	-0	0	0	0	0	0	-0	0	0.105	0.015	0	0	-0	0	0	0.098	0.1	0	-0	0	0	0	0	0	-0	0	0.05595	0	0	0	-0	0	0	0	0	0	-0	0	545.907	551.056	324.896	201.591	-0.86139	1.99634	0.0185007	-0.0238867	0.0190486
7	-0.0203304	0.0249933	0.0082451	0.0349582	-0.0109142	0.024935	0.024604	-0.0295881	0.00241024	-9.32719e-05	-0.000631609	-0.00305344	0.0565444	0.00134793	0.0115132	-2.18053	-0.0183958	-1.56389	0	0	0	0	-0	0	0	0	-0.1265	0	-0	0	0	0	0	0	-0	0	0.105	0.015	0	0	-0	0	0	0.098	0.1	0	-0	0	0	0	0	0	-0	0	0.05595	0	0	0	-0	0	0	0	0	0	-0	0	545.902	551.091	324.866	201.58	-0.759508	1.76564	0.0169347	-0.0229693	-0.0807336
8	-0.0198994	0.0247951	0.00754852	0.0358979	-0.0105378	0.0260182	0.0245914	-0.0296046	0.00249797	-0.000375323	-0.000727882	-0.0031468	0.0560172	0.00132756	0.0121898	-2.18194	-0.0174572	-1.56273	0	0	0	0	-0	0	0	0	-0.1265	0	-0	0	0	0	0	0	-0	0	0.105	0.015	0	0	-0	0	0	0.098	0.1	0	-0	0	0	0	0	0	-0	0	0.05595	0	0	0	-0	0	0	0	0	0	-0	0	545.876	551.192	324.817	201.539	-0.658205	1.52964	0.0151039	-0.0220079	-0.19108
9	-0.0201691	0.0247095	0.00725146	0.0362847	-0.0102508	0.0266468	0.024592	-0.0296172	0.00253562	0.000170095	-0.00106307	-0.00382376	0.0557901	0.00132042	0.0124462	-2.18284	-0.016914	-1.5622	0	0	0	0	-0	0	0	0	-0.1265	0	-0	0	0	0	0	0	-0	0	0.105	0.015	0	0	-0	0	0	0.098	0.1	0	-0	0	0	0	0	0	-0	0	0.05595	0	0	0	-0	0	0	0	0	0	-0	0	545.788	551.488	324.733	201.416	-0.609091	1.41737	0.0138641	-0.0214296	-0.27808
10	-0.01891	0.0246577	0.00727474	0.0362404	-0.00986711	0.0271192	0.0246131	-0.0296305	0.00253543	-0.00071244	-0.00229324	-0.00428216	0.055798	0.00132995	0.0124276	-2.18086	-0.0165421	-1.56205	0	0	0	0	-0	0	0	0	-0.1265	0	-0	0	0	0	0	0	-0	0	0.105	0.015	0	0	-0	0	0	0.098	0.1	0	-0	0	0	0	0	0	-0	0	0.05595	0	0	0	-0	0	0	0	0	0	-0	0	545.551	552.316	324.552	201.064	-0.605338	1.43973	0.012339	-0.0210193	-0.39568
11	-0.0144309	0.0245333	0.00746767	0.0360056	-0.00909518	0.0279642	0.0246656	-0.0296547	0.00252169	-0.00416697	-0.00160326	-0.00343371	0.0559112	0.0013523	0.0123234	-2.17385	-0.0157771	-1.56175	0	0	0	0	-0	0	0	0	-0.1265	0	-0	0	0	0	0	0	-0	0	0.105	0.015	0	0	-0	0	0	0.098	0.1	0	-0	0	0	0	0	0	-0	0	0.05595	0	0	0	-0	0	0	0	0	0	-0	0	545.142	554.396	324.073	200.059	-0.624883	1.58966	0.00892966	-0.0203946	-0.731811
12	-0.0188307	0.0243233	0.00777745	0.0358433	-0.00791525	0.0292043	0.0247554	-0.0296871	0.00251522	-0.00820271	-0.0094697	0.000853036	0.0562034	0.00135687	0.0115452	-2.1723	-0.0136938	-1.56031	0	0	0	0	-0	0	0	0	-0.1265	0	-0	0	0	0	0	0	-0	0	0.105	0.015	0	0	-0	0	0	0.098	0.1	0	-0	0	0	0	0	0	-0	0	0.05595	0	0	0	-0	0	0	0	0	0	-0	0	545.356	558.665	322.862	197.409	-0.677758	1.97867	0.00304091	-0.0196705	-1.60086
13	-0.0330594	0.0242627	0.00798034	0.0359089	-0.00733961	0.0297109	0.0248112	-0.0297138	0.00253039	0.0112753	-0.0217792	-0.0259528	0.0564691	0.00133493	0.0104749	-2.18196	-0.0119018	-1.55892	0	0	0	0	-0	0	0	0	-0.1265	0	-0	0	0	0	0	0	-0	0	0.105	0.015	0	0	-0	0	0	0.098	0.1	0	-0	0	0	0	0	0	-0	0	0.05595	0	0	0	-0	0	0	0	0	0	-0	0	546.311	561.913	321.862	195.203	-0.722889	2.24344	-2.47387e-05	-0.0194904	-2.10821
14	-0.0360519	0.024954	0.007167	0.0374978	-0.00762356	0.0293043	0.0248237	-0.0297226	0.00262293	0.0789501	-0.0196712	-0.018227	0.0559305	0.00113326	0.0108384	-2.17517	-0.00689641	-1.55482	0	0	0	0	-0	0	0	0	-0.1265	0	-0	0	0	0	0	0	-0	0	0.105	0.015	0	0	-0	0	0	0.098	0.1	0	-0	0	0	0	0	0	-0	0	0.05595	0	0	0	-0	0	0	0	0	0	-0	0	553.248	570.569	318.959	189.041	-0.799849	2.60361	-0.00241406	-0.0208372	-2.69421
15	-0.0314022	0.0253154	0.00714301	0.0375206	-0.00790188	0.0288793	0.0248301	-0.0296388	0.00261467	0.0807883	-0.00364503	-0.0317282	0.0558768	0.00110376	0.0110905	-2.16952	-0.00671761	-1.55493	0	0	0	0	-0	0	0	0	-0.1265	0	-0	0	0	0	0	0	-0	0	0.105	0.015	0	0	-0	0	0	0.098	0.1	0	-0	0	0	0	0	0	-0	0	0.05595	0	0	0	-0	0	0	0	0	0	-0	0	554.237	571.657	318.636	188.454	-0.813589	2.52575	-0.00145249	-0.021306	-2.33535
16	-0.0189741	0.0261901	0.00629157	0.0385961	-0.00879036	0.0279689	0.0248068	-0.0295949	0.00268244	0.0855464	0.00911106	-0.0553652	0.0552701	0.000976052	0.0123644	-2.15513	-0.00491919	-1.55346	0	0	0	0	-0	0	0	0	-0.1265	0	-0	0	0	0	0	0	-0	0	0.105	0.015	0	0	-0	0	0	0.098	0.1	0	-0	0	0	0	0	0	-0	0	0.05595	0	0	0	-0	0	0	0	0	0	-0	0	558.301	575.202	317.301	186.53	-0.819487	2.36621	0.000215912	-0.0227978	-1.7589
17	0.00233746	0.0268051	0.00589368	0.0390378	-0.00946052	0.0272683	0.0247904	-0.0295704	0.00271094	0.107047	0.0292169	-0.0554058	0.0547968	0.000906269	0.0137868	-2.13313	-0.00443165	-1.55295	0	0	0	0	-0	0	0	0	-0.1265	0	-0	0	0	0	0	0	-0	0	0.105	0.015	0	0	-0	0	0	0.098	0.1	0	-0	0	0	0	0	0	-0	0	0.05595	0	0	0	-0	0	0	0	0	0	-0	0	560.319	576.761	316.589	185.816	-0.826095	2.23573	0.00177902	-0.0239473	-1.26915
18	-0.0021121	0.0272617	0.00557777	0.0394123	-0.00998416	0.0267517	0.0247751	-0.0295375	0.00273071	0.102604	0.00407019	-0.0538261	0.0546774	0.000854124	0.0137388	-2.13729	-0.00369343	-1.5524	0	0	0	0	-0	0	0	0	-0.1265	0	-0	0	0	0	0	0	-0	0	0.105	0.015	0	0	-0	0	0	0.098	0.1	0	-0	0	0	0	0	0	-0	0	0.05595	0	0	0	-0	0	0	0	0	0	-0	0	561.811	577.833	316.043	185.389	-0.829262	2.135	0.00299646	-0.0248378	-0.900823
19	0.00056097	0.0278332	0.00513095	0.0399499	-0.0106318	0.0261171	0.0247479	-0.0295202	0.00276362	0.129264	0.00864544	-0.0470503	0.0543966	0.000785957	0.0141903	-2.13451	-0.00291261	-1.55178	0	0	0	0	-0	0	0	0	-0.1265	0	-0	0	0	0	0	0	-0	0	0.105	0.015	0	0	-0	0	0	0.098	0.1	0	-0	0	0	0	0	0	-0	0	0.05595	0	0	0	-0	0	0	0	0	0	-0	0	563.97	579.314	315.395	184.913	-0.836455	2.03861	0.00474475	-0.0259236	-0.508283
20	-0.00116079	0.0285001	0.00453865	0.0406094	-0.0114027	0.0253868	0.0247349	-0.0295062	0.00280746	0.0865915	-0.0122829	-0.0420774	0.054083	0.000705789	0.0145073	-2.13654	-0.00201931	-1.55113	0	0	0	0	-0	0	0	0	-0.1265	0	-0	0	0	0	0	0	-0	0	0.105	0.015	0	0	-0	0	0	0.098	0.1	0	-0	0	0	0	0	0	-0	0	0.05595	0	0	0	-0	0	0	0	0	0	-0	0	566.998	581.326	314.749	184.515	-0.855003	1.9966	0.00723562	-0.0271914	-0.195731
21	0.00758304	0.0289556	0.00413785	0.041011	-0.0119315	0.0248896	0.0247076	-0.0294544	0.00282766	0.0692825	-0.0274381	-0.0265826	0.0537269	0.000653633	0.0152604	-2.12827	-0.00172647	-1.55083	0	0	0	0	-0	0	0	0	-0.1265	0	-0	0	0	0	0	0	-0	0	0.105	0.015	0	0	-0	0	0	0.098	0.1	0	-0	0	0	0	0	0	-0	0	0.05595	0	0	0	-0	0	0	0	0	0	-0	0	569.158	582.726	314.392	184.397	-0.872047	1.98872	0.00915594	-0.028062	-0.00786354
22	0.0167508	0.0291553	0.00399305	0.041156	-0.0121698	0.0246572	0.0246916	-0.0294333	0.00283618	0.0632534	-0.0267549	-0.0303991	0.0534964	0.000631262	0.0158564	-2.11933	-0.00173747	-1.55074	0	0	0	0	-0	0	0	0	-0.1265	0	-0	0	0	0	0	0	-0	0	0.105	0.015	0	0	-0	0	0	0.098	0.1	0	-0	0	0	0	0	0	-0	0	0.05595	0	0	0	-0	0	0	0	0	0	-0	0	570.025	583.273	314.246	184.385	-0.87977	1.98295	0.00996217	-0.0284469	0.0888625
23	0.0124546	0.0293829	0.00377962	0.0413744	-0.0124349	0.0244078	0.0246863	-0.0294323	0.00286068	0.0851978	-0.0363151	-0.055	0.0534338	0.000605008	0.0157752	-2.12404	-0.00143567	-1.55059	0	0	0	0	-0	0	0	0	-0.1265	0	-0	0	0	0	0	0	-0	0	0.105	0.015	0	0	-0	0	0	0.098	0.1	0	-0	0	0	0	0	0	-0	0	0.05595	0	0	0	-0	0	0	0	0	0	-0	0	571.186	583.998	314.083	184.405	-0.889846	1.99001	0.0110125	-0.0288757	0.165327
24	0.0211407	0.0295405	0.00362819	0.0415143	-0.0126192	0.0242351	0.0246744	-0.0294127	0.00285805	0.0731297	-0.0431122	-0.0531918	0.0532066	0.0005873	0.0163458	-2.11568	-0.00147714	-1.55052	0	0	0	0	-0	0	0	0	-0.1265	0	-0	0	0	0	0	0	-0	0	0.105	0.015	0	0	-0	0	0	0.098	0.1	0	-0	0	0	0	0	0	-0	0	0.05595	0	0	0	-0	0	0	0	0	0	-0	0	572.037	584.531	313.981	184.442	-0.898272	2.0038	0.0117914	-0.0291739	0.201288
25	-0.00507863	0.0300181	0.00308165	0.0420517	-0.0131795	0.0237059	0.0246332	-0.0294031	0.00288067	0.12573	-0.0635553	-0.0409281	0.0532787	0.000525693	0.0153472	-2.14362	-0.000461547	-1.55009	0	0	0	0	-0	0	0	0	-0.1265	0	-0	0	0	0	0	0	-0	0	0.105	0.015	0	0	-0	0	0	0.098	0.1	0	-0	0	0	0	0	0	-0	0	0.05595	0	0	0	-0	0	0	0	0	0	-0	0	575.54	586.759	313.655	184.839	-0.944414	2.19473	0.0146707	-0.0300568	-0.000680857
26	-0.00479245	0.0301189	0.00303258	0.0420622	-0.0132814	0.0235837	0.0246416	-0.0293702	0.00289085	0.127756	-0.0554413	-0.0324025	0.053236	0.000517079	0.0154026	-2.14354	-0.000459017	-1.55016	0	0	0	0	-0	0	0	0	-0.1265	0	-0	0	0	0	0	0	-0	0	0.105	0.015	0	0	-0	0	0	0.098	0.1	0	-0	0	0	0	0	0	-0	0	0.05595	0	0	0	-0	0	0	0	0	0	-0	0	576.011	587.058	313.636	184.916	-0.953103	2.21755	0.0151944	-0.0302215	0.00560787
27	0.0145924	0.0303737	0.00274955	0.0423192	-0.0135787	0.0232967	0.0246324	-0.0293586	0.00290602	0.11867	-0.0670899	-0.0525153	0.052761	0.000486278	0.0166434	-2.12529	-0.000681709	-1.55006	0	0	0	0	-0	0	0	0	-0.1265	0	-0	0	0	0	0	0	-0	0	0.105	0.015	0	0	-0	0	0	0.098	0.1	0	-0	0	0	0	0	0	-0	0	0.05595	0	0	0	-0	0	0	0	0	0	-0	0	577.866	588.224	313.514	185.266	-0.979345	2.32523	0.0168113	-0.0306923	-0.0981626
28	-0.0148904	0.0307031	0.0023977	0.042617	-0.0139557	0.0229256	0.0246132	-0.0293622	0.00293791	0.162361	-0.063784	-0.0799357	0.053004	0.000446688	0.015344	-2.15653	0.000175871	-1.54986	0	0	0	0	-0	0	0	0	-0.1265	0	-0	0	0	0	0	0	-0	0	0.105	0.015	0	0	-0	0	0	0.098	0.1	0	-0	0	0	0	0	0	-0	0	0.05595	0	0	0	-0	0	0	0	0	0	-0	0	580.479	589.885	313.331	185.896	-1.0227	2.53037	0.019067	-0.0312972	-0.366164
29	-0.0239553	0.0308826	0.00223744	0.042723	-0.0141509	0.0227131	0.0246009	-0.0293218	0.00292787	0.164361	-0.0585154	-0.0549011	0.0530281	0.000428375	0.0149822	-2.1665	0.000417206	-1.54989	0	0	0	0	-0	0	0	0	-0.1265	0	-0	0	0	0	0	0	-0	0	0.105	0.015	0	0	-0	0	0	0.098	0.1	0	-0	0	0	0	0	0	-0	0	0.05595	0	0	0	-0	0	0	0	0	0	-0	0	581.75	590.688	313.282	186.254	-1.04607	2.6339	0.0202769	-0.0316152	-0.485425
30	-0.00732055	0.0311142	0.00202497	0.042903	-0.0144118	0.0224407	0.0245973	-0.0293065	0.00294247	0.173585	-0.0323588	-0.0355899	0.0526382	0.000401406	0.0160345	-2.15124	0.000208442	-1.5498	0	0	0	0	-0	0	0	0	-0.1265	0	-0	0	0	0	0	0	-0	0	0.105	0.015	0	0	-0	0	0	0.098	0.1	0	-0	0	0	0	0	0	-0	0	0.05595	0	0	0	-0	0	0	0	0	0	-0	0	583.53	591.815	313.165	186.807	-1.07888	2.79019	0.0218711	-0.0320432	-0.684849
31	-0.00762565	0.0312921	0.00187592	0.0430107	-0.0146071	0.0222315	0.0245684	-0.0292889	0.00293899	0.201379	-0.0463238	-0.0303678	0.0525346	0.000382615	0.0161293	-2.15259	0.000287285	-1.54978	0	0	0	0	-0	0	0	0	-0.1265	0	-0	0	0	0	0	0	-0	0	0.105	0.015	0	0	-0	0	0	0.098	0.1	0	-0	0	0	0	0	0	-0	0	0.05595	0	0	0	-0	0	0	0	0	0	-0	0	584.823	592.631	313.091	187.25	-1.104	2.90756	0.023094	-0.0323701	-0.828727
32	-0.00971037	0.0313758	0.00182744	0.0430455	-0.0146977	0.022125	0.0245694	-0.0292793	0.00294303	0.198058	-0.0437218	-0.0190535	0.0525357	0.000374371	0.0160591	-2.1551	0.000347934	-1.5498	0	0	0	0	-0	0	0	0	-0.1265	0	-0	0	0	0	0	0	-0	0	0.105	0.015	0	0	-0	0	0	0.098	0.1	0	-0	0	0	0	0	0	-0	0	0.05595	0	0	0	-0	0	0	0	0	0	-0	0	585.348	592.963	313.063	187.442	-1.11542	2.95644	0.023616	-0.0325211	-0.877286
33	-0.0134366	0.0314719	0.00174313	0.0431098	-0.014806	0.0220142	0.0245691	-0.0292773	0.00294728	0.202595	-0.0335747	0.000181326	0.05254	0.000364179	0.0159292	-2.15945	0.000472869	-1.54978	0	0	0	0	-0	0	0	0	-0.1265	0	-0	0	0	0	0	0	-0	0	0.105	0.015	0	0	-0	0	0	0.098	0.1	0	-0	0	0	0	0	0	-0	0	0.05595	0	0	0	-0	0	0	0	0	0	-0	0	586.058	593.41	313.017	187.708	-1.12903	3.02114	0.0242871	-0.0327043	-0.95615
34	-0.0194486	0.0316614	0.00156882	0.0432472	-0.0150207	0.0217961	0.0245519	-0.0292564	0.00295277	0.198602	-0.0276864	0.00246605	0.0525164	0.000342589	0.0157549	-2.16682	0.000734186	-1.54968	0	0	0	0	-0	0	0	0	-0.1265	0	-0	0	0	0	0	0	-0	0	0.105	0.015	0	0	-0	0	0	0.098	0.1	0	-0	0	0	0	0	0	-0	0	0.05595	0	0	0	-0	0	0	0	0	0	-0	0	587.6	594.384	312.896	188.297	-1.15971	3.18082	0.0256886	-0.0330717	-1.18506
35	-0.0408166	0.0318599	0.00142069	0.0433608	-0.0152393	0.0215565	0.0245426	-0.0292427	0.0029607	0.215043	-0.049284	-0.00208029	0.0527482	0.00032056	0.0147598	-2.18951	0.00129429	-1.54964	0	0	0	0	-0	0	0	0	-0.1265	0	-0	0	0	0	0	0	-0	0	0.105	0.015	0	0	-0	0	0	0.098	0.1	0	-0	0	0	0	0	0	-0	0	0.05595	0	0	0	-0	0	0	0	0	0	-0	0	589.1	595.337	312.786	188.89	-1.19158	3.34216	0.0270837	-0.0334471	-1.40603
36	-0.0236601	0.0324418	0.000892619	0.0438242	-0.0159222	0.0208708	0.0245244	-0.0291908	0.00296941	0.239353	-0.103423	0.0135669	0.0520771	0.00024062	0.0161703	-2.17773	0.00170937	-1.54883	0	0	0	0	-0	0	0	0	-0.1265	0	-0	0	0	0	0	0	-0	0	0.105	0.015	0	0	-0	0	0	0.098	0.1	0	-0	0	0	0	0	0	-0	0	0.05595	0	0	0	-0	0	0	0	0	0	-0	0	595.038	599.236	312.146	191.321	-1.32484	4.15037	0.0318785	-0.0346287	-2.82133
37	-0.0597505	0.0329016	0.00065213	0.0439292	-0.0163631	0.0203096	0.0244923	-0.0291728	0.00297729	0.221596	-0.0947109	0.00028954	0.052479	0.000198892	0.0144794	-2.21634	0.00240063	-1.54924	0	0	0	0	-0	0	0	0	-0.1265	0	-0	0	0	0	0	0	-0	0	0.105	0.015	0	0	-0	0	0	0.098	0.1	0	-0	0	0	0	0	0	-0	0	0.05595	0	0	0	-0	0	0	0	0	0	-0	0	597.801	601.069	312.115	192.519	-1.38911	4.44468	0.0347926	-0.0354383	-3.14173
38	-0.0795511	0.0331691	0.000475901	0.0440337	-0.0166656	0.019979	0.0244954	-0.029162	0.00296845	0.23274	-0.122362	0.0317697	0.0526137	0.000172047	0.0136032	-2.23805	0.00292847	-1.54927	0	0	0	0	-0	0	0	0	-0.1265	0	-0	0	0	0	0	0	-0	0	0.105	0.015	0	0	-0	0	0	0.098	0.1	0	-0	0	0	0	0	0	-0	0	0.05595	0	0	0	-0	0	0	0	0	0	-0	0	599.815	602.386	311.978	193.412	-1.43576	4.69334	0.036728	-0.0359846	-3.49026
39	-0.083077	0.0332486	0.000468928	0.0440255	-0.0167424	0.0198709	0.0244817	-0.0291486	0.00298144	0.237421	-0.111288	0.019129	0.0526459	0.000165561	0.0134298	-2.24194	0.00297838	-1.54935	0	0	0	0	-0	0	0	0	-0.1265	0	-0	0	0	0	0	0	-0	0	0.105	0.015	0	0	-0	0	0	0.098	0.1	0	-0	0	0	0	0	0	-0	0	0.05595	0	0	0	-0	0	0	0	0	0	-0	0	600.222	602.659	311.965	193.611	-1.4481	4.74494	0.0371976	-0.0361326	-3.53135
40	-0.0779424	0.0333272	0.000414327	0.0440616	-0.0168332	0.0197761	0.0244752	-0.029142	0.00298213	0.233098	-0.103122	0.00950445	0.0525397	0.000157559	0.0137531	-2.23737	0.00289926	-1.54933	0	0	0	0	-0	0	0	0	-0.1265	0	-0	0	0	0	0	0	-0	0	0.105	0.015	0	0	-0	0	0	0.098	0.1	0	-0	0	0	0	0	0	-0	0	0.05595	0	0	0	-0	0	0	0	0	0	-0	0	600.781	603.024	311.926	193.87	-1.46016	4.80726	0.0377382	-0.0362953	-3.60881
41	-0.096721	0.0334382	0.00034184	0.0441113	-0.0169558	0.019642	0.0244785	-0.0291346	0.00298908	0.232302	-0.130323	0.00325607	0.0527448	0.000145443	0.0128386	-2.25694	0.00336115	-1.54936	0	0	0	0	-0	0	0	0	-0.1265	0	-0	0	0	0	0	0	-0	0	0.105	0.015	0	0	-0	0	0	0.098	0.1	0	-0	0	0	0	0	0	-0	0	0.05595	0	0	0	-0	0	0	0	0	0	-0	0	601.601	603.558	311.861	194.236	-1.47857	4.90625	0.0385215	-0.0365222	-3.74668
42	-0.084335	0.0335237	0.000293154	0.044141	-0.0170478	0.0195373	0.0244679	-0.0291291	0.00298412	0.235698	-0.142701	0.0124452	0.0525425	0.000136354	0.0135412	-2.24512	0.00313036	-1.54932	0	0	0	0	-0	0	0	0	-0.1265	0	-0	0	0	0	0	0	-0	0	0.105	0.015	0	0	-0	0	0	0.098	0.1	0	-0	0	0	0	0	0	-0	0	0.05595	0	0	0	-0	0	0	0	0	0	-0	0	602.212	603.962	311.817	194.504	-1.49282	4.98152	0.039109	-0.0366931	-3.84928
43	-0.0872525	0.0335876	0.000259457	0.0441638	-0.0171172	0.0194573	0.0244671	-0.0291272	0.00298814	0.230802	-0.154364	0.002039	0.0525519	0.000129571	0.0134223	-2.24846	0.00321913	-1.54933	0	0	0	0	-0	0	0	0	-0.1265	0	-0	0	0	0	0	0	-0	0	0.105	0.015	0	0	-0	0	0	0.098	0.1	0	-0	0	0	0	0	0	-0	0	0.05595	0	0	0	-0	0	0	0	0	0	-0	0	602.666	604.261	311.783	194.704	-1.50365	5.03838	0.0395451	-0.0368217	-3.92563
44	-0.0859177	0.0337319	0.000150669	0.0442448	-0.0172809	0.0192813	0.0244552	-0.0291229	0.00299773	0.202856	-0.141824	0.0181312	0.0524524	0.000111596	0.0136061	-2.24826	0.00331226	-1.54924	0	0	0	0	-0	0	0	0	-0.1265	0	-0	0	0	0	0	0	-0	0	0.105	0.015	0	0	-0	0	0	0.098	0.1	0	-0	0	0	0	0	0	-0	0	0.05595	0	0	0	-0	0	0	0	0	0	-0	0	603.914	605.087	311.675	195.219	-1.53184	5.20645	0.040645	-0.0371248	-4.20316
45	-0.0946086	0.0338159	0.000110382	0.0442671	-0.01737	0.0191724	0.0244545	-0.0291095	0.00298989	0.204631	-0.136222	0.00955674	0.0525379	0.000102419	0.013196	-2.25749	0.0035273	-1.54928	0	0	0	0	-0	0	0	0	-0.1265	0	-0	0	0	0	0	0	-0	0	0.105	0.015	0	0	-0	0	0	0.098	0.1	0	-0	0	0	0	0	0	-0	0	0.05595	0	0	0	-0	0	0	0	0	0	-0	0	604.528	605.501	311.636	195.472	-1.54709	5.28987	0.041216	-0.0372892	-4.32554
46	-0.103013	0.0339219	4.01447e-05	0.0443192	-0.0174855	0.0190435	0.0244448	-0.029115	0.00298764	0.169212	-0.123087	0.00304108	0.0525924	8.94354e-05	0.0128312	-2.26668	0.00378298	-1.54927	0	0	0	0	-0	0	0	0	-0.1265	0	-0	0	0	0	0	0	-0	0	0.105	0.015	0	0	-0	0	0	0.098	0.1	0	-0	0	0	0	0	0	-0	0	0.05595	0	0	0	-0	0	0	0	0	0	-0	0	605.427	606.114	311.565	195.837	-1.568	5.4128	0.041997	-0.0375046	-4.52445
47	-0.0993882	0.034004	-9.73936e-06	0.0443498	-0.017573	0.018942	0.024452	-0.0291027	0.00299383	0.186098	-0.107706	0.00103126	0.0525072	8.02111e-05	0.0130753	-2.26363	0.00374613	-1.54925	0	0	0	0	-0	0	0	0	-0.1265	0	-0	0	0	0	0	0	-0	0	0.105	0.015	0	0	-0	0	0	0.098	0.1	0	-0	0	0	0	0	0	-0	0	0.05595	0	0	0	-0	0	0	0	0	0	-0	0	606.089	606.567	311.52	196.105	-1.58398	5.50474	0.0425893	-0.0376692	-4.66967
48	-0.110606	0.0341557	-0.000124172	0.0444367	-0.0177398	0.0187575	0.0244388	-0.0290869	0.00299183	0.202866	-0.123745	0.0119675	0.0525627	5.95465e-05	0.0126136	-2.27606	0.00413464	-1.5492	0	0	0	0	-0	0	0	0	-0.1265	0	-0	0	0	0	0	0	-0	0	0.105	0.015	0	0	-0	0	0	0.098	0.1	0	-0	0	0	0	0	0	-0	0	0.05595	0	0	0	-0	0	0	0	0	0	-0	0	607.53	607.566	311.4	196.649	-1.61738	5.71565	0.0437565	-0.0379798	-5.04743
49	-0.106844	0.0342493	-0.00016605	0.0444633	-0.0178372	0.0186346	0.0244357	-0.0290807	0.00299877	0.191328	-0.119867	0.0229584	0.0524769	4.86003e-05	0.012865	-2.27289	0.00408821	-1.54919	0	0	0	0	-0	0	0	0	-0.1265	0	-0	0	0	0	0	0	-0	0	0.105	0.015	0	0	-0	0	0	0.098	0.1	0	-0	0	0	0	0	0	-0	0	0.05595	0	0	0	-0	0	0	0	0	0	-0	0	608.255	608.066	311.355	196.927	-1.63564	5.81938	0.0443946	-0.0381603	-5.20886
50	-0.100078	0.0342871	-0.000184728	0.0444735	-0.0178791	0.0185845	0.0244341	-0.0290758	0.00299635	0.19024	-0.115077	0.0177577	0.0523738	4.43972e-05	0.0132428	-2.26637	0.00395432	-1.54917	0	0	0	0	-0	0	0	0	-0.1265	0	-0	0	0	0	0	0	-0	0	0.105	0.015	0	0	-0	0	0	0.098	0.1	0	-0	0	0	0	0	0	-0	0	0.05595	0	0	0	-0	0	0	0	0	0	-0	0	608.55	608.268	311.338	197.041	-1.64297	5.86089	0.044661	-0.0382364	-5.27253
