Stefan210/kinematic_calibration/src/kinematic_calibration/validation/experiments/experiments/impact_noise/bad_precision/larm_noise_10_pixel_rk_true/optimization_intermediate_results.csv
iteration	HeadPitch_offset	HeadYaw_offset	LElbowRoll_offset	LElbowYaw_offset	LShoulderPitch_offset	LShoulderRoll_offset	marker_transform_larm_tx	marker_transform_larm_ty	marker_transform_larm_tz	marker_transform_larm_rr	marker_transform_larm_rp	marker_transform_larm_ry	camera_transform_tx	camera_transform_ty	camera_transform_tz	camera_transform_rr	camera_transform_rp	camera_transform_ry	HeadPitch_transform_tx	HeadPitch_transform_ty	HeadPitch_transform_tz	HeadPitch_transform_rr	HeadPitch_transform_rp	HeadPitch_transform_ry	HeadYaw_transform_tx	HeadYaw_transform_ty	HeadYaw_transform_tz	HeadYaw_transform_rr	HeadYaw_transform_rp	HeadYaw_transform_ry	LElbowRoll_transform_tx	LElbowRoll_transform_ty	LElbowRoll_transform_tz	LElbowRoll_transform_rr	LElbowRoll_transform_rp	LElbowRoll_transform_ry	LElbowYaw_transform_tx	LElbowYaw_transform_ty	LElbowYaw_transform_tz	LElbowYaw_transform_rr	LElbowYaw_transform_rp	LElbowYaw_transform_ry	LShoulderPitch_transform_tx	LShoulderPitch_transform_ty	LShoulderPitch_transform_tz	LShoulderPitch_transform_rr	LShoulderPitch_transform_rp	LShoulderPitch_transform_ry	LShoulderRoll_transform_tx	LShoulderRoll_transform_ty	LShoulderRoll_transform_tz	LShoulderRoll_transform_rr	LShoulderRoll_transform_rp	LShoulderRoll_transform_ry	LWristYaw_transform_tx	LWristYaw_transform_ty	LWristYaw_transform_tz	LWristYaw_transform_rr	LWristYaw_transform_rp	LWristYaw_transform_ry	l_wrist_joint_transform_tx	l_wrist_joint_transform_ty	l_wrist_joint_transform_tz	l_wrist_joint_transform_rr	l_wrist_joint_transform_rp	l_wrist_joint_transform_ry	camera_fx	camera_fy	camera_cx	camera_cy	camera_D0	camera_D1	camera_D2	camera_D3	camera_D4	
0	0.0249164	-0.0307543	0.000853157	4.65819e-06	-0.000318322	-0.00310766	0.05071	0	0.01774	-2.26369	1.66533e-16	-1.5708	545.901	551.038	324.928	201.58	0.0255298	2.61142	-0.0636736	-0.0350419	0.213964
1	-0.0158678	-0.00674698	0.0482379	0.0136518	0.0227369	0.0208817	0.0272304	-0.0309723	0.000891685	4.59114e-07	-0.000314706	-0.00284606	0.0556596	-0.00301138	0.013124	-2.19873	0.00993475	-1.53363	0	0	0	0	-0	0	0	0	-0.1265	0	-0	0	0	0	0	0	-0	0	0.105	0.015	0	0	-0	0	0	0.098	0.1	0	-0	0	0	0	0	0	-0	0	0.05595	0	0	0	-0	0	0	0	0	0	-0	0	545.901	551.039	324.928	201.581	-0.00749092	2.60181	-0.090083	0.0193868	0.212057
2	-0.0148891	0.00281003	0.0527343	0.00563827	0.0169352	0.0190997	0.0270944	-0.0313361	0.000235414	8.13712e-05	-0.000237704	-0.00289908	0.0556802	-0.00299137	0.0142533	-2.203	0.00762041	-1.54593	0	0	0	0	-0	0	0	0	-0.1265	0	-0	0	0	0	0	0	-0	0	0.105	0.015	0	0	-0	0	0	0.098	0.1	0	-0	0	0	0	0	0	-0	0	0.05595	0	0	0	-0	0	0	0	0	0	-0	0	545.908	551.039	324.925	201.592	-0.319592	2.38297	-0.0330086	-0.0100507	0.144424
3	-0.0146855	0.00547367	0.0508747	0.00194066	0.0141842	0.0161153	0.0267732	-0.0313373	-0.000135687	9.36046e-05	-0.000230899	-0.00293531	0.055976	-0.0028237	0.0136727	-2.20366	0.00812887	-1.55096	0	0	0	0	-0	0	0	0	-0.1265	0	-0	0	0	0	0	0	-0	0	0.105	0.015	0	0	-0	0	0	0.098	0.1	0	-0	0	0	0	0	0	-0	0	0.05595	0	0	0	-0	0	0	0	0	0	-0	0	545.92	551.039	324.921	201.604	-0.549991	2.09353	0.00895775	-0.0229989	0.0452715
4	-0.0145398	0.00915311	0.0498468	0.00143864	0.0102233	0.0124725	0.0265676	-0.0312561	-0.000272241	9.18904e-05	-0.00016729	-0.00288737	0.0560758	-0.00299746	0.0135626	-2.2041	0.0075967	-1.5562	0	0	0	0	-0	0	0	0	-0.1265	0	-0	0	0	0	0	0	-0	0	0.105	0.015	0	0	-0	0	0	0.098	0.1	0	-0	0	0	0	0	0	-0	0	0.05595	0	0	0	-0	0	0	0	0	0	-0	0	545.946	551.038	324.913	201.619	-0.615795	1.63043	0.0312981	-0.0288483	-0.133412
5	-0.0145035	0.0137356	0.0484625	0.00160955	0.00696821	0.0103259	0.0264271	-0.0311437	-0.00031316	8.28041e-05	-0.000173385	-0.00277231	0.0557339	-0.00317211	0.0140219	-2.20454	0.00592894	-1.56113	0	0	0	0	-0	0	0	0	-0.1265	0	-0	0	0	0	0	0	-0	0	0.105	0.015	0	0	-0	0	0	0.098	0.1	0	-0	0	0	0	0	0	-0	0	0.05595	0	0	0	-0	0	0	0	0	0	-0	0	545.986	551.034	324.902	201.626	-0.551751	1.07493	0.0395422	-0.0320881	-0.374307
6	-0.0146906	0.0177913	0.0469878	0.00171898	0.00429353	0.00930248	0.0263229	-0.031045	-0.000346013	0.000161792	0.000314904	-0.00263033	0.0554215	-0.00325021	0.0144904	-2.20488	0.00386656	-1.56495	0	0	0	0	-0	0	0	0	-0.1265	0	-0	0	0	0	0	0	-0	0	0.105	0.015	0	0	-0	0	0	0.098	0.1	0	-0	0	0	0	0	0	-0	0	0.05595	0	0	0	-0	0	0	0	0	0	-0	0	546.032	551.034	324.891	201.625	-0.471108	0.653241	0.0409897	-0.0343772	-0.596635
7	-0.0139983	0.0209649	0.0458692	0.00153336	0.00226478	0.00884154	0.0262544	-0.0309787	-0.000399384	-0.00117792	-0.00066812	-0.00202395	0.0552942	-0.00327254	0.014784	-2.20405	0.00200214	-1.56784	0	0	0	0	-0	0	0	0	-0.1265	0	-0	0	0	0	0	0	-0	0	0.105	0.015	0	0	-0	0	0	0.098	0.1	0	-0	0	0	0	0	0	-0	0	0.05595	0	0	0	-0	0	0	0	0	0	-0	0	546.094	551.066	324.868	201.633	-0.434494	0.474286	0.0408796	-0.0361122	-0.688076
8	-0.00974042	0.0223118	0.0453076	0.00112137	0.00141051	0.00873585	0.0262263	-0.0309476	-0.000459665	0.00195927	0.00136752	-0.0033579	0.0551722	-0.00324873	0.0151634	-2.20013	0.00113859	-1.56915	0	0	0	0	-0	0	0	0	-0.1265	0	-0	0	0	0	0	0	-0	0	0.105	0.015	0	0	-0	0	0	0.098	0.1	0	-0	0	0	0	0	0	-0	0	0.05595	0	0	0	-0	0	0	0	0	0	-0	0	546.266	551.204	324.809	201.702	-0.417594	0.347575	0.0412595	-0.0371346	-0.532045
9	-0.0135328	0.0228444	0.0449718	0.000696793	0.00108322	0.00876296	0.0262172	-0.030933	-0.000507656	0.00120723	0.0108998	0.0120095	0.0551068	-0.00321751	0.0151321	-2.20482	0.000953567	-1.56952	0	0	0	0	-0	0	0	0	-0.1265	0	-0	0	0	0	0	0	-0	0	0.105	0.015	0	0	-0	0	0	0.098	0.1	0	-0	0	0	0	0	0	-0	0	0.05595	0	0	0	-0	0	0	0	0	0	-0	0	546.731	551.639	324.606	201.944	-0.391767	0.122678	0.0417427	-0.0377055	-0.0584203
10	-0.0234736	0.0231196	0.0447213	0.00040342	0.000918443	0.00882426	0.0262127	-0.0309247	-0.000545116	-0.0136442	0.00453457	-0.000262962	0.0551573	-0.00318754	0.0147193	-2.21554	0.00104072	-1.56952	0	0	0	0	-0	0	0	0	-0.1265	0	-0	0	0	0	0	0	-0	0	0.105	0.015	0	0	-0	0	0	0.098	0.1	0	-0	0	0	0	0	0	-0	0	0.05595	0	0	0	-0	0	0	0	0	0	-0	0	547.152	552.081	324.321	202.173	-0.369937	-0.0678468	0.0419769	-0.0380595	0.36488
11	-0.0214779	0.0233748	0.0444914	0.000230018	0.00084382	0.00887231	0.0262135	-0.0309164	-0.000540374	-0.039823	0.0386014	0.0254841	0.0549486	-0.00317181	0.0150453	-2.21576	0.00284143	-1.56774	0	0	0	0	-0	0	0	0	-0.1265	0	-0	0	0	0	0	0	-0	0	0.105	0.015	0	0	-0	0	0	0.098	0.1	0	-0	0	0	0	0	0	-0	0	0.05595	0	0	0	-0	0	0	0	0	0	-0	0	548.616	553.712	322.721	203.054	-0.348421	-0.294188	0.0419441	-0.0383892	0.946898
12	-0.000599792	0.0235642	0.0442688	0.000321593	0.000732631	0.00897645	0.0262268	-0.0308847	-0.00053118	-0.0130873	-0.021011	0.0157833	0.0545677	-0.00314805	0.0162952	-2.19595	0.00390543	-1.56668	0	0	0	0	-0	0	0	0	-0.1265	0	-0	0	0	0	0	0	-0	0	0.105	0.015	0	0	-0	0	0	0.098	0.1	0	-0	0	0	0	0	0	-0	0	0.05595	0	0	0	-0	0	0	0	0	0	-0	0	549.292	554.518	321.713	203.452	-0.330315	-0.494949	0.0420627	-0.0386201	1.47498
13	-0.0164074	0.0237385	0.0441557	0.000170626	0.000670384	0.00902493	0.0262004	-0.0308975	-0.000564891	-0.0505038	0.000441991	0.00573005	0.0547385	-0.00313233	0.0155151	-2.21243	0.00492899	-1.56585	0	0	0	0	-0	0	0	0	-0.1265	0	-0	0	0	0	0	0	-0	0	0.105	0.015	0	0	-0	0	0	0.098	0.1	0	-0	0	0	0	0	0	-0	0	0.05595	0	0	0	-0	0	0	0	0	0	-0	0	549.773	555.104	320.831	203.718	-0.310529	-0.668788	0.0416928	-0.0387248	1.91578
14	-0.00313475	0.023766	0.0441116	-8.37742e-05	0.000618289	0.00903309	0.0261974	-0.0308883	-0.000592365	-0.0543921	0.00181955	-2.57894e-05	0.0544548	-0.0031233	0.0163306	-2.19954	0.0051733	-1.56528	0	0	0	0	-0	0	0	0	-0.1265	0	-0	0	0	0	0	0	-0	0	0.105	0.015	0	0	-0	0	0	0.098	0.1	0	-0	0	0	0	0	0	-0	0	0.05595	0	0	0	-0	0	0	0	0	0	-0	0	549.995	555.34	320.444	203.833	-0.294097	-0.767599	0.041255	-0.0387494	2.11455
15	0.00112021	0.0237871	0.0440541	-0.000273114	0.000561442	0.00906169	0.0262048	-0.0308955	-0.000618273	-0.045127	-0.00653626	0.0279104	0.0543182	-0.00311207	0.016643	-2.19577	0.00569348	-1.56455	0	0	0	0	-0	0	0	0	-0.1265	0	-0	0	0	0	0	0	-0	0	0.105	0.015	0	0	-0	0	0	0.098	0.1	0	-0	0	0	0	0	0	-0	0	0.05595	0	0	0	-0	0	0	0	0	0	-0	0	550.285	555.651	319.893	203.995	-0.278373	-0.884874	0.0409512	-0.0387985	2.39215
16	-0.028571	0.0239447	0.0439641	-0.000385288	0.000529465	0.00906937	0.0262065	-0.0309006	-0.0006178	-0.059451	-0.00477025	0.0592543	0.0547248	-0.00310451	0.015128	-2.22628	0.00738675	-1.56321	0	0	0	0	-0	0	0	0	-0.1265	0	-0	0	0	0	0	0	-0	0	0.105	0.015	0	0	-0	0	0	0.098	0.1	0	-0	0	0	0	0	0	-0	0	0.05595	0	0	0	-0	0	0	0	0	0	-0	0	550.881	556.266	318.571	204.311	-0.260209	-1.05257	0.0407229	-0.0388383	2.84724
17	-0.0306422	0.0240741	0.0438984	-0.000461109	0.000505932	0.00908011	0.0262174	-0.0309057	-0.000620949	-0.0710481	-0.0198568	0.0225196	0.0546449	-0.00310332	0.0151339	-2.22939	0.0100299	-1.56066	0	0	0	0	-0	0	0	0	-0.1265	0	-0	0	0	0	0	0	-0	0	0.105	0.015	0	0	-0	0	0	0.098	0.1	0	-0	0	0	0	0	0	-0	0	0.05595	0	0	0	-0	0	0	0	0	0	-0	0	551.751	557.065	316.428	204.731	-0.237805	-1.26911	0.0404463	-0.0388235	3.45907
18	-0.0191606	0.0243767	0.0437524	-0.000267366	0.000491351	0.00913365	0.0261964	-0.0308807	-0.000596123	-0.0495256	-0.0270173	0.0120086	0.0543895	-0.00309703	0.0158673	-2.21893	0.014273	-1.55648	0	0	0	0	-0	0	0	0	-0.1265	0	-0	0	0	0	0	0	-0	0	0.105	0.015	0	0	-0	0	0	0.098	0.1	0	-0	0	0	0	0	0	-0	0	0.05595	0	0	0	-0	0	0	0	0	0	-0	0	552.829	557.895	312.886	205.141	-0.208878	-1.60894	0.040606	-0.0387745	4.48647
19	-0.00582758	0.0244642	0.0436963	-0.000268114	0.000418695	0.00919624	0.0261964	-0.0308747	-0.000592753	-0.0757476	-0.0335535	0.0185597	0.0541301	-0.00308713	0.0166687	-2.20595	0.0152916	-1.555	0	0	0	0	-0	0	0	0	-0.1265	0	-0	0	0	0	0	0	-0	0	0.105	0.015	0	0	-0	0	0	0.098	0.1	0	-0	0	0	0	0	0	-0	0	0.05595	0	0	0	-0	0	0	0	0	0	-0	0	553.124	558.093	311.795	205.247	-0.184883	-1.8584	0.0407284	-0.0387562	5.19073
20	-0.023231	0.0244993	0.043636	-0.000283994	0.000376478	0.00924663	0.0262103	-0.0308534	-0.000573876	-0.0984376	0.0146998	0.0376274	0.0543468	-0.0030829	0.015816	-2.22373	0.0174992	-1.55321	0	0	0	0	-0	0	0	0	-0.1265	0	-0	0	0	0	0	0	-0	0	0.105	0.015	0	0	-0	0	0	0.098	0.1	0	-0	0	0	0	0	0	-0	0	0.05595	0	0	0	-0	0	0	0	0	0	-0	0	553.5	558.311	310.159	205.372	-0.150952	-2.18983	0.0405964	-0.0386644	6.12979
21	-0.0472186	0.0245284	0.0435175	-0.000120667	0.000330594	0.00931861	0.0261948	-0.0308455	-0.000566259	-0.126584	0.034972	0.0347873	0.0547029	-0.00307045	0.0145477	-2.24791	0.0196274	-1.55206	0	0	0	0	-0	0	0	0	-0.1265	0	-0	0	0	0	0	0	-0	0	0.105	0.015	0	0	-0	0	0	0.098	0.1	0	-0	0	0	0	0	0	-0	0	0.05595	0	0	0	-0	0	0	0	0	0	-0	0	553.721	558.449	308.804	205.43	-0.123755	-2.48786	0.0405936	-0.0386191	7.0102
22	-0.040306	0.0244367	0.0434945	-0.000188233	0.000330164	0.00936382	0.0261998	-0.0308503	-0.000595229	-0.159902	0.0656238	0.00853687	0.0545074	-0.00307418	0.0150304	-2.24127	0.02225	-1.54906	0	0	0	0	-0	0	0	0	-0.1265	0	-0	0	0	0	0	0	-0	0	0.105	0.015	0	0	-0	0	0	0.098	0.1	0	-0	0	0	0	0	0	-0	0	0.05595	0	0	0	-0	0	0	0	0	0	-0	0	554.093	558.569	306.62	205.518	-0.076318	-2.92809	0.040114	-0.0384398	8.26439
23	-0.0222619	0.0245305	0.0434736	-0.000382226	0.000303553	0.00932745	0.0262182	-0.0308417	-0.000593141	-0.165997	0.0290662	-0.0028949	0.0541451	-0.00307741	0.0161205	-2.22339	0.0239214	-1.54645	0	0	0	0	-0	0	0	0	-0.1265	0	-0	0	0	0	0	0	-0	0	0.105	0.015	0	0	-0	0	0	0.098	0.1	0	-0	0	0	0	0	0	-0	0	0.05595	0	0	0	-0	0	0	0	0	0	-0	0	554.342	558.611	304.827	205.537	-0.0351805	-3.30505	0.0397296	-0.0383593	9.35872
24	-0.0157232	0.0247194	0.0433676	-0.000351052	0.000256921	0.009332	0.0262061	-0.0308377	-0.000583594	-0.18505	0.0143674	0.00842437	0.0539906	-0.00306531	0.0165336	-2.21687	0.0259994	-1.54413	0	0	0	0	-0	0	0	0	-0.1265	0	-0	0	0	0	0	0	-0	0	0.105	0.015	0	0	-0	0	0	0.098	0.1	0	-0	0	0	0	0	0	-0	0	0.05595	0	0	0	-0	0	0	0	0	0	-0	0	554.499	558.639	302.91	205.494	0.0045947	-3.71196	0.0394867	-0.0382848	10.5909
25	0.00294902	0.0247802	0.0432487	-0.00018334	0.000272264	0.0093959	0.0262033	-0.0308118	-0.000564834	-0.165653	-0.0241376	0.0123132	0.0536353	-0.00305694	0.0176019	-2.19807	0.0290897	-1.53992	0	0	0	0	-0	0	0	0	-0.1265	0	-0	0	0	0	0	0	-0	0	0.105	0.015	0	0	-0	0	0	0.098	0.1	0	-0	0	0	0	0	0	-0	0	0.05595	0	0	0	-0	0	0	0	0	0	-0	0	554.655	558.575	299.918	205.388	0.0668234	-4.339	0.038903	-0.0380817	12.4839
26	0.000248335	0.0247488	0.0431422	-8.6417e-05	0.000329498	0.00946067	0.0262135	-0.0308088	-0.00055839	-0.162191	-0.0516192	0.0390569	0.0536013	-0.00305326	0.0175394	-2.20035	0.0345655	-1.53405	0	0	0	0	-0	0	0	0	-0.1265	0	-0	0	0	0	0	0	-0	0	0.105	0.015	0	0	-0	0	0	0.098	0.1	0	-0	0	0	0	0	0	-0	0	0.05595	0	0	0	-0	0	0	0	0	0	-0	0	554.694	558.267	295.382	205.161	0.171908	-5.35583	0.0374831	-0.0378466	15.5401
27	0.0147597	0.0246695	0.0429355	0.000140971	0.000462955	0.00944727	0.0261977	-0.030786	-0.000540878	-0.222913	0.0204873	0.0292766	0.0532789	-0.00306029	0.0183825	-2.18512	0.0412477	-1.52555	0	0	0	0	-0	0	0	0	-0.1265	0	-0	0	0	0	0	0	-0	0	0.105	0.015	0	0	-0	0	0	0.098	0.1	0	-0	0	0	0	0	0	-0	0	0.05595	0	0	0	-0	0	0	0	0	0	-0	0	554.139	557.439	289.373	204.836	0.339871	-6.95319	0.0348019	-0.0378521	20.3316
28	0.0250481	0.0245107	0.0429735	-0.000186533	0.000500912	0.00931109	0.0262235	-0.0308185	-0.000539915	-0.208252	0.0323613	-0.0160277	0.0529864	-0.00307208	0.0190534	-2.17458	0.0430005	-1.52212	0	0	0	0	-0	0	0	0	-0.1265	0	-0	0	0	0	0	0	-0	0	0.105	0.015	0	0	-0	0	0	0.098	0.1	0	-0	0	0	0	0	0	-0	0	0.05595	0	0	0	-0	0	0	0	0	0	-0	0	553.814	556.952	287.356	204.611	0.433503	-7.77325	0.033381	-0.0383505	22.6763
29	0.0041417	0.0243335	0.042799	7.38342e-06	0.000618108	0.00923092	0.0262345	-0.0307756	-0.000479224	-0.221305	0.0835975	0.00797322	0.0533404	-0.00309318	0.0179982	-2.19567	0.0475679	-1.51895	0	0	0	0	-0	0	0	0	-0.1265	0	-0	0	0	0	0	0	-0	0	0.105	0.015	0	0	-0	0	0	0.098	0.1	0	-0	0	0	0	0	0	-0	0	0.05595	0	0	0	-0	0	0	0	0	0	-0	0	552.775	555.856	284.514	204.723	0.576324	-9.07944	0.0312901	-0.0389851	26.485
30	0.00823169	0.0242359	0.0426683	0.000105094	0.000670524	0.00928211	0.0262299	-0.0307923	-0.000466852	-0.185818	0.108187	0.0270274	0.0532521	-0.00307673	0.0182553	-2.19193	0.0485944	-1.5175	0	0	0	0	-0	0	0	0	-0.1265	0	-0	0	0	0	0	0	-0	0	0.105	0.015	0	0	-0	0	0	0.098	0.1	0	-0	0	0	0	0	0	-0	0	0.05595	0	0	0	-0	0	0	0	0	0	-0	0	552.129	555.265	283.569	204.858	0.652618	-9.74736	0.0302314	-0.039493	28.3571
31	0.0013974	0.0240987	0.0426534	0.000155641	0.000760993	0.00929534	0.0262192	-0.030782	-0.00045586	-0.155369	0.123072	0.0300349	0.0533457	-0.00308521	0.0179331	-2.19918	0.0498209	-1.51682	0	0	0	0	-0	0	0	0	-0.1265	0	-0	0	0	0	0	0	-0	0	0.105	0.015	0	0	-0	0	0	0.098	0.1	0	-0	0	0	0	0	0	-0	0	0.05595	0	0	0	-0	0	0	0	0	0	-0	0	551.726	554.778	282.94	205.056	0.706288	-10.209	0.0295208	-0.0398717	29.6643
32	0.00877354	0.0239394	0.0426549	0.000117119	0.00083778	0.00936993	0.0262337	-0.0307897	-0.000456239	-0.142646	0.133463	0.0732471	0.0531848	-0.00307037	0.0183705	-2.19261	0.0501354	-1.51544	0	0	0	0	-0	0	0	0	-0.1265	0	-0	0	0	0	0	0	-0	0	0.105	0.015	0	0	-0	0	0	0.098	0.1	0	-0	0	0	0	0	0	-0	0	0.05595	0	0	0	-0	0	0	0	0	0	-0	0	551.161	554.067	282.293	205.489	0.772018	-10.8161	0.0289632	-0.0402404	31.4393
33	0.000777197	0.0238048	0.042652	0.000176908	0.000917172	0.00939611	0.0262292	-0.0307627	-0.000454776	-0.145842	0.165546	0.0587667	0.053322	-0.00307752	0.017961	-2.20134	0.0511266	-1.51513	0	0	0	0	-0	0	0	0	-0.1265	0	-0	0	0	0	0	0	-0	0	0.105	0.015	0	0	-0	0	0	0.098	0.1	0	-0	0	0	0	0	0	-0	0	0.05595	0	0	0	-0	0	0	0	0	0	-0	0	550.732	553.53	281.905	205.904	0.817712	-11.2386	0.0285024	-0.0405897	32.7014
34	-0.011004	0.023691	0.0426976	7.53048e-05	0.000955271	0.00944412	0.0262198	-0.0307571	-0.000458217	-0.141036	0.141481	0.0614973	0.0535077	-0.00306442	0.0173694	-2.21347	0.0518312	-1.51544	0	0	0	0	-0	0	0	0	-0.1265	0	-0	0	0	0	0	0	-0	0	0.105	0.015	0	0	-0	0	0	0.098	0.1	0	-0	0	0	0	0	0	-0	0	0.05595	0	0	0	-0	0	0	0	0	0	-0	0	550.579	553.296	281.776	206.073	0.841022	-11.4291	0.0282316	-0.0407641	33.2243
35	-0.00871167	0.0235584	0.0427215	-4.94021e-05	0.00097496	0.00954831	0.0262289	-0.0307645	-0.00046933	-0.128334	0.169629	0.0600752	0.053447	-0.00304301	0.0175274	-2.21168	0.0517547	-1.51502	0	0	0	0	-0	0	0	0	-0.1265	0	-0	0	0	0	0	0	-0	0	0.105	0.015	0	0	-0	0	0	0.098	0.1	0	-0	0	0	0	0	0	-0	0	0.05595	0	0	0	-0	0	0	0	0	0	-0	0	550.392	552.985	281.633	206.326	0.868134	-11.6788	0.0281106	-0.0409338	33.9486
36	-0.0178202	0.023394	0.0426954	-5.95741e-06	0.00105499	0.00962229	0.0262323	-0.0307708	-0.000461565	-0.143247	0.151656	0.0386133	0.0536165	-0.00303717	0.01703	-2.22191	0.0525878	-1.51499	0	0	0	0	-0	0	0	0	-0.1265	0	-0	0	0	0	0	0	-0	0	0.105	0.015	0	0	-0	0	0	0.098	0.1	0	-0	0	0	0	0	0	-0	0	0.05595	0	0	0	-0	0	0	0	0	0	-0	0	549.91	552.365	281.407	206.988	0.913053	-12.1495	0.0279412	-0.0412418	35.4406
37	-0.0239704	0.0232774	0.0426748	3.08749e-06	0.00110721	0.00968167	0.0262337	-0.0307646	-0.000458519	-0.151624	0.127111	0.030005	0.0537206	-0.00303084	0.016704	-2.22869	0.053086	-1.51502	0	0	0	0	-0	0	0	0	-0.1265	0	-0	0	0	0	0	0	-0	0	0.105	0.015	0	0	-0	0	0	0.098	0.1	0	-0	0	0	0	0	0	-0	0	0.05595	0	0	0	-0	0	0	0	0	0	-0	0	549.678	552.047	281.295	207.339	0.936954	-12.3879	0.0278583	-0.0414453	36.1804
38	-0.0343798	0.0231459	0.0426561	5.83029e-05	0.00119878	0.00977621	0.0262441	-0.0307789	-0.000468552	-0.142761	0.111092	0.0670721	0.0539191	-0.00302127	0.0161151	-2.24048	0.0539073	-1.51522	0	0	0	0	-0	0	0	0	-0.1265	0	-0	0	0	0	0	0	-0	0	0.105	0.015	0	0	-0	0	0	0.098	0.1	0	-0	0	0	0	0	0	-0	0	0.05595	0	0	0	-0	0	0	0	0	0	-0	0	549.15	551.415	281.133	208.161	0.980202	-12.8666	0.0277464	-0.0417295	37.7493
39	-0.0356037	0.0230527	0.0426947	7.42045e-05	0.00128095	0.00975431	0.0262442	-0.0307676	-0.000451988	-0.143791	0.14169	0.0797096	0.0539264	-0.00303783	0.0160499	-2.2424	0.0541783	-1.51496	0	0	0	0	-0	0	0	0	-0.1265	0	-0	0	0	0	0	0	-0	0	0.105	0.015	0	0	-0	0	0	0.098	0.1	0	-0	0	0	0	0	0	-0	0	0.05595	0	0	0	-0	0	0	0	0	0	-0	0	548.922	551.06	281.033	208.583	1.00273	-13.099	0.0276553	-0.0419499	38.5187
40	-0.0282038	0.0230038	0.0426506	0.000114064	0.00131245	0.00984909	0.0262472	-0.0307791	-0.000447143	-0.154613	0.130565	0.0475491	0.0538303	-0.00302104	0.0164346	-2.23568	0.053835	-1.51446	0	0	0	0	-0	0	0	0	-0.1265	0	-0	0	0	0	0	0	-0	0	0.105	0.015	0	0	-0	0	0	0.098	0.1	0	-0	0	0	0	0	0	-0	0	0.05595	0	0	0	-0	0	0	0	0	0	-0	0	548.678	550.792	280.971	208.96	1.02102	-13.3018	0.0276618	-0.0421007	39.1721
41	-0.0609656	0.022895	0.0426366	0.00020839	0.00140767	0.00991355	0.0262341	-0.0307711	-0.000442795	-0.178928	0.142382	0.039553	0.0544081	-0.00301931	0.0146173	-2.26983	0.0559241	-1.51593	0	0	0	0	-0	0	0	0	-0.1265	0	-0	0	0	0	0	0	-0	0	0.105	0.015	0	0	-0	0	0	0.098	0.1	0	-0	0	0	0	0	0	-0	0	0.05595	0	0	0	-0	0	0	0	0	0	-0	0	548.171	550.242	280.832	209.812	1.05627	-13.712	0.0274853	-0.0423682	40.5782
42	-0.050938	0.0227102	0.0428455	5.22078e-05	0.00153661	0.00996616	0.026245	-0.0308248	-0.000481724	-0.124752	0.133247	0.0726216	0.0542233	-0.00303191	0.0151733	-2.26172	0.0554829	-1.51494	0	0	0	0	-0	0	0	0	-0.1265	0	-0	0	0	0	0	0	-0	0	0.105	0.015	0	0	-0	0	0	0.098	0.1	0	-0	0	0	0	0	0	-0	0	0.05595	0	0	0	-0	0	0	0	0	0	-0	0	547.752	549.418	280.743	210.942	1.10472	-14.3109	0.0279466	-0.0426197	42.6854
43	-0.0471513	0.0226476	0.0429153	-2.00251e-05	0.00158425	0.00987952	0.0262529	-0.0308133	-0.000489018	-0.14894	0.143518	0.0391323	0.0541441	-0.00305576	0.0153875	-2.25894	0.055456	-1.51437	0	0	0	0	-0	0	0	0	-0.1265	0	-0	0	0	0	0	0	-0	0	0.105	0.015	0	0	-0	0	0	0.098	0.1	0	-0	0	0	0	0	0	-0	0	0.05595	0	0	0	-0	0	0	0	0	0	-0	0	547.503	548.971	280.628	211.534	1.1288	-14.5918	0.0280961	-0.0429315	43.6962
44	-0.0184637	0.0226216	0.0428991	-2.43393e-06	0.00161434	0.00988271	0.0262439	-0.0307965	-0.000466282	-0.127516	0.132842	0.0305666	0.0537161	-0.00305862	0.0169287	-2.23105	0.0539358	-1.51266	0	0	0	0	-0	0	0	0	-0.1265	0	-0	0	0	0	0	0	-0	0	0.105	0.015	0	0	-0	0	0	0.098	0.1	0	-0	0	0	0	0	0	-0	0	0.05595	0	0	0	-0	0	0	0	0	0	-0	0	547.245	548.657	280.567	211.986	1.1472	-14.8042	0.0281203	-0.0431562	44.4321
45	-0.0105647	0.0225588	0.0429425	-9.05123e-05	0.00162844	0.00997827	0.026242	-0.0307946	-0.000472589	-0.103175	0.124035	0.0358744	0.0535734	-0.00304745	0.0173604	-2.22377	0.0534629	-1.51211	0	0	0	0	-0	0	0	0	-0.1265	0	-0	0	0	0	0	0	-0	0	0.105	0.015	0	0	-0	0	0	0.098	0.1	0	-0	0	0	0	0	0	-0	0	0.05595	0	0	0	-0	0	0	0	0	0	-0	0	547.086	548.426	280.534	212.317	1.16307	-14.9794	0.0281872	-0.0432605	45.006
46	-0.0188899	0.0225293	0.0428551	-8.6093e-05	0.00164499	0.0100879	0.0262426	-0.0307848	-0.000471015	-0.107235	0.121434	0.0319301	0.0537268	-0.00303217	0.0169041	-2.23238	0.0539459	-1.51253	0	0	0	0	-0	0	0	0	-0.1265	0	-0	0	0	0	0	0	-0	0	0.105	0.015	0	0	-0	0	0	0.098	0.1	0	-0	0	0	0	0	0	-0	0	0.05595	0	0	0	-0	0	0	0	0	0	-0	0	546.998	548.335	280.531	212.471	1.16871	-15.0524	0.028323	-0.043304	45.232
47	-0.00966572	0.0225121	0.0427571	-4.71836e-05	0.0016836	0.0101925	0.0262428	-0.0307809	-0.000467811	-0.103312	0.122642	0.0409438	0.0535887	-0.00301881	0.0173718	-2.22352	0.0534223	-1.51203	0	0	0	0	-0	0	0	0	-0.1265	0	-0	0	0	0	0	0	-0	0	0.105	0.015	0	0	-0	0	0	0.098	0.1	0	-0	0	0	0	0	0	-0	0	0.05595	0	0	0	-0	0	0	0	0	0	-0	0	546.862	548.213	280.533	212.691	1.17511	-15.142	0.028398	-0.0433448	45.5374
48	-0.0263819	0.022483	0.0426862	1.23762e-05	0.00173554	0.0102784	0.0262482	-0.0307801	-0.000462357	-0.110901	0.106296	0.034735	0.0539034	-0.00300905	0.0164377	-2.24075	0.0544277	-1.51291	0	0	0	0	-0	0	0	0	-0.1265	0	-0	0	0	0	0	0	-0	0	0.105	0.015	0	0	-0	0	0	0.098	0.1	0	-0	0	0	0	0	0	-0	0	0.05595	0	0	0	-0	0	0	0	0	0	-0	0	546.661	548.036	280.536	213.019	1.18476	-15.2708	0.0283777	-0.0434124	45.9971
49	-0.0379822	0.0224895	0.0426586	3.85428e-05	0.00177506	0.010328	0.0262469	-0.0307769	-0.000460339	-0.114866	0.12307	0.0360175	0.0540986	-0.00300434	0.0157909	-2.25273	0.0551175	-1.51353	0	0	0	0	-0	0	0	0	-0.1265	0	-0	0	0	0	0	0	-0	0	0.105	0.015	0	0	-0	0	0	0.098	0.1	0	-0	0	0	0	0	0	-0	0	0.05595	0	0	0	-0	0	0	0	0	0	-0	0	546.513	547.902	280.527	213.261	1.19321	-15.3679	0.028285	-0.0434951	46.3394
50	-0.0457825	0.0224608	0.042629	0.000107781	0.00182358	0.0103895	0.0262492	-0.0307815	-0.000455586	-0.105971	0.129876	0.0233802	0.054244	-0.00299844	0.01533	-2.2611	0.0556136	-1.51391	0	0	0	0	-0	0	0	0	-0.1265	0	-0	0	0	0	0	0	-0	0	0.105	0.015	0	0	-0	0	0	0.098	0.1	0	-0	0	0	0	0	0	-0	0	0.05595	0	0	0	-0	0	0	0	0	0	-0	0	546.29	547.701	280.515	213.62	1.20416	-15.509	0.0282145	-0.0435716	46.8485
51	-0.0352559	0.0224277	0.0426003	0.000197676	0.00187822	0.0104475	0.0262503	-0.0307816	-0.000453398	-0.115738	0.140579	0.00680075	0.0541172	-0.00299297	0.0158474	-2.2514	0.0551071	-1.51325	0	0	0	0	-0	0	0	0	-0.1265	0	-0	0	0	0	0	0	-0	0	0.105	0.015	0	0	-0	0	0	0.098	0.1	0	-0	0	0	0	0	0	-0	0	0.05595	0	0	0	-0	0	0	0	0	0	-0	0	545.962	547.428	280.482	214.142	1.22099	-15.7181	0.0280029	-0.0437067	47.609
52	-0.0298791	0.0224373	0.0425895	0.000223683	0.0019059	0.010486	0.0262491	-0.0307796	-0.000448226	-0.112734	0.146027	0.0144233	0.054029	-0.00299061	0.0161356	-2.24626	0.0548049	-1.51293	0	0	0	0	-0	0	0	0	-0.1265	0	-0	0	0	0	0	0	-0	0	0.105	0.015	0	0	-0	0	0	0.098	0.1	0	-0	0	0	0	0	0	-0	0	0.05595	0	0	0	-0	0	0	0	0	0	-0	0	545.877	547.353	280.47	214.281	1.22753	-15.7793	0.0278956	-0.0437778	47.8054
53	-0.0168758	0.0223804	0.0425672	0.000321115	0.00196255	0.0105546	0.0262527	-0.0307825	-0.000429927	-0.134119	0.169639	0.0274964	0.0538624	-0.00298544	0.01678	-2.23413	0.0541594	-1.51211	0	0	0	0	-0	0	0	0	-0.1265	0	-0	0	0	0	0	0	-0	0	0.105	0.015	0	0	-0	0	0	0.098	0.1	0	-0	0	0	0	0	0	-0	0	0.05595	0	0	0	-0	0	0	0	0	0	-0	0	545.536	547.057	280.433	214.834	1.24438	-15.9996	0.0277394	-0.0438885	48.6158
54	-0.0280298	0.0223111	0.0425	0.000471966	0.00200732	0.0106331	0.0262509	-0.0307771	-0.000421973	-0.123254	0.164399	0.0305623	0.0540854	-0.00298053	0.0161308	-2.24582	0.0549361	-1.51261	0	0	0	0	-0	0	0	0	-0.1265	0	-0	0	0	0	0	0	-0	0	0.105	0.015	0	0	-0	0	0	0.098	0.1	0	-0	0	0	0	0	0	-0	0	0.05595	0	0	0	-0	0	0	0	0	0	-0	0	545.309	546.893	280.414	215.183	1.25389	-16.1292	0.02764	-0.0439444	49.0891
55	-0.0357232	0.0222655	0.042497	0.000519873	0.00203968	0.0106769	0.0262532	-0.0307768	-0.000419964	-0.119243	0.170032	0.0261866	0.0542103	-0.00298151	0.0157037	-2.25373	0.0554183	-1.51294	0	0	0	0	-0	0	0	0	-0.1265	0	-0	0	0	0	0	0	-0	0	0.105	0.015	0	0	-0	0	0	0.098	0.1	0	-0	0	0	0	0	0	-0	0	0.05595	0	0	0	-0	0	0	0	0	0	-0	0	545.225	546.816	280.408	215.326	1.25954	-16.1877	0.027543	-0.043977	49.2833
56	-0.0396367	0.0221988	0.0425001	0.000595268	0.00209337	0.0107243	0.0262653	-0.03079	-0.000414815	-0.134808	0.158857	0.0448223	0.0543086	-0.00297967	0.015437	-2.25851	0.05574	-1.51303	0	0	0	0	-0	0	0	0	-0.1265	0	-0	0	0	0	0	0	-0	0	0.105	0.015	0	0	-0	0	0	0.098	0.1	0	-0	0	0	0	0	0	-0	0	0.05595	0	0	0	-0	0	0	0	0	0	-0	0	544.901	546.516	280.382	215.878	1.27608	-16.4022	0.0273615	-0.0441021	50.086
57	-0.0224816	0.0222307	0.0424715	0.00064842	0.00211643	0.0107388	0.0262582	-0.0307814	-0.000409544	-0.141198	0.156111	0.0489393	0.0540575	-0.0029767	0.0163483	-2.24181	0.0548221	-1.51206	0	0	0	0	-0	0	0	0	-0.1265	0	-0	0	0	0	0	0	-0	0	0.105	0.015	0	0	-0	0	0	0.098	0.1	0	-0	0	0	0	0	0	-0	0	0.05595	0	0	0	-0	0	0	0	0	0	-0	0	544.714	546.382	280.336	216.154	1.28698	-16.5141	0.0270944	-0.0442647	50.484
58	-0.0219976	0.0221871	0.0425098	0.000686751	0.00216417	0.0107827	0.0262621	-0.0307857	-0.000407853	-0.140164	0.154769	0.0662609	0.0540642	-0.00297795	0.0163462	-2.24196	0.0548847	-1.51189	0	0	0	0	-0	0	0	0	-0.1265	0	-0	0	0	0	0	0	-0	0	0.105	0.015	0	0	-0	0	0	0.098	0.1	0	-0	0	0	0	0	0	-0	0	0.05595	0	0	0	-0	0	0	0	0	0	-0	0	544.484	546.158	280.286	216.551	1.30084	-16.6798	0.0269423	-0.0443503	51.0852
59	-0.0186889	0.0221449	0.0424999	0.000775916	0.00221693	0.0108405	0.0262643	-0.0307844	-0.000403078	-0.139339	0.140247	0.0767418	0.0540504	-0.00297423	0.0164724	-2.23958	0.0548311	-1.51157	0	0	0	0	-0	0	0	0	-0.1265	0	-0	0	0	0	0	0	-0	0	0.105	0.015	0	0	-0	0	0	0.098	0.1	0	-0	0	0	0	0	0	-0	0	0.05595	0	0	0	-0	0	0	0	0	0	-0	0	544.13	545.854	280.221	217.132	1.32023	-16.9218	0.0266906	-0.0445137	51.9797
60	-0.0124862	0.0220944	0.0424968	0.0008882	0.00229431	0.0109203	0.0262595	-0.0307925	-0.000390671	-0.109709	0.118526	0.0768368	0.0540017	-0.00296989	0.0167379	-2.23468	0.0546298	-1.51106	0	0	0	0	-0	0	0	0	-0.1265	0	-0	0	0	0	0	0	-0	0	0.105	0.015	0	0	-0	0	0	0.098	0.1	0	-0	0	0	0	0	0	-0	0	0.05595	0	0	0	-0	0	0	0	0	0	-0	0	543.633	545.426	280.144	217.942	1.34866	-17.2763	0.0263326	-0.044727	53.2923
61	-0.0171847	0.0219975	0.042473	0.000999131	0.00234446	0.0110061	0.0262687	-0.0307859	-0.000385927	-0.119689	0.143309	0.0680301	0.0541043	-0.00296835	0.0164556	-2.23996	0.0550172	-1.51112	0	0	0	0	-0	0	0	0	-0.1265	0	-0	0	0	0	0	0	-0	0	0.105	0.015	0	0	-0	0	0	0.098	0.1	0	-0	0	0	0	0	0	-0	0	0.05595	0	0	0	-0	0	0	0	0	0	-0	0	543.422	545.231	280.115	218.302	1.36085	-17.4251	0.0262534	-0.0448075	53.8208
62	-0.0254678	0.0219846	0.0424652	0.00104989	0.00239006	0.0110652	0.02627	-0.0307898	-0.00037919	-0.11662	0.145755	0.0557239	0.0542624	-0.00296595	0.0159772	-2.24892	0.0555911	-1.51148	0	0	0	0	-0	0	0	0	-0.1265	0	-0	0	0	0	0	0	-0	0	0.105	0.015	0	0	-0	0	0	0.098	0.1	0	-0	0	0	0	0	0	-0	0	0.05595	0	0	0	-0	0	0	0	0	0	-0	0	543.165	544.995	280.074	218.727	1.37628	-17.6045	0.0260362	-0.0449603	54.4751
63	-0.00381683	0.0219293	0.042461	0.00113716	0.00245301	0.0111328	0.0262825	-0.0307966	-0.000348083	-0.141309	0.18453	0.0772958	0.0539563	-0.0029632	0.0170984	-2.22826	0.0544491	-1.51012	0	0	0	0	-0	0	0	0	-0.1265	0	-0	0	0	0	0	0	-0	0	0.105	0.015	0	0	-0	0	0	0.098	0.1	0	-0	0	0	0	0	0	-0	0	0.05595	0	0	0	-0	0	0	0	0	0	-0	0	542.797	544.668	280.007	219.34	1.39714	-17.8672	0.0257864	-0.0451339	55.4576
64	0.00842547	0.0218869	0.0423644	0.00130898	0.0024879	0.011203	0.026274	-0.0307851	-0.000342585	-0.139606	0.175033	0.0794971	0.0537668	-0.00296013	0.0177273	-2.21624	0.0538666	-1.50938	0	0	0	0	-0	0	0	0	-0.1265	0	-0	0	0	0	0	0	-0	0	0.105	0.015	0	0	-0	0	0	0.098	0.1	0	-0	0	0	0	0	0	-0	0	0.05595	0	0	0	-0	0	0	0	0	0	-0	0	542.68	544.611	279.986	219.485	1.40114	-17.922	0.0257314	-0.045186	55.6525
65	0.0235038	0.0218114	0.0423871	0.00139143	0.0025563	0.0112624	0.0262759	-0.0307856	-0.000338287	-0.108886	0.12954	0.0814213	0.0535343	-0.00296029	0.0184841	-2.202	0.0530586	-1.50838	0	0	0	0	-0	0	0	0	-0.1265	0	-0	0	0	0	0	0	-0	0	0.105	0.015	0	0	-0	0	0	0.098	0.1	0	-0	0	0	0	0	0	-0	0	0.05595	0	0	0	-0	0	0	0	0	0	-0	0	542.35	544.331	279.932	220.019	1.41859	-18.1394	0.025428	-0.0453021	56.4696
66	0.0281645	0.0217773	0.0423883	0.00143917	0.0025819	0.0113112	0.0262765	-0.0307876	-0.000338058	-0.108984	0.139765	0.0771221	0.0534482	-0.0029603	0.0187257	-2.19759	0.0527959	-1.50804	0	0	0	0	-0	0	0	0	-0.1265	0	-0	0	0	0	0	0	-0	0	0.105	0.015	0	0	-0	0	0	0.098	0.1	0	-0	0	0	0	0	0	-0	0	0.05595	0	0	0	-0	0	0	0	0	0	-0	0	542.253	544.249	279.92	220.172	1.42522	-18.2055	0.0253078	-0.0453545	56.6891
67	0.0317137	0.0217485	0.0423795	0.00147206	0.00260638	0.0113495	0.0262781	-0.0307916	-0.00033599	-0.115296	0.138041	0.0882846	0.0533939	-0.00295841	0.0188986	-2.19439	0.0526129	-1.50777	0	0	0	0	-0	0	0	0	-0.1265	0	-0	0	0	0	0	0	-0	0	0.105	0.015	0	0	-0	0	0	0.098	0.1	0	-0	0	0	0	0	0	-0	0	0.05595	0	0	0	-0	0	0	0	0	0	-0	0	542.123	544.138	279.899	220.383	1.43253	-18.2888	0.0251788	-0.0454309	56.9901
68	0.0387327	0.0217353	0.0423572	0.00149502	0.00262071	0.0113775	0.0262763	-0.0307891	-0.000334507	-0.115072	0.134218	0.0879673	0.0532647	-0.0029565	0.0192685	-2.18752	0.0521959	-1.50736	0	0	0	0	-0	0	0	0	-0.1265	0	-0	0	0	0	0	0	-0	0	0.105	0.015	0	0	-0	0	0	0.098	0.1	0	-0	0	0	0	0	0	-0	0	0.05595	0	0	0	-0	0	0	0	0	0	-0	0	542.066	544.095	279.888	220.472	1.43627	-18.3256	0.0251082	-0.0454846	57.1122
69	0.0446071	0.0216897	0.0423591	0.00153203	0.00265687	0.0114181	0.0262895	-0.0307975	-0.000333091	-0.099132	0.15642	0.0907488	0.0531789	-0.00295439	0.0195479	-2.1822	0.0519008	-1.50693	0	0	0	0	-0	0	0	0	-0.1265	0	-0	0	0	0	0	0	-0	0	0.105	0.015	0	0	-0	0	0	0.098	0.1	0	-0	0	0	0	0	0	-0	0	0.05595	0	0	0	-0	0	0	0	0	0	-0	0	541.858	543.909	279.849	220.817	1.44663	-18.4597	0.0249667	-0.0455678	57.6232
70	0.0388448	0.0217566	0.0423378	0.00155152	0.00267086	0.011432	0.026283	-0.0307957	-0.000330566	-0.10334	0.155078	0.075995	0.0532984	-0.00295298	0.0192342	-2.18825	0.0523334	-1.50725	0	0	0	0	-0	0	0	0	-0.1265	0	-0	0	0	0	0	0	-0	0	0.105	0.015	0	0	-0	0	0	0.098	0.1	0	-0	0	0	0	0	0	-0	0	0.05595	0	0	0	-0	0	0	0	0	0	-0	0	541.734	543.828	279.807	220.988	1.45457	-18.5317	0.0247183	-0.0457203	57.8765
71	0.0307416	0.0217434	0.0423447	0.00158708	0.0027057	0.0114685	0.0262825	-0.0307929	-0.000326302	-0.105968	0.171516	0.0793407	0.0534725	-0.00295111	0.0187812	-2.19676	0.0529321	-1.50758	0	0	0	0	-0	0	0	0	-0.1265	0	-0	0	0	0	0	0	-0	0	0.105	0.015	0	0	-0	0	0	0.098	0.1	0	-0	0	0	0	0	0	-0	0	0.05595	0	0	0	-0	0	0	0	0	0	-0	0	541.565	543.702	279.751	221.243	1.4639	-18.6374	0.0245281	-0.0458009	58.2589
72	0.0359694	0.0217041	0.0423467	0.00164631	0.00274638	0.0115233	0.0262789	-0.0307972	-0.000326616	-0.0803988	0.145118	0.0885887	0.0534041	-0.00294798	0.0190243	-2.19212	0.0527084	-1.50716	0	0	0	0	-0	0	0	0	-0.1265	0	-0	0	0	0	0	0	-0	0	0.105	0.015	0	0	-0	0	0	0.098	0.1	0	-0	0	0	0	0	0	-0	0	0.05595	0	0	0	-0	0	0	0	0	0	-0	0	541.326	543.508	279.69	221.615	1.47624	-18.7898	0.0243206	-0.0458907	58.8265
73	0.0508069	0.0216327	0.0423755	0.00169488	0.00279872	0.0115789	0.0262896	-0.0308036	-0.000323218	-0.0911585	0.12996	0.0975329	0.0531539	-0.00294682	0.0197776	-2.17814	0.0518724	-1.50617	0	0	0	0	-0	0	0	0	-0.1265	0	-0	0	0	0	0	0	-0	0	0.105	0.015	0	0	-0	0	0	0.098	0.1	0	-0	0	0	0	0	0	-0	0	0.05595	0	0	0	-0	0	0	0	0	0	-0	0	541.026	543.219	279.616	222.138	1.49426	-19.0168	0.0241201	-0.046031	59.6847
74	0.0649699	0.0216436	0.0423871	0.00172462	0.0028282	0.0116118	0.0262859	-0.0308027	-0.00031924	-0.0932291	0.131554	0.0928189	0.0528873	-0.00294615	0.020511	-2.16461	0.0510533	-1.50532	0	0	0	0	-0	0	0	0	-0.1265	0	-0	0	0	0	0	0	-0	0	0.105	0.015	0	0	-0	0	0	0.098	0.1	0	-0	0	0	0	0	0	-0	0	0.05595	0	0	0	-0	0	0	0	0	0	-0	0	540.788	543.012	279.54	222.517	1.51004	-19.19	0.0238429	-0.0462157	60.3189
75	0.0546065	0.0216249	0.0423934	0.00175101	0.00284753	0.0116597	0.0262858	-0.0308034	-0.000315887	-0.0935545	0.132382	0.0976547	0.0531004	-0.00294568	0.0199593	-2.17524	0.0517684	-1.50576	0	0	0	0	-0	0	0	0	-0.1265	0	-0	0	0	0	0	0	-0	0	0.105	0.015	0	0	-0	0	0	0.098	0.1	0	-0	0	0	0	0	0	-0	0	0.05595	0	0	0	-0	0	0	0	0	0	-0	0	540.688	542.921	279.511	222.682	1.51732	-19.2662	0.0237658	-0.0462781	60.5773
76	0.0530139	0.0215889	0.0423817	0.0017888	0.00287188	0.011709	0.0262914	-0.0308093	-0.000312474	-0.109192	0.120576	0.0970309	0.0531471	-0.00294367	0.0198558	-2.17721	0.051943	-1.50573	0	0	0	0	-0	0	0	0	-0.1265	0	-0	0	0	0	0	0	-0	0	0.105	0.015	0	0	-0	0	0	0.098	0.1	0	-0	0	0	0	0	0	-0	0	0.05595	0	0	0	-0	0	0	0	0	0	-0	0	540.547	542.798	279.474	222.912	1.52532	-19.3636	0.0236677	-0.0463485	60.9347
77	0.0610572	0.0215899	0.0423453	0.00183464	0.00289485	0.011745	0.02629	-0.030807	-0.00030747	-0.115425	0.115388	0.0857767	0.0530028	-0.00294098	0.0202664	-2.16948	0.051505	-1.50525	0	0	0	0	-0	0	0	0	-0.1265	0	-0	0	0	0	0	0	-0	0	0.105	0.015	0	0	-0	0	0	0.098	0.1	0	-0	0	0	0	0	0	-0	0	0.05595	0	0	0	-0	0	0	0	0	0	-0	0	540.417	542.709	279.433	223.102	1.53265	-19.4428	0.0234882	-0.0464561	61.2215
78	0.0635772	0.0215836	0.0423257	0.0018645	0.00291601	0.0117815	0.0262882	-0.0308045	-0.00030453	-0.118284	0.117552	0.0787919	0.0529551	-0.00293948	0.0203949	-2.1671	0.0513808	-1.50508	0	0	0	0	-0	0	0	0	-0.1265	0	-0	0	0	0	0	0	-0	0	0.105	0.015	0	0	-0	0	0	0.098	0.1	0	-0	0	0	0	0	0	-0	0	0.05595	0	0	0	-0	0	0	0	0	0	-0	0	540.362	542.672	279.416	223.183	1.53626	-19.4783	0.0234206	-0.046498	61.3364
79	0.0701762	0.0215393	0.0423157	0.00192025	0.00295602	0.0118298	0.0262902	-0.0308088	-0.000302962	-0.105686	0.113069	0.0932284	0.0528516	-0.00293636	0.0207094	-2.16101	0.0510494	-1.5046	0	0	0	0	-0	0	0	0	-0.1265	0	-0	0	0	0	0	0	-0	0	0.105	0.015	0	0	-0	0	0	0.098	0.1	0	-0	0	0	0	0	0	-0	0	0.05595	0	0	0	-0	0	0	0	0	0	-0	0	540.162	542.513	279.36	223.502	1.54601	-19.6039	0.0232386	-0.0465756	61.8157
80	0.0524353	0.0215052	0.0423263	0.00197133	0.00300266	0.0118744	0.0262937	-0.0308098	-0.000296638	-0.101645	0.123748	0.101935	0.0532511	-0.00293473	0.0197351	-2.17945	0.0523429	-1.50534	0	0	0	0	-0	0	0	0	-0.1265	0	-0	0	0	0	0	0	-0	0	0.105	0.015	0	0	-0	0	0	0.098	0.1	0	-0	0	0	0	0	0	-0	0	0.05595	0	0	0	-0	0	0	0	0	0	-0	0	539.892	542.277	279.278	223.948	1.56147	-19.7928	0.0229788	-0.0467278	62.5341
81	0.0722534	0.0214582	0.0423671	0.00202373	0.00306032	0.0119234	0.0262973	-0.0308358	-0.000292783	-0.0647839	0.125404	0.104041	0.0528906	-0.00293476	0.0207463	-2.16062	0.0511902	-1.50409	0	0	0	0	-0	0	0	0	-0.1265	0	-0	0	0	0	0	0	-0	0	0.105	0.015	0	0	-0	0	0	0.098	0.1	0	-0	0	0	0	0	0	-0	0	0.05595	0	0	0	-0	0	0	0	0	0	-0	0	539.535	541.93	279.18	224.551	1.584	-20.0773	0.0227417	-0.0469193	63.6225
82	0.0597336	0.0214502	0.0424092	0.00203732	0.00308247	0.0119318	0.0262963	-0.0308224	-0.000291166	-0.0678294	0.12721	0.1039	0.053146	-0.00294092	0.0200809	-2.17366	0.0521558	-1.50453	0	0	0	0	-0	0	0	0	-0.1265	0	-0	0	0	0	0	0	-0	0	0.105	0.015	0	0	-0	0	0	0.098	0.1	0	-0	0	0	0	0	0	-0	0	0.05595	0	0	0	-0	0	0	0	0	0	-0	0	539.363	541.768	279.077	224.858	1.59878	-20.2256	0.0224662	-0.0471354	64.158
83	0.0634963	0.0214335	0.042394	0.00207573	0.00310103	0.0119859	0.0262973	-0.0308208	-0.000287082	-0.0729826	0.126062	0.0923392	0.0530721	-0.0029377	0.0202759	-2.17014	0.0519511	-1.50426	0	0	0	0	-0	0	0	0	-0.1265	0	-0	0	0	0	0	0	-0	0	0.105	0.015	0	0	-0	0	0	0.098	0.1	0	-0	0	0	0	0	0	-0	0	0.05595	0	0	0	-0	0	0	0	0	0	-0	0	539.273	541.7	279.049	224.995	1.60513	-20.2913	0.0223984	-0.0471876	64.3712
84	0.070068	0.0214245	0.0423507	0.00213237	0.00312776	0.0120503	0.0263005	-0.03082	-0.000283174	-0.0769008	0.113444	0.103408	0.0529574	-0.00293302	0.0206047	-2.16389	0.0515956	-1.50385	0	0	0	0	-0	0	0	0	-0.1265	0	-0	0	0	0	0	0	-0	0	0.105	0.015	0	0	-0	0	0	0.098	0.1	0	-0	0	0	0	0	0	-0	0	0.05595	0	0	0	-0	0	0	0	0	0	-0	0	539.143	541.614	279.011	225.189	1.61206	-20.3735	0.0222582	-0.0472582	64.6685
85	0.0768776	0.0214252	0.0423291	0.00219849	0.0031769	0.0121186	0.0263017	-0.0308206	-0.000275752	-0.0829473	0.101997	0.0969997	0.0528536	-0.00292926	0.0209253	-2.15774	0.0512875	-1.50337	0	0	0	0	-0	0	0	0	-0.1265	0	-0	0	0	0	0	0	-0	0	0.105	0.015	0	0	-0	0	0	0.098	0.1	0	-0	0	0	0	0	0	-0	0	0.05595	0	0	0	-0	0	0	0	0	0	-0	0	538.874	541.407	278.928	225.6	1.62639	-20.5471	0.0219571	-0.0474086	65.3266
86	0.0707496	0.0214298	0.0422915	0.00226731	0.00321144	0.0121913	0.0262995	-0.0308184	-0.000268612	-0.084361	0.099132	0.0985185	0.0529903	-0.00292641	0.0205933	-2.16408	0.0517701	-1.50364	0	0	0	0	-0	0	0	0	-0.1265	0	-0	0	0	0	0	0	-0	0	0.105	0.015	0	0	-0	0	0	0.098	0.1	0	-0	0	0	0	0	0	-0	0	0.05595	0	0	0	-0	0	0	0	0	0	-0	0	538.789	541.353	278.902	225.722	1.63195	-20.6019	0.0218499	-0.0474696	65.502
87	0.0939583	0.0213754	0.0422819	0.00235477	0.00327316	0.0122696	0.0263075	-0.0308271	-0.000260699	-0.0880089	0.0932277	0.0772843	0.052558	-0.00292238	0.0217721	-2.14163	0.0503488	-1.50227	0	0	0	0	-0	0	0	0	-0.1265	0	-0	0	0	0	0	0	-0	0	0.105	0.015	0	0	-0	0	0	0.098	0.1	0	-0	0	0	0	0	0	-0	0	0.05595	0	0	0	-0	0	0	0	0	0	-0	0	538.493	541.116	278.823	226.191	1.64648	-20.792	0.0215924	-0.0475848	66.2367
88	0.0877314	0.0213942	0.0423246	0.00235891	0.0032952	0.0122883	0.0263081	-0.0308252	-0.000262384	-0.0899935	0.111943	0.0719794	0.0526844	-0.00292648	0.0214411	-2.14823	0.0508397	-1.50247	0	0	0	0	-0	0	0	0	-0.1265	0	-0	0	0	0	0	0	-0	0	0.105	0.015	0	0	-0	0	0	0.098	0.1	0	-0	0	0	0	0	0	-0	0	0.05595	0	0	0	-0	0	0	0	0	0	-0	0	538.36	540.996	278.761	226.418	1.65728	-20.8952	0.0213652	-0.0477336	66.6035
89	0.0899974	0.0213449	0.0423236	0.00248122	0.00338186	0.0123783	0.0263159	-0.0308413	-0.000251378	-0.111466	0.100422	0.0831691	0.0527107	-0.00292046	0.0214802	-2.14739	0.0509499	-1.50207	0	0	0	0	-0	0	0	0	-0.1265	0	-0	0	0	0	0	0	-0	0	0.105	0.015	0	0	-0	0	0	0.098	0.1	0	-0	0	0	0	0	0	-0	0	0.05595	0	0	0	-0	0	0	0	0	0	-0	0	537.816	540.545	278.604	227.302	1.68893	-21.3146	0.0208976	-0.0480039	68.2456
90	0.0891696	0.0213995	0.0422672	0.00258219	0.0034181	0.0124699	0.0263114	-0.0308335	-0.000240196	-0.10486	0.104258	0.0756482	0.052731	-0.00291951	0.02144	-2.1485	0.0511274	-1.50208	0	0	0	0	-0	0	0	0	-0.1265	0	-0	0	0	0	0	0	-0	0	0.105	0.015	0	0	-0	0	0	0.098	0.1	0	-0	0	0	0	0	0	-0	0	0.05595	0	0	0	-0	0	0	0	0	0	-0	0	537.709	540.483	278.557	227.446	1.69829	-21.3882	0.0206737	-0.0481688	68.4584
91	0.0908286	0.0213568	0.0422477	0.00270101	0.00350139	0.0125857	0.0263094	-0.0308513	-0.000221137	-0.0689782	0.0902108	0.0640208	0.0527514	-0.00291466	0.0214714	-2.14775	0.051249	-1.50172	0	0	0	0	-0	0	0	0	-0.1265	0	-0	0	0	0	0	0	-0	0	0.105	0.015	0	0	-0	0	0	0.098	0.1	0	-0	0	0	0	0	0	-0	0	0.05595	0	0	0	-0	0	0	0	0	0	-0	0	537.352	540.211	278.42	228.007	1.71713	-21.6226	0.0203051	-0.0483353	69.3472
92	0.0808884	0.0212164	0.0422038	0.00292036	0.00361623	0.0127333	0.0263203	-0.0308362	-0.000209638	-0.0539	0.0572507	0.0674251	0.053051	-0.00290986	0.0208603	-2.15898	0.0523073	-1.50176	0	0	0	0	-0	0	0	0	-0.1265	0	-0	0	0	0	0	0	-0	0	0.105	0.015	0	0	-0	0	0	0.098	0.1	0	-0	0	0	0	0	0	-0	0	0.05595	0	0	0	-0	0	0	0	0	0	-0	0	536.861	539.815	278.231	228.827	1.74277	-21.9621	0.0198626	-0.0485652	70.6738
93	0.0792547	0.0211229	0.0422253	0.00314044	0.00377678	0.0129073	0.0263317	-0.0308379	-0.000202666	0.0398422	-0.075408	0.0686666	0.0532038	-0.00290267	0.0206391	-2.16331	0.0526691	-1.50156	0	0	0	0	-0	0	0	0	-0.1265	0	-0	0	0	0	0	0	-0	0	0.105	0.015	0	0	-0	0	0	0.098	0.1	0	-0	0	0	0	0	0	-0	0	0.05595	0	0	0	-0	0	0	0	0	0	-0	0	535.758	538.852	278.144	230.498	1.81439	-22.9298	0.0191688	-0.0490223	74.4804
94	0.093765	0.0212314	0.0422052	0.00324004	0.00382095	0.0130508	0.026327	-0.0308499	-0.00018686	0.0519828	-0.0722556	0.0687681	0.0528985	-0.00289826	0.0214207	-2.14937	0.0516946	-1.50081	0	0	0	0	-0	0	0	0	-0.1265	0	-0	0	0	0	0	0	-0	0	0.105	0.015	0	0	-0	0	0	0.098	0.1	0	-0	0	0	0	0	0	-0	0	0.05595	0	0	0	-0	0	0	0	0	0	-0	0	535.502	538.662	278.1	230.809	1.83547	-23.1137	0.0187967	-0.0492712	75.0505
95	0.0867442	0.0212414	0.0421988	0.00328391	0.00385199	0.0131448	0.026326	-0.0308504	-0.00017999	0.0522262	-0.0741865	0.0692788	0.0530417	-0.00289626	0.0210562	-2.15666	0.0522321	-1.50107	0	0	0	0	-0	0	0	0	-0.1265	0	-0	0	0	0	0	0	-0	0	0.105	0.015	0	0	-0	0	0	0.098	0.1	0	-0	0	0	0	0	0	-0	0	0.05595	0	0	0	-0	0	0	0	0	0	-0	0	535.401	538.593	278.054	230.954	1.84443	-23.1872	0.0186523	-0.0493785	75.2624
96	0.076199	0.0211813	0.0421749	0.00338569	0.00391991	0.0132564	0.0263167	-0.0308778	-0.000163138	0.102028	-0.103828	0.0559105	0.0533187	-0.00288935	0.0204398	-2.16807	0.0532039	-1.50131	0	0	0	0	-0	0	0	0	-0.1265	0	-0	0	0	0	0	0	-0	0	0.105	0.015	0	0	-0	0	0	0.098	0.1	0	-0	0	0	0	0	0	-0	0	0.05595	0	0	0	-0	0	0	0	0	0	-0	0	535.038	538.305	277.902	231.508	1.86285	-23.4175	0.018298	-0.049559	76.1484
97	0.077846	0.02098	0.0421561	0.00356503	0.00402226	0.0133761	0.0263356	-0.0308716	-0.000143804	0.0858337	-0.0872439	0.0798249	0.0533563	-0.00288521	0.0204471	-2.16769	0.053461	-1.50063	0	0	0	0	-0	0	0	0	-0.1265	0	-0	0	0	0	0	0	-0	0	0.105	0.015	0	0	-0	0	0	0.098	0.1	0	-0	0	0	0	0	0	-0	0	0.05595	0	0	0	-0	0	0	0	0	0	-0	0	534.594	537.914	277.69	232.301	1.88761	-23.7533	0.0179556	-0.0497819	77.4878
98	0.0789806	0.0209849	0.0420409	0.00374834	0.0040716	0.0135122	0.026337	-0.0308607	-0.000133042	0.0843471	-0.0788135	0.0683164	0.0533421	-0.00288196	0.0205011	-2.16679	0.0535528	-1.5005	0	0	0	0	-0	0	0	0	-0.1265	0	-0	0	0	0	0	0	-0	0	0.105	0.015	0	0	-0	0	0	0.098	0.1	0	-0	0	0	0	0	0	-0	0	0.05595	0	0	0	-0	0	0	0	0	0	-0	0	534.485	537.858	277.654	232.438	1.8962	-23.8191	0.0177487	-0.0499207	77.6549
99	0.0788591	0.0210265	0.0420172	0.00380859	0.0041213	0.0135977	0.0263376	-0.0308605	-0.000128045	0.0925259	-0.0735977	0.0742379	0.0533527	-0.00288071	0.0204857	-2.16723	0.0536604	-1.50044	0	0	0	0	-0	0	0	0	-0.1265	0	-0	0	0	0	0	0	-0	0	0.105	0.015	0	0	-0	0	0	0.098	0.1	0	-0	0	0	0	0	0	-0	0	0.05595	0	0	0	-0	0	0	0	0	0	-0	0	534.35	537.773	277.597	232.627	1.90548	-23.8963	0.0174785	-0.0500612	77.8891
100	0.0666801	0.0210425	0.042005	0.00387016	0.00417352	0.0136816	0.0263407	-0.0308658	-0.000123716	0.108103	-0.0669567	0.0796289	0.0536261	-0.00287742	0.0198121	-2.17987	0.0546548	-1.50096	0	0	0	0	-0	0	0	0	-0.1265	0	-0	0	0	0	0	0	-0	0	0.105	0.015	0	0	-0	0	0	0.098	0.1	0	-0	0	0	0	0	0	-0	0	0.05595	0	0	0	-0	0	0	0	0	0	-0	0	534.166	537.649	277.504	232.91	1.91552	-23.9964	0.0171783	-0.0502005	78.2382
