Stefan210/kinematic_calibration/src/kinematic_calibration/validation/experiments/experiments/single_point_vs_pose/marker_single_point/rarm_20/optimization_intermediate_results.csv
iteration	HeadPitch_offset	HeadYaw_offset	RElbowRoll_offset	RElbowYaw_offset	RShoulderPitch_offset	RShoulderRoll_offset	marker_transform_rarm_tx	marker_transform_rarm_ty	marker_transform_rarm_tz	marker_transform_rarm_rr	marker_transform_rarm_rp	marker_transform_rarm_ry	camera_transform_tx	camera_transform_ty	camera_transform_tz	camera_transform_rr	camera_transform_rp	camera_transform_ry	HeadPitch_transform_tx	HeadPitch_transform_ty	HeadPitch_transform_tz	HeadPitch_transform_rr	HeadPitch_transform_rp	HeadPitch_transform_ry	HeadYaw_transform_tx	HeadYaw_transform_ty	HeadYaw_transform_tz	HeadYaw_transform_rr	HeadYaw_transform_rp	HeadYaw_transform_ry	RElbowRoll_transform_tx	RElbowRoll_transform_ty	RElbowRoll_transform_tz	RElbowRoll_transform_rr	RElbowRoll_transform_rp	RElbowRoll_transform_ry	RElbowYaw_transform_tx	RElbowYaw_transform_ty	RElbowYaw_transform_tz	RElbowYaw_transform_rr	RElbowYaw_transform_rp	RElbowYaw_transform_ry	RShoulderPitch_transform_tx	RShoulderPitch_transform_ty	RShoulderPitch_transform_tz	RShoulderPitch_transform_rr	RShoulderPitch_transform_rp	RShoulderPitch_transform_ry	RShoulderRoll_transform_tx	RShoulderRoll_transform_ty	RShoulderRoll_transform_tz	RShoulderRoll_transform_rr	RShoulderRoll_transform_rp	RShoulderRoll_transform_ry	RWristYaw_transform_tx	RWristYaw_transform_ty	RWristYaw_transform_tz	RWristYaw_transform_rr	RWristYaw_transform_rp	RWristYaw_transform_ry	r_wrist_joint_transform_tx	r_wrist_joint_transform_ty	r_wrist_joint_transform_tz	r_wrist_joint_transform_rr	r_wrist_joint_transform_rp	r_wrist_joint_transform_ry	camera_fx	camera_fy	camera_cx	camera_cy	camera_D0	camera_D1	camera_D2	camera_D3	camera_D4	
0	0.0230449	0.0294606	-0.0013508	-0.00116347	0.000678263	0.00258603	0.05071	0	0.01774	-2.26369	1.66533e-16	-1.5708	545.901	551.038	324.928	201.58	0.0255298	2.61142	-0.0636736	-0.0350419	0.213964
1	-0.0119925	-0.0143942	-0.0185645	0.039227	0.00445127	-0.0165701	0.0217198	0.0288289	-0.00251898	-0.00130348	0.000793036	0.00268347	0.0528391	0.000590288	0.0190612	-2.2158	0.00220949	-1.54586	0	0	0	0	-0	0	0	0	-0.1265	0	-0	0	0	0	0	0	-0	0	0.105	-0.015	0	0	-0	0	0	-0.098	0.1	0	-0	0	0	0	0	0	-0	0	0.05595	0	0	0	-0	0	0	0	0	0	-0	0	545.901	551.039	324.928	201.58	0.00106371	2.60361	-0.0633724	-0.0639605	0.212372
2	-0.0119874	-0.02069	-0.0297501	0.0563595	-0.00218066	-0.0177528	0.0219637	0.0290506	-0.00376061	-0.00144338	0.000899624	0.00267411	0.0528571	0.00119119	0.0201598	-2.21594	0.00647362	-1.53927	0	0	0	0	-0	0	0	0	-0.1265	0	-0	0	0	0	0	0	-0	0	0.105	-0.015	0	0	-0	0	0	-0.098	0.1	0	-0	0	0	0	0	0	-0	0	0.05595	0	0	0	-0	0	0	0	0	0	-0	0	545.901	551.04	324.93	201.582	-0.0721839	2.55683	-0.0503636	-0.0667797	0.198263
3	-0.0127933	-0.0203296	-0.0257295	0.0576895	-0.00286472	-0.0191637	0.021768	0.0290282	-0.00406248	-0.00147877	0.00092763	0.00269639	0.0533027	0.000225154	0.0185847	-2.21223	0.00962761	-1.53805	0	0	0	0	-0	0	0	0	-0.1265	0	-0	0	0	0	0	0	-0	0	0.105	-0.015	0	0	-0	0	0	-0.098	0.1	0	-0	0	0	0	0	0	-0	0	0.05595	0	0	0	-0	0	0	0	0	0	-0	0	545.902	551.042	324.935	201.586	-0.239257	2.444	-0.0330145	-0.0527808	0.164155
4	-0.01392	-0.0216499	-0.0163855	0.0538566	-0.00562667	-0.0218218	0.021453	0.0288889	-0.00411116	-0.00148614	0.000940973	0.00272436	0.0539297	-0.00131014	0.0163777	-2.20703	0.0152789	-1.53522	0	0	0	0	-0	0	0	0	-0.1265	0	-0	0	0	0	0	0	-0	0	0.105	-0.015	0	0	-0	0	0	-0.098	0.1	0	-0	0	0	0	0	0	-0	0	0.05595	0	0	0	-0	0	0	0	0	0	-0	0	545.905	551.045	324.945	201.594	-0.491244	2.2171	-0.00164352	-0.0273913	0.0918791
5	-0.0147996	-0.021896	-0.0079595	0.0487582	-0.0075604	-0.0251945	0.0212441	0.0288003	-0.00397609	-0.00146696	0.000942858	0.00273418	0.0541561	-0.00256506	0.015032	-2.20308	0.0190354	-1.53346	0	0	0	0	-0	0	0	0	-0.1265	0	-0	0	0	0	0	0	-0	0	0.105	-0.015	0	0	-0	0	0	-0.098	0.1	0	-0	0	0	0	0	0	-0	0	0.05595	0	0	0	-0	0	0	0	0	0	-0	0	545.917	551.048	324.962	201.604	-0.582602	1.85369	0.0158552	-0.0102416	-0.0357836
6	-0.0150302	-0.0205727	-0.00491195	0.0456445	-0.00827711	-0.0275012	0.0212179	0.0288735	-0.00374565	-0.00146233	0.000913387	0.00264713	0.0531506	-0.00300379	0.0158787	-2.2025	0.0185368	-1.53372	0	0	0	0	-0	0	0	0	-0.1265	0	-0	0	0	0	0	0	-0	0	0.105	-0.015	0	0	-0	0	0	-0.098	0.1	0	-0	0	0	0	0	0	-0	0	0.05595	0	0	0	-0	0	0	0	0	0	-0	0	545.944	551.053	324.988	201.618	-0.372725	1.22826	0.0101684	-0.00726614	-0.268248
7	-0.0152391	-0.0194961	-0.00358476	0.0431539	-0.00916206	-0.0293064	0.0212389	0.0290125	-0.00348883	-0.00144432	0.00095887	0.00277038	0.0514914	-0.00319755	0.0176084	-2.20273	0.01708	-1.53371	0	0	0	0	-0	0	0	0	-0.1265	0	-0	0	0	0	0	0	-0	0	0.105	-0.015	0	0	-0	0	0	-0.098	0.1	0	-0	0	0	0	0	0	-0	0	0.05595	0	0	0	-0	0	0	0	0	0	-0	0	545.979	551.074	325.01	201.628	-0.0162516	0.312243	-0.00349977	-0.00782912	-0.594911
8	-0.0152841	-0.0191761	-0.00252831	0.0406675	-0.0100197	-0.030651	0.0212665	0.0291107	-0.00325168	-0.00145875	0.00109287	0.00288068	0.0501612	-0.00331519	0.0189882	-2.20265	0.0162198	-1.53332	0	0	0	0	-0	0	0	0	-0.1265	0	-0	0	0	0	0	0	-0	0	0.105	-0.015	0	0	-0	0	0	-0.098	0.1	0	-0	0	0	0	0	0	-0	0	0.05595	0	0	0	-0	0	0	0	0	0	-0	0	545.994	551.136	325.007	201.618	0.28822	-0.533133	-0.0149373	-0.00835276	-0.855011
9	-0.0155914	-0.0190407	-0.00188519	0.038839	-0.0105086	-0.0314193	0.0212933	0.0291693	-0.00307455	-0.000704977	0.00189678	0.00212081	0.0492585	-0.00334927	0.019925	-2.20303	0.0156051	-1.53318	0	0	0	0	-0	0	0	0	-0.1265	0	-0	0	0	0	0	0	-0	0	0.105	-0.015	0	0	-0	0	0	-0.098	0.1	0	-0	0	0	0	0	0	-0	0	0.05595	0	0	0	-0	0	0	0	0	0	-0	0	545.946	551.342	324.97	201.578	0.506528	-1.18845	-0.0230469	-0.00858492	-0.930555
10	-0.0148224	-0.0187657	-0.0016971	0.0382756	-0.010339	-0.0314805	0.0213071	0.0291795	-0.00299997	0.000840046	0.00154647	0.00368868	0.0488973	-0.00331169	0.0203358	-2.20254	0.0151032	-1.53339	0	0	0	0	-0	0	0	0	-0.1265	0	-0	0	0	0	0	0	-0	0	0.105	-0.015	0	0	-0	0	0	-0.098	0.1	0	-0	0	0	0	0	0	-0	0	0.05595	0	0	0	-0	0	0	0	0	0	-0	0	545.768	551.943	324.879	201.471	0.610912	-1.58344	-0.0276992	-0.00901233	-0.588691
11	-0.0187612	-0.0181716	-0.00195206	0.0388054	-0.00959198	-0.030996	0.0213192	0.0291659	-0.00299615	0.00117807	-0.00826822	0.00663886	0.0488505	-0.00318914	0.0203058	-2.207	0.0145666	-1.53403	0	0	0	0	-0	0	0	0	-0.1265	0	-0	0	0	0	0	0	-0	0	0.105	-0.015	0	0	-0	0	0	-0.098	0.1	0	-0	0	0	0	0	0	-0	0	0.05595	0	0	0	-0	0	0	0	0	0	-0	0	545.54	553.398	324.668	201.161	0.686217	-2.04651	-0.0321763	-0.00987538	0.522446
12	-0.0203901	-0.0174643	-0.00279903	0.0403604	-0.00870298	-0.0299329	0.0213303	0.029152	-0.00305356	-0.0153293	0.00184808	0.0179102	0.0486719	-0.00293362	0.020542	-2.20908	0.0135368	-1.53479	0	0	0	0	-0	0	0	0	-0.1265	0	-0	0	0	0	0	0	-0	0	0.105	-0.015	0	0	-0	0	0	-0.098	0.1	0	-0	0	0	0	0	0	-0	0	0.05595	0	0	0	-0	0	0	0	0	0	-0	0	545.931	556.258	324.252	200.285	0.792701	-2.89068	-0.0375444	-0.0109521	2.8195
13	-0.052988	-0.0172059	-0.00343717	0.0414879	-0.00839628	-0.0292465	0.0213309	0.0291403	-0.00310895	-0.0302128	0.0124667	0.0090051	0.0491737	-0.00276239	0.0192088	-2.24154	0.0140998	-1.5355	0	0	0	0	-0	0	0	0	-0.1265	0	-0	0	0	0	0	0	-0	0	0.105	-0.015	0	0	-0	0	0	-0.098	0.1	0	-0	0	0	0	0	0	-0	0	0.05595	0	0	0	-0	0	0	0	0	0	-0	0	546.665	558.344	323.949	199.474	0.850442	-3.41606	-0.0400655	-0.0114037	4.30982
14	-0.0387765	-0.0170561	-0.00415771	0.0428186	-0.00827067	-0.028491	0.0213346	0.02914	-0.00318115	-0.0383703	0.0240832	0.0410906	0.0486021	-0.00254955	0.0203363	-2.22605	0.0126443	-1.53565	0	0	0	0	-0	0	0	0	-0.1265	0	-0	0	0	0	0	0	-0	0	0.105	-0.015	0	0	-0	0	0	-0.098	0.1	0	-0	0	0	0	0	0	-0	0	0.05595	0	0	0	-0	0	0	0	0	0	-0	0	548.66	562.044	323.711	197.735	0.893986	-3.86302	-0.0431556	-0.0116384	5.67126
15	-0.0594756	-0.0170607	-0.00437771	0.0432594	-0.00831301	-0.0282859	0.0213188	0.0291206	-0.00320345	-0.0296486	0.0338628	0.0349214	0.0488991	-0.00248456	0.0194883	-2.24598	0.0129855	-1.53609	0	0	0	0	-0	0	0	0	-0.1265	0	-0	0	0	0	0	0	-0	0	0.105	-0.015	0	0	-0	0	0	-0.098	0.1	0	-0	0	0	0	0	0	-0	0	0.05595	0	0	0	-0	0	0	0	0	0	-0	0	549.596	563.598	323.717	196.95	0.899579	-3.9467	-0.04412	-0.0115582	5.96155
16	-0.070163	-0.0170667	-0.00445067	0.0435216	-0.00837473	-0.0282147	0.0213228	0.0291291	-0.00321724	-0.0151132	0.0279662	0.0109854	0.048967	-0.00243975	0.0191518	-2.25541	0.0128041	-1.53652	0	0	0	0	-0	0	0	0	-0.1265	0	-0	0	0	0	0	0	-0	0	0.105	-0.015	0	0	-0	0	0	-0.098	0.1	0	-0	0	0	0	0	0	-0	0	0.05595	0	0	0	-0	0	0	0	0	0	-0	0	550.833	565.589	323.867	195.895	0.893326	-3.89807	-0.0456572	-0.011415	5.89143
17	-0.0544608	-0.0170799	-0.00445551	0.0435907	-0.00840959	-0.0282052	0.0213151	0.029115	-0.00322174	-0.0174894	0.0181226	0.0181172	0.0486211	-0.00242783	0.0199842	-2.23921	0.0120682	-1.53643	0	0	0	0	-0	0	0	0	-0.1265	0	-0	0	0	0	0	0	-0	0	0.105	-0.015	0	0	-0	0	0	-0.098	0.1	0	-0	0	0	0	0	0	-0	0	0.05595	0	0	0	-0	0	0	0	0	0	-0	0	551.299	566.323	323.938	195.495	0.888474	-3.86092	-0.0461653	-0.0113383	5.81735
18	-0.0484265	-0.0170915	-0.0044323	0.0436204	-0.00844497	-0.0282274	0.0213155	0.0291172	-0.00322418	-0.00861255	0.0105383	0.030062	0.0484459	-0.00242126	0.020337	-2.23261	0.0116565	-1.53648	0	0	0	0	-0	0	0	0	-0.1265	0	-0	0	0	0	0	0	-0	0	0.105	-0.015	0	0	-0	0	0	-0.098	0.1	0	-0	0	0	0	0	0	-0	0	0.05595	0	0	0	-0	0	0	0	0	0	-0	0	551.778	567.081	324.028	195.071	0.882201	-3.80197	-0.0467804	-0.0112633	5.67814
19	-0.0550646	-0.017096	-0.00441852	0.0436276	-0.00845809	-0.028237	0.0213121	0.0291139	-0.00322586	-0.000750508	0.0171369	0.0378674	0.0485616	-0.00241907	0.0200382	-2.23901	0.0118031	-1.5366	0	0	0	0	-0	0	0	0	-0.1265	0	-0	0	0	0	0	0	-0	0	0.105	-0.015	0	0	-0	0	0	-0.098	0.1	0	-0	0	0	0	0	0	-0	0	0.05595	0	0	0	-0	0	0	0	0	0	-0	0	551.971	567.388	324.065	194.9	0.879308	-3.776	-0.0470218	-0.0112322	5.61771
20	-0.065436	-0.0171023	-0.0043944	0.0436282	-0.00847648	-0.0282594	0.0213139	0.0291154	-0.00322497	-0.00670371	0.0262595	0.0493437	0.0487436	-0.00241767	0.0195659	-2.24905	0.0120474	-1.53679	0	0	0	0	-0	0	0	0	-0.1265	0	-0	0	0	0	0	0	-0	0	0.105	-0.015	0	0	-0	0	0	-0.098	0.1	0	-0	0	0	0	0	0	-0	0	0.05595	0	0	0	-0	0	0	0	0	0	-0	0	552.229	567.797	324.118	194.669	0.875205	-3.73608	-0.0473701	-0.0111908	5.51994
21	-0.053607	-0.0171081	-0.00437212	0.0436249	-0.00849177	-0.0282787	0.0213119	0.0291132	-0.00322384	0.00131847	0.0185567	0.0517447	0.0484909	-0.002417	0.0201663	-2.23697	0.0115574	-1.5367	0	0	0	0	-0	0	0	0	-0.1265	0	-0	0	0	0	0	0	-0	0	0.105	-0.015	0	0	-0	0	0	-0.098	0.1	0	-0	0	0	0	0	0	-0	0	0.05595	0	0	0	-0	0	0	0	0	0	-0	0	552.435	568.123	324.162	194.483	0.871677	-3.70241	-0.0476438	-0.011156	5.43771
22	-0.0482108	-0.0171255	-0.00430296	0.0435941	-0.00853212	-0.0283447	0.0213184	0.0291179	-0.00321959	-0.00802191	0.0357066	0.0335216	0.0483318	-0.00241912	0.0204832	-2.2309	0.0111663	-1.53676	0	0	0	0	-0	0	0	0	-0.1265	0	-0	0	0	0	0	0	-0	0	0.105	-0.015	0	0	-0	0	0	-0.098	0.1	0	-0	0	0	0	0	0	-0	0	0.05595	0	0	0	-0	0	0	0	0	0	-0	0	552.927	568.903	324.278	194.026	0.862292	-3.608	-0.0483466	-0.0110706	5.19924
23	-0.0251578	-0.0171586	-0.00418204	0.0435188	-0.0085954	-0.0284588	0.0213089	0.0291109	-0.00321379	-0.00136527	0.0462482	0.0218097	0.0477959	-0.00242685	0.0216705	-2.20684	0.0100998	-1.53668	0	0	0	0	-0	0	0	0	-0.1265	0	-0	0	0	0	0	0	-0	0	0.105	-0.015	0	0	-0	0	0	-0.098	0.1	0	-0	0	0	0	0	0	-0	0	0.05595	0	0	0	-0	0	0	0	0	0	-0	0	553.611	569.986	324.452	193.362	0.847286	-3.45724	-0.0493502	-0.0109492	4.81609
24	-0.0191038	-0.0172226	-0.00397463	0.0433566	-0.00869988	-0.0286554	0.0213131	0.0291226	-0.00319487	0.0167412	0.0587426	-0.00831404	0.047563	-0.0024456	0.0220472	-2.19926	0.00953038	-1.53682	0	0	0	0	-0	0	0	0	-0.1265	0	-0	0	0	0	0	0	-0	0	0.105	-0.015	0	0	-0	0	0	-0.098	0.1	0	-0	0	0	0	0	0	-0	0	0.05595	0	0	0	-0	0	0	0	0	0	-0	0	554.539	571.468	324.704	192.398	0.824454	-3.22215	-0.050809	-0.0107785	4.20945
25	-0.00937448	-0.0172531	-0.00386656	0.0432661	-0.00874501	-0.0287482	0.0213075	0.0291162	-0.00319291	0.0329771	0.0684354	-0.0311681	0.0473076	-0.00245435	0.0225513	-2.18879	0.00904566	-1.53681	0	0	0	0	-0	0	0	0	-0.1265	0	-0	0	0	0	0	0	-0	0	0.105	-0.015	0	0	-0	0	0	-0.098	0.1	0	-0	0	0	0	0	0	-0	0	0.05595	0	0	0	-0	0	0	0	0	0	-0	0	554.978	572.179	324.806	191.928	0.813328	-3.10992	-0.0515148	-0.0107199	3.92577
26	-0.0193873	-0.0172937	-0.00375183	0.0431726	-0.00880279	-0.0288559	0.0213083	0.0291124	-0.00319448	0.0143322	0.081641	-0.0375823	0.0474865	-0.00246509	0.022122	-2.19797	0.00923199	-1.53696	0	0	0	0	-0	0	0	0	-0.1265	0	-0	0	0	0	0	0	-0	0	0.105	-0.015	0	0	-0	0	0	-0.098	0.1	0	-0	0	0	0	0	0	-0	0	0.05595	0	0	0	-0	0	0	0	0	0	-0	0	555.453	572.938	324.912	191.411	0.800973	-2.98454	-0.052268	-0.0106562	3.6063
27	-0.0199587	-0.017302	-0.00372447	0.0431489	-0.0088139	-0.0288758	0.021303	0.0291045	-0.00319197	0.0166584	0.0727362	-0.0335961	0.0474904	-0.00246728	0.0221018	-2.19837	0.00922317	-1.53697	0	0	0	0	-0	0	0	0	-0.1265	0	-0	0	0	0	0	0	-0	0	0.105	-0.015	0	0	-0	0	0	-0.098	0.1	0	-0	0	0	0	0	0	-0	0	0.05595	0	0	0	-0	0	0	0	0	0	-0	0	555.548	573.092	324.931	191.306	0.798138	-2.95903	-0.0524005	-0.0106446	3.54509
28	-0.0355286	-0.0173394	-0.0036353	0.0430762	-0.0088638	-0.0289645	0.0213018	0.0291044	-0.00318766	0.0121856	0.077552	-0.0394904	0.0477984	-0.00247589	0.0214004	-2.21323	0.00963353	-1.53715	0	0	0	0	-0	0	0	0	-0.1265	0	-0	0	0	0	0	0	-0	0	0.105	-0.015	0	0	-0	0	0	-0.098	0.1	0	-0	0	0	0	0	0	-0	0	0.05595	0	0	0	-0	0	0	0	0	0	-0	0	555.924	573.694	325.009	190.879	0.78848	-2.85873	-0.053025	-0.0106034	3.28844
29	-0.0288018	-0.0173562	-0.00358335	0.0430303	-0.00888566	-0.029009	0.0213032	0.0291049	-0.00318427	0.019115	0.066877	-0.0313325	0.047633	-0.00248055	0.0217373	-2.20617	0.00935407	-1.5371	0	0	0	0	-0	0	0	0	-0.1265	0	-0	0	0	0	0	0	-0	0	0.105	-0.015	0	0	-0	0	0	-0.098	0.1	0	-0	0	0	0	0	0	-0	0	0.05595	0	0	0	-0	0	0	0	0	0	-0	0	556.108	573.994	325.044	190.667	0.783449	-2.8081	-0.0533312	-0.010585	3.161
30	-0.0235637	-0.0173628	-0.00356521	0.0430146	-0.00889416	-0.0290244	0.0213004	0.0291032	-0.00318388	0.0178965	0.065581	-0.0375574	0.0475122	-0.00248205	0.0219926	-2.2008	0.00915872	-1.53705	0	0	0	0	-0	0	0	0	-0.1265	0	-0	0	0	0	0	0	-0	0	0.105	-0.015	0	0	-0	0	0	-0.098	0.1	0	-0	0	0	0	0	0	-0	0	0.05595	0	0	0	-0	0	0	0	0	0	-0	0	556.178	574.105	325.056	190.588	0.781535	-2.7896	-0.0534375	-0.0105794	3.11533
31	-0.0183387	-0.0173927	-0.00349425	0.0429545	-0.00893193	-0.029094	0.0212997	0.0291045	-0.00318119	0.00620465	0.0635157	-0.0445924	0.0473701	-0.00248911	0.022268	-2.19505	0.00890883	-1.53701	0	0	0	0	-0	0	0	0	-0.1265	0	-0	0	0	0	0	0	-0	0	0.105	-0.015	0	0	-0	0	0	-0.098	0.1	0	-0	0	0	0	0	0	-0	0	0.05595	0	0	0	-0	0	0	0	0	0	-0	0	556.455	574.55	325.107	190.266	0.774122	-2.71294	-0.053903	-0.0105551	2.91997
32	-0.0312536	-0.0174507	-0.00336455	0.0428427	-0.0090015	-0.029218	0.0213075	0.029098	-0.00317059	-0.00783107	0.0204661	-0.0381436	0.0476114	-0.00250199	0.0217026	-2.20698	0.00921714	-1.53713	0	0	0	0	-0	0	0	0	-0.1265	0	-0	0	0	0	0	0	-0	0	0.105	-0.015	0	0	-0	0	0	-0.098	0.1	0	-0	0	0	0	0	0	-0	0	0.05595	0	0	0	-0	0	0	0	0	0	-0	0	556.938	575.332	325.196	189.677	0.760792	-2.57632	-0.0547355	-0.0105146	2.57448
33	-0.0401447	-0.0175378	-0.00318302	0.0426865	-0.00910107	-0.0293915	0.0212973	0.0291011	-0.00316481	-0.0122515	0.0151979	-0.0478145	0.0477379	-0.00251955	0.021345	-2.21445	0.00934375	-1.53719	0	0	0	0	-0	0	0	0	-0.1265	0	-0	0	0	0	0	0	-0	0	0.105	-0.015	0	0	-0	0	0	-0.098	0.1	0	-0	0	0	0	0	0	-0	0	0.05595	0	0	0	-0	0	0	0	0	0	-0	0	557.608	576.437	325.313	188.822	0.742418	-2.3866	-0.0559523	-0.0104758	2.09783
34	-0.0330963	-0.0175601	-0.00312167	0.042626	-0.0091261	-0.0294391	0.0212963	0.0290993	-0.00315886	-0.0107794	0.0187871	-0.055805	0.0475715	-0.00252485	0.0216971	-2.20702	0.00907287	-1.53711	0	0	0	0	-0	0	0	0	-0.1265	0	-0	0	0	0	0	0	-0	0	0.105	-0.015	0	0	-0	0	0	-0.098	0.1	0	-0	0	0	0	0	0	-0	0	0.05595	0	0	0	-0	0	0	0	0	0	-0	0	557.787	576.734	325.334	188.592	0.737132	-2.3356	-0.0562571	-0.0104685	1.97429
35	-0.0345815	-0.017593	-0.00305369	0.0425663	-0.00916223	-0.0295039	0.0213003	0.0291022	-0.00315675	0.00168039	0.00395175	-0.060608	0.0475796	-0.00253138	0.0216498	-2.20799	0.00907897	-1.5371	0	0	0	0	-0	0	0	0	-0.1265	0	-0	0	0	0	0	0	-0	0	0.105	-0.015	0	0	-0	0	0	-0.098	0.1	0	-0	0	0	0	0	0	-0	0	0.05595	0	0	0	-0	0	0	0	0	0	-0	0	558.03	577.13	325.361	188.281	0.730402	-2.26697	-0.056689	-0.0104654	1.80373
36	-0.0199567	-0.017618	-0.00300416	0.0425229	-0.00918892	-0.0295486	0.0212952	0.0290981	-0.00315321	0.00750952	-0.0016065	-0.0620334	0.0472473	-0.00253577	0.0223625	-2.19299	0.00855616	-1.53695	0	0	0	0	-0	0	0	0	-0.1265	0	-0	0	0	0	0	0	-0	0	0.105	-0.015	0	0	-0	0	0	-0.098	0.1	0	-0	0	0	0	0	0	-0	0	0.05595	0	0	0	-0	0	0	0	0	0	-0	0	558.205	577.415	325.378	188.051	0.725431	-2.21816	-0.0569902	-0.0104646	1.68497
37	-0.0234572	-0.0176755	-0.00289585	0.0424269	-0.00925012	-0.0296533	0.0212941	0.029096	-0.00314741	0.0173199	0.0171853	-0.0632426	0.0472835	-0.00254645	0.0222319	-2.19563	0.0086104	-1.53692	0	0	0	0	-0	0	0	0	-0.1265	0	-0	0	0	0	0	0	-0	0	0.105	-0.015	0	0	-0	0	0	-0.098	0.1	0	-0	0	0	0	0	0	-0	0	0.05595	0	0	0	-0	0	0	0	0	0	-0	0	558.581	578.036	325.418	187.543	0.714932	-2.11004	-0.05769	-0.0104633	1.41657
38	-0.0278621	-0.0176892	-0.00286163	0.0423938	-0.00926423	-0.0296807	0.0212938	0.0290962	-0.00314523	0.0149937	0.0239312	-0.0605734	0.0473731	-0.00254932	0.0220324	-2.19981	0.00874558	-1.53694	0	0	0	0	-0	0	0	0	-0.1265	0	-0	0	0	0	0	0	-0	0	0.105	-0.015	0	0	-0	0	0	-0.098	0.1	0	-0	0	0	0	0	0	-0	0	0.05595	0	0	0	-0	0	0	0	0	0	-0	0	558.682	578.204	325.425	187.406	0.711873	-2.08077	-0.0578696	-0.0104678	1.34708
39	-0.0327379	-0.0176948	-0.00285033	0.0423835	-0.00927014	-0.0296901	0.0212934	0.0290973	-0.00314425	0.0242213	0.0215959	-0.0635174	0.0474767	-0.00255024	0.0218049	-2.20459	0.00890564	-1.53698	0	0	0	0	-0	0	0	0	-0.1265	0	-0	0	0	0	0	0	-0	0	0.105	-0.015	0	0	-0	0	0	-0.098	0.1	0	-0	0	0	0	0	0	-0	0	0.05595	0	0	0	-0	0	0	0	0	0	-0	0	558.72	578.266	325.428	187.355	0.710792	-2.07046	-0.0579326	-0.0104681	1.32245
40	-0.0301467	-0.0177069	-0.00282935	0.0423655	-0.00928259	-0.0297103	0.0212946	0.0290976	-0.00314359	0.0328401	0.0139097	-0.0684904	0.0474124	-0.00255213	0.0219354	-2.20183	0.00880849	-1.53694	0	0	0	0	-0	0	0	0	-0.1265	0	-0	0	0	0	0	0	-0	0	0.105	-0.015	0	0	-0	0	0	-0.098	0.1	0	-0	0	0	0	0	0	-0	0	0.05595	0	0	0	-0	0	0	0	0	0	-0	0	558.796	578.392	325.432	187.25	0.7087	-2.04946	-0.0580705	-0.0104704	1.27136
41	-0.0294776	-0.0177243	-0.00279749	0.0423383	-0.00929996	-0.0297404	0.0212938	0.0290972	-0.00314177	0.0428759	0.00776128	-0.0681892	0.0473868	-0.00255499	0.0219782	-2.2009	0.00877135	-1.53691	0	0	0	0	-0	0	0	0	-0.1265	0	-0	0	0	0	0	0	-0	0	0.105	-0.015	0	0	-0	0	0	-0.098	0.1	0	-0	0	0	0	0	0	-0	0	0.05595	0	0	0	-0	0	0	0	0	0	-0	0	558.908	578.579	325.439	187.094	0.705587	-2.01802	-0.0582818	-0.0104756	1.19505
42	-0.0367237	-0.0177505	-0.00274947	0.0422963	-0.00932662	-0.0297861	0.0212931	0.0290958	-0.00313679	0.0364548	-0.00491364	-0.0584405	0.04753	-0.00255939	0.0216517	-2.20775	0.00899599	-1.53694	0	0	0	0	-0	0	0	0	-0.1265	0	-0	0	0	0	0	0	-0	0	0.105	-0.015	0	0	-0	0	0	-0.098	0.1	0	-0	0	0	0	0	0	-0	0	0.05595	0	0	0	-0	0	0	0	0	0	-0	0	559.077	578.858	325.449	186.862	0.700921	-1.97098	-0.0585926	-0.0104823	1.0807
43	-0.0349318	-0.0177666	-0.0027202	0.0422697	-0.0093433	-0.0298126	0.0212927	0.0290963	-0.00313832	0.0419653	-0.00220016	-0.0481043	0.0474806	-0.00256189	0.0217466	-2.20573	0.00892419	-1.5369	0	0	0	0	-0	0	0	0	-0.1265	0	-0	0	0	0	0	0	-0	0	0.105	-0.015	0	0	-0	0	0	-0.098	0.1	0	-0	0	0	0	0	0	-0	0	0.05595	0	0	0	-0	0	0	0	0	0	-0	0	559.177	579.023	325.454	186.723	0.69816	-1.94355	-0.058773	-0.0104869	1.01461
44	-0.0317586	-0.017783	-0.00269098	0.0422436	-0.00935979	-0.0298396	0.0212927	0.0290949	-0.00313644	0.0445894	-0.0105872	-0.0540113	0.0474029	-0.00256466	0.0219063	-2.20233	0.00880847	-1.53684	0	0	0	0	-0	0	0	0	-0.1265	0	-0	0	0	0	0	0	-0	0	0.105	-0.015	0	0	-0	0	0	-0.098	0.1	0	-0	0	0	0	0	0	-0	0	0.05595	0	0	0	-0	0	0	0	0	0	-0	0	559.273	579.18	325.458	186.589	0.695307	-1.91582	-0.0589419	-0.0104909	0.948052
45	-0.0503591	-0.0178425	-0.00259501	0.0421609	-0.00941944	-0.0299342	0.0212942	0.0291015	-0.00312319	0.0301738	-0.0255332	-0.030998	0.0477766	-0.00257371	0.0210595	-2.2201	0.0094	-1.53693	0	0	0	0	-0	0	0	0	-0.1265	0	-0	0	0	0	0	0	-0	0	0.105	-0.015	0	0	-0	0	0	-0.098	0.1	0	-0	0	0	0	0	0	-0	0	0.05595	0	0	0	-0	0	0	0	0	0	-0	0	559.616	579.748	325.477	186.102	0.68584	-1.8201	-0.0595866	-0.0105067	0.716154
46	-0.0569911	-0.0178693	-0.00253905	0.0421062	-0.00944511	-0.0299822	0.0212896	0.0290991	-0.00312853	0.0515027	-0.0232797	-0.0294713	0.0478933	-0.0025785	0.0207562	-2.22632	0.00961155	-1.53695	0	0	0	0	-0	0	0	0	-0.1265	0	-0	0	0	0	0	0	-0	0	0.105	-0.015	0	0	-0	0	0	-0.098	0.1	0	-0	0	0	0	0	0	-0	0	0.05595	0	0	0	-0	0	0	0	0	0	-0	0	559.782	580.029	325.482	185.863	0.681134	-1.7726	-0.0599111	-0.0105187	0.602112
47	-0.0581568	-0.0178923	-0.00250024	0.0420724	-0.00946753	-0.0300174	0.0212901	0.0290948	-0.00312539	0.0389339	-0.0207128	-0.0287497	0.0479059	-0.00258207	0.0207118	-2.22718	0.00964497	-1.53692	0	0	0	0	-0	0	0	0	-0.1265	0	-0	0	0	0	0	0	-0	0	0.105	-0.015	0	0	-0	0	0	-0.098	0.1	0	-0	0	0	0	0	0	-0	0	0.05595	0	0	0	-0	0	0	0	0	0	-0	0	559.909	580.238	325.484	185.678	0.677265	-1.73641	-0.0601314	-0.0105268	0.517693
48	-0.0562862	-0.0179017	-0.00248529	0.0420588	-0.00947707	-0.0300311	0.0212895	0.0290929	-0.00312504	0.0461655	-0.0185413	-0.0236762	0.0478626	-0.00258332	0.0208067	-2.22518	0.009579	-1.53688	0	0	0	0	-0	0	0	0	-0.1265	0	-0	0	0	0	0	0	-0	0	0.105	-0.015	0	0	-0	0	0	-0.098	0.1	0	-0	0	0	0	0	0	-0	0	0.05595	0	0	0	-0	0	0	0	0	0	-0	0	559.961	580.323	325.484	185.603	0.675782	-1.72228	-0.0602219	-0.010532	0.484702
49	-0.0576234	-0.0179095	-0.00247339	0.0420485	-0.00948476	-0.0300423	0.0212896	0.0290924	-0.00312407	0.0473909	-0.0163995	-0.0172279	0.0478866	-0.00258435	0.020747	-2.22642	0.00962256	-1.53688	0	0	0	0	-0	0	0	0	-0.1265	0	-0	0	0	0	0	0	-0	0	0.105	-0.015	0	0	-0	0	0	-0.098	0.1	0	-0	0	0	0	0	0	-0	0	0.05595	0	0	0	-0	0	0	0	0	0	-0	0	560.003	580.391	325.484	185.542	0.674601	-1.71095	-0.0602957	-0.0105356	0.458136
50	-0.0534688	-0.0179303	-0.00244096	0.0420203	-0.00950466	-0.030074	0.0212888	0.0290915	-0.00312222	0.0443668	-0.01918	-0.0184865	0.0477895	-0.00258729	0.0209578	-2.22198	0.00947594	-1.53681	0	0	0	0	-0	0	0	0	-0.1265	0	-0	0	0	0	0	0	-0	0	0.105	-0.015	0	0	-0	0	0	-0.098	0.1	0	-0	0	0	0	0	0	-0	0	0.05595	0	0	0	-0	0	0	0	0	0	-0	0	560.116	580.58	325.484	185.376	0.671489	-1.67973	-0.0605123	-0.0105462	0.383763
51	-0.0499123	-0.0179339	-0.00243304	0.0420123	-0.0095083	-0.0300798	0.0212888	0.0290913	-0.0031215	0.043203	-0.0201723	-0.0165601	0.0477129	-0.00258788	0.0211295	-2.21838	0.00935405	-1.53676	0	0	0	0	-0	0	0	0	-0.1265	0	-0	0	0	0	0	0	-0	0	0.105	-0.015	0	0	-0	0	0	-0.098	0.1	0	-0	0	0	0	0	0	-0	0	0.05595	0	0	0	-0	0	0	0	0	0	-0	0	560.137	580.615	325.484	185.345	0.67082	-1.67369	-0.0605478	-0.0105478	0.369978
52	-0.0502047	-0.0179423	-0.00242122	0.0420022	-0.00951654	-0.0300915	0.0212887	0.0290914	-0.00312113	0.0459924	-0.018915	-0.0136365	0.0477146	-0.00258891	0.02112	-2.21856	0.00936239	-1.53675	0	0	0	0	-0	0	0	0	-0.1265	0	-0	0	0	0	0	0	-0	0	0.105	-0.015	0	0	-0	0	0	-0.098	0.1	0	-0	0	0	0	0	0	-0	0	0.05595	0	0	0	-0	0	0	0	0	0	-0	0	560.181	580.687	325.484	185.28	0.66963	-1.66207	-0.0606263	-0.0105518	0.342611
53	-0.0578707	-0.0179545	-0.0024021	0.0419855	-0.0095283	-0.0301098	0.0212884	0.029091	-0.00312003	0.0468589	-0.0185746	-0.0125028	0.0478705	-0.00259066	0.0207607	-2.22606	0.00962147	-1.5368	0	0	0	0	-0	0	0	0	-0.1265	0	-0	0	0	0	0	0	-0	0	0.105	-0.015	0	0	-0	0	0	-0.098	0.1	0	-0	0	0	0	0	0	-0	0	0.05595	0	0	0	-0	0	0	0	0	0	-0	0	560.247	580.794	325.483	185.185	0.667739	-1.64386	-0.0607436	-0.010558	0.299847
54	-0.0486636	-0.0179721	-0.00237426	0.0419611	-0.00954497	-0.0301363	0.0212883	0.0290909	-0.00311864	0.0492019	-0.0177482	-0.00948585	0.0476688	-0.00259306	0.0212111	-2.21662	0.00930411	-1.53668	0	0	0	0	-0	0	0	0	-0.1265	0	-0	0	0	0	0	0	-0	0	0.105	-0.015	0	0	-0	0	0	-0.098	0.1	0	-0	0	0	0	0	0	-0	0	0.05595	0	0	0	-0	0	0	0	0	0	-0	0	560.342	580.955	325.482	185.043	0.665141	-1.61788	-0.0609284	-0.0105678	0.238388
55	-0.0571534	-0.0179986	-0.00233311	0.0419251	-0.00956995	-0.0301754	0.0212895	0.0290927	-0.00311333	0.0411307	-0.0288653	0.00409958	0.0478335	-0.00259667	0.0208198	-2.22475	0.00958763	-1.53671	0	0	0	0	-0	0	0	0	-0.1265	0	-0	0	0	0	0	0	-0	0	0.105	-0.015	0	0	-0	0	0	-0.098	0.1	0	-0	0	0	0	0	0	-0	0	0.05595	0	0	0	-0	0	0	0	0	0	-0	0	560.481	581.188	325.482	184.832	0.661268	-1.57964	-0.0611965	-0.0105819	0.14849
56	-0.0565061	-0.018037	-0.00227391	0.0418737	-0.00960586	-0.030232	0.0212874	0.0290959	-0.00311431	0.0206352	-0.0286214	0.00286946	0.047799	-0.00260175	0.0208716	-2.22358	0.00955643	-1.53664	0	0	0	0	-0	0	0	0	-0.1265	0	-0	0	0	0	0	0	-0	0	0.105	-0.015	0	0	-0	0	0	-0.098	0.1	0	-0	0	0	0	0	0	-0	0	0.05595	0	0	0	-0	0	0	0	0	0	-0	0	560.686	581.534	325.481	184.524	0.655641	-1.52402	-0.0615946	-0.0106041	0.0181918
57	-0.0608447	-0.0180563	-0.00224107	0.0418431	-0.00962393	-0.0302601	0.0212875	0.0290902	-0.00311118	0.022367	-0.0284035	-0.00523768	0.0478809	-0.00260448	0.0206739	-2.22766	0.00970351	-1.53664	0	0	0	0	-0	0	0	0	-0.1265	0	-0	0	0	0	0	0	-0	0	0.105	-0.015	0	0	-0	0	0	-0.098	0.1	0	-0	0	0	0	0	0	-0	0	0.05595	0	0	0	-0	0	0	0	0	0	-0	0	560.787	581.703	325.478	184.371	0.652648	-1.49614	-0.0617745	-0.0106132	-0.0456957
58	-0.0641927	-0.0180646	-0.00222912	0.0418323	-0.00963204	-0.0302711	0.0212867	0.0290893	-0.0031108	0.0180191	-0.0296483	-0.0066232	0.0479461	-0.00260546	0.0205177	-2.2309	0.00981779	-1.53666	0	0	0	0	-0	0	0	0	-0.1265	0	-0	0	0	0	0	0	-0	0	0.105	-0.015	0	0	-0	0	0	-0.098	0.1	0	-0	0	0	0	0	0	-0	0	0.05595	0	0	0	-0	0	0	0	0	0	-0	0	560.828	581.769	325.477	184.31	0.65149	-1.48528	-0.0618469	-0.0106188	-0.0704606
59	-0.0684137	-0.0180714	-0.00221986	0.0418239	-0.00963879	-0.0302799	0.0212869	0.0290892	-0.00311004	0.0177624	-0.026844	-0.011138	0.0480295	-0.00260628	0.0203185	-2.23504	0.0099625	-1.53669	0	0	0	0	-0	0	0	0	-0.1265	0	-0	0	0	0	0	0	-0	0	0.105	-0.015	0	0	-0	0	0	-0.098	0.1	0	-0	0	0	0	0	0	-0	0	0.05595	0	0	0	-0	0	0	0	0	0	-0	0	560.86	581.821	325.475	184.262	0.650567	-1.47665	-0.0619007	-0.0106221	-0.0903677
60	-0.0782581	-0.0180853	-0.00220018	0.0418071	-0.00965175	-0.0302991	0.0212866	0.0290903	-0.00310976	0.0273365	-0.0266455	-0.00742435	0.0482225	-0.00260794	0.0198531	-2.2447	0.0102977	-1.53676	0	0	0	0	-0	0	0	0	-0.1265	0	-0	0	0	0	0	0	-0	0	0.105	-0.015	0	0	-0	0	0	-0.098	0.1	0	-0	0	0	0	0	0	-0	0	0.05595	0	0	0	-0	0	0	0	0	0	-0	0	560.93	581.938	325.473	184.155	0.648683	-1.45819	-0.0620339	-0.0106308	-0.133193
61	-0.0831241	-0.0180924	-0.00218843	0.041796	-0.00965839	-0.0303091	0.0212865	0.0290889	-0.00310855	0.0258609	-0.0253513	-0.00297808	0.0483139	-0.00260895	0.0196209	-2.24947	0.0104645	-1.53679	0	0	0	0	-0	0	0	0	-0.1265	0	-0	0	0	0	0	0	-0	0	0.105	-0.015	0	0	-0	0	0	-0.098	0.1	0	-0	0	0	0	0	0	-0	0	0.05595	0	0	0	-0	0	0	0	0	0	-0	0	560.965	581.995	325.471	184.102	0.64761	-1.44831	-0.0620945	-0.0106343	-0.155745
62	-0.0810813	-0.0181004	-0.00217782	0.0417869	-0.00966594	-0.0303196	0.0212857	0.0290895	-0.00310819	0.0359915	-0.0207377	-0.00323708	0.0482697	-0.00260984	0.0197237	-2.24733	0.0103957	-1.53676	0	0	0	0	-0	0	0	0	-0.1265	0	-0	0	0	0	0	0	-0	0	0.105	-0.015	0	0	-0	0	0	-0.098	0.1	0	-0	0	0	0	0	0	-0	0	0.05595	0	0	0	-0	0	0	0	0	0	-0	0	561.004	582.059	325.47	184.043	0.646562	-1.43819	-0.0621661	-0.0106397	-0.179053
63	-0.0849499	-0.0181174	-0.00215113	0.0417637	-0.0096813	-0.0303452	0.0212872	0.0290887	-0.003108	0.0388023	-0.00983981	0.00299833	0.0483376	-0.00261217	0.0195463	-2.25096	0.0105279	-1.53676	0	0	0	0	-0	0	0	0	-0.1265	0	-0	0	0	0	0	0	-0	0	0.105	-0.015	0	0	-0	0	0	-0.098	0.1	0	-0	0	0	0	0	0	-0	0	0.05595	0	0	0	-0	0	0	0	0	0	-0	0	561.093	582.211	325.466	183.906	0.644109	-1.41392	-0.0623433	-0.0106518	-0.235458
64	-0.0850504	-0.018144	-0.00211332	0.0417315	-0.00970562	-0.0303814	0.0212882	0.0290915	-0.00310518	0.0487584	-0.0155813	0.0141401	0.0483277	-0.00261542	0.0195549	-2.25072	0.010533	-1.53671	0	0	0	0	-0	0	0	0	-0.1265	0	-0	0	0	0	0	0	-0	0	0.105	-0.015	0	0	-0	0	0	-0.098	0.1	0	-0	0	0	0	0	0	-0	0	0.05595	0	0	0	-0	0	0	0	0	0	-0	0	561.223	582.429	325.461	183.704	0.640391	-1.37866	-0.0625878	-0.0106689	-0.315922
65	-0.0745424	-0.0181836	-0.0020574	0.0416823	-0.00974222	-0.0304351	0.021285	0.0290872	-0.00310195	0.0508248	-0.0124109	0.0155476	0.0481047	-0.00262024	0.0200832	-2.23972	0.0101764	-1.53652	0	0	0	0	-0	0	0	0	-0.1265	0	-0	0	0	0	0	0	-0	0	0.105	-0.015	0	0	-0	0	0	-0.098	0.1	0	-0	0	0	0	0	0	-0	0	0.05595	0	0	0	-0	0	0	0	0	0	-0	0	561.414	582.749	325.454	183.41	0.635088	-1.32752	-0.0629492	-0.0106927	-0.433524
66	-0.0849293	-0.0182019	-0.00202621	0.0416527	-0.00975878	-0.0304624	0.0212848	0.0290867	-0.00310008	0.0523961	-0.00753315	0.0168299	0.0483021	-0.00262282	0.0195919	-2.24985	0.0105333	-1.53659	0	0	0	0	-0	0	0	0	-0.1265	0	-0	0	0	0	0	0	-0	0	0.105	-0.015	0	0	-0	0	0	-0.098	0.1	0	-0	0	0	0	0	0	-0	0	0.05595	0	0	0	-0	0	0	0	0	0	-0	0	561.507	582.908	325.45	183.264	0.632456	-1.30208	-0.0631334	-0.0107059	-0.491714
67	-0.0870938	-0.018216	-0.0020055	0.0416341	-0.00977169	-0.0304814	0.0212851	0.0290883	-0.00309916	0.0430234	-0.00456493	0.0133299	0.0483358	-0.00262447	0.0194938	-2.25184	0.0106093	-1.53658	0	0	0	0	-0	0	0	0	-0.1265	0	-0	0	0	0	0	0	-0	0	0.105	-0.015	0	0	-0	0	0	-0.098	0.1	0	-0	0	0	0	0	0	-0	0	0.05595	0	0	0	-0	0	0	0	0	0	-0	0	561.576	583.025	325.446	183.156	0.630556	-1.28396	-0.0632651	-0.0107159	-0.532787
68	-0.088907	-0.0182309	-0.00198574	0.0416172	-0.00978529	-0.0305001	0.0212847	0.0290869	-0.00309798	0.0426261	-0.0061686	0.00685384	0.0483647	-0.00262601	0.0194137	-2.25346	0.0106737	-1.53657	0	0	0	0	-0	0	0	0	-0.1265	0	-0	0	0	0	0	0	-0	0	0.105	-0.015	0	0	-0	0	0	-0.098	0.1	0	-0	0	0	0	0	0	-0	0	0.05595	0	0	0	-0	0	0	0	0	0	-0	0	561.646	583.142	325.442	183.046	0.628641	-1.26601	-0.0633941	-0.0107257	-0.573069
69	-0.0965861	-0.0182516	-0.00195596	0.041592	-0.00980369	-0.0305286	0.0212868	0.0290868	-0.00309678	0.0386871	0.00777016	0.00787547	0.0485042	-0.00262841	0.0190535	-2.26086	0.0109383	-1.53661	0	0	0	0	-0	0	0	0	-0.1265	0	-0	0	0	0	0	0	-0	0	0.105	-0.015	0	0	-0	0	0	-0.098	0.1	0	-0	0	0	0	0	0	-0	0	0.05595	0	0	0	-0	0	0	0	0	0	-0	0	561.75	583.32	325.436	182.884	0.625858	-1.2391	-0.0635999	-0.0107417	-0.63404
70	-0.0933222	-0.0182692	-0.00193507	0.041574	-0.00982027	-0.030548	0.0212841	0.0290864	-0.00309769	0.0283108	-0.00580496	0.00159743	0.0484342	-0.00263001	0.0192195	-2.2574	0.0108312	-1.53654	0	0	0	0	-0	0	0	0	-0.1265	0	-0	0	0	0	0	0	-0	0	0.105	-0.015	0	0	-0	0	0	-0.098	0.1	0	-0	0	0	0	0	0	-0	0	0.05595	0	0	0	-0	0	0	0	0	0	-0	0	561.826	583.443	325.431	182.764	0.623728	-1.22002	-0.0637276	-0.0107517	-0.675997
71	-0.0870195	-0.0182813	-0.00191841	0.0415595	-0.00983144	-0.0305632	0.0212835	0.0290856	-0.00309468	0.0311465	-0.00332859	0.00510277	0.0483078	-0.00263132	0.0195307	-2.25095	0.010618	-1.53644	0	0	0	0	-0	0	0	0	-0.1265	0	-0	0	0	0	0	0	-0	0	0.105	-0.015	0	0	-0	0	0	-0.098	0.1	0	-0	0	0	0	0	0	-0	0	0.05595	0	0	0	-0	0	0	0	0	0	-0	0	561.883	583.538	325.427	182.674	0.622137	-1.20551	-0.0638286	-0.0107592	-0.708187
72	-0.0864779	-0.018291	-0.00190451	0.0415468	-0.00984024	-0.0305764	0.021284	0.0290867	-0.00309421	0.0379321	-0.00388011	0.0124418	0.0482922	-0.00263251	0.0195612	-2.25029	0.0106023	-1.53642	0	0	0	0	-0	0	0	0	-0.1265	0	-0	0	0	0	0	0	-0	0	0.105	-0.015	0	0	-0	0	0	-0.098	0.1	0	-0	0	0	0	0	0	-0	0	0.05595	0	0	0	-0	0	0	0	0	0	-0	0	561.928	583.613	325.423	182.603	0.620856	-1.19337	-0.0639144	-0.0107667	-0.735575
73	-0.0881909	-0.0183125	-0.00187441	0.0415202	-0.00985919	-0.0306056	0.0212836	0.0290853	-0.00309316	0.0331778	-0.0125963	0.00714911	0.0483164	-0.00263511	0.0194892	-2.25173	0.010666	-1.53639	0	0	0	0	-0	0	0	0	-0.1265	0	-0	0	0	0	0	0	-0	0	0.105	-0.015	0	0	-0	0	0	-0.098	0.1	0	-0	0	0	0	0	0	-0	0	0.05595	0	0	0	-0	0	0	0	0	0	-0	0	562.026	583.782	325.416	182.444	0.618158	-1.16689	-0.0641156	-0.010783	-0.795974
74	-0.0902954	-0.0183224	-0.00185904	0.0415063	-0.00986792	-0.0306189	0.0212843	0.0290853	-0.00309228	0.0336776	-0.00222232	0.0130883	0.0483531	-0.00263624	0.0193926	-2.2537	0.0107404	-1.53639	0	0	0	0	-0	0	0	0	-0.1265	0	-0	0	0	0	0	0	-0	0	0.105	-0.015	0	0	-0	0	0	-0.098	0.1	0	-0	0	0	0	0	0	-0	0	0.05595	0	0	0	-0	0	0	0	0	0	-0	0	562.076	583.867	325.413	182.365	0.616776	-1.15413	-0.0642101	-0.0107913	-0.824042
75	-0.0842964	-0.0183311	-0.00184802	0.0414967	-0.00987584	-0.0306293	0.021283	0.0290849	-0.0030907	0.0376021	-0.00540594	0.0147789	0.0482336	-0.00263719	0.0196863	-2.2476	0.0105372	-1.53631	0	0	0	0	-0	0	0	0	-0.1265	0	-0	0	0	0	0	0	-0	0	0.105	-0.015	0	0	-0	0	0	-0.098	0.1	0	-0	0	0	0	0	0	-0	0	0.05595	0	0	0	-0	0	0	0	0	0	-0	0	562.113	583.927	325.41	182.307	0.615656	-1.14424	-0.0642722	-0.0107967	-0.845721
76	-0.0826381	-0.018337	-0.00183998	0.0414892	-0.00988134	-0.0306368	0.0212833	0.0290852	-0.00309031	0.0330326	-0.000911075	0.0185054	0.0481974	-0.00263779	0.0197691	-2.24587	0.0104813	-1.53628	0	0	0	0	-0	0	0	0	-0.1265	0	-0	0	0	0	0	0	-0	0	0.105	-0.015	0	0	-0	0	0	-0.098	0.1	0	-0	0	0	0	0	0	-0	0	0.05595	0	0	0	-0	0	0	0	0	0	-0	0	562.14	583.973	325.407	182.263	0.614974	-1.13754	-0.0643256	-0.0108009	-0.860903
77	-0.0779352	-0.0183411	-0.00183373	0.0414839	-0.00988474	-0.0306424	0.0212835	0.029085	-0.00309035	0.0314032	0.00589899	0.0237289	0.0481027	-0.00263827	0.0199978	-2.24112	0.0103199	-1.53622	0	0	0	0	-0	0	0	0	-0.1265	0	-0	0	0	0	0	0	-0	0	0.105	-0.015	0	0	-0	0	0	-0.098	0.1	0	-0	0	0	0	0	0	-0	0	0.05595	0	0	0	-0	0	0	0	0	0	-0	0	562.16	584.008	325.406	182.23	0.61439	-1.13217	-0.0643652	-0.0108047	-0.872651
78	-0.0810079	-0.0183519	-0.00182155	0.0414738	-0.00989481	-0.0306544	0.0212846	0.0290866	-0.00309023	0.0343337	-0.00130807	0.0124503	0.0481593	-0.00263924	0.0198548	-2.24406	0.0104293	-1.53623	0	0	0	0	-0	0	0	0	-0.1265	0	-0	0	0	0	0	0	-0	0	0.105	-0.015	0	0	-0	0	0	-0.098	0.1	0	-0	0	0	0	0	0	-0	0	0.05595	0	0	0	-0	0	0	0	0	0	-0	0	562.207	584.083	325.402	182.157	0.613133	-1.12079	-0.0644444	-0.0108112	-0.8977
79	-0.0870667	-0.0183669	-0.00180196	0.041457	-0.00990801	-0.0306733	0.0212837	0.0290853	-0.00308824	0.0287062	0.00592957	0.00721572	0.0482733	-0.00264084	0.0195701	-2.24993	0.0106431	-1.53626	0	0	0	0	-0	0	0	0	-0.1265	0	-0	0	0	0	0	0	-0	0	0.105	-0.015	0	0	-0	0	0	-0.098	0.1	0	-0	0	0	0	0	0	-0	0	0.05595	0	0	0	-0	0	0	0	0	0	-0	0	562.274	584.197	325.396	182.049	0.611264	-1.1033	-0.0645726	-0.0108228	-0.936518
80	-0.0928018	-0.0183884	-0.00177514	0.0414347	-0.00992751	-0.0306992	0.021282	0.0290839	-0.00308732	0.031468	0.00848536	0.0107099	0.0483754	-0.00264281	0.019304	-2.2554	0.0108459	-1.53627	0	0	0	0	-0	0	0	0	-0.1265	0	-0	0	0	0	0	0	-0	0	0.105	-0.015	0	0	-0	0	0	-0.098	0.1	0	-0	0	0	0	0	0	-0	0	0.05595	0	0	0	-0	0	0	0	0	0	-0	0	562.373	584.365	325.388	181.889	0.6087	-1.07925	-0.0647613	-0.0108389	-0.989513
81	-0.0957333	-0.0183993	-0.00175903	0.0414194	-0.00993727	-0.0307136	0.0212822	0.0290838	-0.00308618	0.0281558	0.0132724	0.0114592	0.0484269	-0.00264412	0.0191672	-2.25819	0.0109509	-1.53628	0	0	0	0	-0	0	0	0	-0.1265	0	-0	0	0	0	0	0	-0	0	0.105	-0.015	0	0	-0	0	0	-0.098	0.1	0	-0	0	0	0	0	0	-0	0	0.05595	0	0	0	-0	0	0	0	0	0	-0	0	562.422	584.447	325.384	181.81	0.607336	-1.06632	-0.0648565	-0.0108469	-1.01842
82	-0.0961628	-0.0184084	-0.00174681	0.0414082	-0.00994545	-0.030725	0.0212816	0.029085	-0.0030865	0.017635	0.0102201	0.00597214	0.0484317	-0.0026452	0.0191502	-2.25852	0.0109699	-1.53626	0	0	0	0	-0	0	0	0	-0.1265	0	-0	0	0	0	0	0	-0	0	0.105	-0.015	0	0	-0	0	0	-0.098	0.1	0	-0	0	0	0	0	0	-0	0	0.05595	0	0	0	-0	0	0	0	0	0	-0	0	562.46	584.511	325.38	181.748	0.60617	-1.05581	-0.0649249	-0.0108533	-1.04159
83	-0.0984502	-0.0184145	-0.00173778	0.0414	-0.00995067	-0.030733	0.021282	0.0290839	-0.00308509	0.0192222	0.0104469	0.0125075	0.0484729	-0.00264589	0.0190425	-2.26072	0.0110511	-1.53627	0	0	0	0	-0	0	0	0	-0.1265	0	-0	0	0	0	0	0	-0	0	0.105	-0.015	0	0	-0	0	0	-0.098	0.1	0	-0	0	0	0	0	0	-0	0	0.05595	0	0	0	-0	0	0	0	0	0	-0	0	562.489	584.56	325.377	181.702	0.605395	-1.04849	-0.0649812	-0.0108581	-1.05778
84	-0.0963946	-0.0184296	-0.00172011	0.0413848	-0.0099643	-0.0307508	0.0212815	0.0290843	-0.00308382	0.0276909	0.0104515	0.00829051	0.048428	-0.00264739	0.019149	-2.25849	0.0109859	-1.53622	0	0	0	0	-0	0	0	0	-0.1265	0	-0	0	0	0	0	0	-0	0	0.105	-0.015	0	0	-0	0	0	-0.098	0.1	0	-0	0	0	0	0	0	-0	0	0.05595	0	0	0	-0	0	0	0	0	0	-0	0	562.551	584.664	325.372	181.599	0.603688	-1.03251	-0.0650998	-0.0108692	-1.09312
85	-0.10123	-0.0184361	-0.0017104	0.0413761	-0.00996987	-0.0307591	0.0212815	0.0290836	-0.00308373	0.0334652	0.00862505	0.011529	0.0485177	-0.00264804	0.0189181	-2.26324	0.0111549	-1.53626	0	0	0	0	-0	0	0	0	-0.1265	0	-0	0	0	0	0	0	-0	0	0.105	-0.015	0	0	-0	0	0	-0.098	0.1	0	-0	0	0	0	0	0	-0	0	0.05595	0	0	0	-0	0	0	0	0	0	-0	0	562.582	584.718	325.368	181.548	0.602824	-1.02466	-0.0651598	-0.0108747	-1.11007
86	-0.100405	-0.0184414	-0.00170332	0.0413699	-0.00997446	-0.0307657	0.0212816	0.0290834	-0.00308319	0.0371252	0.00546969	0.0160781	0.0484995	-0.00264861	0.0189605	-2.26235	0.0111286	-1.53624	0	0	0	0	-0	0	0	0	-0.1265	0	-0	0	0	0	0	0	-0	0	0.105	-0.015	0	0	-0	0	0	-0.098	0.1	0	-0	0	0	0	0	0	-0	0	0.05595	0	0	0	-0	0	0	0	0	0	-0	0	562.606	584.758	325.366	181.51	0.602175	-1.01865	-0.0652049	-0.010879	-1.12324
87	-0.107292	-0.0184527	-0.00168991	0.0413593	-0.00998456	-0.0307788	0.0212815	0.0290833	-0.00308262	0.0333231	0.00863345	0.0209668	0.0486251	-0.0026495	0.0186326	-2.26909	0.0113692	-1.53629	0	0	0	0	-0	0	0	0	-0.1265	0	-0	0	0	0	0	0	-0	0	0.105	-0.015	0	0	-0	0	0	-0.098	0.1	0	-0	0	0	0	0	0	-0	0	0.05595	0	0	0	-0	0	0	0	0	0	-0	0	562.658	584.848	325.361	181.425	0.60088	-1.00649	-0.0653065	-0.0108883	-1.14968
88	-0.10337	-0.0184705	-0.00166621	0.0413383	-0.0100001	-0.0308016	0.0212811	0.0290832	-0.00308131	0.038587	0.00609615	0.0169888	0.0485441	-0.00265153	0.0188312	-2.26496	0.0112408	-1.5362	0	0	0	0	-0	0	0	0	-0.1265	0	-0	0	0	0	0	0	-0	0	0.105	-0.015	0	0	-0	0	0	-0.098	0.1	0	-0	0	0	0	0	0	-0	0	0.05595	0	0	0	-0	0	0	0	0	0	-0	0	562.736	584.98	325.354	181.299	0.598707	-0.986115	-0.0654573	-0.0109017	-1.19481
89	-0.112712	-0.0184969	-0.00163321	0.0413095	-0.0100237	-0.0308336	0.0212812	0.0290826	-0.00308005	0.0405127	0.000469939	0.0116386	0.0487094	-0.00265425	0.01839	-2.27398	0.0115722	-1.53625	0	0	0	0	-0	0	0	0	-0.1265	0	-0	0	0	0	0	0	-0	0	0.105	-0.015	0	0	-0	0	0	-0.098	0.1	0	-0	0	0	0	0	0	-0	0	0.05595	0	0	0	-0	0	0	0	0	0	-0	0	562.849	585.171	325.345	181.115	0.595623	-0.95732	-0.0656748	-0.0109203	-1.25822
90	-0.117578	-0.0185097	-0.00161688	0.0412949	-0.0100351	-0.0308477	0.0212804	0.029082	-0.0030788	0.0395168	0.00142783	0.0160761	0.0487923	-0.00265534	0.0181583	-2.27869	0.0117451	-1.53628	0	0	0	0	-0	0	0	0	-0.1265	0	-0	0	0	0	0	0	-0	0	0.105	-0.015	0	0	-0	0	0	-0.098	0.1	0	-0	0	0	0	0	0	-0	0	0.05595	0	0	0	-0	0	0	0	0	0	-0	0	562.904	585.264	325.34	181.024	0.594125	-0.944071	-0.0657746	-0.0109295	-1.28632
91	-0.110288	-0.0185244	-0.00159738	0.0412777	-0.0100479	-0.0308664	0.0212805	0.0290825	-0.00307777	0.0456239	-0.00170292	0.0124409	0.0486537	-0.00265697	0.0185208	-2.27123	0.0114996	-1.53616	0	0	0	0	-0	0	0	0	-0.1265	0	-0	0	0	0	0	0	-0	0	0.105	-0.015	0	0	-0	0	0	-0.098	0.1	0	-0	0	0	0	0	0	-0	0	0.05595	0	0	0	-0	0	0	0	0	0	-0	0	562.968	585.374	325.334	180.918	0.592334	-0.927376	-0.065901	-0.0109413	-1.32294
92	-0.112479	-0.0185354	-0.00158288	0.0412646	-0.0100574	-0.0308796	0.0212803	0.0290819	-0.00307709	0.045269	-0.000215129	0.018648	0.0486888	-0.00265808	0.0184188	-2.27328	0.0115797	-1.53616	0	0	0	0	-0	0	0	0	-0.1265	0	-0	0	0	0	0	0	-0	0	0.105	-0.015	0	0	-0	0	0	-0.098	0.1	0	-0	0	0	0	0	0	-0	0	0.05595	0	0	0	-0	0	0	0	0	0	-0	0	563.015	585.455	325.329	180.84	0.591049	-0.915522	-0.0659925	-0.0109496	-1.34868
93	-0.113189	-0.0185437	-0.00157238	0.0412559	-0.0100647	-0.0308894	0.0212802	0.0290816	-0.00307648	0.0415831	0.00415243	0.0162484	0.0486987	-0.00265885	0.0183881	-2.27389	0.0116079	-1.53615	0	0	0	0	-0	0	0	0	-0.1265	0	-0	0	0	0	0	0	-0	0	0.105	-0.015	0	0	-0	0	0	-0.098	0.1	0	-0	0	0	0	0	0	-0	0	0.05595	0	0	0	-0	0	0	0	0	0	-0	0	563.052	585.518	325.325	180.779	0.589995	-0.906347	-0.0660587	-0.0109564	-1.36801
94	-0.112677	-0.0185624	-0.00154875	0.0412358	-0.010081	-0.0309126	0.0212795	0.0290845	-0.0030762	0.057448	0.00460987	0.0192888	0.0486818	-0.00266074	0.0184223	-2.27315	0.0115969	-1.53611	0	0	0	0	-0	0	0	0	-0.1265	0	-0	0	0	0	0	0	-0	0	0.105	-0.015	0	0	-0	0	0	-0.098	0.1	0	-0	0	0	0	0	0	-0	0	0.05595	0	0	0	-0	0	0	0	0	0	-0	0	563.136	585.661	325.317	180.645	0.587804	-0.88574	-0.066223	-0.0109715	-1.41311
95	-0.112521	-0.0185714	-0.00153582	0.0412239	-0.0100888	-0.0309235	0.0212793	0.0290824	-0.00307429	0.0470375	0.00403321	0.022749	0.0486756	-0.00266165	0.0184341	-2.27288	0.0115954	-1.53608	0	0	0	0	-0	0	0	0	-0.1265	0	-0	0	0	0	0	0	-0	0	0.105	-0.015	0	0	-0	0	0	-0.098	0.1	0	-0	0	0	0	0	0	-0	0	0.05595	0	0	0	-0	0	0	0	0	0	-0	0	563.176	585.729	325.313	180.579	0.586653	-0.875644	-0.066296	-0.0109778	-1.43454
96	-0.116896	-0.0185925	-0.00151163	0.0412036	-0.0101075	-0.0309477	0.0212812	0.0290814	-0.00307433	0.0442936	0.0154318	0.0278956	0.0487481	-0.00266351	0.0182314	-2.27701	0.0117546	-1.53609	0	0	0	0	-0	0	0	0	-0.1265	0	-0	0	0	0	0	0	-0	0	0.105	-0.015	0	0	-0	0	0	-0.098	0.1	0	-0	0	0	0	0	0	-0	0	0.05595	0	0	0	-0	0	0	0	0	0	-0	0	563.265	585.881	325.305	180.432	0.584371	-0.854299	-0.0664699	-0.0109938	-1.48083
97	-0.117563	-0.0186017	-0.00149717	0.0411907	-0.0101146	-0.0309602	0.0212795	0.0290808	-0.00307264	0.049103	0.0105932	0.0285316	0.0487562	-0.00266458	0.0182032	-2.27755	0.0117813	-1.53607	0	0	0	0	-0	0	0	0	-0.1265	0	-0	0	0	0	0	0	-0	0	0.105	-0.015	0	0	-0	0	0	-0.098	0.1	0	-0	0	0	0	0	0	-0	0	0.05595	0	0	0	-0	0	0	0	0	0	-0	0	563.307	585.959	325.301	180.359	0.583165	-0.84301	-0.0665634	-0.0110033	-1.50513
98	-0.117937	-0.0186102	-0.00148744	0.0411822	-0.0101225	-0.0309694	0.0212801	0.029081	-0.00307225	0.04398	0.0187877	0.0292645	0.0487595	-0.00266518	0.0181897	-2.27782	0.0117965	-1.53606	0	0	0	0	-0	0	0	0	-0.1265	0	-0	0	0	0	0	0	-0	0	0.105	-0.015	0	0	-0	0	0	-0.098	0.1	0	-0	0	0	0	0	0	-0	0	0.05595	0	0	0	-0	0	0	0	0	0	-0	0	563.345	586.023	325.297	180.298	0.582298	-0.834858	-0.0666346	-0.0110091	-1.52272
99	-0.118075	-0.0186164	-0.00148028	0.0411767	-0.010128	-0.0309759	0.0212791	0.0290806	-0.00307204	0.0403561	0.0183116	0.0233103	0.0487598	-0.00266563	0.0181858	-2.27789	0.0118037	-1.53605	0	0	0	0	-0	0	0	0	-0.1265	0	-0	0	0	0	0	0	-0	0	0.105	-0.015	0	0	-0	0	0	-0.098	0.1	0	-0	0	0	0	0	0	-0	0	0.05595	0	0	0	-0	0	0	0	0	0	-0	0	563.373	586.07	325.294	180.253	0.581526	-0.828444	-0.0666815	-0.011014	-1.53573
100	-0.110839	-0.0186315	-0.00146231	0.0411609	-0.0101415	-0.0309938	0.0212785	0.0290798	-0.0030709	0.0390665	0.0179771	0.0224899	0.0486227	-0.00266718	0.0185454	-2.27048	0.0115587	-1.53593	0	0	0	0	-0	0	0	0	-0.1265	0	-0	0	0	0	0	0	-0	0	0.105	-0.015	0	0	-0	0	0	-0.098	0.1	0	-0	0	0	0	0	0	-0	0	0.05595	0	0	0	-0	0	0	0	0	0	-0	0	563.435	586.174	325.288	180.153	0.579816	-0.812831	-0.0667967	-0.0110242	-1.56966
