Stefan210/kinematic_calibration/src/kinematic_calibration/validation/experiments/experiments/anzahl_messungen/BC_A/larm_56/optimization_intermediate_results.csv
iteration	HeadPitch_offset	HeadYaw_offset	LElbowRoll_offset	LElbowYaw_offset	LShoulderPitch_offset	LShoulderRoll_offset	marker_transform_larm_tx	marker_transform_larm_ty	marker_transform_larm_tz	marker_transform_larm_rr	marker_transform_larm_rp	marker_transform_larm_ry	camera_transform_tx	camera_transform_ty	camera_transform_tz	camera_transform_rr	camera_transform_rp	camera_transform_ry	HeadPitch_transform_tx	HeadPitch_transform_ty	HeadPitch_transform_tz	HeadPitch_transform_rr	HeadPitch_transform_rp	HeadPitch_transform_ry	HeadYaw_transform_tx	HeadYaw_transform_ty	HeadYaw_transform_tz	HeadYaw_transform_rr	HeadYaw_transform_rp	HeadYaw_transform_ry	LElbowRoll_transform_tx	LElbowRoll_transform_ty	LElbowRoll_transform_tz	LElbowRoll_transform_rr	LElbowRoll_transform_rp	LElbowRoll_transform_ry	LElbowYaw_transform_tx	LElbowYaw_transform_ty	LElbowYaw_transform_tz	LElbowYaw_transform_rr	LElbowYaw_transform_rp	LElbowYaw_transform_ry	LShoulderPitch_transform_tx	LShoulderPitch_transform_ty	LShoulderPitch_transform_tz	LShoulderPitch_transform_rr	LShoulderPitch_transform_rp	LShoulderPitch_transform_ry	LShoulderRoll_transform_tx	LShoulderRoll_transform_ty	LShoulderRoll_transform_tz	LShoulderRoll_transform_rr	LShoulderRoll_transform_rp	LShoulderRoll_transform_ry	LWristYaw_transform_tx	LWristYaw_transform_ty	LWristYaw_transform_tz	LWristYaw_transform_rr	LWristYaw_transform_rp	LWristYaw_transform_ry	l_wrist_joint_transform_tx	l_wrist_joint_transform_ty	l_wrist_joint_transform_tz	l_wrist_joint_transform_rr	l_wrist_joint_transform_rp	l_wrist_joint_transform_ry	camera_fx	camera_fy	camera_cx	camera_cy	camera_D0	camera_D1	camera_D2	camera_D3	camera_D4	
0	0.0249164	-0.0307543	0.000853157	4.65819e-06	-0.000318322	-0.00310766	0.05071	0	0.01774	-2.26369	1.66533e-16	-1.5708	545.901	551.038	324.928	201.58	0.0255298	2.61142	-0.0636736	-0.0350419	0.213964
1	-0.0154989	0.0258024	0.0130367	0.0261837	-0.0127835	0.0262279	0.0242349	-0.0299294	0.0024501	-0.000192874	-0.000479189	-0.00310918	0.0567889	-7.86325e-05	0.0173985	-2.20122	-0.00848812	-1.563	0	0	0	0	-0	0	0	0	-0.1265	0	-0	0	0	0	0	0	-0	0	0.105	0.015	0	0	-0	0	0	0.098	0.1	0	-0	0	0	0	0	0	-0	0	0.05595	0	0	0	-0	0	0	0	0	0	-0	0	545.901	551.039	324.928	201.581	-0.0166809	2.59662	-0.0865081	0.051876	0.210585
2	-0.0134301	0.04052	0.0131505	0.0299417	-0.0218127	0.0346743	0.0241981	-0.0299785	0.00255426	-0.00020423	-0.000488721	-0.0031176	0.0551045	-0.00027468	0.0219271	-2.21064	-0.0129854	-1.5727	0	0	0	0	-0	0	0	0	-0.1265	0	-0	0	0	0	0	0	-0	0	0.105	0.015	0	0	-0	0	0	0.098	0.1	0	-0	0	0	0	0	0	-0	0	0.05595	0	0	0	-0	0	0	0	0	0	-0	0	545.903	551.039	324.924	201.585	-0.152005	2.50282	-0.039281	0.0171378	0.178302
3	-0.0147888	0.0356341	0.0112687	0.0339343	-0.0177991	0.0351634	0.024273	-0.0298449	0.00277394	-0.000231973	-0.000509275	-0.00309672	0.0565659	0.000274424	0.0185491	-2.20434	-0.0115716	-1.57165	0	0	0	0	-0	0	0	0	-0.1265	0	-0	0	0	0	0	0	-0	0	0.105	0.015	0	0	-0	0	0	0.098	0.1	0	-0	0	0	0	0	0	-0	0	0.05595	0	0	0	-0	0	0	0	0	0	-0	0	545.905	551.039	324.919	201.591	-0.382269	2.35611	-0.0263589	0.0133388	0.130659
4	-0.015419	0.0326475	0.0109237	0.0391498	-0.014499	0.0358819	0.0244632	-0.0297	0.00304508	-0.000265171	-0.000526957	-0.00306357	0.0578283	0.000462018	0.015668	-2.20107	-0.0105824	-1.56825	0	0	0	0	-0	0	0	0	-0.1265	0	-0	0	0	0	0	0	-0	0	0.105	0.015	0	0	-0	0	0	0.098	0.1	0	-0	0	0	0	0	0	-0	0	0.05595	0	0	0	-0	0	0	0	0	0	-0	0	545.912	551.038	324.912	201.6	-0.620152	2.1127	0.00597311	0.000138869	0.0409903
5	-0.0156752	0.0308244	0.0108383	0.0403882	-0.0126147	0.0352359	0.0245536	-0.0296398	0.00308093	-0.000268182	-0.000521276	-0.00304354	0.0577577	0.000506833	0.0149765	-2.19989	-0.00999482	-1.5667	0	0	0	0	-0	0	0	0	-0.1265	0	-0	0	0	0	0	0	-0	0	0.105	0.015	0	0	-0	0	0	0.098	0.1	0	-0	0	0	0	0	0	-0	0	0.05595	0	0	0	-0	0	0	0	0	0	-0	0	545.927	551.031	324.905	201.612	-0.592879	1.78521	0.0117285	-0.00344788	-0.0995543
6	-0.0156367	0.0296021	0.0110301	0.0387884	-0.0116974	0.0338227	0.0245837	-0.0296469	0.00294895	-0.000241362	-0.000502814	-0.00305224	0.0564736	0.000460634	0.0160576	-2.20034	-0.0097462	-1.56582	0	0	0	0	-0	0	0	0	-0.1265	0	-0	0	0	0	0	0	-0	0	0.105	0.015	0	0	-0	0	0	0.098	0.1	0	-0	0	0	0	0	0	-0	0	0.05595	0	0	0	-0	0	0	0	0	0	-0	0	545.964	551.012	324.9	201.626	-0.362283	1.28371	0.000654467	-0.00252463	-0.31445
7	-0.0155964	0.0288639	0.0113465	0.0369491	-0.0112275	0.0325825	0.0246039	-0.0296682	0.00280488	-0.000235325	-0.000500253	-0.00306634	0.0551274	0.000391965	0.0173437	-2.2011	-0.00971178	-1.56516	0	0	0	0	-0	0	0	0	-0.1265	0	-0	0	0	0	0	0	-0	0	0.105	0.015	0	0	-0	0	0	0.098	0.1	0	-0	0	0	0	0	0	-0	0	0.05595	0	0	0	-0	0	0	0	0	0	-0	0	546.053	550.964	324.898	201.633	-0.108306	0.718095	-0.0116156	-0.00138128	-0.502892
8	-0.0155722	0.028805	0.0116446	0.0358009	-0.0112152	0.0319717	0.0246177	-0.0296875	0.00271422	-0.000224864	-0.00037579	-0.00302966	0.0543013	0.000323296	0.0182142	-2.2018	-0.00976728	-1.56485	0	0	0	0	-0	0	0	0	-0.1265	0	-0	0	0	0	0	0	-0	0	0.105	0.015	0	0	-0	0	0	0.098	0.1	0	-0	0	0	0	0	0	-0	0	0.05595	0	0	0	-0	0	0	0	0	0	-0	0	546.291	550.833	324.875	201.616	0.0508718	0.288933	-0.0176859	-0.00106446	-0.466066
9	-0.0155979	0.0290471	0.0118244	0.0352576	-0.0113727	0.0318918	0.0246271	-0.0297062	0.00267093	0.000220327	0.000166358	-0.00246464	0.0538778	0.000271328	0.0187231	-2.20236	-0.00963421	-1.56463	0	0	0	0	-0	0	0	0	-0.1265	0	-0	0	0	0	0	0	-0	0	0.105	0.015	0	0	-0	0	0	0.098	0.1	0	-0	0	0	0	0	0	-0	0	0.05595	0	0	0	-0	0	0	0	0	0	-0	0	546.96	550.462	324.751	201.541	0.121206	-0.0609863	-0.0172192	-0.00132612	0.0190749
10	-0.0149981	0.0296262	0.012019	0.0346566	-0.0116984	0.0321151	0.0246391	-0.0297414	0.00262402	-0.000688337	0.00128276	-0.00245876	0.0533284	0.000196013	0.0194657	-2.20247	-0.0091286	-1.56428	0	0	0	0	-0	0	0	0	-0.1265	0	-0	0	0	0	0	0	-0	0	0.105	0.015	0	0	-0	0	0	0.098	0.1	0	-0	0	0	0	0	0	-0	0	0.05595	0	0	0	-0	0	0	0	0	0	-0	0	548.696	549.499	324.399	201.301	0.185834	-0.655093	-0.0112493	-0.00200837	1.29436
11	-0.0205809	0.0307682	0.0124043	0.0335081	-0.0123014	0.032581	0.0246595	-0.0298077	0.00253576	-0.00612262	0.00650039	-0.00416874	0.0524348	5.69823e-05	0.0205006	-2.20897	-0.00810634	-1.56369	0	0	0	0	-0	0	0	0	-0.1265	0	-0	0	0	0	0	0	-0	0	0.105	0.015	0	0	-0	0	0	0.098	0.1	0	-0	0	0	0	0	0	-0	0	0.05595	0	0	0	-0	0	0	0	0	0	-0	0	552.341	547.533	323.73	200.638	0.281826	-1.69005	0.00178197	-0.00322225	3.63651
12	-0.0229497	0.0321658	0.0129371	0.0320025	-0.0129719	0.0331341	0.0246874	-0.0298884	0.00241909	0.00273281	0.0150816	-0.0149418	0.0511715	-0.000119325	0.0221348	-2.2112	-0.00698821	-1.56327	0	0	0	0	-0	0	0	0	-0.1265	0	-0	0	0	0	0	0	-0	0	0.105	0.015	0	0	-0	0	0	0.098	0.1	0	-0	0	0	0	0	0	-0	0	0.05595	0	0	0	-0	0	0	0	0	0	-0	0	557.527	545.228	323.049	199.07	0.374159	-2.85629	0.0194437	-0.00454351	6.38485
13	-0.0128584	0.0327338	0.0131828	0.031258	-0.0131949	0.0333498	0.0246989	-0.0299225	0.00236306	-0.00987629	0.010201	-0.00876125	0.050245	-0.000202955	0.0235639	-2.19991	-0.00711298	-1.56378	0	0	0	0	-0	0	0	0	-0.1265	0	-0	0	0	0	0	0	-0	0	0.105	0.015	0	0	-0	0	0	0.098	0.1	0	-0	0	0	0	0	0	-0	0	0.05595	0	0	0	-0	0	0	0	0	0	-0	0	560.233	544.413	323.244	197.646	0.412139	-3.35932	0.0276538	-0.00478255	7.57216
14	0.010083	0.0330579	0.0132976	0.0308905	-0.0133164	0.0335126	0.0247021	-0.0299409	0.00233145	0.00997057	0.00395402	-0.00636781	0.0491849	-0.000260763	0.025338	-2.17478	-0.00781523	-1.56478	0	0	0	0	-0	0	0	0	-0.1265	0	-0	0	0	0	0	0	-0	0	0.105	0.015	0	0	-0	0	0	0.098	0.1	0	-0	0	0	0	0	0	-0	0	0.05595	0	0	0	-0	0	0	0	0	0	-0	0	562.227	544.366	323.886	195.854	0.43181	-3.59358	0.03181	-0.00473644	8.04093
15	-0.0121407	0.0331794	0.0133363	0.0307693	-0.0133534	0.033587	0.0247097	-0.0299446	0.00232182	0.0125254	0.0203557	-0.00640417	0.0494824	-0.000287238	0.0245039	-2.19536	-0.00818501	-1.56529	0	0	0	0	-0	0	0	0	-0.1265	0	-0	0	0	0	0	0	-0	0	0.105	0.015	0	0	-0	0	0	0.098	0.1	0	-0	0	0	0	0	0	-0	0	0.05595	0	0	0	-0	0	0	0	0	0	-0	0	563.187	544.557	324.436	194.656	0.434825	-3.63097	0.0331222	-0.00462406	8.06005
16	-0.0167339	0.0332219	0.0133509	0.0307371	-0.0133648	0.033616	0.0247085	-0.0299481	0.00231889	0.00424032	0.0148993	-0.00036448	0.0495145	-0.000296425	0.0243666	-2.19929	-0.00838162	-1.56551	0	0	0	0	-0	0	0	0	-0.1265	0	-0	0	0	0	0	0	-0	0	0.105	0.015	0	0	-0	0	0	0.098	0.1	0	-0	0	0	0	0	0	-0	0	0.05595	0	0	0	-0	0	0	0	0	0	-0	0	563.523	544.652	324.657	194.191	0.433685	-3.62885	0.0335431	-0.00459139	8.03339
17	-0.0110527	0.0332404	0.013351	0.0307234	-0.0133643	0.0336417	0.0247102	-0.0299486	0.00231696	-0.000810528	0.00290885	0.00265768	0.0492947	-0.000304715	0.0247448	-2.19271	-0.00870168	-1.5659	0	0	0	0	-0	0	0	0	-0.1265	0	-0	0	0	0	0	0	-0	0	0.105	0.015	0	0	-0	0	0	0.098	0.1	0	-0	0	0	0	0	0	-0	0	0.05595	0	0	0	-0	0	0	0	0	0	-0	0	563.893	544.816	324.956	193.589	0.432108	-3.60875	0.0336742	-0.00447784	7.94951
18	-0.00533633	0.0332523	0.0133541	0.0307191	-0.0133657	0.033654	0.0247077	-0.0299479	0.00231651	-0.00146954	0.00191624	0.00454605	0.0491239	-0.000308171	0.0250593	-2.18663	-0.00884409	-1.56609	0	0	0	0	-0	0	0	0	-0.1265	0	-0	0	0	0	0	0	-0	0	0.105	0.015	0	0	-0	0	0	0.098	0.1	0	-0	0	0	0	0	0	-0	0	0.05595	0	0	0	-0	0	0	0	0	0	-0	0	564.036	544.883	325.075	193.351	0.430495	-3.5973	0.0337716	-0.00445388	7.91196
19	-0.013799	0.0332397	0.0133386	0.03073	-0.0133467	0.033678	0.0247069	-0.029957	0.00231765	0.0235284	-0.000263275	0.00365933	0.0492407	-0.000316048	0.0247477	-2.19368	-0.00927116	-1.56657	0	0	0	0	-0	0	0	0	-0.1265	0	-0	0	0	0	0	0	-0	0	0.105	0.015	0	0	-0	0	0	0.098	0.1	0	-0	0	0	0	0	0	-0	0	0.05595	0	0	0	-0	0	0	0	0	0	-0	0	564.484	545.201	325.554	192.445	0.426175	-3.5349	0.033428	-0.00422182	7.70554
20	0.00199023	0.0332303	0.0133271	0.0307532	-0.0133297	0.0337013	0.0247102	-0.029949	0.00231916	0.0220071	-0.0122104	-0.00274518	0.0487823	-0.000322402	0.0256004	-2.17664	-0.0097413	-1.56719	0	0	0	0	-0	0	0	0	-0.1265	0	-0	0	0	0	0	0	-0	0	0.105	0.015	0	0	-0	0	0	0.098	0.1	0	-0	0	0	0	0	0	-0	0	0.05595	0	0	0	-0	0	0	0	0	0	-0	0	564.847	545.483	325.966	191.664	0.419985	-3.46933	0.0331627	-0.0040566	7.51019
21	-0.00163985	0.0332253	0.0133208	0.0307643	-0.013319	0.0337179	0.0247113	-0.0299526	0.00231875	0.0343109	-0.00304529	-0.0111948	0.0488231	-0.000326668	0.0254683	-2.1794	-0.0100068	-1.5675	0	0	0	0	-0	0	0	0	-0.1265	0	-0	0	0	0	0	0	-0	0	0.105	0.015	0	0	-0	0	0	0.098	0.1	0	-0	0	0	0	0	0	-0	0	0.05595	0	0	0	-0	0	0	0	0	0	-0	0	565.094	545.677	326.257	191.117	0.415337	-3.42269	0.0329868	-0.00394592	7.37429
22	-0.0101744	0.0332264	0.0133193	0.0307727	-0.0133156	0.0337265	0.0247086	-0.0299485	0.00231866	0.0371594	0.00225944	-0.0159989	0.0490243	-0.000328527	0.0250697	-2.18759	-0.010091	-1.56755	0	0	0	0	-0	0	0	0	-0.1265	0	-0	0	0	0	0	0	-0	0	0.105	0.015	0	0	-0	0	0	0.098	0.1	0	-0	0	0	0	0	0	-0	0	0.05595	0	0	0	-0	0	0	0	0	0	-0	0	565.193	545.751	326.371	190.9	0.413053	-3.40353	0.0329567	-0.00391421	7.32127
23	-0.0245528	0.0331977	0.0133002	0.0307966	-0.0132903	0.0337421	0.0247092	-0.0299477	0.00232172	0.0402342	-0.0101626	-0.0222202	0.0493183	-0.00033307	0.0244341	-2.20064	-0.0105068	-1.56794	0	0	0	0	-0	0	0	0	-0.1265	0	-0	0	0	0	0	0	-0	0	0.105	0.015	0	0	-0	0	0	0.098	0.1	0	-0	0	0	0	0	0	-0	0	0.05595	0	0	0	-0	0	0	0	0	0	-0	0	565.523	546.052	326.834	190.081	0.407645	-3.33153	0.0324203	-0.0036775	7.10403
24	-0.0137226	0.0331876	0.0132912	0.030818	-0.0132768	0.0337591	0.0247111	-0.0299461	0.00231823	0.0521835	-0.0343933	-0.0146404	0.0490094	-0.000336914	0.0250124	-2.18888	-0.0108595	-1.56841	0	0	0	0	-0	0	0	0	-0.1265	0	-0	0	0	0	0	0	-0	0	0.105	0.015	0	0	-0	0	0	0.098	0.1	0	-0	0	0	0	0	0	-0	0	0.05595	0	0	0	-0	0	0	0	0	0	-0	0	565.76	546.254	327.154	189.501	0.402448	-3.28038	0.0321896	-0.0035549	6.95985
25	-0.00813983	0.0331809	0.0132857	0.0308299	-0.0132672	0.0337711	0.0247138	-0.0299487	0.00232325	0.0473001	-0.0546139	-0.0177606	0.0488369	-0.000339546	0.025317	-2.18264	-0.0110966	-1.56874	0	0	0	0	-0	0	0	0	-0.1265	0	-0	0	0	0	0	0	-0	0	0.105	0.015	0	0	-0	0	0	0.098	0.1	0	-0	0	0	0	0	0	-0	0	0.05595	0	0	0	-0	0	0	0	0	0	-0	0	565.924	546.394	327.381	189.094	0.399153	-3.24647	0.0320196	-0.00346541	6.86251
26	-0.00226056	0.0331761	0.0132807	0.03084	-0.0132605	0.0337793	0.024707	-0.0299475	0.00232161	0.0376631	-0.0482574	-0.022099	0.048666	-0.000341481	0.0256269	-2.17629	-0.0112683	-1.569	0	0	0	0	-0	0	0	0	-0.1265	0	-0	0	0	0	0	0	-0	0	0.105	0.015	0	0	-0	0	0	0.098	0.1	0	-0	0	0	0	0	0	-0	0	0.05595	0	0	0	-0	0	0	0	0	0	-0	0	566.041	546.489	327.544	188.803	0.396742	-3.22226	0.0319091	-0.00340191	6.79361
27	0.0120716	0.0331657	0.0132725	0.0308544	-0.0132498	0.0337896	0.0247084	-0.0299496	0.00232302	0.0493763	-0.0435291	-0.0167854	0.0482674	-0.000343791	0.0263566	-2.16129	-0.0115236	-1.56944	0	0	0	0	-0	0	0	0	-0.1265	0	-0	0	0	0	0	0	-0	0	0.105	0.015	0	0	-0	0	0	0.098	0.1	0	-0	0	0	0	0	0	-0	0	0.05595	0	0	0	-0	0	0	0	0	0	-0	0	566.196	546.623	327.782	188.392	0.393907	-3.18902	0.0316919	-0.00329289	6.69637
28	-0.00173424	0.0331367	0.0132541	0.0308817	-0.0132247	0.0338059	0.0247024	-0.0299514	0.00233167	0.0859737	-0.0751517	-0.0235171	0.0485676	-0.000347651	0.025747	-2.17377	-0.0119983	-1.56988	0	0	0	0	-0	0	0	0	-0.1265	0	-0	0	0	0	0	0	-0	0	0.105	0.015	0	0	-0	0	0	0.098	0.1	0	-0	0	0	0	0	0	-0	0	0.05595	0	0	0	-0	0	0	0	0	0	-0	0	566.479	546.89	328.285	187.577	0.388669	-3.12169	0.0311621	-0.0030498	6.49771
29	-0.00888249	0.033109	0.0132331	0.0309217	-0.0131983	0.0338305	0.0247051	-0.02995	0.00233927	0.0522435	-0.0428567	-0.0108407	0.0486821	-0.000352569	0.0254689	-2.17927	-0.012638	-1.57055	0	0	0	0	-0	0	0	0	-0.1265	0	-0	0	0	0	0	0	-0	0	0.105	0.015	0	0	-0	0	0	0.098	0.1	0	-0	0	0	0	0	0	-0	0	0.05595	0	0	0	-0	0	0	0	0	0	-0	0	566.808	547.183	328.925	186.572	0.381788	-3.04227	0.0306158	-0.00276227	6.26854
30	-0.0236442	0.0330818	0.0132136	0.0309588	-0.013171	0.0338596	0.0247067	-0.0299581	0.00233104	0.0817352	-0.0406383	-0.0143534	0.0489871	-0.000357735	0.0248273	-2.19215	-0.0134346	-1.57128	0	0	0	0	-0	0	0	0	-0.1265	0	-0	0	0	0	0	0	-0	0	0.105	0.015	0	0	-0	0	0	0.098	0.1	0	-0	0	0	0	0	0	-0	0	0.05595	0	0	0	-0	0	0	0	0	0	-0	0	567.138	547.454	329.701	185.431	0.37449	-2.95742	0.0300449	-0.00241682	6.02237
31	-0.027836	0.0330988	0.0132195	0.0309695	-0.0131759	0.0338747	0.0247067	-0.0299452	0.00233013	0.0832408	-0.037846	-0.00838905	0.0490833	-0.000359512	0.0246272	-2.19612	-0.0135319	-1.57132	0	0	0	0	-0	0	0	0	-0.1265	0	-0	0	0	0	0	0	-0	0	0.105	0.015	0	0	-0	0	0	0.098	0.1	0	-0	0	0	0	0	0	-0	0	0.05595	0	0	0	-0	0	0	0	0	0	-0	0	567.198	547.47	329.784	185.292	0.371473	-2.94684	0.0302498	-0.00244581	6.00362
32	-0.0247862	0.0331023	0.0132209	0.0309645	-0.0131772	0.0338775	0.0247063	-0.0299448	0.00232956	0.0844754	-0.0351007	-0.00922233	0.0490037	-0.000359952	0.0247822	-2.19299	-0.0135653	-1.57141	0	0	0	0	-0	0	0	0	-0.1265	0	-0	0	0	0	0	0	-0	0	0.105	0.015	0	0	-0	0	0	0.098	0.1	0	-0	0	0	0	0	0	-0	0	0.05595	0	0	0	-0	0	0	0	0	0	-0	0	567.22	547.476	329.818	185.241	0.37105	-2.94398	0.0302672	-0.00243405	5.99576
33	-0.0330935	0.0331027	0.0132203	0.0309642	-0.013176	0.033881	0.024707	-0.0299459	0.00232919	0.0861059	-0.0361658	-0.000884923	0.0491994	-0.000360789	0.0243869	-2.20113	-0.0136456	-1.57138	0	0	0	0	-0	0	0	0	-0.1265	0	-0	0	0	0	0	0	-0	0	0.105	0.015	0	0	-0	0	0	0.098	0.1	0	-0	0	0	0	0	0	-0	0	0.05595	0	0	0	-0	0	0	0	0	0	-0	0	567.261	547.492	329.891	185.132	0.370643	-2.93863	0.0302549	-0.00240146	5.97833
34	-0.0267962	0.0331015	0.013219	0.030966	-0.0131734	0.0338856	0.0247062	-0.029945	0.0023295	0.084413	-0.0357023	-0.00239588	0.049033	-0.000361688	0.0247094	-2.19458	-0.0137544	-1.57159	0	0	0	0	-0	0	0	0	-0.1265	0	-0	0	0	0	0	0	-0	0	0.105	0.015	0	0	-0	0	0	0.098	0.1	0	-0	0	0	0	0	0	-0	0	0.05595	0	0	0	-0	0	0	0	0	0	-0	0	567.312	547.516	329.998	184.978	0.369727	-2.92836	0.0302167	-0.00235409	5.9479
35	-0.0258369	0.0331024	0.0132186	0.0309685	-0.0131729	0.0338888	0.0247068	-0.029945	0.00233026	0.0815266	-0.0275137	0.000877679	0.0490038	-0.000362192	0.0247614	-2.1935	-0.0138074	-1.57167	0	0	0	0	-0	0	0	0	-0.1265	0	-0	0	0	0	0	0	-0	0	0.105	0.015	0	0	-0	0	0	0.098	0.1	0	-0	0	0	0	0	0	-0	0	0.05595	0	0	0	-0	0	0	0	0	0	-0	0	567.336	547.53	330.05	184.903	0.369117	-2.92346	0.0302125	-0.00233734	5.93446
36	-0.0259507	0.0330997	0.0132166	0.030971	-0.0131698	0.0338929	0.0247061	-0.0299452	0.00233014	0.0762638	-0.0229667	0.0031712	0.0489959	-0.000362932	0.0247682	-2.19335	-0.0139278	-1.5718	0	0	0	0	-0	0	0	0	-0.1265	0	-0	0	0	0	0	0	-0	0	0.105	0.015	0	0	-0	0	0	0.098	0.1	0	-0	0	0	0	0	0	-0	0	0.05595	0	0	0	-0	0	0	0	0	0	-0	0	567.38	547.554	330.164	184.744	0.368287	-2.91289	0.0301506	-0.00228329	5.90275
37	-0.0293231	0.0330998	0.0132157	0.0309745	-0.0131686	0.0338967	0.0247068	-0.0299448	0.00233035	0.0802065	-0.0331564	0.00194093	0.0490735	-0.000363516	0.0246102	-2.19656	-0.0140069	-1.57184	0	0	0	0	-0	0	0	0	-0.1265	0	-0	0	0	0	0	0	-0	0	0.105	0.015	0	0	-0	0	0	0.098	0.1	0	-0	0	0	0	0	0	-0	0	0.05595	0	0	0	-0	0	0	0	0	0	-0	0	567.409	547.57	330.236	184.645	0.367623	-2.90671	0.0301317	-0.00225697	5.88503
38	-0.0268137	0.0330908	0.0132105	0.0309821	-0.0131608	0.0339031	0.0247067	-0.0299455	0.00233024	0.0778217	-0.0376262	0.00708318	0.0489938	-0.000364542	0.0247533	-2.19356	-0.0142478	-1.57215	0	0	0	0	-0	0	0	0	-0.1265	0	-0	0	0	0	0	0	-0	0	0.105	0.015	0	0	-0	0	0	0.098	0.1	0	-0	0	0	0	0	0	-0	0	0.05595	0	0	0	-0	0	0	0	0	0	-0	0	567.481	547.626	330.466	184.35	0.366139	-2.88581	0.0299588	-0.00214514	5.82274
39	-0.027509	0.0330951	0.0132115	0.0309864	-0.0131623	0.0339073	0.0247069	-0.0299459	0.00233125	0.0801564	-0.0404677	-0.0010258	0.0490108	-0.000364928	0.0247199	-2.19418	-0.014281	-1.57218	0	0	0	0	-0	0	0	0	-0.1265	0	-0	0	0	0	0	0	-0	0	0.105	0.015	0	0	-0	0	0	0.098	0.1	0	-0	0	0	0	0	0	-0	0	0.05595	0	0	0	-0	0	0	0	0	0	-0	0	567.494	547.63	330.496	184.309	0.365242	-2.8822	0.0300067	-0.00214916	5.81572
40	-0.029548	0.0330956	0.0132113	0.0309866	-0.0131622	0.0339083	0.0247064	-0.0299453	0.00233067	0.0776965	-0.0427291	0.00269859	0.0490594	-0.000365096	0.0246222	-2.19618	-0.014306	-1.57218	0	0	0	0	-0	0	0	0	-0.1265	0	-0	0	0	0	0	0	-0	0	0.105	0.015	0	0	-0	0	0	0.098	0.1	0	-0	0	0	0	0	0	-0	0	0.05595	0	0	0	-0	0	0	0	0	0	-0	0	567.502	547.632	330.517	184.282	0.365034	-2.88041	0.0300085	-0.00214077	5.81067
41	-0.0288072	0.0330952	0.0132108	0.0309873	-0.0131613	0.0339101	0.024707	-0.0299448	0.00233093	0.0794385	-0.05243	0.00187482	0.0490367	-0.000365422	0.0246638	-2.19534	-0.0143545	-1.57224	0	0	0	0	-0	0	0	0	-0.1265	0	-0	0	0	0	0	0	-0	0	0.105	0.015	0	0	-0	0	0	0.098	0.1	0	-0	0	0	0	0	0	-0	0	0.05595	0	0	0	-0	0	0	0	0	0	-0	0	567.518	547.638	330.563	184.222	0.364822	-2.87727	0.0299907	-0.00211936	5.80058
42	-0.0281331	0.0330947	0.0132102	0.0309882	-0.0131601	0.0339127	0.0247071	-0.0299459	0.00233099	0.0831137	-0.0462591	0.00617342	0.0490145	-0.000365849	0.0247035	-2.19452	-0.0144264	-1.57233	0	0	0	0	-0	0	0	0	-0.1265	0	-0	0	0	0	0	0	-0	0	0.105	0.015	0	0	-0	0	0	0.098	0.1	0	-0	0	0	0	0	0	-0	0	0.05595	0	0	0	-0	0	0	0	0	0	-0	0	567.541	547.646	330.631	184.135	0.364343	-2.87173	0.0299692	-0.00208885	5.78404
43	-0.0263957	0.0330954	0.01321	0.0309901	-0.0131599	0.0339147	0.0247067	-0.029946	0.00233094	0.0888102	-0.0426641	0.00232056	0.0489695	-0.00036608	0.0247913	-2.19272	-0.0144593	-1.5724	0	0	0	0	-0	0	0	0	-0.1265	0	-0	0	0	0	0	0	-0	0	0.105	0.015	0	0	-0	0	0	0.098	0.1	0	-0	0	0	0	0	0	-0	0	0.05595	0	0	0	-0	0	0	0	0	0	-0	0	567.551	547.65	330.665	184.093	0.363988	-2.86899	0.0299698	-0.00207785	5.77655
44	-0.0203329	0.0330954	0.0132098	0.0309909	-0.0131596	0.0339158	0.0247062	-0.0299452	0.00233089	0.0912836	-0.0405028	0.00197672	0.0488175	-0.000366215	0.0250901	-2.1866	-0.0144758	-1.57252	0	0	0	0	-0	0	0	0	-0.1265	0	-0	0	0	0	0	0	-0	0	0.105	0.015	0	0	-0	0	0	0.098	0.1	0	-0	0	0	0	0	0	-0	0	0.05595	0	0	0	-0	0	0	0	0	0	-0	0	567.559	547.653	330.689	184.063	0.363738	-2.86666	0.029964	-0.00206768	5.77006
45	-0.0138351	0.0330942	0.0132088	0.0309923	-0.0131583	0.0339176	0.024706	-0.0299488	0.0023328	0.0754542	-0.0372501	0.00880983	0.0486492	-0.000366513	0.0254119	-2.17999	-0.0145223	-1.57268	0	0	0	0	-0	0	0	0	-0.1265	0	-0	0	0	0	0	0	-0	0	0.105	0.015	0	0	-0	0	0	0.098	0.1	0	-0	0	0	0	0	0	-0	0	0.05595	0	0	0	-0	0	0	0	0	0	-0	0	567.575	547.662	330.745	183.995	0.363469	-2.86273	0.0299349	-0.00204207	5.75785
46	-0.0114639	0.0330928	0.0132072	0.0309961	-0.0131566	0.0339202	0.0247071	-0.0299454	0.00233199	0.0745301	-0.0286334	0.013957	0.0485828	-0.000366852	0.0255325	-2.17746	-0.0146027	-1.57281	0	0	0	0	-0	0	0	0	-0.1265	0	-0	0	0	0	0	0	-0	0	0.105	0.015	0	0	-0	0	0	0.098	0.1	0	-0	0	0	0	0	0	-0	0	0.05595	0	0	0	-0	0	0	0	0	0	-0	0	567.594	547.669	330.825	183.899	0.362928	-2.85628	0.0299002	-0.00200592	5.73882
47	-0.0118612	0.0330936	0.0132077	0.0309965	-0.0131566	0.0339224	0.0247067	-0.0299452	0.00233075	0.0758297	-0.0364289	0.0176642	0.048591	-0.000367054	0.0255155	-2.17778	-0.0146446	-1.57285	0	0	0	0	-0	0	0	0	-0.1265	0	-0	0	0	0	0	0	-0	0	0.105	0.015	0	0	-0	0	0	0.098	0.1	0	-0	0	0	0	0	0	-0	0	0.05595	0	0	0	-0	0	0	0	0	0	-0	0	567.603	547.672	330.864	183.853	0.362528	-2.8531	0.029898	-0.00199227	5.73016
48	-0.0134517	0.033094	0.0132078	0.0309971	-0.0131564	0.0339238	0.0247063	-0.0299455	0.00233122	0.0740249	-0.0377104	0.0222732	0.0486297	-0.000367206	0.0254404	-2.17931	-0.0146786	-1.57287	0	0	0	0	-0	0	0	0	-0.1265	0	-0	0	0	0	0	0	-0	0	0.105	0.015	0	0	-0	0	0	0.098	0.1	0	-0	0	0	0	0	0	-0	0	0.05595	0	0	0	-0	0	0	0	0	0	-0	0	567.611	547.674	330.892	183.819	0.362251	-2.85062	0.0298959	-0.00198049	5.72319
49	-0.0139048	0.033093	0.0132069	0.0309988	-0.0131552	0.0339258	0.0247058	-0.029946	0.00233253	0.0842441	-0.0460553	0.0177497	0.048637	-0.000367469	0.0254232	-2.17964	-0.0147476	-1.57294	0	0	0	0	-0	0	0	0	-0.1265	0	-0	0	0	0	0	0	-0	0	0.105	0.015	0	0	-0	0	0	0.098	0.1	0	-0	0	0	0	0	0	-0	0	0.05595	0	0	0	-0	0	0	0	0	0	-0	0	567.624	547.677	330.956	183.745	0.361934	-2.84616	0.0298681	-0.00195047	5.70943
50	-0.0130439	0.0330939	0.0132067	0.0310006	-0.0131553	0.0339276	0.0247065	-0.0299457	0.00233138	0.0864862	-0.0436667	0.0122443	0.0486136	-0.000367659	0.0254671	-2.17872	-0.0147788	-1.57299	0	0	0	0	-0	0	0	0	-0.1265	0	-0	0	0	0	0	0	-0	0	0.105	0.015	0	0	-0	0	0	0.098	0.1	0	-0	0	0	0	0	0	-0	0	0.05595	0	0	0	-0	0	0	0	0	0	-0	0	567.632	547.678	330.987	183.71	0.361605	-2.84377	0.0298724	-0.00194009	5.70304
