Stefan210/kinematic_calibration/src/kinematic_calibration/validation/experiments/experiments/impact_noise/outlier/larm_randomize_3_measurements_rk_false/optimization_intermediate_results.csv
iteration	HeadPitch_offset	HeadYaw_offset	LElbowRoll_offset	LElbowYaw_offset	LShoulderPitch_offset	LShoulderRoll_offset	marker_transform_larm_tx	marker_transform_larm_ty	marker_transform_larm_tz	marker_transform_larm_rr	marker_transform_larm_rp	marker_transform_larm_ry	camera_transform_tx	camera_transform_ty	camera_transform_tz	camera_transform_rr	camera_transform_rp	camera_transform_ry	HeadPitch_transform_tx	HeadPitch_transform_ty	HeadPitch_transform_tz	HeadPitch_transform_rr	HeadPitch_transform_rp	HeadPitch_transform_ry	HeadYaw_transform_tx	HeadYaw_transform_ty	HeadYaw_transform_tz	HeadYaw_transform_rr	HeadYaw_transform_rp	HeadYaw_transform_ry	LElbowRoll_transform_tx	LElbowRoll_transform_ty	LElbowRoll_transform_tz	LElbowRoll_transform_rr	LElbowRoll_transform_rp	LElbowRoll_transform_ry	LElbowYaw_transform_tx	LElbowYaw_transform_ty	LElbowYaw_transform_tz	LElbowYaw_transform_rr	LElbowYaw_transform_rp	LElbowYaw_transform_ry	LShoulderPitch_transform_tx	LShoulderPitch_transform_ty	LShoulderPitch_transform_tz	LShoulderPitch_transform_rr	LShoulderPitch_transform_rp	LShoulderPitch_transform_ry	LShoulderRoll_transform_tx	LShoulderRoll_transform_ty	LShoulderRoll_transform_tz	LShoulderRoll_transform_rr	LShoulderRoll_transform_rp	LShoulderRoll_transform_ry	LWristYaw_transform_tx	LWristYaw_transform_ty	LWristYaw_transform_tz	LWristYaw_transform_rr	LWristYaw_transform_rp	LWristYaw_transform_ry	l_wrist_joint_transform_tx	l_wrist_joint_transform_ty	l_wrist_joint_transform_tz	l_wrist_joint_transform_rr	l_wrist_joint_transform_rp	l_wrist_joint_transform_ry	camera_fx	camera_fy	camera_cx	camera_cy	camera_D0	camera_D1	camera_D2	camera_D3	camera_D4	
0	0.0249164	-0.0307543	0.000853157	4.65819e-06	-0.000318322	-0.00310766	0.05071	0	0.01774	-2.26369	1.66533e-16	-1.5708	545.901	551.038	324.928	201.58	0.0255298	2.61142	-0.0636736	-0.0350419	0.213964
1	-0.0122342	-0.0268943	-0.0057807	0.152514	0.0211327	-0.0197261	0.025385	-0.0285974	0.0166926	-0.00193247	-0.00189126	-0.00283593	0.0533412	0.000436025	0.02034	-2.21518	-0.00819562	-1.54774	0	0	0	0	-0	0	0	0	-0.1265	0	-0	0	0	0	0	0	-0	0	0.105	0.015	0	0	-0	0	0	0.098	0.1	0	-0	0	0	0	0	0	-0	0	0.05595	0	0	0	-0	0	0	0	0	0	-0	0	545.901	551.039	324.928	201.58	0.0192646	2.60954	-0.0492892	0.102884	0.213661
2	-0.0136379	-0.0197294	-0.0221463	0.198355	0.0146386	-0.012545	0.023347	-0.0280231	0.0203427	-0.0023853	-0.0023981	-0.0030055	0.0511616	0.00203916	0.0219519	-2.21017	-0.0138995	-1.56544	0	0	0	0	-0	0	0	0	-0.1265	0	-0	0	0	0	0	0	-0	0	0.105	0.015	0	0	-0	0	0	0.098	0.1	0	-0	0	0	0	0	0	-0	0	0.05595	0	0	0	-0	0	0	0	0	0	-0	0	545.902	551.039	324.926	201.584	-0.0497356	2.57273	-0.0431179	0.0944463	0.204671
3	-0.0138424	-0.0144082	-0.0245012	0.201077	0.00875598	-0.0110035	0.0231906	-0.0279376	0.0202645	-0.00239334	-0.00238244	-0.00301185	0.051445	0.00247298	0.0217569	-2.20926	-0.017418	-1.57293	0	0	0	0	-0	0	0	0	-0.1265	0	-0	0	0	0	0	0	-0	0	0.105	0.015	0	0	-0	0	0	0.098	0.1	0	-0	0	0	0	0	0	-0	0	0.05595	0	0	0	-0	0	0	0	0	0	-0	0	545.906	551.04	324.923	201.592	-0.206408	2.48815	-0.0184949	0.0862832	0.184746
4	-0.0137027	-0.0139106	-0.0259906	0.200938	0.00688568	-0.0126235	0.0230885	-0.0278373	0.0201942	-0.00241112	-0.00238007	-0.00301567	0.0521595	0.00257466	0.0209676	-2.20959	-0.0178803	-1.5737	0	0	0	0	-0	0	0	0	-0.1265	0	-0	0	0	0	0	0	-0	0	0.105	0.015	0	0	-0	0	0	0.098	0.1	0	-0	0	0	0	0	0	-0	0	0.05595	0	0	0	-0	0	0	0	0	0	-0	0	545.917	551.041	324.919	201.61	-0.379949	2.34759	0.00523047	0.075137	0.153404
5	-0.0134901	-0.0141459	-0.0266913	0.20003	0.00615256	-0.0137682	0.0230181	-0.0277856	0.020096	-0.00230187	-0.0023961	-0.00305329	0.052402	0.00262629	0.0207577	-2.21026	-0.0177448	-1.5738	0	0	0	0	-0	0	0	0	-0.1265	0	-0	0	0	0	0	0	-0	0	0.105	0.015	0	0	-0	0	0	0.098	0.1	0	-0	0	0	0	0	0	-0	0	0.05595	0	0	0	-0	0	0	0	0	0	-0	0	545.945	551.042	324.92	201.649	-0.408824	2.13153	0.013835	0.0711027	0.114519
6	-0.0129887	-0.0146333	-0.0273533	0.199863	0.00611962	-0.0137917	0.0229684	-0.0277648	0.0200631	-0.00198842	-0.00224657	-0.0031278	0.0520898	0.00264614	0.0211742	-2.21089	-0.0171188	-1.57326	0	0	0	0	-0	0	0	0	-0.1265	0	-0	0	0	0	0	0	-0	0	0.105	0.015	0	0	-0	0	0	0.098	0.1	0	-0	0	0	0	0	0	-0	0	0.05595	0	0	0	-0	0	0	0	0	0	-0	0	546.021	551.044	324.936	201.747	-0.29434	1.76154	0.00972409	0.0723224	0.0934779
7	-0.0129519	-0.0147122	-0.0281077	0.200361	0.00596483	-0.0134121	0.0229294	-0.0277475	0.020076	-0.00188731	-0.003854	-0.0022245	0.0516008	0.00264142	0.0217695	-2.21228	-0.0166173	-1.57282	0	0	0	0	-0	0	0	0	-0.1265	0	-0	0	0	0	0	0	-0	0	0.105	0.015	0	0	-0	0	0	0.098	0.1	0	-0	0	0	0	0	0	-0	0	0.05595	0	0	0	-0	0	0	0	0	0	-0	0	546.223	551.049	324.97	202.011	-0.141626	1.26356	0.00428449	0.0741955	0.259052
8	-0.0154407	-0.0147469	-0.0285495	0.201338	0.00592151	-0.0131078	0.0229069	-0.0277353	0.0201406	0.000299628	-0.00376956	-0.00212762	0.0512019	0.00263112	0.0221639	-2.21685	-0.0164	-1.57221	0	0	0	0	-0	0	0	0	-0.1265	0	-0	0	0	0	0	0	-0	0	0.105	0.015	0	0	-0	0	0	0.098	0.1	0	-0	0	0	0	0	0	-0	0	0.05595	0	0	0	-0	0	0	0	0	0	-0	0	546.791	551.061	324.955	202.739	-0.0220134	0.714735	0.0020915	0.0756288	1.07025
9	-0.0115741	-0.014792	-0.0287705	0.202398	0.00585079	-0.0129728	0.0228902	-0.0277289	0.0202217	0.00232221	-0.00940725	0.00359904	0.0505842	0.00262372	0.0229781	-2.21757	-0.0161602	-1.57151	0	0	0	0	-0	0	0	0	-0.1265	0	-0	0	0	0	0	0	-0	0	0.105	0.015	0	0	-0	0	0	0.098	0.1	0	-0	0	0	0	0	0	-0	0	0.05595	0	0	0	-0	0	0	0	0	0	-0	0	548.375	551.12	324.728	204.776	0.0953669	-0.183944	0.00398822	0.0779931	3.53622
10	-0.00573412	-0.0149411	-0.0290617	0.203889	0.00564875	-0.0128849	0.0228688	-0.0277262	0.0203405	-0.0060031	-0.026275	0.0164033	0.04946	0.00261543	0.0244222	-2.22348	-0.0158479	-1.57033	0	0	0	0	-0	0	0	0	-0.1265	0	-0	0	0	0	0	0	-0	0	0.105	0.015	0	0	-0	0	0	0.098	0.1	0	-0	0	0	0	0	0	-0	0	0.05595	0	0	0	-0	0	0	0	0	0	-0	0	552.404	551.599	324.309	210.329	0.305182	-2.128	0.0104094	0.0842828	9.85304
11	0.0351493	-0.0157682	-0.0293865	0.20618	0.0058189	-0.0125093	0.0228334	-0.0277658	0.020489	-0.056417	-0.00107868	-0.0328907	0.0474561	0.00261947	0.0275044	-2.2028	-0.0166594	-1.57016	0	0	0	0	-0	0	0	0	-0.1265	0	-0	0	0	0	0	0	-0	0	0.105	0.015	0	0	-0	0	0	0.098	0.1	0	-0	0	0	0	0	0	-0	0	0.05595	0	0	0	-0	0	0	0	0	0	-0	0	558.815	553.884	324.795	220.862	0.54377	-4.61332	0.0164862	0.0975962	20.1109
12	0.0708745	-0.0167558	-0.0293672	0.208683	0.00646561	-0.0119547	0.0229	-0.0278176	0.0205984	-0.101199	0.0359218	-0.114464	0.0459142	0.00257165	0.0294526	-2.20069	-0.0200467	-1.57201	0	0	0	0	-0	0	0	0	-0.1265	0	-0	0	0	0	0	0	-0	0	0.105	0.015	0	0	-0	0	0	0.098	0.1	0	-0	0	0	0	0	0	-0	0	0.05595	0	0	0	-0	0	0	0	0	0	-0	0	567.608	561.497	327.218	239.508	0.715475	-6.62888	0.0175484	0.122386	34.0102
13	0.131357	-0.0173289	-0.0290365	0.210743	0.00774507	-0.0110512	0.0229737	-0.0280754	0.0208032	-0.193887	-0.015411	-0.187876	0.0444362	0.00240826	0.031541	-2.17512	-0.0204797	-1.57221	0	0	0	0	-0	0	0	0	-0.1265	0	-0	0	0	0	0	0	-0	0	0.105	0.015	0	0	-0	0	0	0.098	0.1	0	-0	0	0	0	0	0	-0	0	0.05595	0	0	0	-0	0	0	0	0	0	-0	0	574.392	571.949	327.413	259.774	0.65112	-4.95342	0.00714752	0.159155	42.161
14	0.0974093	-0.0156447	-0.0296254	0.210895	0.0074182	-0.010232	0.0230202	-0.0278768	0.0206347	-0.167413	-0.0436396	-0.231154	0.0452328	0.00214848	0.0300572	-2.22945	-0.0198626	-1.57281	0	0	0	0	-0	0	0	0	-0.1265	0	-0	0	0	0	0	0	-0	0	0.105	0.015	0	0	-0	0	0	0.098	0.1	0	-0	0	0	0	0	0	-0	0	0.05595	0	0	0	-0	0	0	0	0	0	-0	0	576.493	576.741	327.159	271.664	0.848656	-2.90853	-0.00753885	0.204048	44.128
15	0.0850726	-0.00550273	-0.0318115	0.210269	0.00180708	-0.0113645	0.0229831	-0.0280082	0.0203614	-0.0397835	-0.0203557	-0.173152	0.0441372	0.0014596	0.0312081	-2.29561	-0.0188672	-1.57244	0	0	0	0	-0	0	0	0	-0.1265	0	-0	0	0	0	0	0	-0	0	0.105	0.015	0	0	-0	0	0	0.098	0.1	0	-0	0	0	0	0	0	-0	0	0.05595	0	0	0	-0	0	0	0	0	0	-0	0	582.021	594.286	322.619	301.64	1.05852	1.57543	0.00503866	0.258896	47.9352
16	0.161721	0.00267195	-0.0355797	0.207035	-0.00583355	-0.0139493	0.0231078	-0.0277624	0.0201023	-0.00608011	-0.148029	-0.239674	0.0394733	0.00115173	0.0370408	-2.23007	-0.0223746	-1.58417	0	0	0	0	-0	0	0	0	-0.1265	0	-0	0	0	0	0	0	-0	0	0.105	0.015	0	0	-0	0	0	0.098	0.1	0	-0	0	0	0	0	0	-0	0	0.05595	0	0	0	-0	0	0	0	0	0	-0	0	582.74	600.468	324.123	310.28	2.56887	-4.437	-0.00360496	0.323224	47.2944
17	0.140146	0.00720442	-0.0354931	0.204738	-0.00944644	-0.0156332	0.023014	-0.0276766	0.0194515	0.0277397	-0.206063	-0.143308	0.0382002	0.000957784	0.0375326	-2.267	-0.0245222	-1.58499	0	0	0	0	-0	0	0	0	-0.1265	0	-0	0	0	0	0	0	-0	0	0.105	0.015	0	0	-0	0	0	0.098	0.1	0	-0	0	0	0	0	0	-0	0	0.05595	0	0	0	-0	0	0	0	0	0	-0	0	585.866	608.403	323.137	319.97	3.35075	-8.48107	0.022277	0.347255	46.8078
18	0.152779	0.00551222	-0.0353431	0.204577	-0.00927751	-0.0166337	0.0228603	-0.0276174	0.0194776	0.0190202	-0.223187	-0.177245	0.0368103	0.00094189	0.0387212	-2.25756	-0.0244273	-1.58288	0	0	0	0	-0	0	0	0	-0.1265	0	-0	0	0	0	0	0	-0	0	0.105	0.015	0	0	-0	0	0	0.098	0.1	0	-0	0	0	0	0	0	-0	0	0.05595	0	0	0	-0	0	0	0	0	0	-0	0	586.132	610.052	323.012	322.225	3.92286	-12.3949	0.0254523	0.357227	46.2667
19	0.172336	0.00534151	-0.0346516	0.203481	-0.00942848	-0.016948	0.0228783	-0.0276069	0.0193734	0.024058	-0.221653	-0.167145	0.0357721	0.000948486	0.0396832	-2.23998	-0.0244585	-1.58304	0	0	0	0	-0	0	0	0	-0.1265	0	-0	0	0	0	0	0	-0	0	0.105	0.015	0	0	-0	0	0	0.098	0.1	0	-0	0	0	0	0	0	-0	0	0.05595	0	0	0	-0	0	0	0	0	0	-0	0	586.214	610.681	322.856	323.395	4.10745	-13.8852	0.0286128	0.358885	46.0597
20	0.165615	0.00576205	-0.0344157	0.202686	-0.0103593	-0.0179009	0.0228846	-0.02761	0.0193055	0.0527089	-0.215357	-0.149098	0.0351503	0.000919465	0.0402301	-2.25105	-0.0248254	-1.5821	0	0	0	0	-0	0	0	0	-0.1265	0	-0	0	0	0	0	0	-0	0	0.105	0.015	0	0	-0	0	0	0.098	0.1	0	-0	0	0	0	0	0	-0	0	0.05595	0	0	0	-0	0	0	0	0	0	-0	0	586.372	613.116	322.308	326.067	4.55989	-17.3972	0.0354837	0.361156	45.6598
21	0.178252	0.00644631	-0.0340519	0.201531	-0.0114532	-0.0188376	0.0229783	-0.0276606	0.0193013	0.0577999	-0.28126	-0.202866	0.0329442	0.000958507	0.0422351	-2.24391	-0.0228699	-1.57889	0	0	0	0	-0	0	0	0	-0.1265	0	-0	0	0	0	0	0	-0	0	0.105	0.015	0	0	-0	0	0	0.098	0.1	0	-0	0	0	0	0	0	-0	0	0.05595	0	0	0	-0	0	0	0	0	0	-0	0	586.354	619.044	319.427	329.299	5.12167	-22.3015	0.0476395	0.350656	45.5054
22	0.174654	0.0053941	-0.0334634	0.201381	-0.0111636	-0.0190503	0.0229384	-0.0276037	0.019185	0.0637396	-0.301669	-0.161442	0.0329135	0.00101396	0.0422385	-2.24905	-0.0225672	-1.57707	0	0	0	0	-0	0	0	0	-0.1265	0	-0	0	0	0	0	0	-0	0	0.105	0.015	0	0	-0	0	0	0.098	0.1	0	-0	0	0	0	0	0	-0	0	0.05595	0	0	0	-0	0	0	0	0	0	-0	0	586.338	619.837	318.792	330.125	5.19376	-24.0265	0.0514997	0.342123	45.3693
23	0.146864	0.00485449	-0.0333464	0.201614	-0.0110863	-0.0194422	0.0229267	-0.0275828	0.01923	0.061716	-0.271779	-0.151076	0.0335607	0.0010248	0.0417705	-2.27872	-0.0219607	-1.57447	0	0	0	0	-0	0	0	0	-0.1265	0	-0	0	0	0	0	0	-0	0	0.105	0.015	0	0	-0	0	0	0.098	0.1	0	-0	0	0	0	0	0	-0	0	0.05595	0	0	0	-0	0	0	0	0	0	-0	0	586.103	621.099	317.838	331.165	5.3977	-26.2176	0.0556752	0.336349	45.2242
24	0.116062	0.00475604	-0.0330739	0.201236	-0.0112834	-0.0197224	0.0229218	-0.0276301	0.0192565	0.134754	-0.288216	-0.190465	0.0341835	0.00105109	0.041365	-2.3116	-0.0205117	-1.57145	0	0	0	0	-0	0	0	0	-0.1265	0	-0	0	0	0	0	0	-0	0	0.105	0.015	0	0	-0	0	0	0.098	0.1	0	-0	0	0	0	0	0	-0	0	0.05595	0	0	0	-0	0	0	0	0	0	-0	0	585.526	623.048	316.121	332.337	5.63587	-29.1929	0.0614711	0.325604	45.0871
25	0.117433	0.0044343	-0.0328188	0.201143	-0.0112249	-0.0198169	0.0229423	-0.0275948	0.0191858	0.138523	-0.297461	-0.218649	0.0340789	0.00107341	0.0414834	-2.31092	-0.0201211	-1.57073	0	0	0	0	-0	0	0	0	-0.1265	0	-0	0	0	0	0	0	-0	0	0.105	0.015	0	0	-0	0	0	0.098	0.1	0	-0	0	0	0	0	0	-0	0	0.05595	0	0	0	-0	0	0	0	0	0	-0	0	585.394	623.438	315.697	332.679	5.65287	-29.9332	0.0632441	0.320666	45.0468
26	0.12149	0.00422325	-0.0328641	0.20147	-0.0112416	-0.0200381	0.0229446	-0.0276157	0.0192443	0.1851	-0.290399	-0.259366	0.0333061	0.0010813	0.0421995	-2.30862	-0.0183037	-1.56815	0	0	0	0	-0	0	0	0	-0.1265	0	-0	0	0	0	0	0	-0	0	0.105	0.015	0	0	-0	0	0	0.098	0.1	0	-0	0	0	0	0	0	-0	0	0.05595	0	0	0	-0	0	0	0	0	0	-0	0	584.657	625.149	313.903	333.682	5.85642	-32.6677	0.0689274	0.309227	44.9376
27	0.0644567	0.00433218	-0.0328284	0.201481	-0.0115014	-0.0201642	0.0229224	-0.0275723	0.0192583	0.11793	-0.245977	-0.250196	0.0347342	0.00112662	0.041267	-2.36834	-0.0140642	-1.56246	0	0	0	0	-0	0	0	0	-0.1265	0	-0	0	0	0	0	0	-0	0	0.105	0.015	0	0	-0	0	0	0.098	0.1	0	-0	0	0	0	0	0	-0	0	0.05595	0	0	0	-0	0	0	0	0	0	-0	0	582.857	628.277	310.046	335.177	6.15462	-37.7276	0.0791069	0.283138	44.8164
28	0.0971488	0.00404744	-0.032747	0.201913	-0.0114044	-0.0201308	0.0229332	-0.0275747	0.0192598	0.124129	-0.265614	-0.258627	0.0333153	0.00115499	0.0424934	-2.33689	-0.0128678	-1.56122	0	0	0	0	-0	0	0	0	-0.1265	0	-0	0	0	0	0	0	-0	0	0.105	0.015	0	0	-0	0	0	0.098	0.1	0	-0	0	0	0	0	0	-0	0	0.05595	0	0	0	-0	0	0	0	0	0	-0	0	582.319	629.058	308.788	335.873	6.1741	-39.526	0.0838553	0.270771	44.7516
29	0.0710473	0.00401985	-0.0329621	0.202618	-0.0114948	-0.0202611	0.0229264	-0.0277425	0.0191809	-0.0109306	-0.210752	-0.361417	0.0333635	0.00118619	0.0426556	-2.36675	-0.0069846	-1.55457	0	0	0	0	-0	0	0	0	-0.1265	0	-0	0	0	0	0	0	-0	0	0.105	0.015	0	0	-0	0	0	0.098	0.1	0	-0	0	0	0	0	0	-0	0	0.05595	0	0	0	-0	0	0	0	0	0	-0	0	579.609	632.221	303.66	338.082	6.55751	-46.7138	0.0988098	0.237074	44.5351
30	0.0812194	0.00394537	-0.0332377	0.203846	-0.0115629	-0.0203346	0.0229348	-0.0275713	0.0194393	-0.0138333	-0.26379	-0.376257	0.03271	0.00118503	0.0432623	-2.35924	-0.0041562	-1.55137	0	0	0	0	-0	0	0	0	-0.1265	0	-0	0	0	0	0	0	-0	0	0.105	0.015	0	0	-0	0	0	0.098	0.1	0	-0	0	0	0	0	0	-0	0	0.05595	0	0	0	-0	0	0	0	0	0	-0	0	578.203	633.468	301.057	339.733	6.71553	-51.0687	0.111098	0.217598	44.3425
31	0.0569119	0.00395534	-0.033255	0.204143	-0.0116263	-0.020273	0.0229645	-0.0275996	0.019445	-0.0261351	-0.273663	-0.30822	0.0333307	0.00123281	0.0429455	-2.38737	0.000547902	-1.54685	0	0	0	0	-0	0	0	0	-0.1265	0	-0	0	0	0	0	0	-0	0	0.105	0.015	0	0	-0	0	0	0.098	0.1	0	-0	0	0	0	0	0	-0	0	0.05595	0	0	0	-0	0	0	0	0	0	-0	0	575.903	635.042	297.183	342.114	7.03228	-58.0628	0.125809	0.192657	43.9819
32	0.0391881	0.00368334	-0.0335025	0.205223	-0.0115815	-0.020376	0.0229229	-0.0275895	0.0195842	-0.0809193	-0.290973	-0.254157	0.0340578	0.00124097	0.0423886	-2.40712	0.00265333	-1.54497	0	0	0	0	-0	0	0	0	-0.1265	0	-0	0	0	0	0	0	-0	0	0.105	0.015	0	0	-0	0	0	0.098	0.1	0	-0	0	0	0	0	0	-0	0	0.05595	0	0	0	-0	0	0	0	0	0	-0	0	574.927	635.517	295.797	343.421	7.161	-61.157	0.134556	0.183263	43.8155
33	0.0308035	0.00361602	-0.0335076	0.205326	-0.0116158	-0.0204604	0.0229207	-0.0275801	0.0195748	-0.12519	-0.330516	-0.226073	0.0343213	0.00125436	0.0422024	-2.41725	0.00420037	-1.54365	0	0	0	0	-0	0	0	0	-0.1265	0	-0	0	0	0	0	0	-0	0	0.105	0.015	0	0	-0	0	0	0.098	0.1	0	-0	0	0	0	0	0	-0	0	0.05595	0	0	0	-0	0	0	0	0	0	-0	0	574.074	635.888	294.618	344.549	7.29697	-63.8448	0.14123	0.176265	43.6581
34	0.0178867	0.00351842	-0.0336196	0.205769	-0.0116121	-0.020569	0.0229014	-0.0275566	0.0195974	-0.130462	-0.366674	-0.257656	0.0347508	0.00124743	0.0418791	-2.43193	0.00581279	-1.54236	0	0	0	0	-0	0	0	0	-0.1265	0	-0	0	0	0	0	0	-0	0	0.105	0.015	0	0	-0	0	0	0.098	0.1	0	-0	0	0	0	0	0	-0	0	0.05595	0	0	0	-0	0	0	0	0	0	-0	0	573.156	636.237	293.568	345.71	7.45972	-66.6535	0.148217	0.169967	43.5012
35	0.0635845	0.00385643	-0.0338652	0.206261	-0.0119025	-0.0208295	0.0229671	-0.0278292	0.0196923	-0.0289662	-0.286746	-0.236842	0.0322397	0.00122832	0.0441365	-2.39133	0.00812064	-1.53882	0	0	0	0	-0	0	0	0	-0.1265	0	-0	0	0	0	0	0	-0	0	0.105	0.015	0	0	-0	0	0	0.098	0.1	0	-0	0	0	0	0	0	-0	0	0.05595	0	0	0	-0	0	0	0	0	0	-0	0	569.633	637.112	290.37	349.148	8.21848	-78.2064	0.169398	0.153187	42.8236
36	0.0363722	0.00353385	-0.034027	0.206922	-0.0119707	-0.0210821	0.0228287	-0.0275176	0.0196587	-0.0152777	-0.281939	-0.232995	0.0334504	0.00123269	0.0430839	-2.41949	0.00930185	-1.53829	0	0	0	0	-0	0	0	0	-0.1265	0	-0	0	0	0	0	0	-0	0	0.105	0.015	0	0	-0	0	0	0.098	0.1	0	-0	0	0	0	0	0	-0	0	0.05595	0	0	0	-0	0	0	0	0	0	-0	0	569.132	637.138	290.072	349.819	8.30174	-79.7684	0.176382	0.151039	42.726
37	0.0755245	0.00353909	-0.0341035	0.207069	-0.0118978	-0.0211545	0.0228655	-0.0275651	0.0196881	0.0321551	-0.242866	-0.254907	0.0314898	0.00121347	0.0446289	-2.38315	0.00898276	-1.53677	0	0	0	0	-0	0	0	0	-0.1265	0	-0	0	0	0	0	0	-0	0	0.105	0.015	0	0	-0	0	0	0.098	0.1	0	-0	0	0	0	0	0	-0	0	0.05595	0	0	0	-0	0	0	0	0	0	-0	0	567.294	637.201	289.206	351.75	8.73407	-85.7612	0.18674	0.14564	42.3723
38	0.0939897	0.00344615	-0.034114	0.207185	-0.0119365	-0.021309	0.022851	-0.0275231	0.0196772	0.0418111	-0.199672	-0.270626	0.0305607	0.00121169	0.0452234	-2.36596	0.00867428	-1.53603	0	0	0	0	-0	0	0	0	-0.1265	0	-0	0	0	0	0	0	-0	0	0.105	0.015	0	0	-0	0	0	0.098	0.1	0	-0	0	0	0	0	0	-0	0	0.05595	0	0	0	-0	0	0	0	0	0	-0	0	566.393	637.154	288.86	352.627	8.93633	-88.6273	0.193208	0.14321	42.1939
39	0.0735858	0.00352807	-0.0343091	0.207349	-0.0121262	-0.0215848	0.0227926	-0.0276413	0.019654	-0.0345523	-0.219448	-0.320773	0.0309431	0.00119501	0.0450749	-2.38855	0.0105108	-1.53511	0	0	0	0	-0	0	0	0	-0.1265	0	-0	0	0	0	0	0	-0	0	0.105	0.015	0	0	-0	0	0	0.098	0.1	0	-0	0	0	0	0	0	-0	0	0.05595	0	0	0	-0	0	0	0	0	0	-0	0	563.429	636.356	287.831	354.228	9.73533	-99.7883	0.205282	0.137941	41.6281
40	0.0781445	0.00322872	-0.034312	0.207663	-0.0120238	-0.0217657	0.0228191	-0.0275502	0.0197001	-0.051315	-0.268866	-0.331681	0.0306984	0.00118122	0.0452166	-2.38469	0.010531	-1.53456	0	0	0	0	-0	0	0	0	-0.1265	0	-0	0	0	0	0	0	-0	0	0.105	0.015	0	0	-0	0	0	0.098	0.1	0	-0	0	0	0	0	0	-0	0	0.05595	0	0	0	-0	0	0	0	0	0	-0	0	562.775	636.104	287.754	354.736	9.89412	-101.973	0.209998	0.136515	41.5179
41	0.0732937	0.00321149	-0.0343185	0.207672	-0.0120099	-0.0217606	0.0227834	-0.0275312	0.019692	-0.0154606	-0.262177	-0.351974	0.0308886	0.00118925	0.0450905	-2.38988	0.0107729	-1.53448	0	0	0	0	-0	0	0	0	-0.1265	0	-0	0	0	0	0	0	-0	0	0.105	0.015	0	0	-0	0	0	0.098	0.1	0	-0	0	0	0	0	0	-0	0	0.05595	0	0	0	-0	0	0	0	0	0	-0	0	562.345	635.912	287.66	354.985	9.99203	-103.441	0.211561	0.135848	41.4464
42	0.0795014	0.00317538	-0.0343125	0.207671	-0.0119758	-0.0217769	0.0227832	-0.0275208	0.0196752	-0.0244205	-0.26834	-0.334504	0.0305892	0.00118743	0.0452941	-2.38383	0.0105974	-1.53433	0	0	0	0	-0	0	0	0	-0.1265	0	-0	0	0	0	0	0	-0	0	0.105	0.015	0	0	-0	0	0	0.098	0.1	0	-0	0	0	0	0	0	-0	0	0.05595	0	0	0	-0	0	0	0	0	0	-0	0	562.169	635.831	287.632	355.099	10.0344	-104.03	0.212097	0.135447	41.4187
43	0.0714771	0.00314862	-0.0343433	0.207736	-0.0119811	-0.0218464	0.0227745	-0.0275133	0.0196874	-0.0657369	-0.244529	-0.331821	0.0308533	0.00117771	0.0451329	-2.39223	0.0110375	-1.53423	0	0	0	0	-0	0	0	0	-0.1265	0	-0	0	0	0	0	0	-0	0	0.105	0.015	0	0	-0	0	0	0.098	0.1	0	-0	0	0	0	0	0	-0	0	0.05595	0	0	0	-0	0	0	0	0	0	-0	0	561.491	635.49	287.52	355.382	10.2068	-106.359	0.214517	0.13473	41.3112
44	0.063067	0.00312427	-0.0343473	0.207729	-0.0119891	-0.0218977	0.0227731	-0.0275711	0.0196781	-0.0167891	-0.221729	-0.314504	0.0311522	0.0011754	0.0449421	-2.40088	0.0114974	-1.53417	0	0	0	0	-0	0	0	0	-0.1265	0	-0	0	0	0	0	0	-0	0	0.105	0.015	0	0	-0	0	0	0.098	0.1	0	-0	0	0	0	0	0	-0	0	0.05595	0	0	0	-0	0	0	0	0	0	-0	0	560.877	635.125	287.398	355.575	10.3634	-108.598	0.216237	0.13401	41.215
45	0.0603056	0.00304135	-0.0343638	0.207836	-0.0119776	-0.0219707	0.0227751	-0.0275265	0.0196816	-0.000488058	-0.220154	-0.337582	0.0312403	0.00116964	0.0448786	-2.40375	0.0116843	-1.53406	0	0	0	0	-0	0	0	0	-0.1265	0	-0	0	0	0	0	0	-0	0	0.105	0.015	0	0	-0	0	0	0.098	0.1	0	-0	0	0	0	0	0	-0	0	0.05595	0	0	0	-0	0	0	0	0	0	-0	0	560.631	634.968	287.355	355.657	10.4284	-109.49	0.217347	0.133681	41.1791
46	0.0553001	0.00301344	-0.0344137	0.207892	-0.0119922	-0.0220209	0.0227714	-0.0275165	0.0196684	-0.0214442	-0.197969	-0.356731	0.0313307	0.0011657	0.0448457	-2.4088	0.0120553	-1.53396	0	0	0	0	-0	0	0	0	-0.1265	0	-0	0	0	0	0	0	-0	0	0.105	0.015	0	0	-0	0	0	0.098	0.1	0	-0	0	0	0	0	0	-0	0	0.05595	0	0	0	-0	0	0	0	0	0	-0	0	559.748	634.272	287.221	355.733	10.6673	-112.97	0.218514	0.132982	41.0312
47	0.00512186	0.00286262	-0.0344501	0.208086	-0.011936	-0.0220972	0.0227336	-0.0275589	0.01973	0.0566666	-0.205739	-0.367167	0.0334581	0.00115812	0.0433754	-2.45889	0.0140401	-1.5344	0	0	0	0	-0	0	0	0	-0.1265	0	-0	0	0	0	0	0	-0	0	0.105	0.015	0	0	-0	0	0	0.098	0.1	0	-0	0	0	0	0	0	-0	0	0.05595	0	0	0	-0	0	0	0	0	0	-0	0	558.974	633.546	287.158	355.722	10.8889	-116.238	0.21929	0.132404	40.8867
48	-0.00201693	0.00286131	-0.0343752	0.207944	-0.0119393	-0.0221323	0.0227608	-0.0275268	0.0196637	0.0380363	-0.196238	-0.383381	0.0337222	0.00116044	0.0430925	-2.46604	0.0143854	-1.5345	0	0	0	0	-0	0	0	0	-0.1265	0	-0	0	0	0	0	0	-0	0	0.105	0.015	0	0	-0	0	0	0.098	0.1	0	-0	0	0	0	0	0	-0	0	0.05595	0	0	0	-0	0	0	0	0	0	-0	0	558.813	633.383	287.086	355.745	10.9269	-116.894	0.21936	0.132237	40.8653
49	0.0121733	0.00271221	-0.0344626	0.208285	-0.0118662	-0.0221645	0.0227622	-0.0275272	0.0197009	0.0465602	-0.17331	-0.390679	0.0330701	0.00115239	0.0435995	-2.45185	0.013913	-1.53411	0	0	0	0	-0	0	0	0	-0.1265	0	-0	0	0	0	0	0	-0	0	0.105	0.015	0	0	-0	0	0	0.098	0.1	0	-0	0	0	0	0	0	-0	0	0.05595	0	0	0	-0	0	0	0	0	0	-0	0	558.603	633.168	287.11	355.748	10.9911	-117.777	0.219802	0.13202	40.8332
50	0.0255632	0.00272809	-0.0344486	0.208217	-0.0118937	-0.0221803	0.0227733	-0.027554	0.0197113	0.0132883	-0.20505	-0.371594	0.0324441	0.0011553	0.0440777	-2.43839	0.0134519	-1.53395	0	0	0	0	-0	0	0	0	-0.1265	0	-0	0	0	0	0	0	-0	0	0.105	0.015	0	0	-0	0	0	0.098	0.1	0	-0	0	0	0	0	0	-0	0	0.05595	0	0	0	-0	0	0	0	0	0	-0	0	558.288	632.839	287.072	355.71	11.0757	-119.074	0.219854	0.131929	40.7789
51	0.0244758	0.00265875	-0.0344551	0.20828	-0.0118868	-0.0222242	0.0227589	-0.0275373	0.0197062	-0.012656	-0.203864	-0.342772	0.0324599	0.00115512	0.0440619	-2.43941	0.0135617	-1.53388	0	0	0	0	-0	0	0	0	-0.1265	0	-0	0	0	0	0	0	-0	0	0.105	0.015	0	0	-0	0	0	0.098	0.1	0	-0	0	0	0	0	0	-0	0	0.05595	0	0	0	-0	0	0	0	0	0	-0	0	558.068	632.587	287.032	355.673	11.1359	-120.017	0.219917	0.131795	40.7492
52	0.0362498	0.00259509	-0.0344678	0.20834	-0.0118595	-0.0222496	0.022758	-0.0275358	0.0197018	0.00202502	-0.177443	-0.339381	0.0318932	0.00115137	0.0444864	-2.42754	0.0131982	-1.53365	0	0	0	0	-0	0	0	0	-0.1265	0	-0	0	0	0	0	0	-0	0	0.105	0.015	0	0	-0	0	0	0.098	0.1	0	-0	0	0	0	0	0	-0	0	0.05595	0	0	0	-0	0	0	0	0	0	-0	0	557.747	632.21	287.007	355.617	11.227	-121.409	0.219675	0.131591	40.6979
53	0.0292218	0.0025422	-0.0344722	0.208426	-0.0118293	-0.0222674	0.0227531	-0.0275246	0.0196996	0.000793046	-0.193938	-0.327942	0.0321829	0.00114873	0.0442717	-2.43453	0.0134825	-1.53369	0	0	0	0	-0	0	0	0	-0.1265	0	-0	0	0	0	0	0	-0	0	0.105	0.015	0	0	-0	0	0	0.098	0.1	0	-0	0	0	0	0	0	-0	0	0.05595	0	0	0	-0	0	0	0	0	0	-0	0	557.62	632.055	287.007	355.595	11.2641	-121.968	0.219704	0.131531	40.6863
54	0.0453766	0.00250499	-0.0344756	0.208459	-0.0118095	-0.022278	0.0227563	-0.0275517	0.0197123	-0.0245187	-0.222348	-0.339895	0.0314407	0.00114642	0.0448133	-2.41832	0.012904	-1.53344	0	0	0	0	-0	0	0	0	-0.1265	0	-0	0	0	0	0	0	-0	0	0.105	0.015	0	0	-0	0	0	0.098	0.1	0	-0	0	0	0	0	0	-0	0	0.05595	0	0	0	-0	0	0	0	0	0	-0	0	557.448	631.841	287.008	355.559	11.3145	-122.732	0.219557	0.131453	40.6612
55	0.0456295	0.00248993	-0.0344603	0.208451	-0.0118135	-0.0222999	0.0227476	-0.0275263	0.0197014	-0.0122434	-0.218767	-0.348541	0.0314214	0.00114668	0.0448168	-2.41805	0.0129	-1.53343	0	0	0	0	-0	0	0	0	-0.1265	0	-0	0	0	0	0	0	-0	0	0.105	0.015	0	0	-0	0	0	0.098	0.1	0	-0	0	0	0	0	0	-0	0	0.05595	0	0	0	-0	0	0	0	0	0	-0	0	557.412	631.797	287.002	355.552	11.3243	-122.886	0.219667	0.131469	40.656
56	0.0433707	0.00247612	-0.0344703	0.208483	-0.0117937	-0.0222902	0.0227502	-0.0275269	0.0197026	-0.0049776	-0.208273	-0.361057	0.0315146	0.00114547	0.0447516	-2.42029	0.0129982	-1.53344	0	0	0	0	-0	0	0	0	-0.1265	0	-0	0	0	0	0	0	-0	0	0.105	0.015	0	0	-0	0	0	0.098	0.1	0	-0	0	0	0	0	0	-0	0	0.05595	0	0	0	-0	0	0	0	0	0	-0	0	557.366	631.736	287.002	355.543	11.3378	-123.097	0.219482	0.131403	40.6487
57	0.041574	0.00245778	-0.0344698	0.208496	-0.0117882	-0.0222985	0.0227478	-0.0275262	0.0197089	-0.0234506	-0.197415	-0.348796	0.0315844	0.00114478	0.044704	-2.42206	0.0130736	-1.53344	0	0	0	0	-0	0	0	0	-0.1265	0	-0	0	0	0	0	0	-0	0	0.105	0.015	0	0	-0	0	0	0.098	0.1	0	-0	0	0	0	0	0	-0	0	0.05595	0	0	0	-0	0	0	0	0	0	-0	0	557.299	631.646	287.001	355.528	11.3584	-123.412	0.219459	0.131383	40.6398
58	0.0479823	0.00244129	-0.0344628	0.208484	-0.0117849	-0.022308	0.0227506	-0.0275313	0.0197047	-0.00738841	-0.18525	-0.361912	0.0312845	0.00114466	0.0449185	-2.41562	0.0128524	-1.53335	0	0	0	0	-0	0	0	0	-0.1265	0	-0	0	0	0	0	0	-0	0	0.105	0.015	0	0	-0	0	0	0.098	0.1	0	-0	0	0	0	0	0	-0	0	0.05595	0	0	0	-0	0	0	0	0	0	-0	0	557.192	631.51	286.992	355.502	11.3879	-123.88	0.219319	0.131336	40.6238
59	0.0238609	0.00234669	-0.0344814	0.208542	-0.0117674	-0.0223557	0.0227688	-0.0275547	0.019704	-0.00174602	-0.185055	-0.408652	0.0322992	0.00113959	0.0442228	-2.4395	0.0138492	-1.53357	0	0	0	0	-0	0	0	0	-0.1265	0	-0	0	0	0	0	0	-0	0	0.105	0.015	0	0	-0	0	0	0.098	0.1	0	-0	0	0	0	0	0	-0	0	0.05595	0	0	0	-0	0	0	0	0	0	-0	0	556.736	630.912	286.964	355.36	11.519	-125.919	0.218698	0.131146	40.5532
60	0.00744922	0.00224089	-0.0344983	0.208713	-0.0117318	-0.0224041	0.0227383	-0.0275328	0.0197098	0.0247937	-0.188077	-0.392524	0.0329833	0.00113541	0.0437043	-2.45576	0.0145121	-1.53371	0	0	0	0	-0	0	0	0	-0.1265	0	-0	0	0	0	0	0	-0	0	0.105	0.015	0	0	-0	0	0	0.098	0.1	0	-0	0	0	0	0	0	-0	0	0.05595	0	0	0	-0	0	0	0	0	0	-0	0	556.522	630.609	286.955	355.276	11.5824	-126.912	0.218613	0.131127	40.5245
61	-0.024979	0.00218494	-0.0344856	0.208702	-0.0116994	-0.0224183	0.0227494	-0.0275246	0.0197093	0.0358511	-0.210698	-0.382004	0.0343521	0.00113208	0.0426699	-2.48801	0.0157719	-1.53415	0	0	0	0	-0	0	0	0	-0.1265	0	-0	0	0	0	0	0	-0	0	0.105	0.015	0	0	-0	0	0	0.098	0.1	0	-0	0	0	0	0	0	-0	0	0.05595	0	0	0	-0	0	0	0	0	0	-0	0	556.2	630.166	286.941	355.179	11.6746	-128.366	0.2179	0.130966	40.4804
62	-0.0286841	0.00208501	-0.0344893	0.208817	-0.0116506	-0.0224453	0.0227485	-0.0275303	0.0197222	0.0334315	-0.186505	-0.377737	0.0344625	0.00112806	0.0425466	-2.49157	0.0159626	-1.53412	0	0	0	0	-0	0	0	0	-0.1265	0	-0	0	0	0	0	0	-0	0	0.105	0.015	0	0	-0	0	0	0.098	0.1	0	-0	0	0	0	0	0	-0	0	0.05595	0	0	0	-0	0	0	0	0	0	-0	0	555.986	629.83	286.939	355.09	11.7402	-129.423	0.217457	0.130912	40.4546
63	-0.0282913	0.00205701	-0.034477	0.20883	-0.0116453	-0.0224618	0.0227424	-0.027528	0.0197188	0.038	-0.20232	-0.379737	0.0344365	0.00113038	0.0425684	-2.49113	0.0159541	-1.5341	0	0	0	0	-0	0	0	0	-0.1265	0	-0	0	0	0	0	0	-0	0	0.105	0.015	0	0	-0	0	0	0.098	0.1	0	-0	0	0	0	0	0	-0	0	0.05595	0	0	0	-0	0	0	0	0	0	-0	0	555.893	629.693	286.932	355.054	11.766	-129.854	0.217305	0.130898	40.4449
64	-0.0260236	0.00201484	-0.0344812	0.208867	-0.0116261	-0.0224759	0.0227462	-0.0275339	0.0197237	0.0430058	-0.179029	-0.376685	0.0343225	0.00112796	0.042662	-2.48879	0.015904	-1.53403	0	0	0	0	-0	0	0	0	-0.1265	0	-0	0	0	0	0	0	-0	0	0.105	0.015	0	0	-0	0	0	0.098	0.1	0	-0	0	0	0	0	0	-0	0	0.05595	0	0	0	-0	0	0	0	0	0	-0	0	555.764	629.507	286.929	355.008	11.8029	-130.437	0.217018	0.130835	40.4341
65	-0.0371719	0.00195916	-0.0344804	0.208897	-0.0116123	-0.0225002	0.0227433	-0.0275316	0.0197142	0.0298837	-0.167336	-0.398371	0.0347742	0.00112619	0.0423019	-2.49981	0.0163565	-1.53416	0	0	0	0	-0	0	0	0	-0.1265	0	-0	0	0	0	0	0	-0	0	0.105	0.015	0	0	-0	0	0	0.098	0.1	0	-0	0	0	0	0	0	-0	0	0.05595	0	0	0	-0	0	0	0	0	0	-0	0	555.585	629.23	286.918	354.932	11.856	-131.297	0.216631	0.130787	40.4113
66	-0.0399021	0.00191523	-0.0344896	0.208983	-0.0115849	-0.0225131	0.0227404	-0.0275295	0.0197295	0.0384344	-0.183218	-0.406296	0.0348749	0.00112289	0.0422129	-2.50249	0.0164781	-1.53417	0	0	0	0	-0	0	0	0	-0.1265	0	-0	0	0	0	0	0	-0	0	0.105	0.015	0	0	-0	0	0	0.098	0.1	0	-0	0	0	0	0	0	-0	0	0.05595	0	0	0	-0	0	0	0	0	0	-0	0	555.501	629.116	286.924	354.904	11.8792	-131.643	0.216548	0.130763	40.4067
67	-0.0360043	0.00190831	-0.0344747	0.208945	-0.0115864	-0.0225175	0.0227482	-0.0275384	0.0197207	0.0360073	-0.190333	-0.378125	0.0347009	0.00112426	0.0423596	-2.49853	0.0163466	-1.53411	0	0	0	0	-0	0	0	0	-0.1265	0	-0	0	0	0	0	0	-0	0	0.105	0.015	0	0	-0	0	0	0.098	0.1	0	-0	0	0	0	0	0	-0	0	0.05595	0	0	0	-0	0	0	0	0	0	-0	0	555.397	628.962	286.915	354.863	11.9075	-132.117	0.216267	0.130745	40.3956
68	-0.0537398	0.00182069	-0.0344908	0.209033	-0.0115602	-0.0225519	0.0227453	-0.0275312	0.0197567	-0.00163797	-0.161749	-0.360336	0.0354205	0.00111982	0.0417729	-2.51611	0.0170541	-1.53433	0	0	0	0	-0	0	0	0	-0.1265	0	-0	0	0	0	0	0	-0	0	0.105	0.015	0	0	-0	0	0	0.098	0.1	0	-0	0	0	0	0	0	-0	0	0.05595	0	0	0	-0	0	0	0	0	0	-0	0	555.175	628.622	286.911	354.765	11.9737	-133.171	0.215804	0.130671	40.3754
69	-0.0398619	0.00181929	-0.034459	0.20897	-0.0115637	-0.0225548	0.0227465	-0.0275273	0.0197267	0.0134759	-0.189369	-0.356104	0.0348306	0.00112467	0.042265	-2.50216	0.0165704	-1.53411	0	0	0	0	-0	0	0	0	-0.1265	0	-0	0	0	0	0	0	-0	0	0.105	0.015	0	0	-0	0	0	0.098	0.1	0	-0	0	0	0	0	0	-0	0	0.05595	0	0	0	-0	0	0	0	0	0	-0	0	555.063	628.451	286.879	354.715	12.0012	-133.693	0.215367	0.130666	40.366
70	-0.0484057	0.00171654	-0.0344944	0.209141	-0.0115133	-0.0225834	0.022753	-0.0275727	0.0197439	-0.000864884	-0.216978	-0.393837	0.03516	0.00111721	0.0419856	-2.51059	0.0169377	-1.53415	0	0	0	0	-0	0	0	0	-0.1265	0	-0	0	0	0	0	0	-0	0	0.105	0.015	0	0	-0	0	0	0.098	0.1	0	-0	0	0	0	0	0	-0	0	0.05595	0	0	0	-0	0	0	0	0	0	-0	0	554.899	628.201	286.892	354.647	12.0516	-134.459	0.215058	0.130575	40.3525
71	-0.0269621	0.00164977	-0.0344924	0.209145	-0.0115279	-0.0226416	0.0227217	-0.0275372	0.0197331	-0.0774327	-0.186804	-0.419957	0.0342151	0.00111486	0.0427848	-2.48891	0.0162306	-1.53375	0	0	0	0	-0	0	0	0	-0.1265	0	-0	0	0	0	0	0	-0	0	0.105	0.015	0	0	-0	0	0	0.098	0.1	0	-0	0	0	0	0	0	-0	0	0.05595	0	0	0	-0	0	0	0	0	0	-0	0	554.524	627.653	286.859	354.485	12.1556	-136.136	0.214387	0.130525	40.3169
72	-0.0550014	0.00154633	-0.03448	0.209229	-0.0114471	-0.0226534	0.022726	-0.0275615	0.0197401	-0.0332931	-0.17378	-0.406853	0.0353733	0.00110701	0.0418378	-2.51682	0.0173344	-1.53412	0	0	0	0	-0	0	0	0	-0.1265	0	-0	0	0	0	0	0	-0	0	0.105	0.015	0	0	-0	0	0	0.098	0.1	0	-0	0	0	0	0	0	-0	0	0.05595	0	0	0	-0	0	0	0	0	0	-0	0	554.279	627.287	286.864	354.413	12.2253	-137.242	0.213719	0.130376	40.2977
73	-0.0853938	0.00148958	-0.0344703	0.209268	-0.0114336	-0.0226916	0.0227462	-0.0275443	0.0197381	-0.0438566	-0.185208	-0.377093	0.03661	0.00110399	0.0407669	-2.5471	0.0184859	-1.53462	0	0	0	0	-0	0	0	0	-0.1265	0	-0	0	0	0	0	0	-0	0	0.105	0.015	0	0	-0	0	0	0.098	0.1	0	-0	0	0	0	0	0	-0	0	0.05595	0	0	0	-0	0	0	0	0	0	-0	0	554.089	627.014	286.853	354.353	12.2774	-138.064	0.213545	0.130348	40.2912
74	-0.0732064	0.00137379	-0.0344952	0.209404	-0.0113933	-0.0227209	0.0227427	-0.0275446	0.0197554	-0.0378523	-0.210398	-0.39927	0.0360573	0.00109977	0.0412342	-2.53463	0.0181201	-1.53431	0	0	0	0	-0	0	0	0	-0.1265	0	-0	0	0	0	0	0	-0	0	0.105	0.015	0	0	-0	0	0	0.098	0.1	0	-0	0	0	0	0	0	-0	0	0.05595	0	0	0	-0	0	0	0	0	0	-0	0	553.686	626.41	286.853	354.168	12.3843	-139.815	0.212485	0.130267	40.2913
75	-0.0892794	0.00129836	-0.0344801	0.209449	-0.0113629	-0.0227485	0.0227499	-0.0275446	0.0197742	-0.0153069	-0.245377	-0.424437	0.0366947	0.00110025	0.0406709	-2.55053	0.0187549	-1.53455	0	0	0	0	-0	0	0	0	-0.1265	0	-0	0	0	0	0	0	-0	0	0.105	0.015	0	0	-0	0	0	0.098	0.1	0	-0	0	0	0	0	0	-0	0	0.05595	0	0	0	-0	0	0	0	0	0	-0	0	553.435	626.03	286.835	354.062	12.4496	-140.907	0.211864	0.130218	40.2844
76	-0.0877826	0.0012428	-0.0344769	0.209496	-0.0113472	-0.0227708	0.0227452	-0.0275623	0.0197488	-0.0206169	-0.255603	-0.464941	0.0366153	0.00110132	0.040734	-2.5489	0.0187511	-1.53449	0	0	0	0	-0	0	0	0	-0.1265	0	-0	0	0	0	0	0	-0	0	0.105	0.015	0	0	-0	0	0	0.098	0.1	0	-0	0	0	0	0	0	-0	0	0.05595	0	0	0	-0	0	0	0	0	0	-0	0	553.257	625.748	286.811	353.977	12.4956	-141.713	0.211304	0.130187	40.2812
77	-0.0924012	0.00114741	-0.034501	0.209652	-0.0113045	-0.0228091	0.0227278	-0.0275415	0.0197661	-0.0441335	-0.26472	-0.451669	0.0367805	0.0010931	0.0405822	-2.55344	0.0189644	-1.53449	0	0	0	0	-0	0	0	0	-0.1265	0	-0	0	0	0	0	0	-0	0	0.105	0.015	0	0	-0	0	0	0.098	0.1	0	-0	0	0	0	0	0	-0	0	0.05595	0	0	0	-0	0	0	0	0	0	-0	0	553.122	625.54	286.83	353.924	12.5361	-142.3	0.211215	0.130139	40.2845
78	-0.091816	0.00113521	-0.0344721	0.20958	-0.0112908	-0.0228057	0.022738	-0.027539	0.0197389	-0.0892953	-0.240004	-0.480688	0.0367411	0.00109272	0.0406207	-2.55274	0.0189723	-1.53448	0	0	0	0	-0	0	0	0	-0.1265	0	-0	0	0	0	0	0	-0	0	0.105	0.015	0	0	-0	0	0	0.098	0.1	0	-0	0	0	0	0	0	-0	0	0.05595	0	0	0	-0	0	0	0	0	0	-0	0	552.916	625.237	286.82	353.854	12.5883	-143.17	0.210564	0.130079	40.2769
79	-0.0919883	0.00106102	-0.0345004	0.209751	-0.0112453	-0.0228222	0.0227275	-0.027535	0.0197663	-0.0837718	-0.250783	-0.487123	0.0367366	0.00108703	0.0406192	-2.55289	0.0190081	-1.5344	0	0	0	0	-0	0	0	0	-0.1265	0	-0	0	0	0	0	0	-0	0	0.105	0.015	0	0	-0	0	0	0.098	0.1	0	-0	0	0	0	0	0	-0	0	0.05595	0	0	0	-0	0	0	0	0	0	-0	0	552.88	625.175	286.836	353.838	12.6018	-143.346	0.210637	0.130055	40.2755
80	-0.0966933	0.00106431	-0.0344683	0.209646	-0.0112537	-0.0228247	0.0227337	-0.0275359	0.0197584	-0.0753558	-0.271112	-0.488337	0.0369173	0.00108898	0.0404613	-2.5575	0.019187	-1.53452	0	0	0	0	-0	0	0	0	-0.1265	0	-0	0	0	0	0	0	-0	0	0.105	0.015	0	0	-0	0	0	0.098	0.1	0	-0	0	0	0	0	0	-0	0	0.05595	0	0	0	-0	0	0	0	0	0	-0	0	552.716	624.925	286.827	353.773	12.6444	-144.074	0.210093	0.130035	40.2729
81	-0.0916853	0.00101744	-0.0344738	0.209726	-0.0112271	-0.0228387	0.022729	-0.027536	0.0197624	-0.0783227	-0.257848	-0.488117	0.0367098	0.00108722	0.0406465	-2.55247	0.019026	-1.53438	0	0	0	0	-0	0	0	0	-0.1265	0	-0	0	0	0	0	0	-0	0	0.105	0.015	0	0	-0	0	0	0.098	0.1	0	-0	0	0	0	0	0	-0	0	0.05595	0	0	0	-0	0	0	0	0	0	-0	0	552.686	624.877	286.829	353.762	12.6529	-144.21	0.210069	0.130016	40.2726
82	-0.0669929	0.000991007	-0.0344697	0.209722	-0.0112193	-0.0228496	0.0227261	-0.0275373	0.0197586	-0.0681044	-0.256042	-0.482548	0.0356934	0.00108548	0.0415657	-2.52772	0.0181449	-1.5339	0	0	0	0	-0	0	0	0	-0.1265	0	-0	0	0	0	0	0	-0	0	0.105	0.015	0	0	-0	0	0	0.098	0.1	0	-0	0	0	0	0	0	-0	0	0.05595	0	0	0	-0	0	0	0	0	0	-0	0	552.559	624.684	286.827	353.713	12.6873	-144.769	0.209738	0.129982	40.2696
83	-0.0738184	0.000956981	-0.0344696	0.209767	-0.0111969	-0.0228601	0.0227427	-0.0275465	0.0197705	-0.077243	-0.285151	-0.467782	0.0359567	0.00108204	0.0413149	-2.5345	0.0184225	-1.534	0	0	0	0	-0	0	0	0	-0.1265	0	-0	0	0	0	0	0	-0	0	0.105	0.015	0	0	-0	0	0	0.098	0.1	0	-0	0	0	0	0	0	-0	0	0.05595	0	0	0	-0	0	0	0	0	0	-0	0	552.497	624.587	286.828	353.69	12.7048	-145.044	0.209611	0.129966	40.2712
84	-0.0533421	0.000929045	-0.0344718	0.209781	-0.0112065	-0.0228782	0.0227464	-0.0275353	0.0197621	-0.0960503	-0.253597	-0.488434	0.0351011	0.00108416	0.042061	-2.51393	0.0176834	-1.53361	0	0	0	0	-0	0	0	0	-0.1265	0	-0	0	0	0	0	0	-0	0	0.105	0.015	0	0	-0	0	0	0.098	0.1	0	-0	0	0	0	0	0	-0	0	0.05595	0	0	0	-0	0	0	0	0	0	-0	0	552.356	624.373	286.816	353.622	12.7401	-145.65	0.209286	0.129963	40.2746
85	-0.0535141	0.000892582	-0.0344916	0.209889	-0.0111782	-0.0228808	0.022726	-0.027537	0.0197729	-0.0907897	-0.260861	-0.498054	0.0350949	0.00108143	0.0420467	-2.51408	0.017709	-1.53357	0	0	0	0	-0	0	0	0	-0.1265	0	-0	0	0	0	0	0	-0	0	0.105	0.015	0	0	-0	0	0	0.098	0.1	0	-0	0	0	0	0	0	-0	0	0.05595	0	0	0	-0	0	0	0	0	0	-0	0	552.337	624.343	286.819	353.612	12.7457	-145.732	0.209269	0.129963	40.2745
86	-0.042467	0.000898995	-0.0344667	0.209804	-0.0111816	-0.0228822	0.0227366	-0.0275492	0.0197717	-0.107138	-0.264203	-0.468117	0.0346246	0.00108211	0.0424424	-2.503	0.0173012	-1.5334	0	0	0	0	-0	0	0	0	-0.1265	0	-0	0	0	0	0	0	-0	0	0.105	0.015	0	0	-0	0	0	0.098	0.1	0	-0	0	0	0	0	0	-0	0	0.05595	0	0	0	-0	0	0	0	0	0	-0	0	552.26	624.223	286.816	353.583	12.7663	-146.074	0.208967	0.129926	40.278
87	-0.0218387	0.000847221	-0.0344691	0.209847	-0.0111697	-0.0229064	0.0227353	-0.0275495	0.0197691	-0.113267	-0.262795	-0.437576	0.0337355	0.00108005	0.0431638	-2.48231	0.0165615	-1.533	0	0	0	0	-0	0	0	0	-0.1265	0	-0	0	0	0	0	0	-0	0	0.105	0.015	0	0	-0	0	0	0.098	0.1	0	-0	0	0	0	0	0	-0	0	0.05595	0	0	0	-0	0	0	0	0	0	-0	0	552.151	624.047	286.809	353.534	12.7967	-146.581	0.208729	0.1299	40.2814
88	-0.0361082	0.000819306	-0.0344745	0.2099	-0.0111537	-0.0229162	0.022732	-0.0275476	0.0197685	-0.110026	-0.26086	-0.410897	0.0343359	0.0010775	0.0426777	-2.49654	0.0171178	-1.53322	0	0	0	0	-0	0	0	0	-0.1265	0	-0	0	0	0	0	0	-0	0	0.105	0.015	0	0	-0	0	0	0.098	0.1	0	-0	0	0	0	0	0	-0	0	0.05595	0	0	0	-0	0	0	0	0	0	-0	0	552.092	623.958	286.809	353.51	12.8125	-146.829	0.208625	0.129894	40.2828
89	-0.0508908	0.000787518	-0.0344731	0.209913	-0.0111414	-0.022926	0.0227351	-0.0275551	0.0197729	-0.112434	-0.273996	-0.441041	0.0349506	0.00107569	0.0421774	-2.51123	0.0176934	-1.53345	0	0	0	0	-0	0	0	0	-0.1265	0	-0	0	0	0	0	0	-0	0	0.105	0.015	0	0	-0	0	0	0.098	0.1	0	-0	0	0	0	0	0	-0	0	0.05595	0	0	0	-0	0	0	0	0	0	-0	0	551.96	623.764	286.81	353.46	12.8469	-147.383	0.208305	0.129854	40.2898
90	-0.0350991	0.000763428	-0.0344691	0.209935	-0.011134	-0.0229391	0.0227331	-0.0275444	0.0197765	-0.104073	-0.250523	-0.448919	0.0342751	0.00107519	0.0427292	-2.49541	0.0171165	-1.53316	0	0	0	0	-0	0	0	0	-0.1265	0	-0	0	0	0	0	0	-0	0	0.105	0.015	0	0	-0	0	0	0.098	0.1	0	-0	0	0	0	0	0	-0	0	0.05595	0	0	0	-0	0	0	0	0	0	-0	0	551.896	623.667	286.806	353.433	12.8634	-147.658	0.208198	0.129852	40.2893
91	-0.046186	0.000734913	-0.0344689	0.209948	-0.0111209	-0.0229446	0.0227272	-0.0275427	0.0197733	-0.108217	-0.265863	-0.45746	0.0347328	0.00107425	0.0423545	-2.5064	0.0175624	-1.53333	0	0	0	0	-0	0	0	0	-0.1265	0	-0	0	0	0	0	0	-0	0	0.105	0.015	0	0	-0	0	0	0.098	0.1	0	-0	0	0	0	0	0	-0	0	0.05595	0	0	0	-0	0	0	0	0	0	-0	0	551.747	623.452	286.799	353.377	12.9002	-148.273	0.207761	0.129803	40.2914
92	-0.0579284	0.000686664	-0.034466	0.209985	-0.0110962	-0.0229607	0.0227151	-0.027579	0.0197769	-0.0583699	-0.250071	-0.441027	0.0352139	0.00107138	0.0419555	-2.51807	0.0180338	-1.53349	0	0	0	0	-0	0	0	0	-0.1265	0	-0	0	0	0	0	0	-0	0	0.105	0.015	0	0	-0	0	0	0.098	0.1	0	-0	0	0	0	0	0	-0	0	0.05595	0	0	0	-0	0	0	0	0	0	-0	0	551.598	623.24	286.798	353.329	12.938	-148.877	0.20746	0.129744	40.2974
93	-0.0573849	0.000655395	-0.0344502	0.209968	-0.0110955	-0.0229962	0.0227285	-0.0275457	0.019774	-0.0716247	-0.248723	-0.418434	0.0351767	0.00106813	0.0419826	-2.51749	0.0180549	-1.53346	0	0	0	0	-0	0	0	0	-0.1265	0	-0	0	0	0	0	0	-0	0	0.105	0.015	0	0	-0	0	0	0.098	0.1	0	-0	0	0	0	0	0	-0	0	0.05595	0	0	0	-0	0	0	0	0	0	-0	0	551.487	623.085	286.784	353.307	12.9672	-149.324	0.207435	0.129703	40.3051
94	-0.0610122	0.000631828	-0.0344642	0.210044	-0.0110733	-0.0229848	0.0227237	-0.0275405	0.0197773	-0.0802879	-0.252479	-0.408426	0.0353273	0.00106839	0.0418541	-2.52109	0.0181949	-1.53349	0	0	0	0	-0	0	0	0	-0.1265	0	-0	0	0	0	0	0	-0	0	0.105	0.015	0	0	-0	0	0	0.098	0.1	0	-0	0	0	0	0	0	-0	0	0.05595	0	0	0	-0	0	0	0	0	0	-0	0	551.445	623.02	286.787	353.291	12.9769	-149.507	0.207267	0.12969	40.3083
95	-0.0556548	0.000599694	-0.0344622	0.21005	-0.01106	-0.0229948	0.0227331	-0.0275555	0.0197891	-0.107372	-0.267257	-0.383605	0.0350879	0.00106674	0.0420578	-2.51564	0.0180193	-1.53338	0	0	0	0	-0	0	0	0	-0.1265	0	-0	0	0	0	0	0	-0	0	0.105	0.015	0	0	-0	0	0	0.098	0.1	0	-0	0	0	0	0	0	-0	0	0.05595	0	0	0	-0	0	0	0	0	0	-0	0	551.26	622.766	286.788	353.228	13.0223	-150.24	0.206842	0.129635	40.3267
96	-0.0733215	0.000540515	-0.0344596	0.210076	-0.0110533	-0.0230278	0.0227457	-0.0275536	0.0197758	-0.10311	-0.245274	-0.41877	0.0358109	0.00106574	0.0414557	-2.53314	0.0187393	-1.53365	0	0	0	0	-0	0	0	0	-0.1265	0	-0	0	0	0	0	0	-0	0	0.105	0.015	0	0	-0	0	0	0.098	0.1	0	-0	0	0	0	0	0	-0	0	0.05595	0	0	0	-0	0	0	0	0	0	-0	0	550.999	622.386	286.763	353.127	13.0865	-151.317	0.206265	0.129585	40.3483
97	-0.0609509	0.000452559	-0.0344859	0.210252	-0.0110085	-0.0230512	0.0227324	-0.0275641	0.0197922	-0.0947108	-0.229307	-0.386306	0.0352768	0.00106022	0.0419012	-2.52068	0.0183139	-1.53334	0	0	0	0	-0	0	0	0	-0.1265	0	-0	0	0	0	0	0	-0	0	0.105	0.015	0	0	-0	0	0	0.098	0.1	0	-0	0	0	0	0	0	-0	0	0.05595	0	0	0	-0	0	0	0	0	0	-0	0	550.879	622.195	286.778	353.065	13.1197	-151.842	0.206054	0.129579	40.3538
98	-0.0841984	0.000450261	-0.0344656	0.210203	-0.0110111	-0.0230607	0.022727	-0.027544	0.01979	-0.0984494	-0.208257	-0.376521	0.0362403	0.00106046	0.0410858	-2.54385	0.0191937	-1.53379	0	0	0	0	-0	0	0	0	-0.1265	0	-0	0	0	0	0	0	-0	0	0.105	0.015	0	0	-0	0	0	0.098	0.1	0	-0	0	0	0	0	0	-0	0	0.05595	0	0	0	-0	0	0	0	0	0	-0	0	550.79	622.053	286.767	353.028	13.1433	-152.238	0.205796	0.129579	40.3613
99	-0.0867218	0.000386308	-0.0344638	0.210238	-0.0109753	-0.0230705	0.0227348	-0.0275581	0.0197988	-0.0794544	-0.215457	-0.411315	0.0363143	0.00105647	0.0410025	-2.54625	0.0193479	-1.53378	0	0	0	0	-0	0	0	0	-0.1265	0	-0	0	0	0	0	0	-0	0	0.105	0.015	0	0	-0	0	0	0.098	0.1	0	-0	0	0	0	0	0	-0	0	0.05595	0	0	0	-0	0	0	0	0	0	-0	0	550.553	621.705	286.76	352.943	13.2044	-153.253	0.205091	0.129479	40.3803
100	-0.0753991	0.000301849	-0.0344606	0.210285	-0.010959	-0.0231141	0.022742	-0.0275472	0.0197887	-0.0789041	-0.246702	-0.38781	0.0358227	0.00105461	0.0414414	-2.53474	0.0189988	-1.5335	0	0	0	0	-0	0	0	0	-0.1265	0	-0	0	0	0	0	0	-0	0	0.105	0.015	0	0	-0	0	0	0.098	0.1	0	-0	0	0	0	0	0	-0	0	0.05595	0	0	0	-0	0	0	0	0	0	-0	0	550.21	621.21	286.739	352.815	13.2919	-154.706	0.204369	0.129397	40.401
