Stefan210/kinematic_calibration/src/kinematic_calibration/validation/experiments/experiments/anzahl_messungen/BC_A/larm_29/optimization_intermediate_results.csv
iteration	HeadPitch_offset	HeadYaw_offset	LElbowRoll_offset	LElbowYaw_offset	LShoulderPitch_offset	LShoulderRoll_offset	marker_transform_larm_tx	marker_transform_larm_ty	marker_transform_larm_tz	marker_transform_larm_rr	marker_transform_larm_rp	marker_transform_larm_ry	camera_transform_tx	camera_transform_ty	camera_transform_tz	camera_transform_rr	camera_transform_rp	camera_transform_ry	HeadPitch_transform_tx	HeadPitch_transform_ty	HeadPitch_transform_tz	HeadPitch_transform_rr	HeadPitch_transform_rp	HeadPitch_transform_ry	HeadYaw_transform_tx	HeadYaw_transform_ty	HeadYaw_transform_tz	HeadYaw_transform_rr	HeadYaw_transform_rp	HeadYaw_transform_ry	LElbowRoll_transform_tx	LElbowRoll_transform_ty	LElbowRoll_transform_tz	LElbowRoll_transform_rr	LElbowRoll_transform_rp	LElbowRoll_transform_ry	LElbowYaw_transform_tx	LElbowYaw_transform_ty	LElbowYaw_transform_tz	LElbowYaw_transform_rr	LElbowYaw_transform_rp	LElbowYaw_transform_ry	LShoulderPitch_transform_tx	LShoulderPitch_transform_ty	LShoulderPitch_transform_tz	LShoulderPitch_transform_rr	LShoulderPitch_transform_rp	LShoulderPitch_transform_ry	LShoulderRoll_transform_tx	LShoulderRoll_transform_ty	LShoulderRoll_transform_tz	LShoulderRoll_transform_rr	LShoulderRoll_transform_rp	LShoulderRoll_transform_ry	LWristYaw_transform_tx	LWristYaw_transform_ty	LWristYaw_transform_tz	LWristYaw_transform_rr	LWristYaw_transform_rp	LWristYaw_transform_ry	l_wrist_joint_transform_tx	l_wrist_joint_transform_ty	l_wrist_joint_transform_tz	l_wrist_joint_transform_rr	l_wrist_joint_transform_rp	l_wrist_joint_transform_ry	camera_fx	camera_fy	camera_cx	camera_cy	camera_D0	camera_D1	camera_D2	camera_D3	camera_D4	
0	0.0249164	-0.0307543	0.000853157	4.65819e-06	-0.000318322	-0.00310766	0.05071	0	0.01774	-2.26369	1.66533e-16	-1.5708	545.901	551.038	324.928	201.58	0.0255298	2.61142	-0.0636736	-0.0350419	0.213964
1	-0.0165609	0.0241033	-0.0041028	0.0231542	-0.0129415	0.0294682	0.0231368	-0.0292609	0.00286344	-0.000245466	-0.000524144	-0.00317727	0.0569812	0.00165854	0.0170172	-2.1969	-0.0120056	-1.5612	0	0	0	0	-0	0	0	0	-0.1265	0	-0	0	0	0	0	0	-0	0	0.105	0.015	0	0	-0	0	0	0.098	0.1	0	-0	0	0	0	0	0	-0	0	0.05595	0	0	0	-0	0	0	0	0	0	-0	0	545.901	551.039	324.927	201.581	-0.0139247	2.59591	-0.0950746	0.0782008	0.210197
2	-0.0125686	0.0368006	-0.0071972	0.039158	-0.0257126	0.0372564	0.0230661	-0.0293951	0.00380096	-0.00035333	-0.000610139	-0.00319778	0.0535531	0.00113602	0.0247024	-2.21488	-0.0158107	-1.56478	0	0	0	0	-0	0	0	0	-0.1265	0	-0	0	0	0	0	0	-0	0	0.105	0.015	0	0	-0	0	0	0.098	0.1	0	-0	0	0	0	0	0	-0	0	0.05595	0	0	0	-0	0	0	0	0	0	-0	0	545.902	551.039	324.924	201.584	-0.123622	2.50912	-0.0248218	0.0221483	0.178019
3	-0.0152687	0.0285343	-0.0111225	0.0376025	-0.0197166	0.0403444	0.0229527	-0.0292288	0.0037741	-0.000352809	-0.000610757	-0.00319541	0.0556568	0.00260159	0.0204454	-2.20296	-0.0171514	-1.56464	0	0	0	0	-0	0	0	0	-0.1265	0	-0	0	0	0	0	0	-0	0	0.105	0.015	0	0	-0	0	0	0.098	0.1	0	-0	0	0	0	0	0	-0	0	0.05595	0	0	0	-0	0	0	0	0	0	-0	0	545.903	551.039	324.921	201.588	-0.260843	2.42319	-0.0438204	0.0422708	0.149952
4	-0.0148046	0.0306799	-0.00546168	0.0367923	-0.0209058	0.0389732	0.0233527	-0.0293686	0.00362784	-0.00033499	-0.000588758	-0.00316136	0.0554687	0.00184824	0.0205845	-2.20486	-0.0154897	-1.56215	0	0	0	0	-0	0	0	0	-0.1265	0	-0	0	0	0	0	0	-0	0	0.105	0.015	0	0	-0	0	0	0.098	0.1	0	-0	0	0	0	0	0	-0	0	0.05595	0	0	0	-0	0	0	0	0	0	-0	0	545.905	551.04	324.916	201.592	-0.429698	2.29794	-0.00633486	0.010081	0.104545
5	-0.0156908	0.0286045	0.000328769	0.0336957	-0.0187033	0.0382839	0.0238252	-0.0295036	0.00330968	-0.000293578	-0.000550174	-0.0031194	0.056388	0.00160017	0.0183421	-2.20073	-0.0143226	-1.55953	0	0	0	0	-0	0	0	0	-0.1265	0	-0	0	0	0	0	0	-0	0	0.105	0.015	0	0	-0	0	0	0.098	0.1	0	-0	0	0	0	0	0	-0	0	0.05595	0	0	0	-0	0	0	0	0	0	-0	0	545.907	551.04	324.91	201.598	-0.677513	2.10568	0.0226086	-0.0124858	0.034639
6	-0.0156343	0.0301305	0.00649212	0.0319875	-0.0188499	0.0364399	0.0242958	-0.0296605	0.00302624	-0.000263606	-0.000507288	-0.0030759	0.0563158	0.00085336	0.017964	-2.20083	-0.0133392	-1.55832	0	0	0	0	-0	0	0	0	-0.1265	0	-0	0	0	0	0	0	-0	0	0.105	0.015	0	0	-0	0	0	0.098	0.1	0	-0	0	0	0	0	0	-0	0	0.05595	0	0	0	-0	0	0	0	0	0	-0	0	545.912	551.041	324.905	201.603	-0.823552	1.89823	0.0516055	-0.0370085	-0.0496986
7	-0.0155711	0.0304605	0.00729278	0.0314595	-0.0183726	0.0354072	0.0243862	-0.0296673	0.00288627	-0.000261084	-0.000458355	-0.00305513	0.0557493	0.000668272	0.0182487	-2.20109	-0.0133366	-1.55867	0	0	0	0	-0	0	0	0	-0.1265	0	-0	0	0	0	0	0	-0	0	0.105	0.015	0	0	-0	0	0	0.098	0.1	0	-0	0	0	0	0	0	-0	0	0.05595	0	0	0	-0	0	0	0	0	0	-0	0	545.922	551.04	324.899	201.608	-0.758121	1.64792	0.0530353	-0.0395453	-0.163506
8	-0.0155957	0.0295405	0.00521974	0.0312648	-0.016669	0.0345607	0.024283	-0.0295697	0.00277952	-0.000186501	-0.00042163	-0.00319764	0.0547072	0.000800528	0.0188371	-2.20108	-0.013631	-1.55935	0	0	0	0	-0	0	0	0	-0.1265	0	-0	0	0	0	0	0	-0	0	0.105	0.015	0	0	-0	0	0	0.098	0.1	0	-0	0	0	0	0	0	-0	0	0.05595	0	0	0	-0	0	0	0	0	0	-0	0	545.949	551.035	324.892	201.615	-0.509181	1.2467	0.0352297	-0.0280031	-0.350324
9	-0.0156562	0.0285591	0.00273887	0.0312122	-0.0148783	0.0337214	0.0241549	-0.0294571	0.00268194	-7.55824e-05	-0.000122646	-0.00316007	0.0535423	0.000959649	0.0195415	-2.20104	-0.0140199	-1.56016	0	0	0	0	-0	0	0	0	-0.1265	0	-0	0	0	0	0	0	-0	0	0.105	0.015	0	0	-0	0	0	0.098	0.1	0	-0	0	0	0	0	0	-0	0	0.05595	0	0	0	-0	0	0	0	0	0	-0	0	546.011	551.015	324.891	201.616	-0.210945	0.781043	0.013124	-0.0135061	-0.553887
10	-0.0155706	0.0281807	0.00150533	0.0312254	-0.0140571	0.0332944	0.0240951	-0.0294023	0.00263111	-0.000186097	-0.000806667	-0.00299695	0.0528706	0.00101911	0.0200092	-2.201	-0.0142371	-1.56064	0	0	0	0	-0	0	0	0	-0.1265	0	-0	0	0	0	0	0	-0	0	0.105	0.015	0	0	-0	0	0	0.098	0.1	0	-0	0	0	0	0	0	-0	0	0.05595	0	0	0	-0	0	0	0	0	0	-0	0	546.173	550.947	324.907	201.604	-0.0381228	0.485679	0.00111458	-0.00547539	-0.624758
11	-0.0142972	0.0281409	0.00123557	0.031143	-0.0138955	0.0332814	0.0240848	-0.0293931	0.00261419	0.000382691	0.00159704	-0.004316	0.0526183	0.00101892	0.0202825	-2.19984	-0.0142549	-1.56077	0	0	0	0	-0	0	0	0	-0.1265	0	-0	0	0	0	0	0	-0	0	0.105	0.015	0	0	-0	0	0	0.098	0.1	0	-0	0	0	0	0	0	-0	0	0.05595	0	0	0	-0	0	0	0	0	0	-0	0	546.625	550.747	324.958	201.565	0.0116504	0.343589	-0.000790124	-0.00327279	-0.495826
12	-0.013547	0.0281878	0.00117934	0.0308488	-0.0138675	0.0334963	0.0240854	-0.0293967	0.00259954	-0.000251009	0.00728771	-0.00469703	0.0524263	0.000995251	0.0205531	-2.19929	-0.0141501	-1.56078	0	0	0	0	-0	0	0	0	-0.1265	0	-0	0	0	0	0	0	-0	0	0.105	0.015	0	0	-0	0	0	0.098	0.1	0	-0	0	0	0	0	0	-0	0	0.05595	0	0	0	-0	0	0	0	0	0	-0	0	547.808	550.234	325.114	201.462	0.0302835	0.185987	0.00162976	-0.00218195	-0.162412
13	-0.0206577	0.0282794	0.00113636	0.0302126	-0.0138007	0.0338952	0.0240936	-0.0294096	0.00257173	0.0108857	0.0190286	0.011428	0.0522844	0.000946262	0.0205791	-2.20667	-0.0140203	-1.5609	0	0	0	0	-0	0	0	0	-0.1265	0	-0	0	0	0	0	0	-0	0	0.105	0.015	0	0	-0	0	0	0.098	0.1	0	-0	0	0	0	0	0	-0	0	0.05595	0	0	0	-0	0	0	0	0	0	-0	0	550.352	549.279	325.589	201.233	0.0398624	0.0205474	0.00713484	-0.000186561	0.224041
14	-0.00324294	0.0283765	0.00113743	0.0293691	-0.0136684	0.0342991	0.0240932	-0.029406	0.00253269	0.0157236	0.027484	0.0192516	0.0515852	0.000875395	0.0219712	-2.18931	-0.0149909	-1.56246	0	0	0	0	-0	0	0	0	-0.1265	0	-0	0	0	0	0	0	-0	0	0.105	0.015	0	0	-0	0	0	0.098	0.1	0	-0	0	0	0	0	0	-0	0	0.05595	0	0	0	-0	0	0	0	0	0	-0	0	554.223	548.678	326.957	200.818	0.0151335	0.0561186	0.0142091	0.00261341	0.194666
15	0.00549842	0.0284109	0.00115036	0.0291038	-0.0136155	0.0343878	0.0241086	-0.0294245	0.00252661	0.000204228	0.0300723	0.0539168	0.0512646	0.000850435	0.0225585	-2.18043	-0.0154887	-1.56326	0	0	0	0	-0	0	0	0	-0.1265	0	-0	0	0	0	0	0	-0	0	0.105	0.015	0	0	-0	0	0	0.098	0.1	0	-0	0	0	0	0	0	-0	0	0.05595	0	0	0	-0	0	0	0	0	0	-0	0	555.587	548.694	327.561	200.606	0.00299318	0.110317	0.0160384	0.00360681	0.0840622
16	0.0101065	0.0284172	0.0011511	0.0289768	-0.0135797	0.0344254	0.0240962	-0.029405	0.00251038	0.00283772	0.0244046	0.0684513	0.0510954	0.000836993	0.0228691	-2.17569	-0.015898	-1.56384	0	0	0	0	-0	0	0	0	-0.1265	0	-0	0	0	0	0	0	-0	0	0.105	0.015	0	0	-0	0	0	0.098	0.1	0	-0	0	0	0	0	0	-0	0	0.05595	0	0	0	-0	0	0	0	0	0	-0	0	556.394	548.828	328.011	200.457	-0.00745124	0.163221	0.0169771	0.00413539	-0.0241077
17	0.0168648	0.028418	0.00115286	0.0289258	-0.0135651	0.0344354	0.0240939	-0.0294017	0.00250924	-0.00321221	0.0265969	0.0677971	0.050918	0.000832306	0.0232398	-2.16886	-0.016103	-1.56417	0	0	0	0	-0	0	0	0	-0.1265	0	-0	0	0	0	0	0	-0	0	0.105	0.015	0	0	-0	0	0	0.098	0.1	0	-0	0	0	0	0	0	-0	0	0.05595	0	0	0	-0	0	0	0	0	0	-0	0	556.692	548.898	328.194	200.397	-0.0114559	0.185803	0.0172407	0.00435039	-0.0708096
18	0.0313164	0.0284171	0.00116468	0.0288225	-0.0135372	0.0344453	0.0241047	-0.02941	0.00250497	-0.0147319	0.0195787	0.0918783	0.0505211	0.000817074	0.0240454	-2.15416	-0.0169305	-1.56533	0	0	0	0	-0	0	0	0	-0.1265	0	-0	0	0	0	0	0	-0	0	0.105	0.015	0	0	-0	0	0	0.098	0.1	0	-0	0	0	0	0	0	-0	0	0.05595	0	0	0	-0	0	0	0	0	0	-0	0	557.608	549.313	328.959	200.182	-0.0286023	0.273782	0.0180279	0.00480189	-0.245858
19	0.0305701	0.0284116	0.00117769	0.0287517	-0.0135095	0.0344204	0.024085	-0.029417	0.00250108	0.0331697	-0.0105579	0.0946639	0.0504668	0.000800137	0.0240729	-2.15457	-0.0180896	-1.56674	0	0	0	0	-0	0	0	0	-0.1265	0	-0	0	0	0	0	0	-0	0	0.105	0.015	0	0	-0	0	0	0.098	0.1	0	-0	0	0	0	0	0	-0	0	0.05595	0	0	0	-0	0	0	0	0	0	-0	0	558.614	550.005	330.099	199.909	-0.0492533	0.383273	0.0185198	0.00526671	-0.465549
20	0.0246675	0.0284007	0.0011624	0.0287549	-0.0134932	0.0344107	0.0240956	-0.0293941	0.00249946	0.0282897	-0.00504292	0.090714	0.0505995	0.000799473	0.0237811	-2.16041	-0.0182324	-1.56684	0	0	0	0	-0	0	0	0	-0.1265	0	-0	0	0	0	0	0	-0	0	0.105	0.015	0	0	-0	0	0	0.098	0.1	0	-0	0	0	0	0	0	-0	0	0.05595	0	0	0	-0	0	0	0	0	0	-0	0	558.741	550.102	330.256	199.872	-0.0511591	0.40059	0.018408	0.00541977	-0.503754
21	0.030762	0.0283997	0.00117787	0.028722	-0.0134843	0.0343865	0.0240993	-0.0293936	0.00249421	0.0231725	0.0104419	0.0778495	0.050427	0.00079142	0.0241158	-2.15412	-0.0189428	-1.56777	0	0	0	0	-0	0	0	0	-0.1265	0	-0	0	0	0	0	0	-0	0	0.105	0.015	0	0	-0	0	0	0.098	0.1	0	-0	0	0	0	0	0	-0	0	0.05595	0	0	0	-0	0	0	0	0	0	-0	0	559.21	550.498	330.902	199.736	-0.0623641	0.45992	0.0185481	0.00561454	-0.621115
22	0.0417549	0.0283939	0.00117687	0.0287133	-0.013473	0.0343703	0.0240977	-0.0293916	0.00249927	0.0176284	0.0224282	0.0867743	0.0501472	0.000788378	0.0246805	-2.14303	-0.019319	-1.5684	0	0	0	0	-0	0	0	0	-0.1265	0	-0	0	0	0	0	0	-0	0	0.105	0.015	0	0	-0	0	0	0.098	0.1	0	-0	0	0	0	0	0	-0	0	0.05595	0	0	0	-0	0	0	0	0	0	-0	0	559.425	550.693	331.226	199.672	-0.0671537	0.48892	0.0185189	0.00575305	-0.680844
23	0.0399323	0.0283905	0.00117427	0.0287125	-0.0134685	0.0343636	0.0240974	-0.0293915	0.00249683	0.0252362	0.0280981	0.0914126	0.050184	0.000787361	0.0245913	-2.14481	-0.0194545	-1.56854	0	0	0	0	-0	0	0	0	-0.1265	0	-0	0	0	0	0	0	-0	0	0.105	0.015	0	0	-0	0	0	0.098	0.1	0	-0	0	0	0	0	0	-0	0	0.05595	0	0	0	-0	0	0	0	0	0	-0	0	559.51	550.772	331.36	199.646	-0.0690758	0.500649	0.0184981	0.0058141	-0.704639
24	0.0353975	0.0283893	0.00117534	0.0287103	-0.0134656	0.0343578	0.0240963	-0.02939	0.00249607	0.0289315	0.0257249	0.0963426	0.0502906	0.000786086	0.0243678	-2.14931	-0.0195829	-1.56862	0	0	0	0	-0	0	0	0	-0.1265	0	-0	0	0	0	0	0	-0	0	0.105	0.015	0	0	-0	0	0	0.098	0.1	0	-0	0	0	0	0	0	-0	0	0.05595	0	0	0	-0	0	0	0	0	0	-0	0	559.592	550.847	331.489	199.622	-0.0710463	0.511847	0.0184998	0.00586034	-0.727219
25	0.0365938	0.0283881	0.0011775	0.0287074	-0.0134629	0.0343494	0.0240999	-0.0293907	0.00249522	0.0235356	0.0135888	0.104773	0.0502544	0.000784183	0.0244336	-2.14806	-0.0197945	-1.5689	0	0	0	0	-0	0	0	0	-0.1265	0	-0	0	0	0	0	0	-0	0	0.105	0.015	0	0	-0	0	0	0.098	0.1	0	-0	0	0	0	0	0	-0	0	0.05595	0	0	0	-0	0	0	0	0	0	-0	0	559.71	550.957	331.683	199.586	-0.0739384	0.527463	0.0185099	0.00592049	-0.758026
26	0.040922	0.0283868	0.00118278	0.0287023	-0.0134587	0.0343319	0.0240961	-0.0293906	0.00249827	0.0385788	0.00260251	0.097815	0.0501333	0.000779895	0.0246651	-2.14363	-0.0202693	-1.56954	0	0	0	0	-0	0	0	0	-0.1265	0	-0	0	0	0	0	0	-0	0	0.105	0.015	0	0	-0	0	0	0.098	0.1	0	-0	0	0	0	0	0	-0	0	0.05595	0	0	0	-0	0	0	0	0	0	-0	0	559.96	551.196	332.116	199.511	-0.0797423	0.557292	0.018544	0.00604465	-0.816185
27	0.010062	0.028385	0.00119246	0.0286999	-0.013452	0.0342895	0.0240979	-0.0293971	0.00251723	0.00366964	0.040803	0.116718	0.0508572	0.000769997	0.0231509	-2.17425	-0.0214906	-1.57039	0	0	0	0	-0	0	0	0	-0.1265	0	-0	0	0	0	0	0	-0	0	0.105	0.015	0	0	-0	0	0	0.098	0.1	0	-0	0	0	0	0	0	-0	0	0.05595	0	0	0	-0	0	0	0	0	0	-0	0	560.539	551.755	333.264	199.339	-0.0926473	0.620882	0.0186139	0.00639564	-0.937914
28	0.0105788	0.0283738	0.00117576	0.0287052	-0.0134391	0.0342771	0.0240971	-0.0293849	0.00249546	0.0106506	0.0409103	0.110005	0.0508166	0.000770332	0.0231687	-2.17368	-0.0216942	-1.57059	0	0	0	0	-0	0	0	0	-0.1265	0	-0	0	0	0	0	0	-0	0	0.105	0.015	0	0	-0	0	0	0.098	0.1	0	-0	0	0	0	0	0	-0	0	0.05595	0	0	0	-0	0	0	0	0	0	-0	0	560.614	551.83	333.422	199.316	-0.0938221	0.63265	0.0184875	0.00652523	-0.963797
29	0.0149082	0.0283744	0.00118226	0.0286971	-0.0134343	0.0342662	0.0240986	-0.0293911	0.0024958	-0.0104578	0.0398081	0.116167	0.0507101	0.000768602	0.0233933	-2.1693	-0.021942	-1.57097	0	0	0	0	-0	0	0	0	-0.1265	0	-0	0	0	0	0	0	-0	0	0.105	0.015	0	0	-0	0	0	0.098	0.1	0	-0	0	0	0	0	0	-0	0	0.05595	0	0	0	-0	0	0	0	0	0	-0	0	560.714	551.931	333.639	199.285	-0.0962588	0.647303	0.0184548	0.00661027	-0.994043
30	0.0169177	0.0283726	0.00118151	0.0286992	-0.013431	0.0342585	0.0240979	-0.0293843	0.00249518	-0.00562619	0.0344852	0.106231	0.0506585	0.000767583	0.0234981	-2.16725	-0.0221259	-1.57122	0	0	0	0	-0	0	0	0	-0.1265	0	-0	0	0	0	0	0	-0	0	0.105	0.015	0	0	-0	0	0	0.098	0.1	0	-0	0	0	0	0	0	-0	0	0.05595	0	0	0	-0	0	0	0	0	0	-0	0	560.789	552.005	333.802	199.263	-0.0980885	0.657671	0.0184417	0.00667302	-1.01471
31	0.00812173	0.0283732	0.00118786	0.0286958	-0.013428	0.0342369	0.0240993	-0.0293813	0.00249708	0.00454034	0.0115349	0.0997329	0.0508504	0.000763384	0.0230657	-2.17593	-0.022776	-1.57176	0	0	0	0	-0	0	0	0	-0.1265	0	-0	0	0	0	0	0	-0	0	0.105	0.015	0	0	-0	0	0	0.098	0.1	0	-0	0	0	0	0	0	-0	0	0.05595	0	0	0	-0	0	0	0	0	0	-0	0	561.04	552.247	334.373	199.189	-0.103839	0.685705	0.0184624	0.00685928	-1.06756
32	0.0100813	0.0283694	0.00118456	0.0286947	-0.0134208	0.034223	0.0240984	-0.0293813	0.00249427	0.00306343	0.0219713	0.108056	0.0507956	0.000762015	0.0231699	-2.17391	-0.0231042	-1.57218	0	0	0	0	-0	0	0	0	-0.1265	0	-0	0	0	0	0	0	-0	0	0.105	0.015	0	0	-0	0	0	0.098	0.1	0	-0	0	0	0	0	0	-0	0	0.05595	0	0	0	-0	0	0	0	0	0	-0	0	561.16	552.363	334.659	199.154	-0.106338	0.700846	0.0184071	0.00699234	-1.09811
33	0.0225337	0.0283682	0.00118554	0.0286946	-0.0134164	0.0342093	0.0240996	-0.0293827	0.00249189	0.00564221	0.0253686	0.0937396	0.0504985	0.000759948	0.0238093	-2.16139	-0.023475	-1.57291	0	0	0	0	-0	0	0	0	-0.1265	0	-0	0	0	0	0	0	-0	0	0.105	0.015	0	0	-0	0	0	0.098	0.1	0	-0	0	0	0	0	0	-0	0	0.05595	0	0	0	-0	0	0	0	0	0	-0	0	561.301	552.495	335.002	199.114	-0.109415	0.716988	0.0183949	0.00712744	-1.12935
34	0.0145325	0.0283663	0.00118481	0.0286946	-0.0134119	0.0341982	0.0240981	-0.0293796	0.00248992	0.0112792	0.0128841	0.102649	0.0506787	0.000758635	0.023408	-2.16934	-0.023781	-1.57306	0	0	0	0	-0	0	0	0	-0.1265	0	-0	0	0	0	0	0	-0	0	0.105	0.015	0	0	-0	0	0	0.098	0.1	0	-0	0	0	0	0	0	-0	0	0.05595	0	0	0	-0	0	0	0	0	0	-0	0	561.4	552.59	335.259	199.084	-0.111533	0.728687	0.018369	0.00723615	-1.15241
35	0.0122163	0.0283669	0.00118799	0.0286933	-0.0134078	0.0341785	0.0240961	-0.0293849	0.0024909	-0.0113755	0.0178705	0.0984124	0.050718	0.000755303	0.0233014	-2.17155	-0.0244414	-1.57374	0	0	0	0	-0	0	0	0	-0.1265	0	-0	0	0	0	0	0	-0	0	0.105	0.015	0	0	-0	0	0	0.098	0.1	0	-0	0	0	0	0	0	-0	0	0.05595	0	0	0	-0	0	0	0	0	0	-0	0	561.615	552.782	335.831	199.023	-0.115973	0.74983	0.0183787	0.00745783	-1.19177
36	0.0210837	0.0283634	0.00118252	0.0286965	-0.0134003	0.0341653	0.0240968	-0.0293766	0.00249138	-0.0156393	0.0262613	0.0988774	0.0505034	0.000754137	0.0237566	-2.16262	-0.0247752	-1.57437	0	0	0	0	-0	0	0	0	-0.1265	0	-0	0	0	0	0	0	-0	0	0.105	0.015	0	0	-0	0	0	0.098	0.1	0	-0	0	0	0	0	0	-0	0	0.05595	0	0	0	-0	0	0	0	0	0	-0	0	561.729	552.883	336.146	198.99	-0.118069	0.762477	0.0183298	0.00761739	-1.21725
37	0.0213138	0.0283618	0.00118094	0.0286935	-0.0133969	0.0341593	0.0240973	-0.0293762	0.00249047	-0.0164242	0.0355109	0.09611	0.0504926	0.000753755	0.0237693	-2.16236	-0.0249193	-1.57455	0	0	0	0	-0	0	0	0	-0.1265	0	-0	0	0	0	0	0	-0	0	0.105	0.015	0	0	-0	0	0	0.098	0.1	0	-0	0	0	0	0	0	-0	0	0.05595	0	0	0	-0	0	0	0	0	0	-0	0	561.775	552.925	336.275	198.977	-0.118837	0.76751	0.0182956	0.00768835	-1.22749
38	0.025978	0.0283635	0.00118424	0.0286933	-0.0133941	0.0341422	0.0240937	-0.0293794	0.00249253	0.00763289	0.0142895	0.0949693	0.0503707	0.000750956	0.0240142	-2.15761	-0.0254976	-1.57536	0	0	0	0	-0	0	0	0	-0.1265	0	-0	0	0	0	0	0	-0	0	0.105	0.015	0	0	-0	0	0	0.098	0.1	0	-0	0	0	0	0	0	-0	0	0.05595	0	0	0	-0	0	0	0	0	0	-0	0	561.954	553.079	336.8	198.926	-0.122455	0.783781	0.0183141	0.00789425	-1.25698
39	0.0277233	0.0283596	0.00117712	0.028697	-0.0133888	0.0341379	0.0240964	-0.0293756	0.00249043	0.000625018	0.0134977	0.0944725	0.0503255	0.000751196	0.0241028	-2.15584	-0.0255708	-1.5755	0	0	0	0	-0	0	0	0	-0.1265	0	-0	0	0	0	0	0	-0	0	0.105	0.015	0	0	-0	0	0	0.098	0.1	0	-0	0	0	0	0	0	-0	0	0.05595	0	0	0	-0	0	0	0	0	0	-0	0	561.977	553.1	336.872	198.919	-0.122546	0.786552	0.0182587	0.00796011	-1.26376
40	0.0245123	0.0283606	0.00118009	0.0286942	-0.0133867	0.034128	0.0240981	-0.0293786	0.00249056	-0.014581	0.0093712	0.0970863	0.050398	0.000749871	0.0239449	-2.15901	-0.0258918	-1.57577	0	0	0	0	-0	0	0	0	-0.1265	0	-0	0	0	0	0	0	-0	0	0.105	0.015	0	0	-0	0	0	0.098	0.1	0	-0	0	0	0	0	0	-0	0	0.05595	0	0	0	-0	0	0	0	0	0	-0	0	562.065	553.176	337.142	198.894	-0.124511	0.795995	0.0182607	0.008069	-1.28128
41	0.0109891	0.0283606	0.00117975	0.0286955	-0.0133827	0.0341143	0.0240997	-0.0293758	0.00249162	-0.0166134	-0.0020141	0.0855668	0.0507133	0.000748153	0.0232696	-2.17246	-0.0264185	-1.57595	0	0	0	0	-0	0	0	0	-0.1265	0	-0	0	0	0	0	0	-0	0	0.105	0.015	0	0	-0	0	0	0.098	0.1	0	-0	0	0	0	0	0	-0	0	0.05595	0	0	0	-0	0	0	0	0	0	-0	0	562.192	553.282	337.544	198.858	-0.126897	0.807307	0.0182533	0.00824335	-1.3022
42	0.0184758	0.0283612	0.0011793	0.0286937	-0.0133771	0.0340955	0.0240984	-0.029373	0.00248554	-0.00766745	-0.0205464	0.0956988	0.0505228	0.000745844	0.0236565	-2.16487	-0.0270699	-1.57692	0	0	0	0	-0	0	0	0	-0.1265	0	-0	0	0	0	0	0	-0	0	0.105	0.015	0	0	-0	0	0	0.098	0.1	0	-0	0	0	0	0	0	-0	0	0.05595	0	0	0	-0	0	0	0	0	0	-0	0	562.372	553.421	338.141	198.807	-0.130006	0.821456	0.0182485	0.00851648	-1.3278
43	0.00489152	0.0283589	0.00117529	0.0286923	-0.0133696	0.0340838	0.0240981	-0.0293778	0.00248839	0.0107373	-0.0161871	0.0985887	0.0508362	0.000745208	0.0229733	-2.1784	-0.0274943	-1.57695	0	0	0	0	-0	0	0	0	-0.1265	0	-0	0	0	0	0	0	-0	0	0.105	0.015	0	0	-0	0	0	0.098	0.1	0	-0	0	0	0	0	0	-0	0	0.05595	0	0	0	-0	0	0	0	0	0	-0	0	562.457	553.485	338.439	198.782	-0.131235	0.829593	0.018192	0.00868891	-1.34455
44	0.00472013	0.0283576	0.00117231	0.028695	-0.0133658	0.0340761	0.0240986	-0.0293741	0.00248926	0.014926	-0.00959736	0.111529	0.0508317	0.00074466	0.0229651	-2.17854	-0.0277593	-1.57724	0	0	0	0	-0	0	0	0	-0.1265	0	-0	0	0	0	0	0	-0	0	0.105	0.015	0	0	-0	0	0	0.098	0.1	0	-0	0	0	0	0	0	-0	0	0.05595	0	0	0	-0	0	0	0	0	0	-0	0	562.52	553.531	338.662	198.763	-0.132378	0.835761	0.0181764	0.00880563	-1.3563
45	0.00799868	0.0283593	0.00117212	0.0286936	-0.0133617	0.0340619	0.0241	-0.029377	0.00248908	0.0307118	-0.00397721	0.0990545	0.0507473	0.000742936	0.0231392	-2.17517	-0.028318	-1.57798	0	0	0	0	-0	0	0	0	-0.1265	0	-0	0	0	0	0	0	-0	0	0.105	0.015	0	0	-0	0	0	0.098	0.1	0	-0	0	0	0	0	0	-0	0	0.05595	0	0	0	-0	0	0	0	0	0	-0	0	562.656	553.625	339.159	198.723	-0.134472	0.844427	0.0181779	0.0090406	-1.37125
46	0.00217742	0.0283573	0.00116774	0.0286953	-0.013356	0.0340523	0.0240982	-0.0293727	0.00249041	0.0262492	0.00485681	0.113666	0.0508768	0.000742528	0.0228465	-2.18095	-0.0286503	-1.57814	0	0	0	0	-0	0	0	0	-0.1265	0	-0	0	0	0	0	0	-0	0	0.105	0.015	0	0	-0	0	0	0.098	0.1	0	-0	0	0	0	0	0	-0	0	0.05595	0	0	0	-0	0	0	0	0	0	-0	0	562.721	553.673	339.408	198.704	-0.135377	0.850175	0.0181346	0.0091807	-1.38288
47	0.00558436	0.0283567	0.00116619	0.0286948	-0.013353	0.0340456	0.0240963	-0.0293707	0.00248744	0.0351775	0.00933525	0.115663	0.0507953	0.000742166	0.0230211	-2.17751	-0.0288444	-1.57848	0	0	0	0	-0	0	0	0	-0.1265	0	-0	0	0	0	0	0	-0	0	0.105	0.015	0	0	-0	0	0	0.098	0.1	0	-0	0	0	0	0	0	-0	0	0.05595	0	0	0	-0	0	0	0	0	0	-0	0	562.769	553.707	339.594	198.689	-0.136229	0.854897	0.0181135	0.00928118	-1.39179
48	0.00664386	0.0283609	0.001167	0.0286941	-0.0133484	0.034025	0.0240983	-0.0293722	0.00249048	0.0273547	0.0185141	0.131805	0.0507573	0.000739628	0.0230859	-2.17631	-0.029797	-1.57958	0	0	0	0	-0	0	0	0	-0.1265	0	-0	0	0	0	0	0	-0	0	0.105	0.015	0	0	-0	0	0	0.098	0.1	0	-0	0	0	0	0	0	-0	0	0.05595	0	0	0	-0	0	0	0	0	0	-0	0	562.97	553.831	340.415	198.629	-0.139051	0.864466	0.0181394	0.00967156	-1.40652
49	0.0130012	0.0283581	0.0011588	0.0286949	-0.0133385	0.0340103	0.0240959	-0.0293675	0.0024854	0.0263399	0.0111896	0.138695	0.0506032	0.000739304	0.0234125	-2.16988	-0.0302197	-1.58032	0	0	0	0	-0	0	0	0	-0.1265	0	-0	0	0	0	0	0	-0	0	0.105	0.015	0	0	-0	0	0	0.098	0.1	0	-0	0	0	0	0	0	-0	0	0.05595	0	0	0	-0	0	0	0	0	0	-0	0	563.067	553.886	340.825	198.598	-0.140152	0.871904	0.0180714	0.0099213	-1.42158
50	0.00865103	0.0283567	0.00115627	0.0286933	-0.013334	0.0340041	0.0240983	-0.0293678	0.00248562	0.0191103	-0.00264959	0.141397	0.0507012	0.000739254	0.0231931	-2.17419	-0.0304558	-1.58041	0	0	0	0	-0	0	0	0	-0.1265	0	-0	0	0	0	0	0	-0	0	0.105	0.015	0	0	-0	0	0	0.098	0.1	0	-0	0	0	0	0	0	-0	0	0.05595	0	0	0	-0	0	0	0	0	0	-0	0	563.105	553.907	340.993	198.586	-0.140598	0.875465	0.0180333	0.0100317	-1.42902
