Stefan210/kinematic_calibration/src/kinematic_calibration/validation/experiments/experiments/single_point_vs_pose/marker_single_point/rarm_130/optimization_intermediate_results.csv
iteration	HeadPitch_offset	HeadYaw_offset	RElbowRoll_offset	RElbowYaw_offset	RShoulderPitch_offset	RShoulderRoll_offset	marker_transform_rarm_tx	marker_transform_rarm_ty	marker_transform_rarm_tz	marker_transform_rarm_rr	marker_transform_rarm_rp	marker_transform_rarm_ry	camera_transform_tx	camera_transform_ty	camera_transform_tz	camera_transform_rr	camera_transform_rp	camera_transform_ry	HeadPitch_transform_tx	HeadPitch_transform_ty	HeadPitch_transform_tz	HeadPitch_transform_rr	HeadPitch_transform_rp	HeadPitch_transform_ry	HeadYaw_transform_tx	HeadYaw_transform_ty	HeadYaw_transform_tz	HeadYaw_transform_rr	HeadYaw_transform_rp	HeadYaw_transform_ry	RElbowRoll_transform_tx	RElbowRoll_transform_ty	RElbowRoll_transform_tz	RElbowRoll_transform_rr	RElbowRoll_transform_rp	RElbowRoll_transform_ry	RElbowYaw_transform_tx	RElbowYaw_transform_ty	RElbowYaw_transform_tz	RElbowYaw_transform_rr	RElbowYaw_transform_rp	RElbowYaw_transform_ry	RShoulderPitch_transform_tx	RShoulderPitch_transform_ty	RShoulderPitch_transform_tz	RShoulderPitch_transform_rr	RShoulderPitch_transform_rp	RShoulderPitch_transform_ry	RShoulderRoll_transform_tx	RShoulderRoll_transform_ty	RShoulderRoll_transform_tz	RShoulderRoll_transform_rr	RShoulderRoll_transform_rp	RShoulderRoll_transform_ry	RWristYaw_transform_tx	RWristYaw_transform_ty	RWristYaw_transform_tz	RWristYaw_transform_rr	RWristYaw_transform_rp	RWristYaw_transform_ry	r_wrist_joint_transform_tx	r_wrist_joint_transform_ty	r_wrist_joint_transform_tz	r_wrist_joint_transform_rr	r_wrist_joint_transform_rp	r_wrist_joint_transform_ry	camera_fx	camera_fy	camera_cx	camera_cy	camera_D0	camera_D1	camera_D2	camera_D3	camera_D4	
0	0.0230449	0.0294606	-0.0013508	-0.00116347	0.000678263	0.00258603	0.05071	0	0.01774	-2.26369	1.66533e-16	-1.5708	545.901	551.038	324.928	201.58	0.0255298	2.61142	-0.0636736	-0.0350419	0.213964
1	-0.0148647	-0.0185447	0.00692033	0.00936392	-0.0124329	-0.0373367	0.0211848	0.0283934	-0.000657261	-0.00108798	0.000624387	0.00270654	0.0539186	-0.00274162	0.0182966	-2.2039	0.0115067	-1.53676	0	0	0	0	-0	0	0	0	-0.1265	0	-0	0	0	0	0	0	-0	0	0.105	-0.015	0	0	-0	0	0	-0.098	0.1	0	-0	0	0	0	0	0	-0	0	0.05595	0	0	0	-0	0	0	0	0	0	-0	0	545.901	551.039	324.929	201.581	-0.0262225	2.59546	-0.0803748	-0.0677526	0.210601
2	-0.0134105	-0.0339295	-0.000404144	0.0116343	-0.0211447	-0.0327617	0.0212853	0.028429	-0.000677198	-0.00108959	0.000626628	0.00269827	0.0536301	-0.00136992	0.0206468	-2.21001	0.0179126	-1.52797	0	0	0	0	-0	0	0	0	-0.1265	0	-0	0	0	0	0	0	-0	0	0.105	-0.015	0	0	-0	0	0	-0.098	0.1	0	-0	0	0	0	0	0	-0	0	0.05595	0	0	0	-0	0	0	0	0	0	-0	0	545.902	551.039	324.933	201.585	-0.196117	2.49047	-0.0368013	-0.0430635	0.175855
3	-0.0142207	-0.0277225	0.00227643	0.0124844	-0.0173353	-0.0362797	0.0213085	0.0285145	-0.00095299	-0.00112136	0.000649998	0.00270311	0.0550428	-0.00239556	0.0177104	-2.20601	0.0180386	-1.53056	0	0	0	0	-0	0	0	0	-0.1265	0	-0	0	0	0	0	0	-0	0	0.105	-0.015	0	0	-0	0	0	-0.098	0.1	0	-0	0	0	0	0	0	-0	0	0.05595	0	0	0	-0	0	0	0	0	0	-0	0	545.905	551.04	324.939	201.591	-0.441957	2.33759	-0.0188388	-0.0328303	0.126226
4	-0.0143058	-0.022911	0.00427992	0.0123761	-0.0146046	-0.0394345	0.0213566	0.0286232	-0.00116191	-0.00114755	0.000666953	0.00270557	0.0559848	-0.00320475	0.015685	-2.20515	0.0183286	-1.53515	0	0	0	0	-0	0	0	0	-0.1265	0	-0	0	0	0	0	0	-0	0	0.105	-0.015	0	0	-0	0	0	-0.098	0.1	0	-0	0	0	0	0	0	-0	0	0.05595	0	0	0	-0	0	0	0	0	0	-0	0	545.91	551.04	324.948	201.599	-0.653705	2.09564	0.011365	-0.013305	0.034641
5	-0.0143506	-0.0201393	0.00598779	0.0122006	-0.0134087	-0.0414365	0.021345	0.0286817	-0.00122558	-0.00116812	0.000674604	0.00270727	0.0558086	-0.00366715	0.0154336	-2.2049	0.0180239	-1.53752	0	0	0	0	-0	0	0	0	-0.1265	0	-0	0	0	0	0	0	-0	0	0.105	-0.015	0	0	-0	0	0	-0.098	0.1	0	-0	0	0	0	0	0	-0	0	0.05595	0	0	0	-0	0	0	0	0	0	-0	0	545.923	551.037	324.961	201.609	-0.601697	1.74212	0.015349	-0.00893616	-0.122648
6	-0.0143992	-0.0183148	0.00784298	0.0115583	-0.0129326	-0.0428039	0.0213052	0.0286912	-0.00115793	-0.00115864	0.000671805	0.00274416	0.0547691	-0.00392739	0.0163645	-2.2051	0.0171539	-1.53919	0	0	0	0	-0	0	0	0	-0.1265	0	-0	0	0	0	0	0	-0	0	0.105	-0.015	0	0	-0	0	0	-0.098	0.1	0	-0	0	0	0	0	0	-0	0	0.05595	0	0	0	-0	0	0	0	0	0	-0	0	545.948	551.029	324.98	201.621	-0.365501	1.19156	0.00469392	-0.0118027	-0.37656
7	-0.0144141	-0.017143	0.00936503	0.0107422	-0.0127747	-0.0437622	0.0212704	0.0286879	-0.00106436	-0.00117327	0.000634809	0.00279282	0.0537165	-0.00408643	0.0174046	-2.2055	0.0163962	-1.54043	0	0	0	0	-0	0	0	0	-0.1265	0	-0	0	0	0	0	0	-0	0	0.105	-0.015	0	0	-0	0	0	-0.098	0.1	0	-0	0	0	0	0	0	-0	0	0.05595	0	0	0	-0	0	0	0	0	0	-0	0	545.991	551.01	324.997	201.628	-0.118554	0.613821	-0.00651023	-0.0150865	-0.632203
8	-0.014303	-0.0167916	0.0100229	0.0101944	-0.0128387	-0.0441222	0.0212542	0.0286837	-0.00100422	-0.001233	0.000505713	0.00288168	0.05315	-0.00413115	0.0180151	-2.20582	0.0160313	-1.54099	0	0	0	0	-0	0	0	0	-0.1265	0	-0	0	0	0	0	0	-0	0	0.105	-0.015	0	0	-0	0	0	-0.098	0.1	0	-0	0	0	0	0	0	-0	0	0.05595	0	0	0	-0	0	0	0	0	0	-0	0	546.083	550.961	325.015	201.632	0.0158197	0.270133	-0.0117899	-0.0165778	-0.744253
9	-0.0142468	-0.0167368	0.0101735	0.00998169	-0.0128737	-0.0441603	0.0212496	0.0286812	-0.000984368	-0.00132187	0.0012745	0.00293125	0.0529736	-0.00412875	0.0182164	-2.20603	0.0158601	-1.54122	0	0	0	0	-0	0	0	0	-0.1265	0	-0	0	0	0	0	0	-0	0	0.105	-0.015	0	0	-0	0	0	-0.098	0.1	0	-0	0	0	0	0	0	-0	0	0.05595	0	0	0	-0	0	0	0	0	0	-0	0	546.315	550.834	325.053	201.652	0.0520025	0.140579	-0.0123795	-0.0168519	-0.673561
10	-0.0129594	-0.0167122	0.0102359	0.0097954	-0.0128718	-0.0441064	0.0212467	0.0286766	-0.000973364	-0.000149978	8.77731e-05	0.00286974	0.0528401	-0.00411139	0.0184048	-2.20507	0.015602	-1.54153	0	0	0	0	-0	0	0	0	-0.1265	0	-0	0	0	0	0	0	-0	0	0.105	-0.015	0	0	-0	0	0	-0.098	0.1	0	-0	0	0	0	0	0	-0	0	0.05595	0	0	0	-0	0	0	0	0	0	-0	0	546.865	550.55	325.139	201.726	0.0620682	0.0315312	-0.0109538	-0.0167929	-0.432688
11	-0.0128371	-0.016677	0.0103228	0.00950521	-0.0128608	-0.0440128	0.0212428	0.0286688	-0.000957373	0.000459794	0.000948594	0.00618188	0.0526783	-0.0040831	0.0185822	-2.20568	0.0152658	-1.54205	0	0	0	0	-0	0	0	0	-0.1265	0	-0	0	0	0	0	0	-0	0	0.105	-0.015	0	0	-0	0	0	-0.098	0.1	0	-0	0	0	0	0	0	-0	0	0.05595	0	0	0	-0	0	0	0	0	0	-0	0	547.821	550.145	325.277	201.968	0.0709078	-0.114103	-0.00837769	-0.0166606	-0.0763871
12	-0.0248349	-0.0166384	0.0103946	0.00922509	-0.012842	-0.0439256	0.0212447	0.0286622	-0.000941809	-0.00267744	0.0206391	0.00805021	0.0527572	-0.00405743	0.0181055	-2.2193	0.015286	-1.5428	0	0	0	0	-0	0	0	0	-0.1265	0	-0	0	0	0	0	0	-0	0	0.105	-0.015	0	0	-0	0	0	-0.098	0.1	0	-0	0	0	0	0	0	-0	0	0.05595	0	0	0	-0	0	0	0	0	0	-0	0	548.903	550.076	325.439	202.692	0.0724104	-0.197771	-0.00589747	-0.016543	0.143795
13	-0.00960801	-0.0166052	0.0104085	0.00906226	-0.0128147	-0.043875	0.0212567	0.0286509	-0.000932244	-0.024104	-0.0375471	0.00708486	0.0524017	-0.00404384	0.0189994	-2.20739	0.0144977	-1.54323	0	0	0	0	-0	0	0	0	-0.1265	0	-0	0	0	0	0	0	-0	0	0.105	-0.015	0	0	-0	0	0	-0.098	0.1	0	-0	0	0	0	0	0	-0	0	0.05595	0	0	0	-0	0	0	0	0	0	-0	0	549.936	550.834	325.725	204.339	0.0635382	-0.15805	-0.00454738	-0.016452	0.0718624
14	0.00714115	-0.0165934	0.0104029	0.00901997	-0.0128035	-0.0438616	0.0212383	0.0286618	-0.000925825	-0.043388	-0.0393191	0.011383	0.0520539	-0.00404039	0.0198997	-2.19215	0.0138915	-1.54327	0	0	0	0	-0	0	0	0	-0.1265	0	-0	0	0	0	0	0	-0	0	0.105	-0.015	0	0	-0	0	0	-0.098	0.1	0	-0	0	0	0	0	0	-0	0	0.05595	0	0	0	-0	0	0	0	0	0	-0	0	550.314	551.243	325.861	205.103	0.0584947	-0.117451	-0.00421479	-0.0164046	-0.0263291
15	0.000845414	-0.0165885	0.0104016	0.00898781	-0.0127976	-0.0438536	0.0212391	0.0286609	-0.000927887	-0.0612028	-0.0498441	-0.000534971	0.0521605	-0.00403871	0.019582	-2.19952	0.013976	-1.54355	0	0	0	0	-0	0	0	0	-0.1265	0	-0	0	0	0	0	0	-0	0	0.105	-0.015	0	0	-0	0	0	-0.098	0.1	0	-0	0	0	0	0	0	-0	0	0.05595	0	0	0	-0	0	0	0	0	0	-0	0	550.56	551.538	325.951	205.652	0.054484	-0.0841945	-0.00401809	-0.0163743	-0.10701
16	-0.0097039	-0.0165847	0.0103977	0.00897149	-0.0127933	-0.0438484	0.021239	0.0286561	-0.00092229	-0.0560693	-0.0457323	0.00243142	0.0523585	-0.00403766	0.0190407	-2.21085	0.0142012	-1.54382	0	0	0	0	-0	0	0	0	-0.1265	0	-0	0	0	0	0	0	-0	0	0.105	-0.015	0	0	-0	0	0	-0.098	0.1	0	-0	0	0	0	0	0	-0	0	0.05595	0	0	0	-0	0	0	0	0	0	-0	0	550.735	551.749	326.012	206.051	0.0516488	-0.0601115	-0.00388181	-0.0163584	-0.165918
17	-0.0162457	-0.0165826	0.0103954	0.00896589	-0.0127911	-0.0438465	0.0212394	0.0286563	-0.000921356	-0.0548303	-0.0474256	-0.00338318	0.052477	-0.00403716	0.0187013	-2.2177	0.0143528	-1.54396	0	0	0	0	-0	0	0	0	-0.1265	0	-0	0	0	0	0	0	-0	0	0.105	-0.015	0	0	-0	0	0	-0.098	0.1	0	-0	0	0	0	0	0	-0	0	0.05595	0	0	0	-0	0	0	0	0	0	-0	0	550.804	551.835	326.035	206.213	0.0505345	-0.0497764	-0.00383178	-0.0163525	-0.192404
18	-0.0138786	-0.0165767	0.0103886	0.00894425	-0.0127842	-0.0438378	0.0212405	0.028656	-0.000919252	-0.0507416	-0.0564752	-0.00271416	0.0524217	-0.00403559	0.0188378	-2.21655	0.014199	-1.54411	0	0	0	0	-0	0	0	0	-0.1265	0	-0	0	0	0	0	0	-0	0	0.105	-0.015	0	0	-0	0	0	-0.098	0.1	0	-0	0	0	0	0	0	-0	0	0.05595	0	0	0	-0	0	0	0	0	0	-0	0	551.066	552.155	326.126	206.837	0.0462772	-0.0151085	-0.00361884	-0.0163399	-0.274097
19	-0.0154029	-0.0165745	0.010387	0.00893668	-0.012782	-0.0438359	0.02124	0.0286564	-0.000918422	-0.0528596	-0.0542319	-0.0111453	0.0524465	-0.00403509	0.0187624	-2.2184	0.0142172	-1.54418	0	0	0	0	-0	0	0	0	-0.1265	0	-0	0	0	0	0	0	-0	0	0.105	-0.015	0	0	-0	0	0	-0.098	0.1	0	-0	0	0	0	0	0	-0	0	0.05595	0	0	0	-0	0	0	0	0	0	-0	0	551.135	552.24	326.148	207.005	0.0452912	-0.00479759	-0.00356729	-0.0163302	-0.30269
20	-0.0158565	-0.016569	0.0103798	0.00891497	-0.0127753	-0.0438266	0.0212378	0.0286593	-0.000912549	-0.0312232	-0.038629	-0.0214816	0.0524453	-0.00403353	0.018751	-2.2201	0.0141461	-1.54437	0	0	0	0	-0	0	0	0	-0.1265	0	-0	0	0	0	0	0	-0	0	0.105	-0.015	0	0	-0	0	0	-0.098	0.1	0	-0	0	0	0	0	0	-0	0	0.05595	0	0	0	-0	0	0	0	0	0	-0	0	551.398	552.559	326.234	207.65	0.0409257	0.0313117	-0.00334012	-0.0163207	-0.389218
21	-0.0132207	-0.016565	0.0103771	0.00889985	-0.0127711	-0.0438221	0.0212417	0.028658	-0.000911836	-0.0241917	-0.0288984	-0.0372042	0.0523898	-0.0040326	0.0188968	-2.21813	0.0140358	-1.54442	0	0	0	0	-0	0	0	0	-0.1265	0	-0	0	0	0	0	0	-0	0	0.105	-0.015	0	0	-0	0	0	-0.098	0.1	0	-0	0	0	0	0	0	-0	0	0.05595	0	0	0	-0	0	0	0	0	0	-0	0	551.534	552.726	326.277	207.993	0.0387653	0.0516849	-0.00322444	-0.0163095	-0.442811
22	-0.0178686	-0.0165624	0.0103736	0.00889271	-0.0127683	-0.0438188	0.0212441	0.0286575	-0.000914279	-0.014019	-0.0440094	-0.0360708	0.0524737	-0.00403205	0.018658	-2.22326	0.0141323	-1.54455	0	0	0	0	-0	0	0	0	-0.1265	0	-0	0	0	0	0	0	-0	0	0.105	-0.015	0	0	-0	0	0	-0.098	0.1	0	-0	0	0	0	0	0	-0	0	0.05595	0	0	0	-0	0	0	0	0	0	-0	0	551.632	552.844	326.305	208.243	0.0370668	0.0670398	-0.00313584	-0.0163054	-0.482165
23	-0.0058878	-0.0165585	0.0103672	0.00887702	-0.0127635	-0.0438111	0.0212416	0.028658	-0.000912318	-0.023493	-0.0403479	-0.0235379	0.0522419	-0.00403082	0.0192965	-2.2123	0.0137643	-1.54452	0	0	0	0	-0	0	0	0	-0.1265	0	-0	0	0	0	0	0	-0	0	0.105	-0.015	0	0	-0	0	0	-0.098	0.1	0	-0	0	0	0	0	0	-0	0	0.05595	0	0	0	-0	0	0	0	0	0	-0	0	551.834	553.09	326.365	208.77	0.0339141	0.0944821	-0.00294915	-0.0163026	-0.550629
24	-0.0161416	-0.0165565	0.0103648	0.00886722	-0.0127612	-0.0438076	0.02124	0.0286579	-0.000911702	-0.0388857	-0.0384021	-0.0212439	0.0524316	-0.00403019	0.0187647	-2.22305	0.0140109	-1.54472	0	0	0	0	-0	0	0	0	-0.1265	0	-0	0	0	0	0	0	-0	0	0.105	-0.015	0	0	-0	0	0	-0.098	0.1	0	-0	0	0	0	0	0	-0	0	0.05595	0	0	0	-0	0	0	0	0	0	-0	0	551.931	553.208	326.391	209.026	0.0322972	0.1101	-0.00285856	-0.0162962	-0.592696
25	-0.00895357	-0.0165552	0.0103629	0.00886014	-0.0127597	-0.0438049	0.0212397	0.0286545	-0.000910804	-0.0425886	-0.0405372	-0.0159787	0.0522914	-0.00402977	0.019144	-2.21622	0.0138086	-1.54466	0	0	0	0	-0	0	0	0	-0.1265	0	-0	0	0	0	0	0	-0	0	0.105	-0.015	0	0	-0	0	0	-0.098	0.1	0	-0	0	0	0	0	0	-0	0	0.05595	0	0	0	-0	0	0	0	0	0	-0	0	552.002	553.291	326.409	209.214	0.0310565	0.121556	-0.00278713	-0.016294	-0.622817
26	-0.00279873	-0.0165536	0.0103592	0.00885241	-0.0127575	-0.0438011	0.0212392	0.0286573	-0.000910156	-0.0268568	-0.0388394	-0.018426	0.0521688	-0.00402918	0.0194698	-2.21059	0.0136287	-1.54464	0	0	0	0	-0	0	0	0	-0.1265	0	-0	0	0	0	0	0	-0	0	0.105	-0.015	0	0	-0	0	0	-0.098	0.1	0	-0	0	0	0	0	0	-0	0	0.05595	0	0	0	-0	0	0	0	0	0	-0	0	552.102	553.411	326.434	209.486	0.0292821	0.137443	-0.00268657	-0.0162951	-0.663415
27	-0.00745678	-0.0165462	0.0103477	0.00882017	-0.0127483	-0.0437851	0.0212483	0.0286528	-0.000906268	-0.0282024	-0.0688264	-0.0154116	0.0522442	-0.00402671	0.0192443	-2.21722	0.0136782	-1.54492	0	0	0	0	-0	0	0	0	-0.1265	0	-0	0	0	0	0	0	-0	0	0.105	-0.015	0	0	-0	0	0	-0.098	0.1	0	-0	0	0	0	0	0	-0	0	0.05595	0	0	0	-0	0	0	0	0	0	-0	0	552.474	553.856	326.527	210.516	0.0237247	0.186695	-0.0023039	-0.0163033	-0.788747
28	-0.00414606	-0.0165416	0.0103411	0.0088064	-0.0127435	-0.0437786	0.0212427	0.0286598	-0.000906226	-0.00936158	-0.0769241	-0.0152126	0.0521733	-0.00402567	0.0194255	-2.21482	0.0135701	-1.54498	0	0	0	0	-0	0	0	0	-0.1265	0	-0	0	0	0	0	0	-0	0	0.105	-0.015	0	0	-0	0	0	-0.098	0.1	0	-0	0	0	0	0	0	-0	0	0.05595	0	0	0	-0	0	0	0	0	0	-0	0	552.636	554.047	326.561	210.993	0.0208884	0.215985	-0.00212122	-0.0163005	-0.87136
29	-0.0242706	-0.0165362	0.010332	0.00877757	-0.0127365	-0.0437645	0.021245	0.0286561	-0.000896973	-0.0167512	-0.0971469	0.0028745	0.0525534	-0.0040238	0.0183888	-2.23665	0.0140666	-1.5454	0	0	0	0	-0	0	0	0	-0.1265	0	-0	0	0	0	0	0	-0	0	0.105	-0.015	0	0	-0	0	0	-0.098	0.1	0	-0	0	0	0	0	0	-0	0	0.05595	0	0	0	-0	0	0	0	0	0	-0	0	552.935	554.4	326.609	211.891	0.0161482	0.260426	-0.00177172	-0.0163202	-0.990082
30	-0.0174081	-0.0165335	0.0103301	0.00877438	-0.0127345	-0.0437632	0.0212424	0.0286565	-0.000902586	-0.0106202	-0.100633	-0.0122725	0.0524141	-0.00402347	0.0187492	-2.23002	0.0138906	-1.54533	0	0	0	0	-0	0	0	0	-0.1265	0	-0	0	0	0	0	0	-0	0	0.105	-0.015	0	0	-0	0	0	-0.098	0.1	0	-0	0	0	0	0	0	-0	0	0.05595	0	0	0	-0	0	0	0	0	0	-0	0	552.973	554.446	326.612	212.012	0.01561	0.269581	-0.0017328	-0.0163149	-1.02164
31	-0.0262949	-0.0165337	0.0103274	0.00876654	-0.0127339	-0.0437599	0.0212403	0.0286553	-0.000903737	-0.022156	-0.104175	-0.0204993	0.0525785	-0.00402326	0.0182845	-2.23936	0.0141246	-1.54548	0	0	0	0	-0	0	0	0	-0.1265	0	-0	0	0	0	0	0	-0	0	0.105	-0.015	0	0	-0	0	0	-0.098	0.1	0	-0	0	0	0	0	0	-0	0	0.05595	0	0	0	-0	0	0	0	0	0	-0	0	553.052	554.535	326.616	212.251	0.013555	0.288091	-0.00162631	-0.0163237	-1.07027
32	-0.0273396	-0.0165336	0.010326	0.00876367	-0.0127335	-0.0437584	0.0212396	0.0286555	-0.000902156	-0.0368364	-0.10542	-0.0207123	0.0525945	-0.00402313	0.0182303	-2.24062	0.0141562	-1.5455	0	0	0	0	-0	0	0	0	-0.1265	0	-0	0	0	0	0	0	-0	0	0.105	-0.015	0	0	-0	0	0	-0.098	0.1	0	-0	0	0	0	0	0	-0	0	0.05595	0	0	0	-0	0	0	0	0	0	-0	0	553.089	554.579	326.617	212.368	0.0127445	0.296386	-0.0015794	-0.016327	-1.09378
33	-0.0215551	-0.0165324	0.0103244	0.00875901	-0.0127321	-0.0437564	0.0212409	0.0286539	-0.000901615	-0.0380994	-0.10258	-0.0109186	0.052488	-0.00402291	0.0185361	-2.23512	0.0140168	-1.54544	0	0	0	0	-0	0	0	0	-0.1265	0	-0	0	0	0	0	0	-0	0	0.105	-0.015	0	0	-0	0	0	-0.098	0.1	0	-0	0	0	0	0	0	-0	0	0.05595	0	0	0	-0	0	0	0	0	0	-0	0	553.138	554.633	326.617	212.514	0.011676	0.306544	-0.00151854	-0.0163345	-1.12123
34	-0.0213755	-0.0165315	0.0103227	0.00875694	-0.0127312	-0.043755	0.021241	0.0286529	-0.00090169	-0.0394235	-0.0940987	-0.00576257	0.0524827	-0.00402274	0.0185466	-2.23514	0.0140186	-1.54544	0	0	0	0	-0	0	0	0	-0.1265	0	-0	0	0	0	0	0	-0	0	0.105	-0.015	0	0	-0	0	0	-0.098	0.1	0	-0	0	0	0	0	0	-0	0	0.05595	0	0	0	-0	0	0	0	0	0	-0	0	553.174	554.673	326.616	212.622	0.0109256	0.313921	-0.00147308	-0.0163403	-1.14164
35	-0.0204568	-0.016531	0.0103217	0.00875481	-0.0127306	-0.0437539	0.0212403	0.0286524	-0.000901382	-0.0364174	-0.0855851	-0.00312996	0.0524649	-0.00402262	0.0185958	-2.23437	0.0140006	-1.54544	0	0	0	0	-0	0	0	0	-0.1265	0	-0	0	0	0	0	0	-0	0	0.105	-0.015	0	0	-0	0	0	-0.098	0.1	0	-0	0	0	0	0	0	-0	0	0.05595	0	0	0	-0	0	0	0	0	0	-0	0	553.2	554.702	326.614	212.7	0.010404	0.319139	-0.00144028	-0.0163445	-1.15623
36	-0.0212781	-0.0165303	0.0103203	0.00875159	-0.0127297	-0.0437522	0.0212406	0.0286525	-0.000900823	-0.0355365	-0.0937028	-0.00499738	0.0524791	-0.00402241	0.0185542	-2.23541	0.0140297	-1.54546	0	0	0	0	-0	0	0	0	-0.1265	0	-0	0	0	0	0	0	-0	0	0.105	-0.015	0	0	-0	0	0	-0.098	0.1	0	-0	0	0	0	0	0	-0	0	0.05595	0	0	0	-0	0	0	0	0	0	-0	0	553.239	554.745	326.612	212.815	0.00962797	0.32643	-0.00139075	-0.016352	-1.17593
37	-0.0218284	-0.0165297	0.01032	0.00875021	-0.0127291	-0.0437517	0.02124	0.0286525	-0.00090047	-0.0383468	-0.0910097	-0.00396758	0.0524887	-0.00402234	0.018526	-2.23603	0.0140467	-1.54547	0	0	0	0	-0	0	0	0	-0.1265	0	-0	0	0	0	0	0	-0	0	0.105	-0.015	0	0	-0	0	0	-0.098	0.1	0	-0	0	0	0	0	0	-0	0	0.05595	0	0	0	-0	0	0	0	0	0	-0	0	553.252	554.76	326.611	212.856	0.0094032	0.329027	-0.00137463	-0.0163535	-1.18378
38	-0.0207023	-0.0165294	0.0103196	0.00874872	-0.0127288	-0.043751	0.02124	0.0286527	-0.000900388	-0.0355763	-0.0918825	-0.000304515	0.0524674	-0.00402226	0.0185857	-2.23499	0.0140218	-1.54545	0	0	0	0	-0	0	0	0	-0.1265	0	-0	0	0	0	0	0	-0	0	0.105	-0.015	0	0	-0	0	0	-0.098	0.1	0	-0	0	0	0	0	0	-0	0	0.05595	0	0	0	-0	0	0	0	0	0	-0	0	553.266	554.776	326.609	212.899	0.00911857	0.331824	-0.00135607	-0.0163563	-1.19155
39	-0.0150265	-0.0165285	0.0103181	0.00874582	-0.0127278	-0.0437493	0.0212406	0.0286523	-0.000900698	-0.0385252	-0.101881	-0.00353708	0.0523609	-0.00402209	0.0188847	-2.22954	0.0138882	-1.54538	0	0	0	0	-0	0	0	0	-0.1265	0	-0	0	0	0	0	0	-0	0	0.105	-0.015	0	0	-0	0	0	-0.098	0.1	0	-0	0	0	0	0	0	-0	0	0.05595	0	0	0	-0	0	0	0	0	0	-0	0	553.306	554.821	326.606	213.018	0.00831652	0.339356	-0.00130697	-0.0163654	-1.21176
40	-0.0103417	-0.016528	0.0103173	0.00874447	-0.0127272	-0.0437485	0.0212404	0.0286526	-0.000899949	-0.0348224	-0.10715	-0.00496401	0.0522708	-0.00402198	0.0191307	-2.22497	0.0137743	-1.54532	0	0	0	0	-0	0	0	0	-0.1265	0	-0	0	0	0	0	0	-0	0	0.105	-0.015	0	0	-0	0	0	-0.098	0.1	0	-0	0	0	0	0	0	-0	0	0.05595	0	0	0	-0	0	0	0	0	0	-0	0	553.325	554.843	326.603	213.077	0.00801848	0.3426	-0.00128369	-0.0163688	-1.2213
41	-0.0105932	-0.0165274	0.010317	0.00874272	-0.0127267	-0.0437479	0.0212404	0.0286528	-0.00089979	-0.0302358	-0.111476	-0.00831143	0.0522745	-0.00402189	0.019118	-2.2253	0.0137849	-1.54533	0	0	0	0	-0	0	0	0	-0.1265	0	-0	0	0	0	0	0	-0	0	0.105	-0.015	0	0	-0	0	0	-0.098	0.1	0	-0	0	0	0	0	0	-0	0	0.05595	0	0	0	-0	0	0	0	0	0	-0	0	553.34	554.858	326.602	213.12	0.00773673	0.345425	-0.0012643	-0.0163717	-1.22929
42	-0.0109129	-0.0165271	0.0103167	0.00874164	-0.0127264	-0.0437475	0.02124	0.0286522	-0.000899887	-0.0325787	-0.116828	-0.010456	0.0522803	-0.00402184	0.0191018	-2.22568	0.0137962	-1.54533	0	0	0	0	-0	0	0	0	-0.1265	0	-0	0	0	0	0	0	-0	0	0.105	-0.015	0	0	-0	0	0	-0.098	0.1	0	-0	0	0	0	0	0	-0	0	0.05595	0	0	0	-0	0	0	0	0	0	-0	0	553.35	554.87	326.6	213.153	0.00755637	0.347343	-0.00125197	-0.0163739	-1.23481
43	-0.0122976	-0.0165267	0.0103157	0.00873994	-0.0127259	-0.0437465	0.0212409	0.0286539	-0.000899584	-0.0415867	-0.111743	-0.0124854	0.0523062	-0.00402174	0.0190301	-2.22721	0.0138395	-1.54535	0	0	0	0	-0	0	0	0	-0.1265	0	-0	0	0	0	0	0	-0	0	0.105	-0.015	0	0	-0	0	0	-0.098	0.1	0	-0	0	0	0	0	0	-0	0	0.05595	0	0	0	-0	0	0	0	0	0	-0	0	553.375	554.898	326.597	213.227	0.00700927	0.352495	-0.00122061	-0.0163802	-1.24866
44	-0.0176836	-0.0165254	0.0103147	0.00873683	-0.0127245	-0.0437449	0.0212407	0.0286533	-0.000898449	-0.0444476	-0.115076	-0.0029246	0.0524075	-0.00402155	0.0187498	-2.2328	0.0139879	-1.54543	0	0	0	0	-0	0	0	0	-0.1265	0	-0	0	0	0	0	0	-0	0	0.105	-0.015	0	0	-0	0	0	-0.098	0.1	0	-0	0	0	0	0	0	-0	0	0.05595	0	0	0	-0	0	0	0	0	0	-0	0	553.41	554.938	326.591	213.335	0.00641461	0.358385	-0.00117664	-0.016389	-1.26507
45	-0.014896	-0.016524	0.0103129	0.00873259	-0.012723	-0.0437426	0.0212412	0.0286536	-0.000898706	-0.0375964	-0.121213	0.0020208	0.0523528	-0.00402125	0.0188977	-2.2303	0.0139353	-1.5454	0	0	0	0	-0	0	0	0	-0.1265	0	-0	0	0	0	0	0	-0	0	0.105	-0.015	0	0	-0	0	0	-0.098	0.1	0	-0	0	0	0	0	0	-0	0	0.05595	0	0	0	-0	0	0	0	0	0	-0	0	553.461	554.994	326.582	213.489	0.00549992	0.367295	-0.00111008	-0.0164027	-1.28973
46	-0.0174607	-0.0165231	0.0103123	0.00872999	-0.0127222	-0.0437416	0.0212417	0.0286526	-0.000898206	-0.0345153	-0.132266	0.00449142	0.0524	-0.00402112	0.0187647	-2.23301	0.0140101	-1.54543	0	0	0	0	-0	0	0	0	-0.1265	0	-0	0	0	0	0	0	-0	0	0.105	-0.015	0	0	-0	0	0	-0.098	0.1	0	-0	0	0	0	0	0	-0	0	0.05595	0	0	0	-0	0	0	0	0	0	-0	0	553.486	555.021	326.577	213.565	0.00510143	0.371735	-0.00107844	-0.0164081	-1.30302
47	-0.0226747	-0.0165217	0.0103102	0.00872644	-0.0127208	-0.0437392	0.0212401	0.0286518	-0.000898267	-0.0292482	-0.122914	0.00420483	0.0524964	-0.00402086	0.0184932	-2.23852	0.0141649	-1.54551	0	0	0	0	-0	0	0	0	-0.1265	0	-0	0	0	0	0	0	-0	0	0.105	-0.015	0	0	-0	0	0	-0.098	0.1	0	-0	0	0	0	0	0	-0	0	0.05595	0	0	0	-0	0	0	0	0	0	-0	0	553.537	555.077	326.565	213.726	0.00415529	0.380909	-0.0010099	-0.0164247	-1.32822
48	-0.0218897	-0.016521	0.0103091	0.00872344	-0.0127201	-0.0437377	0.0212413	0.0286532	-0.000898054	-0.0356104	-0.114832	0.00802886	0.05248	-0.00402068	0.0185357	-2.23794	0.0141609	-1.5455	0	0	0	0	-0	0	0	0	-0.1265	0	-0	0	0	0	0	0	-0	0	0.105	-0.015	0	0	-0	0	0	-0.098	0.1	0	-0	0	0	0	0	0	-0	0	0.05595	0	0	0	-0	0	0	0	0	0	-0	0	553.57	555.113	326.556	213.831	0.00362645	0.386701	-0.000968513	-0.0164341	-1.34527
49	-0.0263594	-0.0165198	0.0103085	0.0087209	-0.012719	-0.0437367	0.0212402	0.0286527	-0.00089837	-0.0300956	-0.111073	0.0140543	0.0525619	-0.00402054	0.0183023	-2.24255	0.0142859	-1.54556	0	0	0	0	-0	0	0	0	-0.1265	0	-0	0	0	0	0	0	-0	0	0.105	-0.015	0	0	-0	0	0	-0.098	0.1	0	-0	0	0	0	0	0	-0	0	0.05595	0	0	0	-0	0	0	0	0	0	-0	0	553.594	555.14	326.549	213.907	0.0032597	0.39072	-0.000936195	-0.0164415	-1.35719
50	-0.0248215	-0.0165196	0.0103079	0.00871946	-0.0127187	-0.043736	0.0212401	0.028652	-0.000897507	-0.0323341	-0.107512	0.016105	0.0525327	-0.00402046	0.0183836	-2.24112	0.0142568	-1.54554	0	0	0	0	-0	0	0	0	-0.1265	0	-0	0	0	0	0	0	-0	0	0.105	-0.015	0	0	-0	0	0	-0.098	0.1	0	-0	0	0	0	0	0	-0	0	0.05595	0	0	0	-0	0	0	0	0	0	-0	0	553.612	555.16	326.543	213.963	0.00289641	0.394457	-0.000913805	-0.0164471	-1.36782
51	-0.0267836	-0.0165188	0.010307	0.00871729	-0.0127179	-0.0437348	0.02124	0.0286542	-0.000896467	-0.0443488	-0.108602	0.0233409	0.0525681	-0.00402034	0.0182814	-2.24323	0.014321	-1.54556	0	0	0	0	-0	0	0	0	-0.1265	0	-0	0	0	0	0	0	-0	0	0.105	-0.015	0	0	-0	0	0	-0.098	0.1	0	-0	0	0	0	0	0	-0	0	0.05595	0	0	0	-0	0	0	0	0	0	-0	0	553.638	555.187	326.535	214.045	0.0023918	0.399458	-0.00087739	-0.0164568	-1.38178
52	-0.0319536	-0.0165177	0.0103067	0.00871484	-0.0127169	-0.043734	0.02124	0.0286517	-0.000897054	-0.0430815	-0.103512	0.0233881	0.0526619	-0.00402026	0.0180102	-2.24852	0.0144625	-1.54563	0	0	0	0	-0	0	0	0	-0.1265	0	-0	0	0	0	0	0	-0	0	0.105	-0.015	0	0	-0	0	0	-0.098	0.1	0	-0	0	0	0	0	0	-0	0	0.05595	0	0	0	-0	0	0	0	0	0	-0	0	553.658	555.208	326.528	214.106	0.00197025	0.40378	-0.000850581	-0.0164629	-1.39417
53	-0.0344565	-0.0165177	0.0103058	0.00871479	-0.0127169	-0.0437334	0.0212404	0.0286521	-0.000897047	-0.039858	-0.109124	0.0221069	0.0527059	-0.0040202	0.0178787	-2.2511	0.0145343	-1.54567	0	0	0	0	-0	0	0	0	-0.1265	0	-0	0	0	0	0	0	-0	0	0.105	-0.015	0	0	-0	0	0	-0.098	0.1	0	-0	0	0	0	0	0	-0	0	0.05595	0	0	0	-0	0	0	0	0	0	-0	0	553.671	555.224	326.523	214.15	0.00172074	0.406439	-0.00083316	-0.0164686	-1.40179
54	-0.0361914	-0.0165174	0.0103058	0.00871428	-0.0127166	-0.0437334	0.0212399	0.0286518	-0.000896948	-0.0401729	-0.108372	0.0238121	0.0527366	-0.00402019	0.0177875	-2.25285	0.0145795	-1.54569	0	0	0	0	-0	0	0	0	-0.1265	0	-0	0	0	0	0	0	-0	0	0.105	-0.015	0	0	-0	0	0	-0.098	0.1	0	-0	0	0	0	0	0	-0	0	0.05595	0	0	0	-0	0	0	0	0	0	-0	0	553.674	555.227	326.522	214.159	0.00169746	0.406913	-0.000830367	-0.0164692	-1.40351
55	-0.0365799	-0.0165173	0.0103056	0.00871377	-0.0127165	-0.0437331	0.0212399	0.0286518	-0.000896755	-0.0383936	-0.105421	0.0213493	0.0527433	-0.00402016	0.0177671	-2.25328	0.014593	-1.5457	0	0	0	0	-0	0	0	0	-0.1265	0	-0	0	0	0	0	0	-0	0	0.105	-0.015	0	0	-0	0	0	-0.098	0.1	0	-0	0	0	0	0	0	-0	0	0.05595	0	0	0	-0	0	0	0	0	0	-0	0	553.68	555.233	326.519	214.178	0.00156975	0.408172	-0.000822602	-0.0164716	-1.40699
56	-0.0369379	-0.016517	0.0103053	0.00871308	-0.0127162	-0.0437327	0.0212401	0.0286519	-0.000896905	-0.0394206	-0.102742	0.0245418	0.0527495	-0.00402013	0.0177486	-2.25369	0.0146076	-1.5457	0	0	0	0	-0	0	0	0	-0.1265	0	-0	0	0	0	0	0	-0	0	0.105	-0.015	0	0	-0	0	0	-0.098	0.1	0	-0	0	0	0	0	0	-0	0	0.05595	0	0	0	-0	0	0	0	0	0	-0	0	553.689	555.243	326.516	214.205	0.00141022	0.409819	-0.000811245	-0.0164752	-1.41166
57	-0.0361781	-0.0165166	0.0103048	0.00871214	-0.0127158	-0.0437322	0.02124	0.0286519	-0.000896429	-0.0368887	-0.0991583	0.0203426	0.0527357	-0.00402007	0.017789	-2.253	0.014597	-1.54569	0	0	0	0	-0	0	0	0	-0.1265	0	-0	0	0	0	0	0	-0	0	0.105	-0.015	0	0	-0	0	0	-0.098	0.1	0	-0	0	0	0	0	0	-0	0	0.05595	0	0	0	-0	0	0	0	0	0	-0	0	553.702	555.257	326.511	214.246	0.00115162	0.41231	-0.00079327	-0.0164803	-1.41853
58	-0.0366298	-0.0165163	0.0103046	0.00871146	-0.0127155	-0.0437319	0.0212399	0.0286518	-0.000896669	-0.0390546	-0.0978325	0.0186784	0.0527434	-0.00402003	0.0177656	-2.25349	0.0146125	-1.54569	0	0	0	0	-0	0	0	0	-0.1265	0	-0	0	0	0	0	0	-0	0	0.105	-0.015	0	0	-0	0	0	-0.098	0.1	0	-0	0	0	0	0	0	-0	0	0.05595	0	0	0	-0	0	0	0	0	0	-0	0	553.708	555.264	326.508	214.266	0.00104511	0.41358	-0.000785519	-0.0164826	-1.42239
59	-0.0361917	-0.0165159	0.0103041	0.00871039	-0.0127151	-0.0437313	0.0212399	0.0286517	-0.000896554	-0.039133	-0.0976191	0.0174305	0.0527353	-0.00401997	0.0177892	-2.25314	0.0146111	-1.54568	0	0	0	0	-0	0	0	0	-0.1265	0	-0	0	0	0	0	0	-0	0	0.105	-0.015	0	0	-0	0	0	-0.098	0.1	0	-0	0	0	0	0	0	-0	0	0.05595	0	0	0	-0	0	0	0	0	0	-0	0	553.723	555.28	326.502	214.311	0.000748442	0.416416	-0.000765776	-0.0164886	-1.43016
60	-0.0374576	-0.0165153	0.0103034	0.00870877	-0.0127145	-0.0437304	0.0212398	0.0286517	-0.000896412	-0.0405254	-0.0981026	0.0170425	0.0527572	-0.00401987	0.0177231	-2.25453	0.0146573	-1.5457	0	0	0	0	-0	0	0	0	-0.1265	0	-0	0	0	0	0	0	-0	0	0.105	-0.015	0	0	-0	0	0	-0.098	0.1	0	-0	0	0	0	0	0	-0	0	0.05595	0	0	0	-0	0	0	0	0	0	-0	0	553.744	555.301	326.493	214.377	0.000386253	0.420072	-0.000737296	-0.0164975	-1.4405
61	-0.0355369	-0.0165148	0.0103032	0.00870779	-0.0127141	-0.0437299	0.02124	0.0286519	-0.00089628	-0.043618	-0.0964934	0.0196418	0.0527227	-0.00401982	0.017825	-2.25267	0.0146163	-1.54567	0	0	0	0	-0	0	0	0	-0.1265	0	-0	0	0	0	0	0	-0	0	0.105	-0.015	0	0	-0	0	0	-0.098	0.1	0	-0	0	0	0	0	0	-0	0	0.05595	0	0	0	-0	0	0	0	0	0	-0	0	553.754	555.312	326.489	214.409	0.000238378	0.421853	-0.000724014	-0.0165014	-1.44601
62	-0.032943	-0.0165145	0.0103029	0.00870719	-0.0127138	-0.0437297	0.02124	0.0286518	-0.000896221	-0.0461278	-0.0951002	0.0222618	0.0526762	-0.00401979	0.017962	-2.25012	0.0145566	-1.54563	0	0	0	0	-0	0	0	0	-0.1265	0	-0	0	0	0	0	0	-0	0	0.105	-0.015	0	0	-0	0	0	-0.098	0.1	0	-0	0	0	0	0	0	-0	0	0.05595	0	0	0	-0	0	0	0	0	0	-0	0	553.761	555.321	326.485	214.433	8.64199e-05	0.423442	-0.000714814	-0.0165046	-1.45053
63	-0.0298229	-0.0165143	0.0103027	0.00870679	-0.0127136	-0.0437294	0.0212398	0.0286516	-0.00089618	-0.0437731	-0.0925324	0.021764	0.0526199	-0.00401977	0.0181264	-2.24703	0.0144822	-1.54558	0	0	0	0	-0	0	0	0	-0.1265	0	-0	0	0	0	0	0	-0	0	0.105	-0.015	0	0	-0	0	0	-0.098	0.1	0	-0	0	0	0	0	0	-0	0	0.05595	0	0	0	-0	0	0	0	0	0	-0	0	553.767	555.327	326.482	214.451	-2.36104e-05	0.424606	-0.000707627	-0.016507	-1.45389
64	-0.0295497	-0.0165142	0.0103025	0.00870652	-0.0127135	-0.0437293	0.0212399	0.0286517	-0.000896111	-0.044195	-0.0935499	0.0245211	0.0526145	-0.00401976	0.0181409	-2.24679	0.0144785	-1.54557	0	0	0	0	-0	0	0	0	-0.1265	0	-0	0	0	0	0	0	-0	0	0.105	-0.015	0	0	-0	0	0	-0.098	0.1	0	-0	0	0	0	0	0	-0	0	0.05595	0	0	0	-0	0	0	0	0	0	-0	0	553.771	555.332	326.48	214.464	-0.000110815	0.425545	-0.000702517	-0.0165088	-1.4566
65	-0.0304805	-0.0165138	0.0103023	0.00870551	-0.0127132	-0.0437288	0.0212402	0.0286516	-0.00089611	-0.0448349	-0.0992977	0.0243695	0.0526312	-0.00401971	0.0180923	-2.24777	0.0145091	-1.54558	0	0	0	0	-0	0	0	0	-0.1265	0	-0	0	0	0	0	0	-0	0	0.105	-0.015	0	0	-0	0	0	-0.098	0.1	0	-0	0	0	0	0	0	-0	0	0.05595	0	0	0	-0	0	0	0	0	0	-0	0	553.781	555.341	326.476	214.494	-0.000296835	0.427318	-0.000686939	-0.0165132	-1.46155
66	-0.0284218	-0.0165134	0.0103018	0.00870455	-0.0127128	-0.0437282	0.0212401	0.0286517	-0.000896083	-0.0460947	-0.0958244	0.0270763	0.0525936	-0.00401965	0.018201	-2.24579	0.0144681	-1.54555	0	0	0	0	-0	0	0	0	-0.1265	0	-0	0	0	0	0	0	-0	0	0.105	-0.015	0	0	-0	0	0	-0.098	0.1	0	-0	0	0	0	0	0	-0	0	0.05595	0	0	0	-0	0	0	0	0	0	-0	0	553.794	555.354	326.469	214.537	-0.000569524	0.430007	-0.000666184	-0.0165196	-1.46911
67	-0.0258921	-0.0165131	0.0103016	0.00870396	-0.0127125	-0.0437279	0.0212399	0.0286517	-0.000895945	-0.0430014	-0.0957943	0.0273132	0.0525472	-0.00401962	0.0183343	-2.24331	0.0144095	-1.54551	0	0	0	0	-0	0	0	0	-0.1265	0	-0	0	0	0	0	0	-0	0	0.105	-0.015	0	0	-0	0	0	-0.098	0.1	0	-0	0	0	0	0	0	-0	0	0.05595	0	0	0	-0	0	0	0	0	0	-0	0	553.801	555.362	326.465	214.559	-0.000669064	0.43116	-0.000658323	-0.0165225	-1.47258
68	-0.0294421	-0.0165126	0.0103011	0.00870288	-0.012712	-0.0437273	0.0212399	0.0286516	-0.00089582	-0.0425608	-0.0967651	0.0266276	0.0526118	-0.00401956	0.0181482	-2.24694	0.0145113	-1.54556	0	0	0	0	-0	0	0	0	-0.1265	0	-0	0	0	0	0	0	-0	0	0.105	-0.015	0	0	-0	0	0	-0.098	0.1	0	-0	0	0	0	0	0	-0	0	0.05595	0	0	0	-0	0	0	0	0	0	-0	0	553.816	555.378	326.457	214.606	-0.000973276	0.434195	-0.000638866	-0.0165299	-1.48102
69	-0.0286138	-0.0165122	0.0103008	0.00870232	-0.0127117	-0.0437271	0.0212403	0.0286518	-0.000895667	-0.0405001	-0.101391	0.0285911	0.0525961	-0.00401953	0.018192	-2.24616	0.0144964	-1.54554	0	0	0	0	-0	0	0	0	-0.1265	0	-0	0	0	0	0	0	-0	0	0.105	-0.015	0	0	-0	0	0	-0.098	0.1	0	-0	0	0	0	0	0	-0	0	0.05595	0	0	0	-0	0	0	0	0	0	-0	0	553.824	555.387	326.453	214.63	-0.00108896	0.4356	-0.00063025	-0.0165332	-1.48532
70	-0.0273765	-0.0165115	0.0103004	0.00870083	-0.0127111	-0.0437263	0.02124	0.0286518	-0.000896084	-0.0363346	-0.0968793	0.0323082	0.0525732	-0.00401945	0.0182576	-2.24502	0.014479	-1.54552	0	0	0	0	-0	0	0	0	-0.1265	0	-0	0	0	0	0	0	-0	0	0.105	-0.015	0	0	-0	0	0	-0.098	0.1	0	-0	0	0	0	0	0	-0	0	0.05595	0	0	0	-0	0	0	0	0	0	-0	0	553.841	555.403	326.444	214.681	-0.00142553	0.438839	-0.00060481	-0.0165415	-1.49431
71	-0.0261419	-0.0165113	0.0103002	0.00870002	-0.0127108	-0.043726	0.0212399	0.0286518	-0.000895757	-0.0314785	-0.0952363	0.0345763	0.0525502	-0.00401942	0.018323	-2.24383	0.0144548	-1.5455	0	0	0	0	-0	0	0	0	-0.1265	0	-0	0	0	0	0	0	-0	0	0.105	-0.015	0	0	-0	0	0	-0.098	0.1	0	-0	0	0	0	0	0	-0	0	0.05595	0	0	0	-0	0	0	0	0	0	-0	0	553.849	555.412	326.44	214.707	-0.0015477	0.440274	-0.000594355	-0.0165452	-1.49872
72	-0.0291606	-0.016511	0.0103001	0.00869938	-0.0127106	-0.0437257	0.0212399	0.0286515	-0.000895479	-0.0321373	-0.0944361	0.0350848	0.0526053	-0.00401939	0.0181645	-2.24689	0.0145364	-1.54554	0	0	0	0	-0	0	0	0	-0.1265	0	-0	0	0	0	0	0	-0	0	0.105	-0.015	0	0	-0	0	0	-0.098	0.1	0	-0	0	0	0	0	0	-0	0	0.05595	0	0	0	-0	0	0	0	0	0	-0	0	553.855	555.418	326.436	214.726	-0.00168836	0.441684	-0.000585321	-0.016548	-1.50273
73	-0.0306902	-0.0165105	0.0102996	0.00869854	-0.0127101	-0.0437252	0.0212399	0.0286515	-0.000895372	-0.0332538	-0.0946103	0.0366263	0.0526326	-0.00401933	0.0180844	-2.2485	0.014587	-1.54556	0	0	0	0	-0	0	0	0	-0.1265	0	-0	0	0	0	0	0	-0	0	0.105	-0.015	0	0	-0	0	0	-0.098	0.1	0	-0	0	0	0	0	0	-0	0	0.05595	0	0	0	-0	0	0	0	0	0	-0	0	553.869	555.433	326.428	214.768	-0.00196112	0.444386	-0.000567078	-0.0165553	-1.51023
74	-0.0267051	-0.0165097	0.0102989	0.00869694	-0.0127094	-0.0437243	0.0212404	0.0286517	-0.000895184	-0.0310359	-0.100534	0.0376973	0.0525599	-0.00401925	0.0182948	-2.24463	0.0145042	-1.54549	0	0	0	0	-0	0	0	0	-0.1265	0	-0	0	0	0	0	0	-0	0	0.105	-0.015	0	0	-0	0	0	-0.098	0.1	0	-0	0	0	0	0	0	-0	0	0.05595	0	0	0	-0	0	0	0	0	0	-0	0	553.889	555.452	326.416	214.829	-0.00233671	0.448098	-0.000539258	-0.0165657	-1.52064
75	-0.0257428	-0.0165091	0.0102987	0.00869623	-0.0127089	-0.043724	0.0212405	0.0286518	-0.000895194	-0.0339322	-0.0943468	0.038209	0.0525415	-0.0040192	0.0183458	-2.24372	0.0144887	-1.54547	0	0	0	0	-0	0	0	0	-0.1265	0	-0	0	0	0	0	0	-0	0	0.105	-0.015	0	0	-0	0	0	-0.098	0.1	0	-0	0	0	0	0	0	-0	0	0.05595	0	0	0	-0	0	0	0	0	0	-0	0	553.898	555.463	326.41	214.859	-0.00245318	0.449627	-0.000527986	-0.0165706	-1.52549
76	-0.0258503	-0.0165088	0.0102985	0.00869557	-0.0127086	-0.0437237	0.0212401	0.0286516	-0.00089524	-0.0338625	-0.0911096	0.0412429	0.0525432	-0.00401918	0.0183403	-2.24387	0.0144983	-1.54547	0	0	0	0	-0	0	0	0	-0.1265	0	-0	0	0	0	0	0	-0	0	0.105	-0.015	0	0	-0	0	0	-0.098	0.1	0	-0	0	0	0	0	0	-0	0	0.05595	0	0	0	-0	0	0	0	0	0	-0	0	553.906	555.471	326.405	214.881	-0.00261412	0.451267	-0.000518265	-0.0165743	-1.53015
77	-0.0252015	-0.0165087	0.0102983	0.0086951	-0.0127085	-0.0437235	0.02124	0.0286516	-0.000895047	-0.0316843	-0.0939214	0.0416789	0.0525312	-0.00401916	0.0183746	-2.24325	0.0144871	-1.54546	0	0	0	0	-0	0	0	0	-0.1265	0	-0	0	0	0	0	0	-0	0	0.105	-0.015	0	0	-0	0	0	-0.098	0.1	0	-0	0	0	0	0	0	-0	0	0.05595	0	0	0	-0	0	0	0	0	0	-0	0	553.911	555.476	326.402	214.898	-0.00272971	0.452488	-0.000511342	-0.0165771	-1.53366
78	-0.0258338	-0.0165083	0.0102979	0.00869435	-0.0127081	-0.0437231	0.02124	0.0286514	-0.000894823	-0.0287967	-0.0880737	0.0398812	0.0525427	-0.00401913	0.0183416	-2.24395	0.0145149	-1.54546	0	0	0	0	-0	0	0	0	-0.1265	0	-0	0	0	0	0	0	-0	0	0.105	-0.015	0	0	-0	0	0	-0.098	0.1	0	-0	0	0	0	0	0	-0	0	0.05595	0	0	0	-0	0	0	0	0	0	-0	0	553.922	555.488	326.394	214.934	-0.00298809	0.45499	-0.000494554	-0.0165839	-1.54056
79	-0.0251396	-0.0165075	0.0102974	0.00869302	-0.0127074	-0.0437224	0.0212399	0.0286514	-0.000894932	-0.0264647	-0.0841313	0.0406223	0.0525294	-0.00401905	0.0183788	-2.24336	0.0145145	-1.54544	0	0	0	0	-0	0	0	0	-0.1265	0	-0	0	0	0	0	0	-0	0	0.105	-0.015	0	0	-0	0	0	-0.098	0.1	0	-0	0	0	0	0	0	-0	0	0.05595	0	0	0	-0	0	0	0	0	0	-0	0	553.94	555.507	326.382	214.988	-0.00330473	0.458212	-0.00047182	-0.0165939	-1.54966
80	-0.0253078	-0.0165074	0.0102974	0.00869263	-0.0127073	-0.0437223	0.0212399	0.0286514	-0.00089483	-0.0270264	-0.0827683	0.0425884	0.0525323	-0.00401903	0.0183702	-2.24354	0.014521	-1.54544	0	0	0	0	-0	0	0	0	-0.1265	0	-0	0	0	0	0	0	-0	0	0.105	-0.015	0	0	-0	0	0	-0.098	0.1	0	-0	0	0	0	0	0	-0	0	0.05595	0	0	0	-0	0	0	0	0	0	-0	0	553.943	555.509	326.381	214.995	-0.00331885	0.458627	-0.000468939	-0.0165946	-1.55132
81	-0.0231161	-0.0165071	0.0102973	0.00869221	-0.0127071	-0.0437221	0.0212399	0.0286514	-0.000894761	-0.0274626	-0.0817189	0.0421217	0.0524919	-0.00401901	0.0184855	-2.24138	0.0144704	-1.54541	0	0	0	0	-0	0	0	0	-0.1265	0	-0	0	0	0	0	0	-0	0	0.105	-0.015	0	0	-0	0	0	-0.098	0.1	0	-0	0	0	0	0	0	-0	0	0.05595	0	0	0	-0	0	0	0	0	0	-0	0	553.948	555.514	326.377	215.01	-0.00341607	0.459593	-0.000462379	-0.0165975	-1.55401
82	-0.0227802	-0.0165069	0.010297	0.00869179	-0.0127069	-0.0437218	0.02124	0.0286514	-0.000894813	-0.0272597	-0.0792944	0.0445839	0.0524854	-0.004019	0.0185032	-2.24108	0.0144694	-1.5454	0	0	0	0	-0	0	0	0	-0.1265	0	-0	0	0	0	0	0	-0	0	0.105	-0.015	0	0	-0	0	0	-0.098	0.1	0	-0	0	0	0	0	0	-0	0	0.05595	0	0	0	-0	0	0	0	0	0	-0	0	553.955	555.521	326.372	215.032	-0.003576	0.461212	-0.000452982	-0.0166018	-1.55855
83	-0.0239159	-0.0165066	0.0102969	0.00869151	-0.0127067	-0.0437218	0.0212399	0.0286514	-0.000894628	-0.0268957	-0.077459	0.0424499	0.0525063	-0.00401899	0.0184438	-2.24224	0.0145019	-1.54541	0	0	0	0	-0	0	0	0	-0.1265	0	-0	0	0	0	0	0	-0	0	0.105	-0.015	0	0	-0	0	0	-0.098	0.1	0	-0	0	0	0	0	0	-0	0	0.05595	0	0	0	-0	0	0	0	0	0	-0	0	553.958	555.525	326.37	215.043	-0.00362077	0.461822	-0.000449507	-0.0166038	-1.56048
84	-0.025137	-0.0165063	0.0102966	0.00869095	-0.0127064	-0.0437214	0.0212399	0.0286514	-0.000894646	-0.0258106	-0.0787501	0.0412828	0.0525287	-0.00401896	0.0183798	-2.24351	0.0145415	-1.54542	0	0	0	0	-0	0	0	0	-0.1265	0	-0	0	0	0	0	0	-0	0	0.105	-0.015	0	0	-0	0	0	-0.098	0.1	0	-0	0	0	0	0	0	-0	0	0.05595	0	0	0	-0	0	0	0	0	0	-0	0	553.966	555.533	326.364	215.067	-0.00381768	0.463663	-0.000437411	-0.0166087	-1.56547
85	-0.0229344	-0.0165058	0.0102963	0.00869019	-0.012706	-0.043721	0.0212397	0.0286516	-0.000894532	-0.0324395	-0.0830338	0.0422267	0.0524878	-0.00401892	0.0184959	-2.24137	0.0144979	-1.54538	0	0	0	0	-0	0	0	0	-0.1265	0	-0	0	0	0	0	0	-0	0	0.105	-0.015	0	0	-0	0	0	-0.098	0.1	0	-0	0	0	0	0	0	-0	0	0.05595	0	0	0	-0	0	0	0	0	0	-0	0	553.978	555.546	326.355	215.103	-0.0040148	0.465744	-0.00042355	-0.0166159	-1.57142
86	-0.0216838	-0.0165055	0.0102963	0.00868942	-0.0127057	-0.0437208	0.02124	0.0286515	-0.000894479	-0.030511	-0.0844036	0.0392491	0.0524642	-0.00401888	0.0185619	-2.24015	0.0144723	-1.54536	0	0	0	0	-0	0	0	0	-0.1265	0	-0	0	0	0	0	0	-0	0	0.105	-0.015	0	0	-0	0	0	-0.098	0.1	0	-0	0	0	0	0	0	-0	0	0.05595	0	0	0	-0	0	0	0	0	0	-0	0	553.984	555.552	326.351	215.121	-0.00407338	0.466506	-0.000415839	-0.016619	-1.57389
87	-0.0221414	-0.0165052	0.0102961	0.00868919	-0.0127055	-0.0437206	0.02124	0.0286513	-0.000894397	-0.0309392	-0.0866926	0.0409755	0.0524726	-0.00401887	0.018538	-2.24064	0.0144887	-1.54537	0	0	0	0	-0	0	0	0	-0.1265	0	-0	0	0	0	0	0	-0	0	0.105	-0.015	0	0	-0	0	0	-0.098	0.1	0	-0	0	0	0	0	0	-0	0	0.05595	0	0	0	-0	0	0	0	0	0	-0	0	553.988	555.556	326.347	215.134	-0.00413331	0.467248	-0.00041078	-0.0166217	-1.57617
88	-0.0219882	-0.0165048	0.0102958	0.00868836	-0.0127051	-0.0437202	0.0212401	0.0286516	-0.000894501	-0.032609	-0.0871924	0.0367088	0.0524695	-0.00401881	0.0185464	-2.24054	0.0144954	-1.54536	0	0	0	0	-0	0	0	0	-0.1265	0	-0	0	0	0	0	0	-0	0	0.105	-0.015	0	0	-0	0	0	-0.098	0.1	0	-0	0	0	0	0	0	-0	0	0.05595	0	0	0	-0	0	0	0	0	0	-0	0	553.998	555.566	326.34	215.163	-0.00435068	0.469219	-0.00039571	-0.0166278	-1.58147
89	-0.0228678	-0.0165046	0.0102958	0.00868793	-0.0127049	-0.0437201	0.02124	0.0286514	-0.000894467	-0.0317595	-0.0845395	0.0393095	0.0524856	-0.0040188	0.0185005	-2.24144	0.0145231	-1.54537	0	0	0	0	-0	0	0	0	-0.1265	0	-0	0	0	0	0	0	-0	0	0.105	-0.015	0	0	-0	0	0	-0.098	0.1	0	-0	0	0	0	0	0	-0	0	0.05595	0	0	0	-0	0	0	0	0	0	-0	0	554.003	555.571	326.336	215.178	-0.00442043	0.470104	-0.000390144	-0.0166306	-1.58425
90	-0.0218615	-0.0165041	0.0102955	0.00868717	-0.0127045	-0.0437196	0.0212401	0.0286514	-0.000894594	-0.0337607	-0.0891156	0.0358315	0.0524667	-0.00401876	0.0185536	-2.2405	0.0145097	-1.54535	0	0	0	0	-0	0	0	0	-0.1265	0	-0	0	0	0	0	0	-0	0	0.105	-0.015	0	0	-0	0	0	-0.098	0.1	0	-0	0	0	0	0	0	-0	0	0.05595	0	0	0	-0	0	0	0	0	0	-0	0	554.013	555.58	326.328	215.21	-0.00460228	0.471938	-0.000375005	-0.0166376	-1.58945
91	-0.0220306	-0.0165039	0.0102953	0.00868681	-0.0127043	-0.0437194	0.02124	0.0286514	-0.000894291	-0.0335341	-0.091012	0.0334543	0.0524697	-0.00401874	0.0185449	-2.2407	0.0145201	-1.54534	0	0	0	0	-0	0	0	0	-0.1265	0	-0	0	0	0	0	0	-0	0	0.105	-0.015	0	0	-0	0	0	-0.098	0.1	0	-0	0	0	0	0	0	-0	0	0.05595	0	0	0	-0	0	0	0	0	0	-0	0	554.018	555.585	326.324	215.226	-0.00469889	0.472972	-0.000367571	-0.0166406	-1.5925
92	-0.0221771	-0.0165034	0.0102949	0.00868614	-0.0127039	-0.043719	0.0212399	0.0286513	-0.000894157	-0.0342564	-0.09036	0.0315133	0.0524721	-0.0040187	0.0185375	-2.24091	0.0145374	-1.54534	0	0	0	0	-0	0	0	0	-0.1265	0	-0	0	0	0	0	0	-0	0	0.105	-0.015	0	0	-0	0	0	-0.098	0.1	0	-0	0	0	0	0	0	-0	0	0.05595	0	0	0	-0	0	0	0	0	0	-0	0	554.029	555.597	326.314	215.26	-0.00488685	0.474943	-0.000354307	-0.0166484	-1.59806
93	-0.0192716	-0.0165025	0.0102945	0.00868471	-0.0127031	-0.0437184	0.0212396	0.0286516	-0.000894408	-0.0243294	-0.0809922	0.0319507	0.0524176	-0.00401861	0.0186908	-2.2381	0.0144831	-1.54528	0	0	0	0	-0	0	0	0	-0.1265	0	-0	0	0	0	0	0	-0	0	0.105	-0.015	0	0	-0	0	0	-0.098	0.1	0	-0	0	0	0	0	0	-0	0	0.05595	0	0	0	-0	0	0	0	0	0	-0	0	554.046	555.615	326.3	215.311	-0.00510897	0.477383	-0.000333276	-0.0166599	-1.60525
94	-0.0208787	-0.0165014	0.010294	0.00868266	-0.0127022	-0.0437174	0.0212394	0.0286519	-0.000893712	-0.0345256	-0.0873581	0.0337449	0.0524467	-0.00401851	0.0186073	-2.23984	0.0145543	-1.54529	0	0	0	0	-0	0	0	0	-0.1265	0	-0	0	0	0	0	0	-0	0	0.105	-0.015	0	0	-0	0	0	-0.098	0.1	0	-0	0	0	0	0	0	-0	0	0.05595	0	0	0	-0	0	0	0	0	0	-0	0	554.07	555.637	326.278	215.383	-0.00556063	0.481806	-0.000298032	-0.0166764	-1.61769
95	-0.0230596	-0.016501	0.0102942	0.00868188	-0.0127019	-0.0437174	0.0212399	0.0286512	-0.000893726	-0.0349362	-0.0888257	0.034831	0.0524869	-0.00401849	0.0184933	-2.24204	0.0146139	-1.54532	0	0	0	0	-0	0	0	0	-0.1265	0	-0	0	0	0	0	0	-0	0	0.105	-0.015	0	0	-0	0	0	-0.098	0.1	0	-0	0	0	0	0	0	-0	0	0.05595	0	0	0	-0	0	0	0	0	0	-0	0	554.074	555.641	326.275	215.393	-0.00556471	0.482353	-0.000296009	-0.0166779	-1.62
96	-0.0235701	-0.0165007	0.0102939	0.00868172	-0.0127016	-0.0437171	0.0212399	0.0286512	-0.000893717	-0.0350549	-0.0877283	0.0336865	0.052496	-0.00401846	0.0184667	-2.24259	0.0146357	-1.54532	0	0	0	0	-0	0	0	0	-0.1265	0	-0	0	0	0	0	0	-0	0	0.105	-0.015	0	0	-0	0	0	-0.098	0.1	0	-0	0	0	0	0	0	-0	0	0.05595	0	0	0	-0	0	0	0	0	0	-0	0	554.081	555.647	326.269	215.413	-0.00570492	0.483771	-0.000286583	-0.0166831	-1.62398
97	-0.0243242	-0.0165003	0.0102934	0.00868134	-0.0127013	-0.0437168	0.0212401	0.0286515	-0.000893669	-0.0319021	-0.0896764	0.0300655	0.05251	-0.00401846	0.0184271	-2.24339	0.0146683	-1.54532	0	0	0	0	-0	0	0	0	-0.1265	0	-0	0	0	0	0	0	-0	0	0.105	-0.015	0	0	-0	0	0	-0.098	0.1	0	-0	0	0	0	0	0	-0	0	0.05595	0	0	0	-0	0	0	0	0	0	-0	0	554.089	555.656	326.26	215.442	-0.0059325	0.486003	-0.00027389	-0.0166902	-1.63011
98	-0.0240522	-0.0164999	0.0102934	0.00868091	-0.012701	-0.0437167	0.02124	0.0286515	-0.000893762	-0.0349003	-0.0896607	0.0268077	0.0525048	-0.00401845	0.0184416	-2.24315	0.0146678	-1.54531	0	0	0	0	-0	0	0	0	-0.1265	0	-0	0	0	0	0	0	-0	0	0.105	-0.015	0	0	-0	0	0	-0.098	0.1	0	-0	0	0	0	0	0	-0	0	0.05595	0	0	0	-0	0	0	0	0	0	-0	0	554.094	555.661	326.255	215.457	-0.00599311	0.486829	-0.000268033	-0.0166937	-1.63277
99	-0.022898	-0.0164998	0.0102933	0.00868069	-0.0127009	-0.0437166	0.02124	0.0286512	-0.000893619	-0.0363211	-0.0880875	0.0268567	0.0524834	-0.00401845	0.0185023	-2.24202	0.0146434	-1.54529	0	0	0	0	-0	0	0	0	-0.1265	0	-0	0	0	0	0	0	-0	0	0.105	-0.015	0	0	-0	0	0	-0.098	0.1	0	-0	0	0	0	0	0	-0	0	0.05595	0	0	0	-0	0	0	0	0	0	-0	0	554.097	555.664	326.251	215.468	-0.00607089	0.487687	-0.000263924	-0.0166963	-1.63527
100	-0.0238162	-0.0164994	0.010293	0.00868023	-0.0127006	-0.0437163	0.0212402	0.0286515	-0.000893632	-0.0344623	-0.0887051	0.0314773	0.0525002	-0.00401843	0.0184543	-2.24298	0.0146779	-1.5453	0	0	0	0	-0	0	0	0	-0.1265	0	-0	0	0	0	0	0	-0	0	0.105	-0.015	0	0	-0	0	0	-0.098	0.1	0	-0	0	0	0	0	0	-0	0	0.05595	0	0	0	-0	0	0	0	0	0	-0	0	554.105	555.672	326.244	215.491	-0.00623992	0.489301	-0.00025238	-0.0167025	-1.63969
