Stefan210/kinematic_calibration/src/kinematic_calibration/validation/experiments/experiments/single_point_vs_pose/marker_single_point/rarm_150/optimization_intermediate_results.csv
iteration	HeadPitch_offset	HeadYaw_offset	RElbowRoll_offset	RElbowYaw_offset	RShoulderPitch_offset	RShoulderRoll_offset	marker_transform_rarm_tx	marker_transform_rarm_ty	marker_transform_rarm_tz	marker_transform_rarm_rr	marker_transform_rarm_rp	marker_transform_rarm_ry	camera_transform_tx	camera_transform_ty	camera_transform_tz	camera_transform_rr	camera_transform_rp	camera_transform_ry	HeadPitch_transform_tx	HeadPitch_transform_ty	HeadPitch_transform_tz	HeadPitch_transform_rr	HeadPitch_transform_rp	HeadPitch_transform_ry	HeadYaw_transform_tx	HeadYaw_transform_ty	HeadYaw_transform_tz	HeadYaw_transform_rr	HeadYaw_transform_rp	HeadYaw_transform_ry	RElbowRoll_transform_tx	RElbowRoll_transform_ty	RElbowRoll_transform_tz	RElbowRoll_transform_rr	RElbowRoll_transform_rp	RElbowRoll_transform_ry	RElbowYaw_transform_tx	RElbowYaw_transform_ty	RElbowYaw_transform_tz	RElbowYaw_transform_rr	RElbowYaw_transform_rp	RElbowYaw_transform_ry	RShoulderPitch_transform_tx	RShoulderPitch_transform_ty	RShoulderPitch_transform_tz	RShoulderPitch_transform_rr	RShoulderPitch_transform_rp	RShoulderPitch_transform_ry	RShoulderRoll_transform_tx	RShoulderRoll_transform_ty	RShoulderRoll_transform_tz	RShoulderRoll_transform_rr	RShoulderRoll_transform_rp	RShoulderRoll_transform_ry	RWristYaw_transform_tx	RWristYaw_transform_ty	RWristYaw_transform_tz	RWristYaw_transform_rr	RWristYaw_transform_rp	RWristYaw_transform_ry	r_wrist_joint_transform_tx	r_wrist_joint_transform_ty	r_wrist_joint_transform_tz	r_wrist_joint_transform_rr	r_wrist_joint_transform_rp	r_wrist_joint_transform_ry	camera_fx	camera_fy	camera_cx	camera_cy	camera_D0	camera_D1	camera_D2	camera_D3	camera_D4	
0	0.0230449	0.0294606	-0.0013508	-0.00116347	0.000678263	0.00258603	0.05071	0	0.01774	-2.26369	1.66533e-16	-1.5708	545.901	551.038	324.928	201.58	0.0255298	2.61142	-0.0636736	-0.0350419	0.213964
1	-0.0152174	-0.0183447	0.00462306	0.0194049	-0.0185816	-0.0339805	0.0206796	0.0287556	-0.00130139	-0.00116123	0.000686447	0.00279887	0.0537332	-0.003377	0.0188188	-2.20251	0.0157968	-1.53285	0	0	0	0	-0	0	0	0	-0.1265	0	-0	0	0	0	0	0	-0	0	0.105	-0.015	0	0	-0	0	0	-0.098	0.1	0	-0	0	0	0	0	0	-0	0	0.05595	0	0	0	-0	0	0	0	0	0	-0	0	545.901	551.039	324.929	201.581	-0.0376745	2.58864	-0.0734909	-0.075898	0.208488
2	-0.0127746	-0.034914	-0.00543275	0.0226876	-0.0277027	-0.0309434	0.0208471	0.0289182	-0.00133084	-0.00116449	0.000689458	0.002794	0.0532135	-0.00183941	0.0222049	-2.21278	0.0222785	-1.52658	0	0	0	0	-0	0	0	0	-0.1265	0	-0	0	0	0	0	0	-0	0	0.105	-0.015	0	0	-0	0	0	-0.098	0.1	0	-0	0	0	0	0	0	-0	0	0.05595	0	0	0	-0	0	0	0	0	0	-0	0	545.903	551.039	324.935	201.587	-0.223614	2.45567	-0.0158562	-0.0403552	0.160472
3	-0.0141795	-0.0284878	-0.00109135	0.0230879	-0.0232735	-0.0341537	0.020857	0.0289206	-0.00160311	-0.00119559	0.000712524	0.00279255	0.0547526	-0.0029409	0.018704	-2.20627	0.0223293	-1.52708	0	0	0	0	-0	0	0	0	-0.1265	0	-0	0	0	0	0	0	-0	0	0.105	-0.015	0	0	-0	0	0	-0.098	0.1	0	-0	0	0	0	0	0	-0	0	0.05595	0	0	0	-0	0	0	0	0	0	-0	0	545.905	551.04	324.94	201.591	-0.43997	2.31152	-0.0106984	-0.0369309	0.110948
4	-0.0142736	-0.0247569	0.0021319	0.0191378	-0.0198606	-0.0371927	0.021004	0.0288977	-0.00157439	-0.0011928	0.000710745	0.00277294	0.0557486	-0.0035351	0.0164413	-2.20535	0.021881	-1.53138	0	0	0	0	-0	0	0	0	-0.1265	0	-0	0	0	0	0	0	-0	0	0.105	-0.015	0	0	-0	0	0	-0.098	0.1	0	-0	0	0	0	0	0	-0	0	0.05595	0	0	0	-0	0	0	0	0	0	-0	0	545.91	551.041	324.95	201.599	-0.677042	2.04678	0.022385	-0.0123206	0.00458552
5	-0.014474	-0.0222456	0.00509739	0.0167803	-0.0177629	-0.0392322	0.0210599	0.0288516	-0.0015367	-0.00118889	0.00070227	0.00276454	0.0557828	-0.00396991	0.0156375	-2.20439	0.0211611	-1.53315	0	0	0	0	-0	0	0	0	-0.1265	0	-0	0	0	0	0	0	-0	0	0.105	-0.015	0	0	-0	0	0	-0.098	0.1	0	-0	0	0	0	0	0	-0	0	0.05595	0	0	0	-0	0	0	0	0	0	-0	0	545.921	551.038	324.963	201.609	-0.655598	1.67476	0.0280163	-0.00548331	-0.173907
6	-0.0145856	-0.0209906	0.00756051	0.0152966	-0.016935	-0.0403729	0.021056	0.0287761	-0.00142002	-0.00117652	0.000666422	0.00278754	0.0547088	-0.00415708	0.0164953	-2.20424	0.0199368	-1.53401	0	0	0	0	-0	0	0	0	-0.1265	0	-0	0	0	0	0	0	-0	0	0.105	-0.015	0	0	-0	0	0	-0.098	0.1	0	-0	0	0	0	0	0	-0	0	0.05595	0	0	0	-0	0	0	0	0	0	-0	0	545.941	551.032	324.978	201.62	-0.403385	1.13	0.0146381	-0.00939293	-0.45607
7	-0.0145765	-0.0202241	0.00932739	0.0141095	-0.0165632	-0.0411108	0.0210456	0.0287127	-0.00129845	-0.00115683	0.000642748	0.00279906	0.0536022	-0.00424323	0.0175606	-2.2044	0.0188594	-1.53472	0	0	0	0	-0	0	0	0	-0.1265	0	-0	0	0	0	0	0	-0	0	0.105	-0.015	0	0	-0	0	0	-0.098	0.1	0	-0	0	0	0	0	0	-0	0	0.05595	0	0	0	-0	0	0	0	0	0	-0	0	545.97	551.019	324.99	201.627	-0.135774	0.571731	0.000132702	-0.014315	-0.747827
8	-0.0145131	-0.0200645	0.010015	0.0134517	-0.0165483	-0.0413802	0.0210406	0.0286835	-0.00122691	-0.00109474	0.000642933	0.00275651	0.0530057	-0.00424901	0.0182071	-2.20474	0.0183491	-1.53507	0	0	0	0	-0	0	0	0	-0.1265	0	-0	0	0	0	0	0	-0	0	0.105	-0.015	0	0	-0	0	0	-0.098	0.1	0	-0	0	0	0	0	0	-0	0	0.05595	0	0	0	-0	0	0	0	0	0	-0	0	546.022	550.989	324.999	201.634	0.0100874	0.250109	-0.00689337	-0.0166328	-0.918612
9	-0.0143883	-0.0200667	0.010157	0.0132531	-0.0165741	-0.0414046	0.0210386	0.0286757	-0.00120631	-0.000862785	6.63678e-05	0.00278767	0.0528391	-0.00424087	0.0184039	-2.20485	0.0181903	-1.5352	0	0	0	0	-0	0	0	0	-0.1265	0	-0	0	0	0	0	0	-0	0	0.105	-0.015	0	0	-0	0	0	-0.098	0.1	0	-0	0	0	0	0	0	-0	0	0.05595	0	0	0	-0	0	0	0	0	0	-0	0	546.153	550.91	325.021	201.658	0.0454621	0.169277	-0.00814849	-0.0171185	-0.973291
10	-0.0140962	-0.0200667	0.0101998	0.0131568	-0.0165792	-0.0413689	0.0210361	0.0286727	-0.00120122	-0.000216558	0.000502465	0.00355886	0.0527848	-0.00423416	0.0184705	-2.20475	0.0180753	-1.53537	0	0	0	0	-0	0	0	0	-0.1265	0	-0	0	0	0	0	0	-0	0	0.105	-0.015	0	0	-0	0	0	-0.098	0.1	0	-0	0	0	0	0	0	-0	0	0.05595	0	0	0	-0	0	0	0	0	0	-0	0	546.492	550.713	325.081	201.739	0.0423997	0.181221	-0.00721769	-0.017111	-1.01236
11	-0.0131237	-0.0200678	0.0102636	0.0129958	-0.016583	-0.0412962	0.0210314	0.028668	-0.00119493	0.00124402	0.000943434	0.00183192	0.0527024	-0.00422318	0.0185827	-2.20428	0.0178646	-1.53568	0	0	0	0	-0	0	0	0	-0.1265	0	-0	0	0	0	0	0	-0	0	0.105	-0.015	0	0	-0	0	0	-0.098	0.1	0	-0	0	0	0	0	0	-0	0	0.05595	0	0	0	-0	0	0	0	0	0	-0	0	547.204	550.352	325.203	201.989	0.0261282	0.242807	-0.00498546	-0.0170116	-1.12683
12	-0.0119466	-0.0200799	0.0103354	0.0127868	-0.016583	-0.041195	0.0210264	0.0286616	-0.00118559	0.000129241	-0.00739452	0.00724918	0.0526059	-0.00420867	0.0187149	-2.20458	0.0176128	-1.53612	0	0	0	0	-0	0	0	0	-0.1265	0	-0	0	0	0	0	0	-0	0	0.105	-0.015	0	0	-0	0	0	-0.098	0.1	0	-0	0	0	0	0	0	-0	0	0.05595	0	0	0	-0	0	0	0	0	0	-0	0	548.244	550.103	325.376	202.751	0.000165969	0.362743	-0.00204576	-0.0168989	-1.36627
13	-0.0341942	-0.0201018	0.0103598	0.0126125	-0.0165654	-0.0411063	0.0210245	0.0286747	-0.00116521	-0.0303312	-0.0172378	0.0323752	0.0529622	-0.00419508	0.0176081	-2.2309	0.0182117	-1.53707	0	0	0	0	-0	0	0	0	-0.1265	0	-0	0	0	0	0	0	-0	0	0.105	-0.015	0	0	-0	0	0	-0.098	0.1	0	-0	0	0	0	0	0	-0	0	0.05595	0	0	0	-0	0	0	0	0	0	-0	0	549.425	550.688	325.574	204.863	-0.022621	0.501436	0.000169001	-0.0168885	-1.68242
14	-0.025967	-0.0201133	0.010354	0.0125593	-0.0165502	-0.0410738	0.0210246	0.0286551	-0.00117232	-0.0258935	-0.02973	0.0289324	0.0527936	-0.00418989	0.0180554	-2.22463	0.0179076	-1.53709	0	0	0	0	-0	0	0	0	-0.1265	0	-0	0	0	0	0	0	-0	0	0.105	-0.015	0	0	-0	0	0	-0.098	0.1	0	-0	0	0	0	0	0	-0	0	0.05595	0	0	0	-0	0	0	0	0	0	-0	0	549.847	551.078	325.628	205.885	-0.0315103	0.571351	0.000760437	-0.0168968	-1.85778
15	-0.0426827	-0.0201336	0.0103381	0.0125116	-0.016541	-0.0410427	0.0210163	0.0286596	-0.00116347	-0.0617637	-0.0582693	0.0373108	0.0530794	-0.00418486	0.0171923	-2.24408	0.0184703	-1.53759	0	0	0	0	-0	0	0	0	-0.1265	0	-0	0	0	0	0	0	-0	0	0.105	-0.015	0	0	-0	0	0	-0.098	0.1	0	-0	0	0	0	0	0	-0	0	0.05595	0	0	0	-0	0	0	0	0	0	-0	0	550.357	551.659	325.681	207.314	-0.0397039	0.642939	0.00131418	-0.0169565	-2.04345
16	-0.0417996	-0.0201434	0.0103311	0.0124897	-0.0165348	-0.0410271	0.0210232	0.0286539	-0.00116454	-0.0681923	-0.0573502	0.0486098	0.0530546	-0.00418239	0.0172415	-2.24429	0.018454	-1.53764	0	0	0	0	-0	0	0	0	-0.1265	0	-0	0	0	0	0	0	-0	0	0.105	-0.015	0	0	-0	0	0	-0.098	0.1	0	-0	0	0	0	0	0	-0	0	0.05595	0	0	0	-0	0	0	0	0	0	-0	0	550.554	551.893	325.693	207.886	-0.044145	0.682259	0.00153579	-0.0169706	-2.14566
17	-0.0496995	-0.0201526	0.010321	0.0124675	-0.0165281	-0.0410114	0.0210232	0.0286556	-0.00116579	-0.0823267	-0.0604095	0.0361629	0.0531852	-0.00417989	0.0168312	-2.25363	0.0187374	-1.53787	0	0	0	0	-0	0	0	0	-0.1265	0	-0	0	0	0	0	0	-0	0	0.105	-0.015	0	0	-0	0	0	-0.098	0.1	0	-0	0	0	0	0	0	-0	0	0.05595	0	0	0	-0	0	0	0	0	0	-0	0	550.809	552.2	325.705	208.64	-0.0484977	0.722315	0.00180235	-0.0170118	-2.25158
18	-0.0512697	-0.0201615	0.0103127	0.0124444	-0.016522	-0.0409965	0.0210243	0.0286511	-0.00115956	-0.0833407	-0.0486679	0.0278613	0.0532042	-0.0041774	0.0167564	-2.25654	0.0188138	-1.53797	0	0	0	0	-0	0	0	0	-0.1265	0	-0	0	0	0	0	0	-0	0	0.105	-0.015	0	0	-0	0	0	-0.098	0.1	0	-0	0	0	0	0	0	-0	0	0.05595	0	0	0	-0	0	0	0	0	0	-0	0	551.046	552.485	325.711	209.343	-0.0523138	0.758303	0.00205244	-0.0170482	-2.34895
19	-0.027659	-0.0201847	0.010285	0.0123606	-0.0165017	-0.0409508	0.0210203	0.0286497	-0.00115589	-0.0601868	-0.0264591	0.0318184	0.0527796	-0.00416898	0.0180558	-2.2379	0.0180961	-1.53783	0	0	0	0	-0	0	0	0	-0.1265	0	-0	0	0	0	0	0	-0	0	0.105	-0.015	0	0	-0	0	0	-0.098	0.1	0	-0	0	0	0	0	0	-0	0	0.05595	0	0	0	-0	0	0	0	0	0	-0	0	551.878	553.506	325.754	211.931	-0.0611653	0.852795	0.00290485	-0.0172056	-2.62317
20	-0.0338291	-0.0202075	0.0102652	0.0123225	-0.0164927	-0.0409205	0.0210266	0.0286575	-0.00114526	-0.041052	-0.0286233	0.0109762	0.0528699	-0.00416401	0.0177347	-2.2463	0.0183536	-1.53805	0	0	0	0	-0	0	0	0	-0.1265	0	-0	0	0	0	0	0	-0	0	0.105	-0.015	0	0	-0	0	0	-0.098	0.1	0	-0	0	0	0	0	0	-0	0	0.05595	0	0	0	-0	0	0	0	0	0	-0	0	552.255	553.967	325.764	213.111	-0.0695475	0.933356	0.00335947	-0.0172479	-2.84577
21	-0.0124487	-0.0202236	0.010247	0.0122736	-0.0164789	-0.0408904	0.0210276	0.0286489	-0.00114248	-0.0344947	-0.0431539	0.0239451	0.052479	-0.00415884	0.0188816	-2.22759	0.0177257	-1.53778	0	0	0	0	-0	0	0	0	-0.1265	0	-0	0	0	0	0	0	-0	0	0.105	-0.015	0	0	-0	0	0	-0.098	0.1	0	-0	0	0	0	0	0	-0	0	0.05595	0	0	0	-0	0	0	0	0	0	-0	0	552.701	554.507	325.759	214.51	-0.0771222	1.00947	0.00387611	-0.017332	-3.06202
22	-0.0185224	-0.0202315	0.0102387	0.0122685	-0.0164762	-0.040881	0.0210246	0.0286466	-0.00114229	-0.0323314	-0.051999	0.0352154	0.0525815	-0.00415725	0.0185593	-2.23419	0.0179536	-1.5379	0	0	0	0	-0	0	0	0	-0.1265	0	-0	0	0	0	0	0	-0	0	0.105	-0.015	0	0	-0	0	0	-0.098	0.1	0	-0	0	0	0	0	0	-0	0	0.05595	0	0	0	-0	0	0	0	0	0	-0	0	552.789	554.614	325.751	214.792	-0.0798858	1.03606	0.00399857	-0.0173375	-3.13622
23	-0.020884	-0.0202395	0.010233	0.0122548	-0.0164744	-0.0408717	0.0210254	0.0286478	-0.00114248	-0.0219712	-0.0628639	0.0271941	0.0526235	-0.00415586	0.0184371	-2.23726	0.0180673	-1.53796	0	0	0	0	-0	0	0	0	-0.1265	0	-0	0	0	0	0	0	-0	0	0.105	-0.015	0	0	-0	0	0	-0.098	0.1	0	-0	0	0	0	0	0	-0	0	0.05595	0	0	0	-0	0	0	0	0	0	-0	0	552.909	554.757	325.74	215.169	-0.082818	1.06367	0.00414994	-0.0173646	-3.2113
24	-0.0271517	-0.0202441	0.0102288	0.012246	-0.0164719	-0.040865	0.0210225	0.0286445	-0.00114127	-0.0160809	-0.0658399	0.0277223	0.0527375	-0.00415479	0.0181097	-2.24405	0.0182996	-1.53808	0	0	0	0	-0	0	0	0	-0.1265	0	-0	0	0	0	0	0	-0	0	0.105	-0.015	0	0	-0	0	0	-0.098	0.1	0	-0	0	0	0	0	0	-0	0	0.05595	0	0	0	-0	0	0	0	0	0	-0	0	552.998	554.863	325.731	215.446	-0.0847195	1.08226	0.00425958	-0.0173836	-3.2634
25	-0.0141304	-0.020251	0.010223	0.0122336	-0.0164698	-0.0408561	0.0210243	0.0286465	-0.00114016	-0.0104209	-0.0693542	0.0402289	0.052498	-0.00415332	0.0188006	-2.23179	0.0179106	-1.53786	0	0	0	0	-0	0	0	0	-0.1265	0	-0	0	0	0	0	0	-0	0	0.105	-0.015	0	0	-0	0	0	-0.098	0.1	0	-0	0	0	0	0	0	-0	0	0.05595	0	0	0	-0	0	0	0	0	0	-0	0	553.125	555.014	325.717	215.844	-0.0870311	1.10561	0.00441143	-0.0174161	-3.33001
26	-0.0166445	-0.0202547	0.0102186	0.0122246	-0.0164667	-0.0408494	0.021023	0.0286436	-0.00113715	-0.0012082	-0.0556204	0.0325176	0.0525385	-0.00415217	0.0186704	-2.23485	0.0180219	-1.53792	0	0	0	0	-0	0	0	0	-0.1265	0	-0	0	0	0	0	0	-0	0	0.105	-0.015	0	0	-0	0	0	-0.098	0.1	0	-0	0	0	0	0	0	-0	0	0.05595	0	0	0	-0	0	0	0	0	0	-0	0	553.217	555.124	325.706	216.134	-0.0887046	1.12279	0.00452357	-0.0174372	-3.37981
27	-0.0174073	-0.0202605	0.0102129	0.0122102	-0.0164638	-0.0408407	0.0210229	0.0286449	-0.0011382	0.00909106	-0.0579894	0.0375253	0.052549	-0.00415057	0.0186358	-2.2364	0.0180874	-1.53795	0	0	0	0	-0	0	0	0	-0.1265	0	-0	0	0	0	0	0	-0	0	0.105	-0.015	0	0	-0	0	0	-0.098	0.1	0	-0	0	0	0	0	0	-0	0	0.05595	0	0	0	-0	0	0	0	0	0	-0	0	553.349	555.282	325.691	216.549	-0.090807	1.145	0.00467754	-0.017472	-3.44498
28	-0.0190014	-0.0202682	0.0102054	0.0121908	-0.0164596	-0.0408289	0.0210234	0.0286482	-0.00113634	0.028216	-0.0623223	0.0386445	0.0525731	-0.00414843	0.0185603	-2.23909	0.0181951	-1.538	0	0	0	0	-0	0	0	0	-0.1265	0	-0	0	0	0	0	0	-0	0	0.105	-0.015	0	0	-0	0	0	-0.098	0.1	0	-0	0	0	0	0	0	-0	0	0.05595	0	0	0	-0	0	0	0	0	0	-0	0	553.531	555.502	325.67	217.127	-0.0934886	1.17418	0.00489187	-0.0175199	-3.53248
29	-0.0184591	-0.0202701	0.010203	0.0121847	-0.0164573	-0.0408248	0.0210226	0.0286432	-0.00113517	0.0197189	-0.0596971	0.0399873	0.0525624	-0.00414765	0.0185898	-2.2388	0.0181919	-1.538	0	0	0	0	-0	0	0	0	-0.1265	0	-0	0	0	0	0	0	-0	0	0.105	-0.015	0	0	-0	0	0	-0.098	0.1	0	-0	0	0	0	0	0	-0	0	0.05595	0	0	0	-0	0	0	0	0	0	-0	0	553.573	555.551	325.663	217.261	-0.0945076	1.18432	0.00495101	-0.0175223	-3.56203
30	-0.0223979	-0.020278	0.0101954	0.0121695	-0.0164546	-0.0408143	0.0210257	0.0286466	-0.00113375	0.00972032	-0.0521398	0.0542461	0.0526313	-0.00414585	0.0183895	-2.24371	0.0183726	-1.53809	0	0	0	0	-0	0	0	0	-0.1265	0	-0	0	0	0	0	0	-0	0	0.105	-0.015	0	0	-0	0	0	-0.098	0.1	0	-0	0	0	0	0	0	-0	0	0.05595	0	0	0	-0	0	0	0	0	0	-0	0	553.734	555.746	325.644	217.775	-0.0970946	1.21213	0.00513972	-0.0175707	-3.64415
31	-0.0222641	-0.0202812	0.0101912	0.0121607	-0.0164513	-0.0408081	0.0210249	0.0286465	-0.001133	-0.00629228	-0.0432083	0.0551861	0.0526269	-0.00414472	0.0183989	-2.24405	0.0183946	-1.5381	0	0	0	0	-0	0	0	0	-0.1265	0	-0	0	0	0	0	0	-0	0	0.105	-0.015	0	0	-0	0	0	-0.098	0.1	0	-0	0	0	0	0	0	-0	0	0.05595	0	0	0	-0	0	0	0	0	0	-0	0	553.813	555.841	325.633	218.024	-0.0987586	1.2291	0.00524089	-0.0175857	-3.69361
32	-0.0206304	-0.0202845	0.0101883	0.0121544	-0.01645	-0.0408036	0.0210234	0.0286413	-0.00113343	-0.00184966	-0.0324588	0.0606454	0.0525958	-0.00414395	0.0184868	-2.24276	0.0183618	-1.53807	0	0	0	0	-0	0	0	0	-0.1265	0	-0	0	0	0	0	0	-0	0	0.105	-0.015	0	0	-0	0	0	-0.098	0.1	0	-0	0	0	0	0	0	-0	0	0.05595	0	0	0	-0	0	0	0	0	0	-0	0	553.87	555.91	325.624	218.206	-0.0999315	1.24109	0.00531363	-0.0175993	-3.72846
33	-0.0275805	-0.0202896	0.0101839	0.0121469	-0.0164491	-0.0407978	0.0210218	0.0286424	-0.00113108	-0.0141546	-0.0365016	0.0637116	0.0527222	-0.00414295	0.0181245	-2.25021	0.0186181	-1.5382	0	0	0	0	-0	0	0	0	-0.1265	0	-0	0	0	0	0	0	-0	0	0.105	-0.015	0	0	-0	0	0	-0.098	0.1	0	-0	0	0	0	0	0	-0	0	0.05595	0	0	0	-0	0	0	0	0	0	-0	0	553.953	556.008	325.612	218.47	-0.1014	1.25668	0.00541511	-0.0176236	-3.77443
34	-0.0255159	-0.0202912	0.0101823	0.0121425	-0.0164479	-0.0407949	0.0210226	0.0286411	-0.00113107	-0.0102074	-0.0399156	0.0646585	0.0526829	-0.00414242	0.018234	-2.24834	0.018563	-1.53817	0	0	0	0	-0	0	0	0	-0.1265	0	-0	0	0	0	0	0	-0	0	0.105	-0.015	0	0	-0	0	0	-0.098	0.1	0	-0	0	0	0	0	0	-0	0	0.05595	0	0	0	-0	0	0	0	0	0	-0	0	553.986	556.048	325.607	218.576	-0.102093	1.26384	0.00545858	-0.0176295	-3.7956
35	-0.0225798	-0.0202969	0.0101765	0.0121299	-0.0164453	-0.0407869	0.0210256	0.0286435	-0.00112865	-0.0070555	-0.0491634	0.0780942	0.0526256	-0.00414098	0.0183943	-2.24618	0.0185104	-1.53813	0	0	0	0	-0	0	0	0	-0.1265	0	-0	0	0	0	0	0	-0	0	0.105	-0.015	0	0	-0	0	0	-0.098	0.1	0	-0	0	0	0	0	0	-0	0	0.05595	0	0	0	-0	0	0	0	0	0	-0	0	554.112	556.201	325.589	218.986	-0.10395	1.2848	0.00560798	-0.0176691	-3.85945
36	-0.0153073	-0.020299	0.0101732	0.0121226	-0.0164425	-0.0407819	0.021023	0.0286411	-0.00112927	-0.00941455	-0.0486905	0.0704032	0.0524901	-0.00414004	0.0187793	-2.23929	0.0182938	-1.538	0	0	0	0	-0	0	0	0	-0.1265	0	-0	0	0	0	0	0	-0	0	0.105	-0.015	0	0	-0	0	0	-0.098	0.1	0	-0	0	0	0	0	0	-0	0	0.05595	0	0	0	-0	0	0	0	0	0	-0	0	554.175	556.276	325.58	219.184	-0.105182	1.29774	0.00568946	-0.0176816	-3.89805
37	-0.0163584	-0.0203039	0.0101693	0.0121147	-0.0164416	-0.0407763	0.0210252	0.0286403	-0.00112812	-0.0105745	-0.0338144	0.0685238	0.0525065	-0.00413906	0.0187268	-2.24081	0.0183564	-1.53802	0	0	0	0	-0	0	0	0	-0.1265	0	-0	0	0	0	0	0	-0	0	0.105	-0.015	0	0	-0	0	0	-0.098	0.1	0	-0	0	0	0	0	0	-0	0	0.05595	0	0	0	-0	0	0	0	0	0	-0	0	554.254	556.37	325.568	219.433	-0.106577	1.31264	0.00578613	-0.0177034	-3.94246
38	-0.0157765	-0.0203061	0.0101662	0.0121086	-0.0164397	-0.0407721	0.0210233	0.0286409	-0.00112833	-0.00873012	-0.0305613	0.077431	0.052494	-0.00413827	0.0187596	-2.24057	0.0183578	-1.53802	0	0	0	0	-0	0	0	0	-0.1265	0	-0	0	0	0	0	0	-0	0	0.105	-0.015	0	0	-0	0	0	-0.098	0.1	0	-0	0	0	0	0	0	-0	0	0.05595	0	0	0	-0	0	0	0	0	0	-0	0	554.311	556.437	325.559	219.613	-0.107625	1.32377	0.00585986	-0.0177178	-3.97577
39	-0.0201895	-0.0203103	0.0101628	0.0120994	-0.0164383	-0.0407666	0.0210234	0.0286405	-0.00112807	-0.0126492	-0.0373548	0.0689996	0.0525745	-0.00413726	0.0185315	-2.24547	0.0185315	-1.53811	0	0	0	0	-0	0	0	0	-0.1265	0	-0	0	0	0	0	0	-0	0	0.105	-0.015	0	0	-0	0	0	-0.098	0.1	0	-0	0	0	0	0	0	-0	0	0.05595	0	0	0	-0	0	0	0	0	0	-0	0	554.391	556.533	325.546	219.871	-0.108889	1.33787	0.00595942	-0.0177409	-4.01899
40	-0.0169993	-0.0203113	0.0101615	0.0120975	-0.0164375	-0.040765	0.021023	0.0286397	-0.00112656	-0.0106536	-0.0430624	0.0712565	0.0525146	-0.00413694	0.0186995	-2.24238	0.0184334	-1.53805	0	0	0	0	-0	0	0	0	-0.1265	0	-0	0	0	0	0	0	-0	0	0.105	-0.015	0	0	-0	0	0	-0.098	0.1	0	-0	0	0	0	0	0	-0	0	0.05595	0	0	0	-0	0	0	0	0	0	-0	0	554.407	556.553	325.544	219.924	-0.109288	1.34197	0.00598179	-0.0177415	-4.03125
41	-0.0128062	-0.0203127	0.0101602	0.0120953	-0.0164371	-0.0407632	0.0210229	0.0286393	-0.00112623	-0.0125667	-0.0503812	0.0733977	0.0524357	-0.00413665	0.0189202	-2.23832	0.0183048	-1.53797	0	0	0	0	-0	0	0	0	-0.1265	0	-0	0	0	0	0	0	-0	0	0.105	-0.015	0	0	-0	0	0	-0.098	0.1	0	-0	0	0	0	0	0	-0	0	0.05595	0	0	0	-0	0	0	0	0	0	-0	0	554.429	556.58	325.54	219.995	-0.109798	1.34724	0.0060089	-0.0177481	-4.04646
42	-0.00697169	-0.0203145	0.0101585	0.0120921	-0.0164364	-0.0407608	0.0210228	0.0286394	-0.00112606	-0.0142181	-0.0456538	0.0718179	0.0523242	-0.00413624	0.0192271	-2.23268	0.0181255	-1.53787	0	0	0	0	-0	0	0	0	-0.1265	0	-0	0	0	0	0	0	-0	0	0.105	-0.015	0	0	-0	0	0	-0.098	0.1	0	-0	0	0	0	0	0	-0	0	0.05595	0	0	0	-0	0	0	0	0	0	-0	0	554.462	556.62	325.534	220.1	-0.110443	1.35407	0.00604976	-0.0177578	-4.06662
43	-0.00709556	-0.0203169	0.0101562	0.012087	-0.0164354	-0.0407575	0.0210243	0.028641	-0.00112619	-0.0104009	-0.0529645	0.0621319	0.0523243	-0.00413564	0.0192223	-2.2331	0.0181469	-1.53787	0	0	0	0	-0	0	0	0	-0.1265	0	-0	0	0	0	0	0	-0	0	0.105	-0.015	0	0	-0	0	0	-0.098	0.1	0	-0	0	0	0	0	0	-0	0	0.05595	0	0	0	-0	0	0	0	0	0	-0	0	554.511	556.678	325.527	220.252	-0.111276	1.36313	0.00610856	-0.0177717	-4.09396
44	-0.00659263	-0.0203182	0.0101545	0.0120829	-0.0164341	-0.040755	0.0210243	0.0286398	-0.00112537	-0.00626479	-0.0636484	0.0613804	0.0523136	-0.00413516	0.0192501	-2.2328	0.018143	-1.53787	0	0	0	0	-0	0	0	0	-0.1265	0	-0	0	0	0	0	0	-0	0	0.105	-0.015	0	0	-0	0	0	-0.098	0.1	0	-0	0	0	0	0	0	-0	0	0.05595	0	0	0	-0	0	0	0	0	0	-0	0	554.546	556.72	325.521	220.364	-0.111898	1.36991	0.00615312	-0.0177802	-4.11461
45	-0.00997172	-0.0203215	0.0101511	0.012075	-0.0164326	-0.04075	0.0210248	0.0286424	-0.0011247	0.00570774	-0.0721449	0.0662185	0.0523763	-0.00413424	0.0190768	-2.23663	0.0182803	-1.53793	0	0	0	0	-0	0	0	0	-0.1265	0	-0	0	0	0	0	0	-0	0	0.105	-0.015	0	0	-0	0	0	-0.098	0.1	0	-0	0	0	0	0	0	-0	0	0.05595	0	0	0	-0	0	0	0	0	0	-0	0	554.62	556.808	325.51	220.601	-0.113002	1.38248	0.00624468	-0.0178029	-4.1536
46	-0.0161571	-0.0203257	0.0101465	0.0120635	-0.0164299	-0.0407432	0.0210227	0.0286388	-0.00112337	0.0029904	-0.0702861	0.0633259	0.0524907	-0.00413294	0.0187576	-2.24344	0.0185168	-1.53806	0	0	0	0	-0	0	0	0	-0.1265	0	-0	0	0	0	0	0	-0	0	0.105	-0.015	0	0	-0	0	0	-0.098	0.1	0	-0	0	0	0	0	0	-0	0	0.05595	0	0	0	-0	0	0	0	0	0	-0	0	554.722	556.933	325.496	220.931	-0.114521	1.40001	0.00636719	-0.0178309	-4.20835
47	-0.0163913	-0.0203283	0.0101443	0.0120604	-0.0164296	-0.0407406	0.0210234	0.0286388	-0.00112268	0.00377398	-0.0775696	0.0675869	0.0524937	-0.00413241	0.0187458	-2.24384	0.0185348	-1.53807	0	0	0	0	-0	0	0	0	-0.1265	0	-0	0	0	0	0	0	-0	0	0.105	-0.015	0	0	-0	0	0	-0.098	0.1	0	-0	0	0	0	0	0	-0	0	0.05595	0	0	0	-0	0	0	0	0	0	-0	0	554.749	556.966	325.492	221.019	-0.11516	1.40677	0.00640463	-0.0178339	-4.22878
48	-0.0143266	-0.0203292	0.0101432	0.0120583	-0.0164289	-0.040739	0.021023	0.0286389	-0.00112283	0.00699154	-0.0807442	0.07223	0.0524548	-0.00413214	0.0188546	-2.24189	0.0184744	-1.53803	0	0	0	0	-0	0	0	0	-0.1265	0	-0	0	0	0	0	0	-0	0	0.105	-0.015	0	0	-0	0	0	-0.098	0.1	0	-0	0	0	0	0	0	-0	0	0.05595	0	0	0	-0	0	0	0	0	0	-0	0	554.768	556.988	325.489	221.078	-0.115625	1.41143	0.00643123	-0.0178383	-4.24228
49	-0.0134064	-0.0203305	0.0101422	0.0120563	-0.0164286	-0.0407375	0.021023	0.0286389	-0.0011227	0.00440452	-0.0778979	0.07784	0.0524371	-0.00413189	0.0189034	-2.24108	0.0184515	-1.53801	0	0	0	0	-0	0	0	0	-0.1265	0	-0	0	0	0	0	0	-0	0	0.105	-0.015	0	0	-0	0	0	-0.098	0.1	0	-0	0	0	0	0	0	-0	0	0.05595	0	0	0	-0	0	0	0	0	0	-0	0	554.786	557.009	325.486	221.138	-0.116053	1.41584	0.00645664	-0.0178432	-4.25521
50	-0.00747069	-0.020333	0.0101398	0.0120515	-0.0164277	-0.0407342	0.0210227	0.028639	-0.00112272	0.0113903	-0.0764386	0.0824404	0.0523236	-0.00413133	0.0192166	-2.23543	0.0182735	-1.53791	0	0	0	0	-0	0	0	0	-0.1265	0	-0	0	0	0	0	0	-0	0	0.105	-0.015	0	0	-0	0	0	-0.098	0.1	0	-0	0	0	0	0	0	-0	0	0.05595	0	0	0	-0	0	0	0	0	0	-0	0	554.833	557.067	325.479	221.291	-0.116844	1.42479	0.00651384	-0.0178577	-4.28268
51	-0.00913421	-0.0203361	0.0101367	0.0120441	-0.0164263	-0.0407297	0.0210234	0.0286399	-0.0011227	0.00419239	-0.0791245	0.0729095	0.0523524	-0.00413046	0.0191325	-2.23751	0.0183505	-1.53795	0	0	0	0	-0	0	0	0	-0.1265	0	-0	0	0	0	0	0	-0	0	0.105	-0.015	0	0	-0	0	0	-0.098	0.1	0	-0	0	0	0	0	0	-0	0	0.05595	0	0	0	-0	0	0	0	0	0	-0	0	554.9	557.149	325.47	221.508	-0.117841	1.43644	0.00659584	-0.0178766	-4.3194
52	-0.0176829	-0.0203399	0.0101325	0.0120334	-0.016424	-0.0407236	0.0210257	0.0286392	-0.00111956	0.000846228	-0.0656654	0.0661972	0.0525125	-0.00412925	0.0186897	-2.24661	0.0186598	-1.53812	0	0	0	0	-0	0	0	0	-0.1265	0	-0	0	0	0	0	0	-0	0	0.105	-0.015	0	0	-0	0	0	-0.098	0.1	0	-0	0	0	0	0	0	-0	0	0.05595	0	0	0	-0	0	0	0	0	0	-0	0	554.993	557.261	325.458	221.804	-0.119158	1.45185	0.00671025	-0.0179015	-4.36837
53	-0.0166709	-0.02034	0.010131	0.0120324	-0.0164227	-0.0407221	0.0210229	0.0286377	-0.00111987	0.00465187	-0.0590317	0.0625783	0.0524916	-0.0041289	0.0187425	-2.24568	0.0186307	-1.5381	0	0	0	0	-0	0	0	0	-0.1265	0	-0	0	0	0	0	0	-0	0	0.105	-0.015	0	0	-0	0	0	-0.098	0.1	0	-0	0	0	0	0	0	-0	0	0.05595	0	0	0	-0	0	0	0	0	0	-0	0	555.005	557.275	325.456	221.844	-0.119498	1.45539	0.00672936	-0.0179	-4.37922
54	-0.0114178	-0.0203438	0.0101286	0.0120266	-0.0164226	-0.0407184	0.0210232	0.0286375	-0.00111984	0.0049254	-0.0661186	0.0621074	0.0523922	-0.0041283	0.0190199	-2.24072	0.0184757	-1.53801	0	0	0	0	-0	0	0	0	-0.1265	0	-0	0	0	0	0	0	-0	0	0.105	-0.015	0	0	-0	0	0	-0.098	0.1	0	-0	0	0	0	0	0	-0	0	0.05595	0	0	0	-0	0	0	0	0	0	-0	0	555.054	557.333	325.45	222.001	-0.120509	1.46619	0.00679235	-0.0179143	-4.4114
55	-0.0149421	-0.0203452	0.010127	0.0120243	-0.0164219	-0.0407164	0.0210229	0.0286392	-0.00112015	-0.00510798	-0.0655431	0.0575716	0.0524581	-0.00412794	0.0188357	-2.24439	0.0185996	-1.53807	0	0	0	0	-0	0	0	0	-0.1265	0	-0	0	0	0	0	0	-0	0	0.105	-0.015	0	0	-0	0	0	-0.098	0.1	0	-0	0	0	0	0	0	-0	0	0.05595	0	0	0	-0	0	0	0	0	0	-0	0	555.077	557.362	325.447	222.078	-0.121034	1.47177	0.00682448	-0.0179188	-4.42827
56	-0.00996198	-0.0203478	0.0101248	0.0120183	-0.0164209	-0.0407129	0.021024	0.028639	-0.00111906	0.00278517	-0.0728139	0.0539348	0.0523626	-0.00412731	0.019099	-2.23972	0.0184526	-1.53799	0	0	0	0	-0	0	0	0	-0.1265	0	-0	0	0	0	0	0	-0	0	0.105	-0.015	0	0	-0	0	0	-0.098	0.1	0	-0	0	0	0	0	0	-0	0	0.05595	0	0	0	-0	0	0	0	0	0	-0	0	555.127	557.422	325.441	222.241	-0.121896	1.48145	0.00688909	-0.0179326	-4.45823
57	-0.00627926	-0.0203489	0.0101231	0.0120157	-0.0164199	-0.0407109	0.0210226	0.0286375	-0.00111862	-0.00241132	-0.0731343	0.0556419	0.052291	-0.00412691	0.0192926	-2.23619	0.0183395	-1.53792	0	0	0	0	-0	0	0	0	-0.1265	0	-0	0	0	0	0	0	-0	0	0.105	-0.015	0	0	-0	0	0	-0.098	0.1	0	-0	0	0	0	0	0	-0	0	0.05595	0	0	0	-0	0	0	0	0	0	-0	0	555.152	557.453	325.437	222.321	-0.122388	1.48687	0.00692039	-0.0179372	-4.47493
58	-0.0121328	-0.0203512	0.0101214	0.0120116	-0.0164196	-0.0407083	0.0210225	0.0286383	-0.00111783	0.00707707	-0.0709284	0.0511032	0.0524026	-0.00412643	0.0189879	-2.24225	0.0185431	-1.53803	0	0	0	0	-0	0	0	0	-0.1265	0	-0	0	0	0	0	0	-0	0	0.105	-0.015	0	0	-0	0	0	-0.098	0.1	0	-0	0	0	0	0	0	-0	0	0.05595	0	0	0	-0	0	0	0	0	0	-0	0	555.188	557.495	325.433	222.435	-0.123016	1.49384	0.00696715	-0.0179468	-4.49647
59	-0.0127418	-0.0203515	0.0101209	0.0120105	-0.0164191	-0.0407075	0.0210228	0.0286372	-0.00111821	0.00963976	-0.0730592	0.0499647	0.0524131	-0.00412627	0.0189559	-2.24291	0.0185654	-1.53805	0	0	0	0	-0	0	0	0	-0.1265	0	-0	0	0	0	0	0	-0	0	0.105	-0.015	0	0	-0	0	0	-0.098	0.1	0	-0	0	0	0	0	0	-0	0	0.05595	0	0	0	-0	0	0	0	0	0	-0	0	555.195	557.503	325.432	222.458	-0.123175	1.49556	0.00697799	-0.0179465	-4.50186
60	-0.0131891	-0.0203526	0.01012	0.0120091	-0.016419	-0.0407064	0.0210233	0.0286374	-0.00111798	0.00663997	-0.0672408	0.0476275	0.0524214	-0.00412608	0.0189329	-2.24344	0.0185851	-1.53806	0	0	0	0	-0	0	0	0	-0.1265	0	-0	0	0	0	0	0	-0	0	0.105	-0.015	0	0	-0	0	0	-0.098	0.1	0	-0	0	0	0	0	0	-0	0	0.05595	0	0	0	-0	0	0	0	0	0	-0	0	555.209	557.52	325.43	222.505	-0.123517	1.49914	0.00699756	-0.0179507	-4.51243
61	-0.0157389	-0.0203529	0.0101195	0.0120084	-0.0164187	-0.0407058	0.021023	0.0286372	-0.00111789	0.0081102	-0.0716861	0.0502561	0.0524695	-0.00412597	0.0187994	-2.24603	0.0186709	-1.5381	0	0	0	0	-0	0	0	0	-0.1265	0	-0	0	0	0	0	0	-0	0	0.105	-0.015	0	0	-0	0	0	-0.098	0.1	0	-0	0	0	0	0	0	-0	0	0.05595	0	0	0	-0	0	0	0	0	0	-0	0	555.216	557.529	325.429	222.529	-0.123686	1.50094	0.00700738	-0.0179521	-4.51785
62	-0.0167964	-0.0203533	0.0101191	0.0120078	-0.0164186	-0.0407053	0.0210228	0.0286372	-0.00111789	0.00737574	-0.0721225	0.0539387	0.0524891	-0.00412589	0.018744	-2.24712	0.0187073	-1.53812	0	0	0	0	-0	0	0	0	-0.1265	0	-0	0	0	0	0	0	-0	0	0.105	-0.015	0	0	-0	0	0	-0.098	0.1	0	-0	0	0	0	0	0	-0	0	0.05595	0	0	0	-0	0	0	0	0	0	-0	0	555.222	557.536	325.429	222.546	-0.12382	1.50233	0.00701451	-0.0179533	-4.52195
63	-0.0137629	-0.0203541	0.0101185	0.0120065	-0.0164184	-0.0407045	0.0210227	0.0286369	-0.00111781	0.00767058	-0.0722411	0.0535189	0.052432	-0.00412574	0.0189037	-2.24416	0.0186121	-1.53807	0	0	0	0	-0	0	0	0	-0.1265	0	-0	0	0	0	0	0	-0	0	0.105	-0.015	0	0	-0	0	0	-0.098	0.1	0	-0	0	0	0	0	0	-0	0	0.05595	0	0	0	-0	0	0	0	0	0	-0	0	555.234	557.551	325.427	222.585	-0.124064	1.505	0.00702914	-0.0179566	-4.53001
64	-0.00941273	-0.020355	0.0101176	0.0120046	-0.0164181	-0.0407032	0.0210229	0.0286372	-0.00111764	0.0112205	-0.075518	0.0529854	0.052349	-0.0041255	0.0191325	-2.23992	0.018475	-1.53799	0	0	0	0	-0	0	0	0	-0.1265	0	-0	0	0	0	0	0	-0	0	0.105	-0.015	0	0	-0	0	0	-0.098	0.1	0	-0	0	0	0	0	0	-0	0	0.05595	0	0	0	-0	0	0	0	0	0	-0	0	555.252	557.573	325.425	222.641	-0.124359	1.50835	0.00705127	-0.0179613	-4.54044
65	-0.014035	-0.0203563	0.0101163	0.0120018	-0.0164175	-0.0407014	0.0210228	0.0286369	-0.00111737	0.0129483	-0.0781294	0.0528062	0.0524362	-0.00412517	0.0188914	-2.2447	0.018634	-1.53808	0	0	0	0	-0	0	0	0	-0.1265	0	-0	0	0	0	0	0	-0	0	0.105	-0.015	0	0	-0	0	0	-0.098	0.1	0	-0	0	0	0	0	0	-0	0	0.05595	0	0	0	-0	0	0	0	0	0	-0	0	555.277	557.602	325.423	222.723	-0.124813	1.51341	0.00708478	-0.0179678	-4.55616
66	-0.0185637	-0.020357	0.0101155	0.0120004	-0.0164172	-0.0407004	0.0210228	0.0286369	-0.0011172	0.0126106	-0.0774657	0.0499596	0.0525209	-0.00412497	0.0186543	-2.2493	0.0187857	-1.53817	0	0	0	0	-0	0	0	0	-0.1265	0	-0	0	0	0	0	0	-0	0	0.105	-0.015	0	0	-0	0	0	-0.098	0.1	0	-0	0	0	0	0	0	-0	0	0.05595	0	0	0	-0	0	0	0	0	0	-0	0	555.289	557.618	325.421	222.764	-0.125033	1.51596	0.00710063	-0.01797	-4.56422
67	-0.0195308	-0.0203584	0.0101142	0.0119975	-0.0164167	-0.0406986	0.0210229	0.0286371	-0.00111706	0.0110666	-0.0779972	0.0451394	0.0525376	-0.00412464	0.0186046	-2.25043	0.0188248	-1.53819	0	0	0	0	-0	0	0	0	-0.1265	0	-0	0	0	0	0	0	-0	0	0.105	-0.015	0	0	-0	0	0	-0.098	0.1	0	-0	0	0	0	0	0	-0	0	0.05595	0	0	0	-0	0	0	0	0	0	-0	0	555.315	557.65	325.419	222.851	-0.125416	1.52061	0.00713283	-0.0179773	-4.57919
68	-0.0198795	-0.0203602	0.0101123	0.0119931	-0.0164159	-0.040696	0.021023	0.028637	-0.00111653	0.00678865	-0.0747131	0.0444111	0.0525428	-0.00412414	0.0185881	-2.25101	0.0188459	-1.5382	0	0	0	0	-0	0	0	0	-0.1265	0	-0	0	0	0	0	0	-0	0	0.105	-0.015	0	0	-0	0	0	-0.098	0.1	0	-0	0	0	0	0	0	-0	0	0.05595	0	0	0	-0	0	0	0	0	0	-0	0	555.352	557.696	325.416	222.974	-0.125993	1.52746	0.00717991	-0.0179864	-4.6011
69	-0.0185563	-0.0203604	0.0101118	0.0119922	-0.0164155	-0.0406955	0.0210228	0.0286366	-0.00111646	0.00713771	-0.0736841	0.0463874	0.0525181	-0.00412399	0.0186579	-2.24972	0.0188041	-1.53818	0	0	0	0	-0	0	0	0	-0.1265	0	-0	0	0	0	0	0	-0	0	0.105	-0.015	0	0	-0	0	0	-0.098	0.1	0	-0	0	0	0	0	0	-0	0	0.05595	0	0	0	-0	0	0	0	0	0	-0	0	555.358	557.702	325.416	222.991	-0.126114	1.52872	0.00718866	-0.0179852	-4.60513
70	-0.0143909	-0.0203613	0.0101111	0.0119911	-0.0164155	-0.0406946	0.021023	0.0286368	-0.00111626	0.00840588	-0.0758848	0.050201	0.0524402	-0.00412384	0.018877	-2.24562	0.0186713	-1.5381	0	0	0	0	-0	0	0	0	-0.1265	0	-0	0	0	0	0	0	-0	0	0.105	-0.015	0	0	-0	0	0	-0.098	0.1	0	-0	0	0	0	0	0	-0	0	0.05595	0	0	0	-0	0	0	0	0	0	-0	0	555.369	557.716	325.415	223.026	-0.126365	1.53142	0.00720209	-0.017988	-4.61318
71	-0.0137742	-0.020362	0.0101103	0.0119894	-0.0164151	-0.0406934	0.0210227	0.0286365	-0.00111615	0.00676151	-0.0764395	0.0505531	0.0524276	-0.00412363	0.0189098	-2.2451	0.0186554	-1.53809	0	0	0	0	-0	0	0	0	-0.1265	0	-0	0	0	0	0	0	-0	0	0.105	-0.015	0	0	-0	0	0	-0.098	0.1	0	-0	0	0	0	0	0	-0	0	0.05595	0	0	0	-0	0	0	0	0	0	-0	0	555.385	557.735	325.413	223.077	-0.12667	1.53475	0.00722386	-0.0179919	-4.62345
72	-0.012256	-0.0203626	0.0101099	0.0119883	-0.0164149	-0.0406927	0.0210232	0.0286366	-0.00111567	0.00527529	-0.0825497	0.0546781	0.0523987	-0.00412349	0.0189898	-2.24363	0.0186079	-1.53807	0	0	0	0	-0	0	0	0	-0.1265	0	-0	0	0	0	0	0	-0	0	0.105	-0.015	0	0	-0	0	0	-0.098	0.1	0	-0	0	0	0	0	0	-0	0	0.05595	0	0	0	-0	0	0	0	0	0	-0	0	555.393	557.745	325.413	223.102	-0.126841	1.53655	0.00723479	-0.0179929	-4.62893
73	-0.0102198	-0.0203627	0.0101095	0.0119877	-0.0164146	-0.0406922	0.021023	0.0286367	-0.00111593	0.00724216	-0.0860657	0.0571743	0.0523598	-0.0041234	0.0190966	-2.24163	0.0185428	-1.53803	0	0	0	0	-0	0	0	0	-0.1265	0	-0	0	0	0	0	0	-0	0	0.105	-0.015	0	0	-0	0	0	-0.098	0.1	0	-0	0	0	0	0	0	-0	0	0.05595	0	0	0	-0	0	0	0	0	0	-0	0	555.399	557.752	325.412	223.121	-0.126972	1.53791	0.00724325	-0.0179941	-4.63303
74	-0.00430219	-0.0203636	0.0101088	0.0119864	-0.0164145	-0.0406914	0.0210229	0.0286368	-0.00111574	0.00366433	-0.085608	0.0610309	0.0522464	-0.00412324	0.019407	-2.2358	0.018352	-1.53792	0	0	0	0	-0	0	0	0	-0.1265	0	-0	0	0	0	0	0	-0	0	0.105	-0.015	0	0	-0	0	0	-0.098	0.1	0	-0	0	0	0	0	0	-0	0	0.05595	0	0	0	-0	0	0	0	0	0	-0	0	555.412	557.768	325.411	223.162	-0.127211	1.54068	0.00725784	-0.0179973	-4.6416
75	0.00101255	-0.0203646	0.0101079	0.0119842	-0.0164141	-0.0406899	0.0210233	0.0286363	-0.00111575	0.00255564	-0.0933121	0.0606231	0.0521417	-0.00412299	0.0196852	-2.2306	0.0181818	-1.53783	0	0	0	0	-0	0	0	0	-0.1265	0	-0	0	0	0	0	0	-0	0	0.105	-0.015	0	0	-0	0	0	-0.098	0.1	0	-0	0	0	0	0	0	-0	0	0.05595	0	0	0	-0	0	0	0	0	0	-0	0	555.431	557.79	325.41	223.222	-0.127556	1.54445	0.00728421	-0.0180017	-4.65331
76	0.00246958	-0.0203651	0.0101072	0.0119834	-0.0164139	-0.0406893	0.0210229	0.0286367	-0.0011155	0.00614013	-0.0945882	0.0568895	0.052112	-0.00412285	0.0197613	-2.2292	0.018136	-1.53781	0	0	0	0	-0	0	0	0	-0.1265	0	-0	0	0	0	0	0	-0	0	0.105	-0.015	0	0	-0	0	0	-0.098	0.1	0	-0	0	0	0	0	0	-0	0	0.05595	0	0	0	-0	0	0	0	0	0	-0	0	555.44	557.801	325.409	223.252	-0.127698	1.54622	0.00729436	-0.0180031	-4.65905
77	0.00564576	-0.0203655	0.010107	0.0119823	-0.0164137	-0.0406888	0.0210228	0.0286364	-0.00111553	0.0065939	-0.0933288	0.0597815	0.052049	-0.00412274	0.019927	-2.22606	0.0180329	-1.53775	0	0	0	0	-0	0	0	0	-0.1265	0	-0	0	0	0	0	0	-0	0	0.105	-0.015	0	0	-0	0	0	-0.098	0.1	0	-0	0	0	0	0	0	-0	0	0.05595	0	0	0	-0	0	0	0	0	0	-0	0	555.446	557.81	325.409	223.274	-0.127831	1.54768	0.00730306	-0.0180041	-4.6636
78	0.00573334	-0.0203663	0.0101062	0.0119808	-0.0164135	-0.0406878	0.0210228	0.0286368	-0.0011153	0.012597	-0.0939415	0.0586232	0.0520465	-0.00412255	0.0199322	-2.22607	0.0180335	-1.53775	0	0	0	0	-0	0	0	0	-0.1265	0	-0	0	0	0	0	0	-0	0	0.105	-0.015	0	0	-0	0	0	-0.098	0.1	0	-0	0	0	0	0	0	-0	0	0.05595	0	0	0	-0	0	0	0	0	0	-0	0	555.461	557.828	325.408	223.322	-0.128057	1.55036	0.00732098	-0.0180078	-4.67215
79	0.00515729	-0.0203667	0.0101058	0.0119797	-0.0164132	-0.0406872	0.0210228	0.0286364	-0.00111531	0.0149466	-0.0934419	0.0611825	0.0520578	-0.00412243	0.0199025	-2.22669	0.0180542	-1.53776	0	0	0	0	-0	0	0	0	-0.1265	0	-0	0	0	0	0	0	-0	0	0.105	-0.015	0	0	-0	0	0	-0.098	0.1	0	-0	0	0	0	0	0	-0	0	0.05595	0	0	0	-0	0	0	0	0	0	-0	0	555.468	557.838	325.408	223.345	-0.128214	1.55209	0.00733009	-0.0180086	-4.6775
80	0.00431912	-0.0203675	0.0101049	0.0119781	-0.016413	-0.0406861	0.0210232	0.0286368	-0.00111515	0.0148952	-0.0944234	0.0545386	0.0520739	-0.00412222	0.0198597	-2.22762	0.0180854	-1.53778	0	0	0	0	-0	0	0	0	-0.1265	0	-0	0	0	0	0	0	-0	0	0.105	-0.015	0	0	-0	0	0	-0.098	0.1	0	-0	0	0	0	0	0	-0	0	0.05595	0	0	0	-0	0	0	0	0	0	-0	0	555.485	557.858	325.407	223.397	-0.128458	1.55499	0.00734931	-0.0180125	-4.68673
81	0.00733772	-0.0203678	0.0101045	0.011977	-0.0164126	-0.0406855	0.0210232	0.0286368	-0.00111504	0.0109423	-0.0923799	0.0498213	0.0520137	-0.00412209	0.0200173	-2.22465	0.0179873	-1.53773	0	0	0	0	-0	0	0	0	-0.1265	0	-0	0	0	0	0	0	-0	0	0.105	-0.015	0	0	-0	0	0	-0.098	0.1	0	-0	0	0	0	0	0	-0	0	0.05595	0	0	0	-0	0	0	0	0	0	-0	0	555.492	557.867	325.407	223.422	-0.128587	1.55649	0.00736043	-0.0180134	-4.69163
82	0.00680383	-0.0203681	0.0101042	0.0119764	-0.0164125	-0.0406851	0.0210229	0.0286363	-0.00111487	0.00929111	-0.090061	0.0484608	0.0520239	-0.00412201	0.0199897	-2.22522	0.0180063	-1.53774	0	0	0	0	-0	0	0	0	-0.1265	0	-0	0	0	0	0	0	-0	0	0.105	-0.015	0	0	-0	0	0	-0.098	0.1	0	-0	0	0	0	0	0	-0	0	0.05595	0	0	0	-0	0	0	0	0	0	-0	0	555.498	557.874	325.407	223.441	-0.128682	1.55761	0.00736775	-0.0180144	-4.69522
83	0.00572287	-0.0203684	0.0101039	0.0119758	-0.0164125	-0.0406847	0.0210229	0.0286366	-0.0011148	0.00418828	-0.0886506	0.0503136	0.0520454	-0.00412193	0.0199337	-2.22633	0.018043	-1.53776	0	0	0	0	-0	0	0	0	-0.1265	0	-0	0	0	0	0	0	-0	0	0.105	-0.015	0	0	-0	0	0	-0.098	0.1	0	-0	0	0	0	0	0	-0	0	0.05595	0	0	0	-0	0	0	0	0	0	-0	0	555.503	557.88	325.406	223.455	-0.12879	1.55871	0.00737438	-0.0180152	-4.69852
84	0.00550971	-0.0203689	0.0101034	0.0119747	-0.0164123	-0.0406841	0.0210229	0.0286364	-0.00111483	0.00166488	-0.0885314	0.0470678	0.0520493	-0.00412181	0.019923	-2.2266	0.018052	-1.53777	0	0	0	0	-0	0	0	0	-0.1265	0	-0	0	0	0	0	0	-0	0	0.105	-0.015	0	0	-0	0	0	-0.098	0.1	0	-0	0	0	0	0	0	-0	0	0.05595	0	0	0	-0	0	0	0	0	0	-0	0	555.513	557.893	325.406	223.486	-0.128948	1.56061	0.00738441	-0.0180173	-4.70452
85	0.00755466	-0.0203693	0.010103	0.0119742	-0.0164122	-0.0406836	0.0210228	0.0286361	-0.00111468	0.00211921	-0.0870081	0.0470915	0.0520085	-0.00412173	0.0200296	-2.22458	0.0179855	-1.53773	0	0	0	0	-0	0	0	0	-0.1265	0	-0	0	0	0	0	0	-0	0	0.105	-0.015	0	0	-0	0	0	-0.098	0.1	0	-0	0	0	0	0	0	-0	0	0.05595	0	0	0	-0	0	0	0	0	0	-0	0	555.518	557.899	325.406	223.501	-0.129074	1.56188	0.00739125	-0.0180178	-4.70831
86	0.0112101	-0.0203695	0.0101028	0.0119738	-0.0164122	-0.0406833	0.0210229	0.0286361	-0.00111461	0.00140325	-0.0837345	0.0459696	0.0519351	-0.00412167	0.0202198	-2.22095	0.0178653	-1.53767	0	0	0	0	-0	0	0	0	-0.1265	0	-0	0	0	0	0	0	-0	0	0.105	-0.015	0	0	-0	0	0	-0.098	0.1	0	-0	0	0	0	0	0	-0	0	0.05595	0	0	0	-0	0	0	0	0	0	-0	0	555.521	557.903	325.406	223.513	-0.129151	1.56271	0.0073962	-0.0180185	-4.71082
87	0.0125925	-0.0203701	0.0101023	0.0119731	-0.016412	-0.0406827	0.0210229	0.0286364	-0.00111449	0.00450495	-0.0845974	0.0421925	0.0519067	-0.00412157	0.0202917	-2.21962	0.0178212	-1.53764	0	0	0	0	-0	0	0	0	-0.1265	0	-0	0	0	0	0	0	-0	0	0.105	-0.015	0	0	-0	0	0	-0.098	0.1	0	-0	0	0	0	0	0	-0	0	0.05595	0	0	0	-0	0	0	0	0	0	-0	0	555.529	557.912	325.406	223.538	-0.129335	1.56471	0.00740666	-0.0180202	-4.71687
88	0.01245	-0.0203702	0.0101021	0.0119724	-0.0164119	-0.0406824	0.0210228	0.0286362	-0.00111452	0.00759204	-0.0860817	0.0422855	0.0519094	-0.00412151	0.0202845	-2.21978	0.0178266	-1.53765	0	0	0	0	-0	0	0	0	-0.1265	0	-0	0	0	0	0	0	-0	0	0.105	-0.015	0	0	-0	0	0	-0.098	0.1	0	-0	0	0	0	0	0	-0	0	0.05595	0	0	0	-0	0	0	0	0	0	-0	0	555.533	557.917	325.406	223.551	-0.129421	1.5656	0.00741229	-0.0180204	-4.71961
89	0.014003	-0.0203707	0.0101017	0.0119714	-0.0164117	-0.0406818	0.021023	0.0286364	-0.00111443	0.00738185	-0.086037	0.0373247	0.0518776	-0.00412139	0.0203656	-2.21828	0.0177768	-1.53762	0	0	0	0	-0	0	0	0	-0.1265	0	-0	0	0	0	0	0	-0	0	0.105	-0.015	0	0	-0	0	0	-0.098	0.1	0	-0	0	0	0	0	0	-0	0	0.05595	0	0	0	-0	0	0	0	0	0	-0	0	555.542	557.928	325.405	223.578	-0.129561	1.56721	0.00742372	-0.0180224	-4.7247
90	0.0151677	-0.0203708	0.0101015	0.0119708	-0.0164116	-0.0406814	0.0210229	0.0286361	-0.00111437	0.00951143	-0.0879595	0.0366205	0.0518536	-0.00412132	0.0204262	-2.21715	0.0177389	-1.5376	0	0	0	0	-0	0	0	0	-0.1265	0	-0	0	0	0	0	0	-0	0	0.105	-0.015	0	0	-0	0	0	-0.098	0.1	0	-0	0	0	0	0	0	-0	0	0.05595	0	0	0	-0	0	0	0	0	0	-0	0	555.546	557.933	325.405	223.592	-0.129616	1.56792	0.00742954	-0.0180229	-4.72715
91	0.0105267	-0.0203714	0.010101	0.0119697	-0.0164114	-0.0406808	0.0210229	0.028636	-0.00111428	0.00911554	-0.0854514	0.0372788	0.051948	-0.00412119	0.020186	-2.22184	0.0178945	-1.53769	0	0	0	0	-0	0	0	0	-0.1265	0	-0	0	0	0	0	0	-0	0	0.105	-0.015	0	0	-0	0	0	-0.098	0.1	0	-0	0	0	0	0	0	-0	0	0.05595	0	0	0	-0	0	0	0	0	0	-0	0	555.556	557.944	325.405	223.622	-0.129779	1.56978	0.00744189	-0.0180249	-4.733
92	0.0109291	-0.0203717	0.0101007	0.0119693	-0.0164113	-0.0406804	0.0210228	0.0286363	-0.00111398	0.0131717	-0.0832721	0.0336569	0.0519392	-0.00412112	0.0202068	-2.22147	0.0178822	-1.53768	0	0	0	0	-0	0	0	0	-0.1265	0	-0	0	0	0	0	0	-0	0	0.105	-0.015	0	0	-0	0	0	-0.098	0.1	0	-0	0	0	0	0	0	-0	0	0.05595	0	0	0	-0	0	0	0	0	0	-0	0	555.56	557.949	325.405	223.637	-0.129862	1.57071	0.00744877	-0.0180255	-4.73599
93	0.0108286	-0.0203723	0.0101002	0.0119681	-0.0164112	-0.0406797	0.0210231	0.0286363	-0.001114	0.0135344	-0.0848927	0.0387932	0.0519411	-0.00412099	0.020202	-2.22163	0.0178873	-1.53769	0	0	0	0	-0	0	0	0	-0.1265	0	-0	0	0	0	0	0	-0	0	0.105	-0.015	0	0	-0	0	0	-0.098	0.1	0	-0	0	0	0	0	0	-0	0	0.05595	0	0	0	-0	0	0	0	0	0	-0	0	555.57	557.962	325.405	223.67	-0.130063	1.57302	0.00746018	-0.0180275	-4.74311
94	0.00985399	-0.0203729	0.0100995	0.0119664	-0.0164108	-0.0406786	0.0210233	0.0286363	-0.00111338	0.0116066	-0.0903598	0.0448649	0.0519602	-0.00412078	0.0201522	-2.2227	0.0179218	-1.53771	0	0	0	0	-0	0	0	0	-0.1265	0	-0	0	0	0	0	0	-0	0	0.105	-0.015	0	0	-0	0	0	-0.098	0.1	0	-0	0	0	0	0	0	-0	0	0.05595	0	0	0	-0	0	0	0	0	0	-0	0	555.585	557.98	325.405	223.718	-0.130277	1.57559	0.00747972	-0.0180303	-4.75152
95	0.00368991	-0.0203739	0.0100983	0.0119639	-0.0164103	-0.0406771	0.0210234	0.0286366	-0.00111278	0.00779709	-0.0964433	0.0526987	0.0520836	-0.00412048	0.019833	-2.22899	0.0181279	-1.53783	0	0	0	0	-0	0	0	0	-0.1265	0	-0	0	0	0	0	0	-0	0	0.105	-0.015	0	0	-0	0	0	-0.098	0.1	0	-0	0	0	0	0	0	-0	0	0.05595	0	0	0	-0	0	0	0	0	0	-0	0	555.607	558.007	325.406	223.786	-0.130646	1.57981	0.00750549	-0.0180339	-4.76487
96	0.00365354	-0.0203739	0.010098	0.0119636	-0.01641	-0.0406768	0.021023	0.0286361	-0.00111369	0.00680515	-0.0961305	0.0486816	0.0520832	-0.0041204	0.0198308	-2.22904	0.0181293	-1.53783	0	0	0	0	-0	0	0	0	-0.1265	0	-0	0	0	0	0	0	-0	0	0.105	-0.015	0	0	-0	0	0	-0.098	0.1	0	-0	0	0	0	0	0	-0	0	0.05595	0	0	0	-0	0	0	0	0	0	-0	0	555.609	558.011	325.406	223.795	-0.130701	1.58045	0.00750932	-0.018033	-4.767
97	0.00287681	-0.0203744	0.0100979	0.0119632	-0.0164102	-0.0406767	0.0210229	0.0286359	-0.00111361	0.00728865	-0.09707	0.0508281	0.0520986	-0.00412037	0.0197905	-2.22983	0.0181554	-1.53784	0	0	0	0	-0	0	0	0	-0.1265	0	-0	0	0	0	0	0	-0	0	0.105	-0.015	0	0	-0	0	0	-0.098	0.1	0	-0	0	0	0	0	0	-0	0	0.05595	0	0	0	-0	0	0	0	0	0	-0	0	555.612	558.014	325.406	223.801	-0.130757	1.58098	0.00751232	-0.0180331	-4.76857
98	0.00264437	-0.0203747	0.0100976	0.0119628	-0.0164102	-0.0406763	0.0210231	0.0286361	-0.0011136	0.00424787	-0.0935492	0.0515108	0.0521031	-0.00412032	0.0197784	-2.23009	0.0181638	-1.53785	0	0	0	0	-0	0	0	0	-0.1265	0	-0	0	0	0	0	0	-0	0	0.105	-0.015	0	0	-0	0	0	-0.098	0.1	0	-0	0	0	0	0	0	-0	0	0.05595	0	0	0	-0	0	0	0	0	0	-0	0	555.616	558.019	325.406	223.816	-0.130866	1.58217	0.00751807	-0.0180339	-4.77212
99	0.00311961	-0.0203751	0.0100973	0.011962	-0.0164101	-0.0406758	0.0210227	0.028636	-0.00111341	0.00855644	-0.0921068	0.0494522	0.0520936	-0.00412023	0.0198034	-2.22965	0.018149	-1.53784	0	0	0	0	-0	0	0	0	-0.1265	0	-0	0	0	0	0	0	-0	0	0.105	-0.015	0	0	-0	0	0	-0.098	0.1	0	-0	0	0	0	0	0	-0	0	0.05595	0	0	0	-0	0	0	0	0	0	-0	0	555.622	558.026	325.406	223.836	-0.131012	1.58374	0.00752712	-0.018035	-4.77691
100	0.00245337	-0.0203757	0.0100968	0.0119608	-0.0164099	-0.0406751	0.021023	0.0286358	-0.00111341	0.00737841	-0.0888871	0.0495768	0.0521065	-0.00412009	0.0197692	-2.23037	0.0181721	-1.53786	0	0	0	0	-0	0	0	0	-0.1265	0	-0	0	0	0	0	0	-0	0	0.105	-0.015	0	0	-0	0	0	-0.098	0.1	0	-0	0	0	0	0	0	-0	0	0.05595	0	0	0	-0	0	0	0	0	0	-0	0	555.632	558.038	325.407	223.867	-0.131183	1.58566	0.00753963	-0.0180365	-4.78295
