Stefan210/kinematic_calibration/src/kinematic_calibration/validation/experiments/experiments/single_point_vs_pose/marker_single_point/rarm_190/optimization_intermediate_results.csv
iteration	HeadPitch_offset	HeadYaw_offset	RElbowRoll_offset	RElbowYaw_offset	RShoulderPitch_offset	RShoulderRoll_offset	marker_transform_rarm_tx	marker_transform_rarm_ty	marker_transform_rarm_tz	marker_transform_rarm_rr	marker_transform_rarm_rp	marker_transform_rarm_ry	camera_transform_tx	camera_transform_ty	camera_transform_tz	camera_transform_rr	camera_transform_rp	camera_transform_ry	HeadPitch_transform_tx	HeadPitch_transform_ty	HeadPitch_transform_tz	HeadPitch_transform_rr	HeadPitch_transform_rp	HeadPitch_transform_ry	HeadYaw_transform_tx	HeadYaw_transform_ty	HeadYaw_transform_tz	HeadYaw_transform_rr	HeadYaw_transform_rp	HeadYaw_transform_ry	RElbowRoll_transform_tx	RElbowRoll_transform_ty	RElbowRoll_transform_tz	RElbowRoll_transform_rr	RElbowRoll_transform_rp	RElbowRoll_transform_ry	RElbowYaw_transform_tx	RElbowYaw_transform_ty	RElbowYaw_transform_tz	RElbowYaw_transform_rr	RElbowYaw_transform_rp	RElbowYaw_transform_ry	RShoulderPitch_transform_tx	RShoulderPitch_transform_ty	RShoulderPitch_transform_tz	RShoulderPitch_transform_rr	RShoulderPitch_transform_rp	RShoulderPitch_transform_ry	RShoulderRoll_transform_tx	RShoulderRoll_transform_ty	RShoulderRoll_transform_tz	RShoulderRoll_transform_rr	RShoulderRoll_transform_rp	RShoulderRoll_transform_ry	RWristYaw_transform_tx	RWristYaw_transform_ty	RWristYaw_transform_tz	RWristYaw_transform_rr	RWristYaw_transform_rp	RWristYaw_transform_ry	r_wrist_joint_transform_tx	r_wrist_joint_transform_ty	r_wrist_joint_transform_tz	r_wrist_joint_transform_rr	r_wrist_joint_transform_rp	r_wrist_joint_transform_ry	camera_fx	camera_fy	camera_cx	camera_cy	camera_D0	camera_D1	camera_D2	camera_D3	camera_D4	
0	0.0230449	0.0294606	-0.0013508	-0.00116347	0.000678263	0.00258603	0.05071	0	0.01774	-2.26369	1.66533e-16	-1.5708	545.901	551.038	324.928	201.58	0.0255298	2.61142	-0.0636736	-0.0350419	0.213964
1	-0.0146958	-0.0188589	0.00463315	0.01573	-0.015405	-0.036406	0.0209538	0.0287821	-0.00103482	-0.00112993	0.000660515	0.00276918	0.0541002	-0.00285009	0.0185372	-2.20458	0.0131367	-1.53613	0	0	0	0	-0	0	0	0	-0.1265	0	-0	0	0	0	0	0	-0	0	0.105	-0.015	0	0	-0	0	0	-0.098	0.1	0	-0	0	0	0	0	0	-0	0	0.05595	0	0	0	-0	0	0	0	0	0	-0	0	545.901	551.039	324.929	201.581	-0.0337559	2.59059	-0.0732914	-0.0729267	0.209058
2	-0.0128417	-0.0353962	-0.00296134	0.0184355	-0.0265863	-0.0342934	0.021011	0.0289286	-0.00107323	-0.00113315	0.000664468	0.00277415	0.0534162	-0.00168847	0.0219487	-2.21249	0.0210215	-1.52807	0	0	0	0	-0	0	0	0	-0.1265	0	-0	0	0	0	0	0	-0	0	0.105	-0.015	0	0	-0	0	0	-0.098	0.1	0	-0	0	0	0	0	0	-0	0	0.05595	0	0	0	-0	0	0	0	0	0	-0	0	545.903	551.039	324.934	201.586	-0.212679	2.46641	-0.0201665	-0.0410457	0.165043
3	-0.0139641	-0.0291836	0.000201065	0.0187625	-0.0216763	-0.0368219	0.0210423	0.0289107	-0.00131216	-0.00115941	0.000684985	0.00276843	0.054944	-0.00263965	0.0185675	-2.20716	0.0205115	-1.52945	0	0	0	0	-0	0	0	0	-0.1265	0	-0	0	0	0	0	0	-0	0	0.105	-0.015	0	0	-0	0	0	-0.098	0.1	0	-0	0	0	0	0	0	-0	0	0.05595	0	0	0	-0	0	0	0	0	0	-0	0	545.905	551.04	324.94	201.591	-0.436146	2.31978	-0.0116813	-0.034667	0.115223
4	-0.014198	-0.0257124	0.00276211	0.0156626	-0.0189527	-0.0388215	0.0211429	0.0288518	-0.00134021	-0.0011653	0.000687313	0.00274916	0.0559566	-0.00328452	0.0162431	-2.20564	0.0206076	-1.53264	0	0	0	0	-0	0	0	0	-0.1265	0	-0	0	0	0	0	0	-0	0	0.105	-0.015	0	0	-0	0	0	-0.098	0.1	0	-0	0	0	0	0	0	-0	0	0.05595	0	0	0	-0	0	0	0	0	0	-0	0	545.909	551.041	324.949	201.599	-0.678003	2.0593	0.0205122	-0.010771	0.0122187
5	-0.0144088	-0.0235235	0.00513896	0.0138376	-0.0172693	-0.0400501	0.0211718	0.0287948	-0.00133742	-0.00116213	0.000684783	0.00273918	0.0559632	-0.00370018	0.0154835	-2.20463	0.0202802	-1.53387	0	0	0	0	-0	0	0	0	-0.1265	0	-0	0	0	0	0	0	-0	0	0.105	-0.015	0	0	-0	0	0	-0.098	0.1	0	-0	0	0	0	0	0	-0	0	0.05595	0	0	0	-0	0	0	0	0	0	-0	0	545.919	551.04	324.961	201.609	-0.660615	1.69799	0.0265773	-0.00394426	-0.159313
6	-0.0145024	-0.0224854	0.0072515	0.0127055	-0.0166325	-0.0406666	0.0211523	0.0287365	-0.00126104	-0.00115129	0.000678256	0.00274255	0.0549123	-0.0038785	0.0162991	-2.20448	0.0194441	-1.53419	0	0	0	0	-0	0	0	0	-0.1265	0	-0	0	0	0	0	0	-0	0	0.105	-0.015	0	0	-0	0	0	-0.098	0.1	0	-0	0	0	0	0	0	-0	0	0.05595	0	0	0	-0	0	0	0	0	0	-0	0	545.936	551.036	324.976	201.62	-0.420841	1.17216	0.014263	-0.00805993	-0.428615
7	-0.0145471	-0.021878	0.00883506	0.0117511	-0.0164081	-0.0410548	0.0211308	0.0286907	-0.00117362	-0.00121672	0.000658788	0.00273981	0.0538441	-0.0039691	0.0172944	-2.20466	0.0187062	-1.53441	0	0	0	0	-0	0	0	0	-0.1265	0	-0	0	0	0	0	0	-0	0	0.105	-0.015	0	0	-0	0	0	-0.098	0.1	0	-0	0	0	0	0	0	-0	0	0.05595	0	0	0	-0	0	0	0	0	0	-0	0	545.959	551.029	324.986	201.628	-0.168434	0.640038	0.000887269	-0.0131745	-0.703855
8	-0.0146059	-0.0217917	0.0094849	0.011217	-0.0164835	-0.0411759	0.0211199	0.02867	-0.00112114	-0.00121069	0.00062163	0.00271073	0.0532838	-0.00398571	0.0178765	-2.20503	0.0183999	-1.53448	0	0	0	0	-0	0	0	0	-0.1265	0	-0	0	0	0	0	0	-0	0	0.105	-0.015	0	0	-0	0	0	-0.098	0.1	0	-0	0	0	0	0	0	-0	0	0.05595	0	0	0	-0	0	0	0	0	0	-0	0	545.997	551.015	324.991	201.635	-0.0342341	0.34312	-0.00552617	-0.0156085	-0.860849
9	-0.014967	-0.0218076	0.00962102	0.0110619	-0.0165312	-0.0411731	0.021117	0.0286645	-0.00110625	-0.00124485	9.18597e-05	0.00263867	0.0531446	-0.00398269	0.0180201	-2.20557	0.0183357	-1.53452	0	0	0	0	-0	0	0	0	-0.1265	0	-0	0	0	0	0	0	-0	0	0.105	-0.015	0	0	-0	0	0	-0.098	0.1	0	-0	0	0	0	0	0	-0	0	0.05595	0	0	0	-0	0	0	0	0	0	-0	0	546.091	550.98	324.997	201.661	-0.00282992	0.273076	-0.00674368	-0.0161347	-0.910809
10	-0.015564	-0.021812	0.00963816	0.0110052	-0.0165406	-0.041149	0.0211161	0.0286627	-0.00110322	-0.00189288	0.00046645	0.00337307	0.0531203	-0.00397814	0.0180272	-2.20635	0.0183282	-1.53459	0	0	0	0	-0	0	0	0	-0.1265	0	-0	0	0	0	0	0	-0	0	0.105	-0.015	0	0	-0	0	0	-0.098	0.1	0	-0	0	0	0	0	0	-0	0	0.05595	0	0	0	-0	0	0	0	0	0	-0	0	546.335	550.903	325.008	201.741	-0.0045715	0.285041	-0.00623417	-0.0161716	-0.949342
11	-0.0153119	-0.0218177	0.0096465	0.0109219	-0.0165483	-0.0411087	0.0211151	0.0286603	-0.00110011	-0.00281962	0.00320276	0.00165575	0.0530726	-0.00397042	0.0180866	-2.2066	0.0183097	-1.53468	0	0	0	0	-0	0	0	0	-0.1265	0	-0	0	0	0	0	0	-0	0	0.105	-0.015	0	0	-0	0	0	-0.098	0.1	0	-0	0	0	0	0	0	-0	0	0.05595	0	0	0	-0	0	0	0	0	0	-0	0	546.861	550.821	325.007	201.984	-0.0157913	0.336724	-0.00497049	-0.0161703	-1.0499
12	-0.0192837	-0.0218239	0.0096539	0.0108176	-0.0165467	-0.0410564	0.0211145	0.0286598	-0.00109469	0.00807846	0.00358418	-0.00750615	0.0530861	-0.00396032	0.0179396	-2.21203	0.0185831	-1.53477	0	0	0	0	-0	0	0	0	-0.1265	0	-0	0	0	0	0	0	-0	0	0.105	-0.015	0	0	-0	0	0	-0.098	0.1	0	-0	0	0	0	0	0	-0	0	0.05595	0	0	0	-0	0	0	0	0	0	-0	0	547.734	551.056	324.905	202.71	-0.0338711	0.434351	-0.00340315	-0.016243	-1.24766
13	-0.0136099	-0.0218255	0.00965592	0.0107247	-0.0165195	-0.0410066	0.0211164	0.0286552	-0.00109682	-0.00666905	-0.0232523	-0.0202405	0.0529064	-0.00395013	0.0183319	-2.21034	0.0189207	-1.5344	0	0	0	0	-0	0	0	0	-0.1265	0	-0	0	0	0	0	0	-0	0	0.105	-0.015	0	0	-0	0	0	-0.098	0.1	0	-0	0	0	0	0	0	-0	0	0.05595	0	0	0	-0	0	0	0	0	0	-0	0	549.095	552.26	324.512	204.707	-0.0538502	0.5691	-0.00218777	-0.0165648	-1.54046
14	-0.0107046	-0.0218293	0.0096502	0.0106874	-0.0165012	-0.0409816	0.0211157	0.0286542	-0.00108595	0.00155269	-0.0341162	-0.0159374	0.0528233	-0.00394532	0.0185187	-2.20958	0.0191333	-1.53416	0	0	0	0	-0	0	0	0	-0.1265	0	-0	0	0	0	0	0	-0	0	0.105	-0.015	0	0	-0	0	0	-0.098	0.1	0	-0	0	0	0	0	0	-0	0	0.05595	0	0	0	-0	0	0	0	0	0	-0	0	549.718	552.944	324.286	205.798	-0.0641616	0.651189	-0.00180661	-0.0167379	-1.73136
15	0.00662687	-0.0218339	0.00964509	0.010649	-0.0164812	-0.0409559	0.0211165	0.0286551	-0.00108264	0.0150638	-0.0450384	-0.0219823	0.0524645	-0.00394049	0.0194794	-2.1952	0.0189507	-1.53356	0	0	0	0	-0	0	0	0	-0.1265	0	-0	0	0	0	0	0	-0	0	0.105	-0.015	0	0	-0	0	0	-0.098	0.1	0	-0	0	0	0	0	0	-0	0	0.05595	0	0	0	-0	0	0	0	0	0	-0	0	550.492	553.837	323.964	207.305	-0.0745079	0.736944	-0.00136497	-0.0170073	-1.93347
16	-0.0182315	-0.0218392	0.00963907	0.0106223	-0.0164671	-0.0409357	0.0211136	0.0286517	-0.00107855	0.00678813	-0.047029	-0.0118149	0.0529168	-0.00393692	0.018199	-2.2221	0.0201976	-1.53384	0	0	0	0	-0	0	0	0	-0.1265	0	-0	0	0	0	0	0	-0	0	0.105	-0.015	0	0	-0	0	0	-0.098	0.1	0	-0	0	0	0	0	0	-0	0	0.05595	0	0	0	-0	0	0	0	0	0	-0	0	551.006	554.435	323.732	208.364	-0.0821881	0.803113	-0.00105543	-0.0171935	-2.09368
17	-0.0233502	-0.0218522	0.00962933	0.0105805	-0.0164495	-0.0409046	0.0211162	0.0286456	-0.00107418	0.0311949	-0.00449444	-0.0154717	0.0529508	-0.00393172	0.0179776	-2.23116	0.0210607	-1.53354	0	0	0	0	-0	0	0	0	-0.1265	0	-0	0	0	0	0	0	-0	0	0.105	-0.015	0	0	-0	0	0	-0.098	0.1	0	-0	0	0	0	0	0	-0	0	0.05595	0	0	0	-0	0	0	0	0	0	-0	0	551.908	555.466	323.269	210.405	-0.0924643	0.896522	-0.000445066	-0.0175929	-2.32656
18	-0.0211921	-0.0218565	0.00962273	0.0105602	-0.0164408	-0.0408906	0.0211126	0.0286491	-0.00107435	0.0197237	-0.00784602	-0.0206242	0.0529057	-0.00392922	0.0180995	-2.23001	0.0211584	-1.5334	0	0	0	0	-0	0	0	0	-0.1265	0	-0	0	0	0	0	0	-0	0	0.105	-0.015	0	0	-0	0	0	-0.098	0.1	0	-0	0	0	0	0	0	-0	0	0.05595	0	0	0	-0	0	0	0	0	0	-0	0	552.137	555.738	323.149	210.935	-0.0976764	0.943614	-0.000286472	-0.0176725	-2.4451
19	-0.0248008	-0.0218639	0.00961844	0.0105439	-0.0164352	-0.040878	0.021113	0.0286507	-0.00107028	0.0352062	-0.0059851	-0.0292211	0.0529598	-0.00392738	0.0179229	-2.23494	0.0215296	-1.53333	0	0	0	0	-0	0	0	0	-0.1265	0	-0	0	0	0	0	0	-0	0	0.105	-0.015	0	0	-0	0	0	-0.098	0.1	0	-0	0	0	0	0	0	-0	0	0.05595	0	0	0	-0	0	0	0	0	0	-0	0	552.433	556.072	322.989	211.628	-0.102316	0.985072	-5.78243e-05	-0.0178058	-2.54866
20	-0.018923	-0.0218655	0.00961615	0.0105354	-0.0164311	-0.0408716	0.0211127	0.0286463	-0.00107125	0.0397383	0.000464623	-0.0270268	0.0528504	-0.00392635	0.0182388	-2.2296	0.0214041	-1.53315	0	0	0	0	-0	0	0	0	-0.1265	0	-0	0	0	0	0	0	-0	0	0.105	-0.015	0	0	-0	0	0	-0.098	0.1	0	-0	0	0	0	0	0	-0	0	0.05595	0	0	0	-0	0	0	0	0	0	-0	0	552.547	556.203	322.924	211.905	-0.104427	1.00439	3.17392e-05	-0.0178528	-2.59786
21	-0.0186708	-0.0218702	0.00961265	0.0105294	-0.016429	-0.0408653	0.0211134	0.0286478	-0.0010705	0.0481499	-0.00263031	-0.0212067	0.0528392	-0.00392542	0.0182594	-2.23005	0.0215218	-1.53306	0	0	0	0	-0	0	0	0	-0.1265	0	-0	0	0	0	0	0	-0	0	0.105	-0.015	0	0	-0	0	0	-0.098	0.1	0	-0	0	0	0	0	0	-0	0	0.05595	0	0	0	-0	0	0	0	0	0	-0	0	552.697	556.374	322.838	212.273	-0.106679	1.02523	0.000151077	-0.0179267	-2.65081
22	-0.0270756	-0.0218746	0.0096092	0.0105181	-0.0164251	-0.0408568	0.0211119	0.0286474	-0.00106969	0.0609867	0.00289705	-0.0187918	0.0529837	-0.00392412	0.0178268	-2.23944	0.0220187	-1.53313	0	0	0	0	-0	0	0	0	-0.1265	0	-0	0	0	0	0	0	-0	0	0.105	-0.015	0	0	-0	0	0	-0.098	0.1	0	-0	0	0	0	0	0	-0	0	0.05595	0	0	0	-0	0	0	0	0	0	-0	0	552.907	556.611	322.716	212.797	-0.109356	1.051	0.000317688	-0.0180321	-2.71784
23	-0.0173914	-0.0218817	0.00960429	0.0105032	-0.0164209	-0.0408452	0.0211127	0.028647	-0.0010672	0.0709155	0.00161593	-0.0234069	0.0527971	-0.00392238	0.0183553	-2.23114	0.0219068	-1.53277	0	0	0	0	-0	0	0	0	-0.1265	0	-0	0	0	0	0	0	-0	0	0.105	-0.015	0	0	-0	0	0	-0.098	0.1	0	-0	0	0	0	0	0	-0	0	0.05595	0	0	0	-0	0	0	0	0	0	-0	0	553.185	556.924	322.544	213.519	-0.112569	1.08329	0.000546582	-0.0181808	-2.8037
24	-0.0158031	-0.0218841	0.00960137	0.0104954	-0.0164177	-0.040839	0.0211135	0.0286459	-0.00106676	0.064173	0.00817803	-0.0240637	0.0527616	-0.00392138	0.0184429	-2.23009	0.0219455	-1.53267	0	0	0	0	-0	0	0	0	-0.1265	0	-0	0	0	0	0	0	-0	0	0.105	-0.015	0	0	-0	0	0	-0.098	0.1	0	-0	0	0	0	0	0	-0	0	0.05595	0	0	0	-0	0	0	0	0	0	-0	0	553.293	557.047	322.476	213.804	-0.114384	1.10092	0.00063883	-0.0182313	-2.8503
25	-0.0187826	-0.0218881	0.00959823	0.010488	-0.0164154	-0.0408328	0.021113	0.0286469	-0.00106574	0.0533446	0.0110661	-0.0201298	0.0528109	-0.00392048	0.0182929	-2.23378	0.0221916	-1.53265	0	0	0	0	-0	0	0	0	-0.1265	0	-0	0	0	0	0	0	-0	0	0.105	-0.015	0	0	-0	0	0	-0.098	0.1	0	-0	0	0	0	0	0	-0	0	0.05595	0	0	0	-0	0	0	0	0	0	-0	0	553.435	557.207	322.387	214.178	-0.11629	1.11978	0.000759651	-0.0183086	-2.90012
26	-0.0199722	-0.0218936	0.00959439	0.010477	-0.0164125	-0.0408242	0.0211132	0.0286474	-0.00106468	0.0666622	0.00734249	-0.023044	0.0528247	-0.00391926	0.0182401	-2.23596	0.0224246	-1.53256	0	0	0	0	-0	0	0	0	-0.1265	0	-0	0	0	0	0	0	-0	0	0.105	-0.015	0	0	-0	0	0	-0.098	0.1	0	-0	0	0	0	0	0	-0	0	0.05595	0	0	0	-0	0	0	0	0	0	-0	0	553.626	557.419	322.26	214.701	-0.118621	1.14358	0.000932707	-0.0184184	-2.96424
27	-0.0277608	-0.0218955	0.00959237	0.0104708	-0.0164105	-0.0408196	0.0211124	0.0286451	-0.00106428	0.0586737	0.00884878	-0.0237916	0.0529642	-0.00391855	0.017832	-2.24413	0.0227965	-1.5327	0	0	0	0	-0	0	0	0	-0.1265	0	-0	0	0	0	0	0	-0	0	0.105	-0.015	0	0	-0	0	0	-0.098	0.1	0	-0	0	0	0	0	0	-0	0	0.05595	0	0	0	-0	0	0	0	0	0	-0	0	553.701	557.504	322.21	214.909	-0.119865	1.15594	0.00100287	-0.0184556	-2.99748
28	-0.0355129	-0.0218984	0.00959016	0.0104677	-0.0164096	-0.040816	0.0211123	0.0286441	-0.00106398	0.0570316	0.00757708	-0.0273045	0.0530985	-0.00391806	0.0174242	-2.25227	0.023166	-1.53283	0	0	0	0	-0	0	0	0	-0.1265	0	-0	0	0	0	0	0	-0	0	0.105	-0.015	0	0	-0	0	0	-0.098	0.1	0	-0	0	0	0	0	0	-0	0	0.05595	0	0	0	-0	0	0	0	0	0	-0	0	553.774	557.586	322.16	215.113	-0.120949	1.16678	0.00106974	-0.0184979	-3.02635
29	-0.0245234	-0.0219018	0.0095877	0.010462	-0.0164084	-0.0408112	0.0211128	0.028645	-0.00106325	0.0499909	0.0114329	-0.0234093	0.0529013	-0.00391739	0.0180128	-2.24183	0.022855	-1.53251	0	0	0	0	-0	0	0	0	-0.1265	0	-0	0	0	0	0	0	-0	0	0.105	-0.015	0	0	-0	0	0	-0.098	0.1	0	-0	0	0	0	0	0	-0	0	0.05595	0	0	0	-0	0	0	0	0	0	-0	0	553.878	557.701	322.089	215.406	-0.122226	1.18009	0.00116755	-0.0185608	-3.06262
30	-0.0291947	-0.0219039	0.00958576	0.0104574	-0.0164068	-0.0408072	0.0211128	0.0286445	-0.00106282	0.0552864	0.00762067	-0.0184766	0.0529795	-0.00391682	0.0177682	-2.2469	0.0231108	-1.53257	0	0	0	0	-0	0	0	0	-0.1265	0	-0	0	0	0	0	0	-0	0	0.105	-0.015	0	0	-0	0	0	-0.098	0.1	0	-0	0	0	0	0	0	-0	0	0.05595	0	0	0	-0	0	0	0	0	0	-0	0	553.954	557.786	322.037	215.618	-0.123302	1.19102	0.00123948	-0.0186038	-3.09222
31	-0.0277893	-0.0219048	0.0095849	0.0104547	-0.0164061	-0.0408054	0.0211124	0.0286439	-0.00106266	0.0555861	0.00567603	-0.0233748	0.052953	-0.00391653	0.0178438	-2.24566	0.0230886	-1.53252	0	0	0	0	-0	0	0	0	-0.1265	0	-0	0	0	0	0	0	-0	0	0.105	-0.015	0	0	-0	0	0	-0.098	0.1	0	-0	0	0	0	0	0	-0	0	0.05595	0	0	0	-0	0	0	0	0	0	-0	0	553.984	557.819	322.016	215.703	-0.123761	1.19575	0.00126725	-0.0186191	-3.10513
32	-0.0283359	-0.0219091	0.00958217	0.0104491	-0.0164051	-0.0408004	0.0211129	0.0286445	-0.00106191	0.0574217	0.00452398	-0.0322586	0.0529584	-0.0039159	0.0178208	-2.24683	0.023233	-1.53245	0	0	0	0	-0	0	0	0	-0.1265	0	-0	0	0	0	0	0	-0	0	0.105	-0.015	0	0	-0	0	0	-0.098	0.1	0	-0	0	0	0	0	0	-0	0	0.05595	0	0	0	-0	0	0	0	0	0	-0	0	554.098	557.946	321.934	216.036	-0.125086	1.20998	0.00137619	-0.0186938	-3.14422
33	-0.029217	-0.0219094	0.00958139	0.010446	-0.016404	-0.0407985	0.0211125	0.0286438	-0.00106163	0.0589288	0.00340758	-0.0260325	0.052973	-0.00391556	0.0177754	-2.24786	0.0232956	-1.53246	0	0	0	0	-0	0	0	0	-0.1265	0	-0	0	0	0	0	0	-0	0	0.105	-0.015	0	0	-0	0	0	-0.098	0.1	0	-0	0	0	0	0	0	-0	0	0.05595	0	0	0	-0	0	0	0	0	0	-0	0	554.125	557.977	321.914	216.115	-0.125497	1.21439	0.00140279	-0.0187061	-3.15674
34	-0.0380906	-0.0219133	0.00957886	0.0104409	-0.0164031	-0.0407938	0.0211126	0.028644	-0.00106129	0.0570183	0.00276717	-0.0337698	0.0531266	-0.00391496	0.0173111	-2.25731	0.0237507	-1.53259	0	0	0	0	-0	0	0	0	-0.1265	0	-0	0	0	0	0	0	-0	0	0.105	-0.015	0	0	-0	0	0	-0.098	0.1	0	-0	0	0	0	0	0	-0	0	0.05595	0	0	0	-0	0	0	0	0	0	-0	0	554.231	558.094	321.837	216.424	-0.126679	1.22725	0.00150457	-0.0187763	-3.19232
35	-0.042424	-0.021915	0.00957727	0.0104374	-0.016402	-0.0407907	0.0211135	0.0286451	-0.00106267	0.0623882	0.00990745	-0.0216335	0.0531978	-0.00391451	0.0170826	-2.26192	0.0239727	-1.53267	0	0	0	0	-0	0	0	0	-0.1265	0	-0	0	0	0	0	0	-0	0	0.105	-0.015	0	0	-0	0	0	-0.098	0.1	0	-0	0	0	0	0	0	-0	0	0.05595	0	0	0	-0	0	0	0	0	0	-0	0	554.283	558.152	321.799	216.574	-0.127466	1.23541	0.00155613	-0.0188056	-3.21479
36	-0.0509963	-0.0219188	0.00957464	0.0104318	-0.0164009	-0.040786	0.0211119	0.0286429	-0.00106002	0.0602584	0.00921197	-0.0190723	0.0533399	-0.00391393	0.0166319	-2.27109	0.0244194	-1.5328	0	0	0	0	-0	0	0	0	-0.1265	0	-0	0	0	0	0	0	-0	0	0.105	-0.015	0	0	-0	0	0	-0.098	0.1	0	-0	0	0	0	0	0	-0	0	0.05595	0	0	0	-0	0	0	0	0	0	-0	0	554.387	558.268	321.72	216.889	-0.128579	1.24801	0.00165833	-0.0188763	-3.2503
37	-0.0536122	-0.0219211	0.00957277	0.0104278	-0.0164001	-0.0407825	0.0211144	0.0286451	-0.00106006	0.0686935	0.00012081	-0.025836	0.0533798	-0.00391341	0.0164942	-2.27403	0.0245857	-1.53283	0	0	0	0	-0	0	0	0	-0.1265	0	-0	0	0	0	0	0	-0	0	0.105	-0.015	0	0	-0	0	0	-0.098	0.1	0	-0	0	0	0	0	0	-0	0	0.05595	0	0	0	-0	0	0	0	0	0	-0	0	554.443	558.329	321.676	217.063	-0.129431	1.25705	0.00171812	-0.0189116	-3.2754
38	-0.0580035	-0.0219246	0.00956993	0.0104213	-0.0163984	-0.0407771	0.0211118	0.0286444	-0.00105731	0.0571833	-0.00727227	-0.0178315	0.0534476	-0.00391274	0.0162661	-2.27909	0.024893	-1.53285	0	0	0	0	-0	0	0	0	-0.1265	0	-0	0	0	0	0	0	-0	0	0.105	-0.015	0	0	-0	0	0	-0.098	0.1	0	-0	0	0	0	0	0	-0	0	0.05595	0	0	0	-0	0	0	0	0	0	-0	0	554.559	558.456	321.584	217.422	-0.130519	1.27008	0.00183643	-0.0189945	-3.31302
39	-0.0616164	-0.0219289	0.00956712	0.0104139	-0.0163972	-0.0407714	0.021114	0.0286421	-0.00105687	0.0613774	0.00984634	-0.0231997	0.0535024	-0.00391195	0.016078	-2.28332	0.0251597	-1.53287	0	0	0	0	-0	0	0	0	-0.1265	0	-0	0	0	0	0	0	-0	0	0.105	-0.015	0	0	-0	0	0	-0.098	0.1	0	-0	0	0	0	0	0	-0	0	0.05595	0	0	0	-0	0	0	0	0	0	-0	0	554.664	558.574	321.499	217.751	-0.131832	1.28477	0.00194467	-0.0190662	-3.35452
40	-0.0641639	-0.0219294	0.00956561	0.0104128	-0.0163963	-0.0407696	0.0211119	0.0286423	-0.00105821	0.0594611	0.00819497	-0.0255282	0.0535427	-0.00391166	0.0159422	-2.28598	0.0252824	-1.53292	0	0	0	0	-0	0	0	0	-0.1265	0	-0	0	0	0	0	0	-0	0	0.105	-0.015	0	0	-0	0	0	-0.098	0.1	0	-0	0	0	0	0	0	-0	0	0.05595	0	0	0	-0	0	0	0	0	0	-0	0	554.685	558.596	321.482	217.816	-0.132251	1.28921	0.00196771	-0.0190767	-3.36708
41	-0.0590968	-0.0219313	0.00956483	0.0104106	-0.0163965	-0.040768	0.0211126	0.028643	-0.00105793	0.065686	0.00291543	-0.0265593	0.0534611	-0.00391147	0.0162145	-2.28108	0.0251261	-1.53277	0	0	0	0	-0	0	0	0	-0.1265	0	-0	0	0	0	0	0	-0	0	0.105	-0.015	0	0	-0	0	0	-0.098	0.1	0	-0	0	0	0	0	0	-0	0	0.05595	0	0	0	-0	0	0	0	0	0	-0	0	554.713	558.627	321.459	217.905	-0.132737	1.29409	0.0020001	-0.0190959	-3.38025
42	-0.0568219	-0.0219319	0.00956413	0.0104093	-0.0163959	-0.0407667	0.0211124	0.0286423	-0.00105763	0.0637405	0.0092116	-0.0285149	0.053423	-0.00391131	0.0163367	-2.27893	0.0250655	-1.5327	0	0	0	0	-0	0	0	0	-0.1265	0	-0	0	0	0	0	0	-0	0	0.105	-0.015	0	0	-0	0	0	-0.098	0.1	0	-0	0	0	0	0	0	-0	0	0.05595	0	0	0	-0	0	0	0	0	0	-0	0	554.734	558.65	321.442	217.97	-0.133084	1.29769	0.00202399	-0.0191099	-3.39016
43	-0.0605001	-0.0219355	0.00956186	0.0104047	-0.0163955	-0.0407626	0.0211121	0.0286425	-0.00105695	0.0621687	0.00672371	-0.0223227	0.0534797	-0.00391082	0.0161449	-2.28312	0.0253152	-1.53272	0	0	0	0	-0	0	0	0	-0.1265	0	-0	0	0	0	0	0	-0	0	0.105	-0.015	0	0	-0	0	0	-0.098	0.1	0	-0	0	0	0	0	0	-0	0	0.05595	0	0	0	-0	0	0	0	0	0	-0	0	554.821	558.743	321.37	218.242	-0.133912	1.30761	0.00211668	-0.0191757	-3.41887
44	-0.0601289	-0.0219385	0.00955962	0.0103996	-0.0163944	-0.0407585	0.0211128	0.0286421	-0.00105827	0.066997	0.0194975	-0.0161322	0.0534706	-0.00391025	0.0161687	-2.28321	0.0254022	-1.53265	0	0	0	0	-0	0	0	0	-0.1265	0	-0	0	0	0	0	0	-0	0	0.105	-0.015	0	0	-0	0	0	-0.098	0.1	0	-0	0	0	0	0	0	-0	0	0.05595	0	0	0	-0	0	0	0	0	0	-0	0	554.9	558.831	321.303	218.492	-0.134789	1.31797	0.0021978	-0.019232	-3.4488
45	-0.0563474	-0.0219391	0.0095587	0.0103982	-0.0163939	-0.0407572	0.0211118	0.0286419	-0.00105669	0.068383	0.0208853	-0.0127539	0.0534091	-0.00391005	0.0163714	-2.27953	0.0252781	-1.53255	0	0	0	0	-0	0	0	0	-0.1265	0	-0	0	0	0	0	0	-0	0	0.105	-0.015	0	0	-0	0	0	-0.098	0.1	0	-0	0	0	0	0	0	-0	0	0.05595	0	0	0	-0	0	0	0	0	0	-0	0	554.915	558.849	321.29	218.542	-0.135084	1.32112	0.00221448	-0.0192394	-3.4578
46	-0.0563053	-0.0219401	0.00955808	0.0103966	-0.0163937	-0.0407559	0.0211122	0.0286417	-0.0010563	0.0679097	0.0134226	-0.0114936	0.0534077	-0.00390988	0.0163742	-2.27961	0.025304	-1.53253	0	0	0	0	-0	0	0	0	-0.1265	0	-0	0	0	0	0	0	-0	0	0.105	-0.015	0	0	-0	0	0	-0.098	0.1	0	-0	0	0	0	0	0	-0	0	0.05595	0	0	0	-0	0	0	0	0	0	-0	0	554.936	558.871	321.272	218.609	-0.13547	1.32505	0.00223922	-0.0192547	-3.46846
47	-0.050055	-0.0219411	0.00955723	0.0103952	-0.0163933	-0.0407545	0.0211126	0.028642	-0.00105614	0.0705644	0.00600297	-0.00952691	0.0533045	-0.00390971	0.0167093	-2.27352	0.0250984	-1.53235	0	0	0	0	-0	0	0	0	-0.1265	0	-0	0	0	0	0	0	-0	0	0.105	-0.015	0	0	-0	0	0	-0.098	0.1	0	-0	0	0	0	0	0	-0	0	0.05595	0	0	0	-0	0	0	0	0	0	-0	0	554.963	558.9	321.25	218.693	-0.135788	1.32871	0.00226725	-0.0192742	-3.47891
48	-0.0500791	-0.0219433	0.00955565	0.0103923	-0.0163929	-0.0407517	0.0211126	0.0286431	-0.00105591	0.06425	0.00991452	-0.0024908	0.0533019	-0.00390938	0.0167104	-2.27387	0.0251721	-1.53231	0	0	0	0	-0	0	0	0	-0.1265	0	-0	0	0	0	0	0	-0	0	0.105	-0.015	0	0	-0	0	0	-0.098	0.1	0	-0	0	0	0	0	0	-0	0	0.05595	0	0	0	-0	0	0	0	0	0	-0	0	555.017	558.957	321.202	218.87	-0.136306	1.33511	0.00232879	-0.0193174	-3.49772
49	-0.0504081	-0.0219432	0.00955554	0.0103905	-0.0163923	-0.0407509	0.0211118	0.0286417	-0.00105576	0.0617196	0.0110694	-0.000138485	0.0533071	-0.00390923	0.0166932	-2.27425	0.0251942	-1.53231	0	0	0	0	-0	0	0	0	-0.1265	0	-0	0	0	0	0	0	-0	0	0.105	-0.015	0	0	-0	0	0	-0.098	0.1	0	-0	0	0	0	0	0	-0	0	0.05595	0	0	0	-0	0	0	0	0	0	-0	0	555.024	558.965	321.195	218.894	-0.136428	1.33649	0.00233761	-0.0193196	-3.50189
50	-0.0529655	-0.0219441	0.00955504	0.0103902	-0.0163925	-0.0407503	0.0211116	0.0286416	-0.00105575	0.0590545	0.0104516	-0.000192398	0.0533497	-0.00390916	0.0165572	-2.27686	0.0253061	-1.53237	0	0	0	0	-0	0	0	0	-0.1265	0	-0	0	0	0	0	0	-0	0	0.105	-0.015	0	0	-0	0	0	-0.098	0.1	0	-0	0	0	0	0	0	-0	0	0.05595	0	0	0	-0	0	0	0	0	0	-0	0	555.034	558.977	321.187	218.926	-0.136606	1.33836	0.00234771	-0.0193271	-3.50698
51	-0.0503898	-0.0219453	0.00955425	0.010389	-0.0163924	-0.0407491	0.0211117	0.0286421	-0.001055	0.0656938	0.0146938	-0.00501849	0.0533063	-0.00390903	0.0166955	-2.27443	0.0252392	-1.53228	0	0	0	0	-0	0	0	0	-0.1265	0	-0	0	0	0	0	0	-0	0	0.105	-0.015	0	0	-0	0	0	-0.098	0.1	0	-0	0	0	0	0	0	-0	0	0.05595	0	0	0	-0	0	0	0	0	0	-0	0	555.057	559.002	321.166	219.003	-0.136932	1.34196	0.00237485	-0.0193457	-3.51706
52	-0.0501367	-0.0219466	0.00955329	0.0103867	-0.0163919	-0.0407472	0.0211118	0.0286441	-0.0010549	0.0527646	0.0150332	-0.000771538	0.0533008	-0.0039088	0.0167105	-2.27438	0.0252749	-1.53225	0	0	0	0	-0	0	0	0	-0.1265	0	-0	0	0	0	0	0	-0	0	0.105	-0.015	0	0	-0	0	0	-0.098	0.1	0	-0	0	0	0	0	0	-0	0	0.05595	0	0	0	-0	0	0	0	0	0	-0	0	555.091	559.039	321.136	219.114	-0.137346	1.34671	0.00241269	-0.0193719	-3.53062
53	-0.0437508	-0.0219483	0.00955213	0.0103835	-0.0163913	-0.0407448	0.0211116	0.0286414	-0.00105499	0.0548399	0.0160499	-0.00242651	0.0531925	-0.00390851	0.0170531	-2.26829	0.0250925	-1.53205	0	0	0	0	-0	0	0	0	-0.1265	0	-0	0	0	0	0	0	-0	0	0.105	-0.015	0	0	-0	0	0	-0.098	0.1	0	-0	0	0	0	0	0	-0	0	0.05595	0	0	0	-0	0	0	0	0	0	-0	0	555.137	559.089	321.093	219.269	-0.137763	1.35213	0.00246399	-0.0194087	-3.54688
54	-0.0458561	-0.0219496	0.00955095	0.0103827	-0.0163912	-0.0407434	0.0211123	0.0286411	-0.00105453	0.050749	0.00486982	-0.000178909	0.0532266	-0.00390831	0.0169419	-2.27053	0.0252049	-1.53208	0	0	0	0	-0	0	0	0	-0.1265	0	-0	0	0	0	0	0	-0	0	0.105	-0.015	0	0	-0	0	0	-0.098	0.1	0	-0	0	0	0	0	0	-0	0	0.05595	0	0	0	-0	0	0	0	0	0	-0	0	555.16	559.115	321.073	219.343	-0.138049	1.35553	0.00248797	-0.0194252	-3.55679
55	-0.0434318	-0.0219501	0.00955027	0.0103816	-0.0163908	-0.0407424	0.021112	0.0286421	-0.00105446	0.0555427	0.00536737	-0.00646306	0.053185	-0.00390817	0.0170715	-2.26821	0.0251336	-1.53201	0	0	0	0	-0	0	0	0	-0.1265	0	-0	0	0	0	0	0	-0	0	0.105	-0.015	0	0	-0	0	0	-0.098	0.1	0	-0	0	0	0	0	0	-0	0	0.05595	0	0	0	-0	0	0	0	0	0	-0	0	555.177	559.133	321.058	219.397	-0.138316	1.35843	0.00250684	-0.0194375	-3.56493
56	-0.0459463	-0.0219506	0.00955001	0.0103803	-0.0163906	-0.0407416	0.0211116	0.0286413	-0.0010547	0.0569946	0.00449418	-0.00506363	0.0532274	-0.00390807	0.0169382	-2.2708	0.0252477	-1.53206	0	0	0	0	-0	0	0	0	-0.1265	0	-0	0	0	0	0	0	-0	0	0.105	-0.015	0	0	-0	0	0	-0.098	0.1	0	-0	0	0	0	0	0	-0	0	0.05595	0	0	0	-0	0	0	0	0	0	-0	0	555.189	559.146	321.047	219.437	-0.138513	1.36052	0.00252211	-0.0194463	-3.57079
57	-0.0436495	-0.0219514	0.00954952	0.0103797	-0.0163907	-0.0407409	0.0211116	0.0286419	-0.00105449	0.0502588	0.00406431	-0.00299134	0.053188	-0.00390798	0.017061	-2.26858	0.0251755	-1.53199	0	0	0	0	-0	0	0	0	-0.1265	0	-0	0	0	0	0	0	-0	0	0.105	-0.015	0	0	-0	0	0	-0.098	0.1	0	-0	0	0	0	0	0	-0	0	0.05595	0	0	0	-0	0	0	0	0	0	-0	0	555.201	559.159	321.036	219.477	-0.138675	1.36233	0.00253643	-0.0194558	-3.57593
58	-0.0431976	-0.0219513	0.00954951	0.0103792	-0.0163905	-0.0407407	0.0211116	0.0286412	-0.00105458	0.0511413	0.00214381	-0.00253867	0.0531801	-0.00390794	0.0170851	-2.26814	0.0251613	-1.53198	0	0	0	0	-0	0	0	0	-0.1265	0	-0	0	0	0	0	0	-0	0	0.105	-0.015	0	0	-0	0	0	-0.098	0.1	0	-0	0	0	0	0	0	-0	0	0.05595	0	0	0	-0	0	0	0	0	0	-0	0	555.204	559.162	321.033	219.486	-0.138705	1.36271	0.00253887	-0.0194569	-3.5771
59	-0.044853	-0.0219516	0.00954923	0.0103792	-0.0163905	-0.0407404	0.0211116	0.0286413	-0.00105449	0.0501053	0.000526646	-0.000230567	0.0532082	-0.00390791	0.0169972	-2.26982	0.0252325	-1.53202	0	0	0	0	-0	0	0	0	-0.1265	0	-0	0	0	0	0	0	-0	0	0.105	-0.015	0	0	-0	0	0	-0.098	0.1	0	-0	0	0	0	0	0	-0	0	0.05595	0	0	0	-0	0	0	0	0	0	-0	0	555.209	559.168	321.029	219.502	-0.138765	1.36341	0.00254392	-0.019461	-3.57911
60	-0.0433148	-0.021952	0.00954903	0.0103787	-0.0163904	-0.04074	0.0211116	0.0286412	-0.00105452	0.0518492	-0.000436245	0.000185031	0.0531817	-0.00390786	0.0170794	-2.26833	0.0251832	-1.53197	0	0	0	0	-0	0	0	0	-0.1265	0	-0	0	0	0	0	0	-0	0	0.105	-0.015	0	0	-0	0	0	-0.098	0.1	0	-0	0	0	0	0	0	-0	0	0.05595	0	0	0	-0	0	0	0	0	0	-0	0	555.216	559.175	321.022	219.527	-0.138851	1.36445	0.0025529	-0.0194672	-3.58214
61	-0.0413446	-0.0219525	0.00954868	0.0103781	-0.0163903	-0.0407395	0.0211117	0.028642	-0.00105429	0.0590805	-0.00094149	-0.00248203	0.0531476	-0.00390779	0.0171848	-2.26643	0.0251218	-1.53191	0	0	0	0	-0	0	0	0	-0.1265	0	-0	0	0	0	0	0	-0	0	0.105	-0.015	0	0	-0	0	0	-0.098	0.1	0	-0	0	0	0	0	0	-0	0	0.05595	0	0	0	-0	0	0	0	0	0	-0	0	555.228	559.188	321.012	219.563	-0.138976	1.36593	0.0025645	-0.0194759	-3.58641
62	-0.0345823	-0.021953	0.00954832	0.0103769	-0.0163901	-0.0407386	0.0211121	0.0286414	-0.00105341	0.0548838	-0.00941791	0.00332688	0.0530308	-0.00390769	0.0175449	-2.25977	0.0248806	-1.53173	0	0	0	0	-0	0	0	0	-0.1265	0	-0	0	0	0	0	0	-0	0	0.105	-0.015	0	0	-0	0	0	-0.098	0.1	0	-0	0	0	0	0	0	-0	0	0.05595	0	0	0	-0	0	0	0	0	0	-0	0	555.243	559.204	320.997	219.616	-0.139122	1.3678	0.00258319	-0.0194888	-3.59202
63	-0.0332636	-0.0219532	0.0095479	0.0103768	-0.0163899	-0.0407381	0.0211119	0.0286414	-0.0010543	0.0514285	-0.00578821	0.0026396	0.0530062	-0.00390762	0.0176147	-2.2585	0.0248398	-1.53169	0	0	0	0	-0	0	0	0	-0.1265	0	-0	0	0	0	0	0	-0	0	0.105	-0.015	0	0	-0	0	0	-0.098	0.1	0	-0	0	0	0	0	0	-0	0	0.05595	0	0	0	-0	0	0	0	0	0	-0	0	555.251	559.213	320.99	219.642	-0.139212	1.36896	0.00259072	-0.0194948	-3.59546
64	-0.039306	-0.0219541	0.00954741	0.0103756	-0.0163899	-0.0407373	0.0211116	0.0286412	-0.00105418	0.0494268	-0.00388719	0.00193231	0.053112	-0.00390752	0.0172953	-2.26465	0.0250997	-1.53183	0	0	0	0	-0	0	0	0	-0.1265	0	-0	0	0	0	0	0	-0	0	0.105	-0.015	0	0	-0	0	0	-0.098	0.1	0	-0	0	0	0	0	0	-0	0	0.05595	0	0	0	-0	0	0	0	0	0	-0	0	555.268	559.231	320.974	219.698	-0.139363	1.37087	0.00261048	-0.0195088	-3.60116
65	-0.0383692	-0.0219545	0.00954708	0.0103752	-0.0163898	-0.0407367	0.0211117	0.0286411	-0.00105391	0.0480383	-0.00825326	0.00496819	0.0530946	-0.00390745	0.0173451	-2.26376	0.025075	-1.53179	0	0	0	0	-0	0	0	0	-0.1265	0	-0	0	0	0	0	0	-0	0	0.105	-0.015	0	0	-0	0	0	-0.098	0.1	0	-0	0	0	0	0	0	-0	0	0.05595	0	0	0	-0	0	0	0	0	0	-0	0	555.276	559.24	320.966	219.726	-0.13947	1.37216	0.0026191	-0.0195149	-3.60495
66	-0.039708	-0.0219547	0.00954688	0.0103746	-0.0163897	-0.0407364	0.0211116	0.0286412	-0.00105412	0.0477927	-0.0068003	0.00769741	0.0531176	-0.0039074	0.0172742	-2.26514	0.0251361	-1.53182	0	0	0	0	-0	0	0	0	-0.1265	0	-0	0	0	0	0	0	-0	0	0.105	-0.015	0	0	-0	0	0	-0.098	0.1	0	-0	0	0	0	0	0	-0	0	0.05595	0	0	0	-0	0	0	0	0	0	-0	0	555.282	559.247	320.96	219.747	-0.139554	1.37314	0.00262609	-0.0195197	-3.60774
67	-0.0403411	-0.021955	0.00954669	0.0103742	-0.0163897	-0.0407361	0.0211116	0.0286412	-0.00105411	0.0480783	-0.00532814	0.0108007	0.0531284	-0.00390736	0.0172408	-2.2658	0.0251674	-1.53183	0	0	0	0	-0	0	0	0	-0.1265	0	-0	0	0	0	0	0	-0	0	0.105	-0.015	0	0	-0	0	0	-0.098	0.1	0	-0	0	0	0	0	0	-0	0	0.05595	0	0	0	-0	0	0	0	0	0	-0	0	555.287	559.252	320.956	219.763	-0.139626	1.3739	0.00263195	-0.0195233	-3.6099
68	-0.0392405	-0.0219551	0.00954661	0.010374	-0.0163896	-0.0407359	0.0211116	0.0286411	-0.00105405	0.0483455	-0.00405801	0.0126759	0.0531093	-0.00390733	0.0172994	-2.26472	0.0251295	-1.5318	0	0	0	0	-0	0	0	0	-0.1265	0	-0	0	0	0	0	0	-0	0	0.105	-0.015	0	0	-0	0	0	-0.098	0.1	0	-0	0	0	0	0	0	-0	0	0.05595	0	0	0	-0	0	0	0	0	0	-0	0	555.29	559.256	320.952	219.774	-0.139659	1.37436	0.00263591	-0.0195261	-3.61131
69	-0.0400058	-0.0219555	0.00954634	0.0103736	-0.0163896	-0.0407355	0.0211115	0.028641	-0.00105397	0.0468235	-0.00629506	0.0126364	0.0531223	-0.00390729	0.0172591	-2.26553	0.0251703	-1.53182	0	0	0	0	-0	0	0	0	-0.1265	0	-0	0	0	0	0	0	-0	0	0.105	-0.015	0	0	-0	0	0	-0.098	0.1	0	-0	0	0	0	0	0	-0	0	0.05595	0	0	0	-0	0	0	0	0	0	-0	0	555.298	559.264	320.945	219.8	-0.139744	1.37537	0.00264412	-0.0195324	-3.61422
70	-0.0387325	-0.021956	0.00954604	0.0103728	-0.0163895	-0.0407349	0.0211117	0.0286412	-0.00105391	0.0489572	-0.0085381	0.0108715	0.0530998	-0.00390721	0.0173274	-2.26433	0.0251368	-1.53177	0	0	0	0	-0	0	0	0	-0.1265	0	-0	0	0	0	0	0	-0	0	0.105	-0.015	0	0	-0	0	0	-0.098	0.1	0	-0	0	0	0	0	0	-0	0	0.05595	0	0	0	-0	0	0	0	0	0	-0	0	555.309	559.276	320.934	219.838	-0.139839	1.37663	0.00265743	-0.0195419	-3.61805
71	-0.0399377	-0.0219561	0.00954583	0.0103724	-0.0163894	-0.0407345	0.0211116	0.0286411	-0.00105384	0.0504833	-0.00931394	0.00860452	0.0531205	-0.00390716	0.0172636	-2.26557	0.0251917	-1.5318	0	0	0	0	-0	0	0	0	-0.1265	0	-0	0	0	0	0	0	-0	0	0.105	-0.015	0	0	-0	0	0	-0.098	0.1	0	-0	0	0	0	0	0	-0	0	0.05595	0	0	0	-0	0	0	0	0	0	-0	0	555.315	559.283	320.929	219.856	-0.139912	1.37748	0.00266364	-0.019546	-3.62052
72	-0.0406355	-0.0219563	0.00954571	0.0103722	-0.0163893	-0.0407343	0.0211116	0.0286411	-0.00105386	0.0509298	-0.00842189	0.0110333	0.0531324	-0.00390713	0.0172267	-2.26629	0.0252248	-1.53181	0	0	0	0	-0	0	0	0	-0.1265	0	-0	0	0	0	0	0	-0	0	0.105	-0.015	0	0	-0	0	0	-0.098	0.1	0	-0	0	0	0	0	0	-0	0	0.05595	0	0	0	-0	0	0	0	0	0	-0	0	555.319	559.287	320.925	219.87	-0.139954	1.37804	0.0026677	-0.0195493	-3.6222
73	-0.041304	-0.0219567	0.0095454	0.0103717	-0.0163893	-0.0407338	0.0211116	0.0286411	-0.0010537	0.0513872	-0.0101592	0.014076	0.0531436	-0.00390708	0.0171916	-2.26702	0.0252641	-1.53182	0	0	0	0	-0	0	0	0	-0.1265	0	-0	0	0	0	0	0	-0	0	0.105	-0.015	0	0	-0	0	0	-0.098	0.1	0	-0	0	0	0	0	0	-0	0	0.05595	0	0	0	-0	0	0	0	0	0	-0	0	555.328	559.296	320.916	219.9	-0.140047	1.37918	0.00267837	-0.019557	-3.62552
74	-0.0439718	-0.0219569	0.00954526	0.0103713	-0.0163892	-0.0407335	0.0211115	0.028641	-0.00105377	0.0540934	-0.00918643	0.0149235	0.0531893	-0.00390704	0.01705	-2.26971	0.0253744	-1.53188	0	0	0	0	-0	0	0	0	-0.1265	0	-0	0	0	0	0	0	-0	0	0.105	-0.015	0	0	-0	0	0	-0.098	0.1	0	-0	0	0	0	0	0	-0	0	0.05595	0	0	0	-0	0	0	0	0	0	-0	0	555.332	559.301	320.912	219.915	-0.140104	1.37987	0.00268329	-0.0195604	-3.62758
75	-0.047316	-0.0219574	0.00954493	0.0103708	-0.0163891	-0.040733	0.0211116	0.028641	-0.00105353	0.0524873	-0.0121978	0.0173731	0.0532458	-0.00390698	0.0168725	-2.27312	0.0255188	-1.53196	0	0	0	0	-0	0	0	0	-0.1265	0	-0	0	0	0	0	0	-0	0	0.105	-0.015	0	0	-0	0	0	-0.098	0.1	0	-0	0	0	0	0	0	-0	0	0.05595	0	0	0	-0	0	0	0	0	0	-0	0	555.342	559.313	320.902	219.949	-0.140216	1.38121	0.0026942	-0.0195687	-3.63143
76	-0.0461435	-0.021958	0.00954447	0.01037	-0.016389	-0.0407322	0.0211118	0.028642	-0.00105389	0.0454639	-0.0111481	0.0127645	0.0532253	-0.00390688	0.0169356	-2.27203	0.0254941	-1.53192	0	0	0	0	-0	0	0	0	-0.1265	0	-0	0	0	0	0	0	-0	0	0.105	-0.015	0	0	-0	0	0	-0.098	0.1	0	-0	0	0	0	0	0	-0	0	0.05595	0	0	0	-0	0	0	0	0	0	-0	0	555.357	559.329	320.889	219.997	-0.14038	1.38319	0.00271013	-0.0195808	-3.63717
77	-0.0468484	-0.0219582	0.00954433	0.0103692	-0.0163887	-0.0407318	0.0211116	0.028641	-0.00105356	0.0462781	-0.0141561	0.011142	0.0532369	-0.00390682	0.0168984	-2.27278	0.0255317	-1.53193	0	0	0	0	-0	0	0	0	-0.1265	0	-0	0	0	0	0	0	-0	0	0.105	-0.015	0	0	-0	0	0	-0.098	0.1	0	-0	0	0	0	0	0	-0	0	0.05595	0	0	0	-0	0	0	0	0	0	-0	0	555.364	559.336	320.882	220.02	-0.14046	1.38416	0.0027186	-0.0195858	-3.64008
78	-0.0478898	-0.0219591	0.00954367	0.0103686	-0.0163888	-0.0407309	0.0211118	0.0286414	-0.00105362	0.0482334	-0.0133436	0.0170315	0.0532543	-0.00390673	0.0168434	-2.27392	0.0255947	-1.53194	0	0	0	0	-0	0	0	0	-0.1265	0	-0	0	0	0	0	0	-0	0	0.105	-0.015	0	0	-0	0	0	-0.098	0.1	0	-0	0	0	0	0	0	-0	0	0.05595	0	0	0	-0	0	0	0	0	0	-0	0	555.378	559.351	320.867	220.071	-0.140666	1.38652	0.00273666	-0.019599	-3.64679
79	-0.0511359	-0.0219592	0.00954348	0.010368	-0.0163885	-0.0407305	0.0211116	0.0286411	-0.00105366	0.0448359	-0.0164741	0.0135802	0.0533086	-0.00390667	0.0166709	-2.27721	0.0257315	-1.53202	0	0	0	0	-0	0	0	0	-0.1265	0	-0	0	0	0	0	0	-0	0	0.105	-0.015	0	0	-0	0	0	-0.098	0.1	0	-0	0	0	0	0	0	-0	0	0.05595	0	0	0	-0	0	0	0	0	0	-0	0	555.386	559.359	320.86	220.096	-0.140713	1.38726	0.00274498	-0.0196047	-3.64922
80	-0.0489934	-0.0219596	0.00954325	0.0103676	-0.0163886	-0.0407301	0.0211115	0.0286409	-0.00105333	0.0462241	-0.0175488	0.0125861	0.0532725	-0.00390662	0.0167853	-2.2751	0.0256566	-1.53196	0	0	0	0	-0	0	0	0	-0.1265	0	-0	0	0	0	0	0	-0	0	0.105	-0.015	0	0	-0	0	0	-0.098	0.1	0	-0	0	0	0	0	0	-0	0	0.05595	0	0	0	-0	0	0	0	0	0	-0	0	555.391	559.365	320.854	220.115	-0.140793	1.38816	0.00275185	-0.0196091	-3.65178
81	-0.0507294	-0.0219597	0.0095431	0.0103673	-0.0163885	-0.0407299	0.0211115	0.0286409	-0.0010533	0.0482768	-0.0186158	0.0121292	0.0533014	-0.00390658	0.0166929	-2.27686	0.02573	-1.532	0	0	0	0	-0	0	0	0	-0.1265	0	-0	0	0	0	0	0	-0	0	0.105	-0.015	0	0	-0	0	0	-0.098	0.1	0	-0	0	0	0	0	0	-0	0	0.05595	0	0	0	-0	0	0	0	0	0	-0	0	555.395	559.369	320.85	220.128	-0.140864	1.38888	0.0027572	-0.0196123	-3.65378
82	-0.0505836	-0.0219601	0.00954283	0.0103668	-0.0163884	-0.0407294	0.0211114	0.028641	-0.00105288	0.0426256	-0.0243815	0.0150314	0.0532985	-0.00390653	0.0167011	-2.27677	0.0257378	-1.53199	0	0	0	0	-0	0	0	0	-0.1265	0	-0	0	0	0	0	0	-0	0	0.105	-0.015	0	0	-0	0	0	-0.098	0.1	0	-0	0	0	0	0	0	-0	0	0.05595	0	0	0	-0	0	0	0	0	0	-0	0	555.404	559.379	320.841	220.159	-0.140924	1.38977	0.00276661	-0.0196201	-3.65653
83	-0.0480354	-0.0219602	0.00954275	0.0103663	-0.0163883	-0.0407292	0.0211115	0.028641	-0.00105305	0.03902	-0.0262661	0.0174491	0.0532558	-0.00390649	0.0168371	-2.27425	0.0256453	-1.53192	0	0	0	0	-0	0	0	0	-0.1265	0	-0	0	0	0	0	0	-0	0	0.105	-0.015	0	0	-0	0	0	-0.098	0.1	0	-0	0	0	0	0	0	-0	0	0.05595	0	0	0	-0	0	0	0	0	0	-0	0	555.408	559.383	320.837	220.173	-0.14096	1.39033	0.00277089	-0.0196236	-3.6583
84	-0.0479863	-0.0219604	0.00954262	0.0103662	-0.0163883	-0.040729	0.0211115	0.0286409	-0.00105316	0.0378951	-0.0259479	0.0199227	0.0532547	-0.00390647	0.0168399	-2.27423	0.0256483	-1.53191	0	0	0	0	-0	0	0	0	-0.1265	0	-0	0	0	0	0	0	-0	0	0.105	-0.015	0	0	-0	0	0	-0.098	0.1	0	-0	0	0	0	0	0	-0	0	0.05595	0	0	0	-0	0	0	0	0	0	-0	0	555.411	559.387	320.834	220.184	-0.140988	1.39071	0.0027744	-0.0196263	-3.65946
85	-0.0453009	-0.0219608	0.00954235	0.0103658	-0.0163882	-0.0407286	0.0211115	0.0286411	-0.00105288	0.0341425	-0.0281395	0.0236213	0.0532093	-0.00390643	0.0169831	-2.27159	0.0255547	-1.53184	0	0	0	0	-0	0	0	0	-0.1265	0	-0	0	0	0	0	0	-0	0	0.105	-0.015	0	0	-0	0	0	-0.098	0.1	0	-0	0	0	0	0	0	-0	0	0.05595	0	0	0	-0	0	0	0	0	0	-0	0	555.419	559.395	320.827	220.209	-0.141108	1.39201	0.00278308	-0.0196325	-3.66306
86	-0.0507865	-0.0219611	0.00954208	0.0103651	-0.0163881	-0.040728	0.0211117	0.0286408	-0.00105268	0.0379928	-0.0211961	0.0205578	0.0533018	-0.00390635	0.0166919	-2.27714	0.0257837	-1.53197	0	0	0	0	-0	0	0	0	-0.1265	0	-0	0	0	0	0	0	-0	0	0.105	-0.015	0	0	-0	0	0	-0.098	0.1	0	-0	0	0	0	0	0	-0	0	0.05595	0	0	0	-0	0	0	0	0	0	-0	0	555.43	559.407	320.816	220.244	-0.141195	1.39316	0.00279521	-0.0196416	-3.66655
87	-0.0526492	-0.0219617	0.00954158	0.0103645	-0.0163879	-0.0407273	0.0211118	0.0286412	-0.00105284	0.0363923	-0.0217071	0.02626	0.0533315	-0.00390626	0.0165932	-2.27909	0.0258787	-1.532	0	0	0	0	-0	0	0	0	-0.1265	0	-0	0	0	0	0	0	-0	0	0.105	-0.015	0	0	-0	0	0	-0.098	0.1	0	-0	0	0	0	0	0	-0	0	0.05595	0	0	0	-0	0	0	0	0	0	-0	0	555.446	559.425	320.801	220.295	-0.141318	1.3949	0.00281009	-0.0196549	-3.67182
88	-0.0534086	-0.021962	0.0095414	0.0103635	-0.0163878	-0.0407267	0.0211116	0.0286409	-0.00105287	0.0354542	-0.0203281	0.0235079	0.0533438	-0.00390618	0.016553	-2.2799	0.0259194	-1.53201	0	0	0	0	-0	0	0	0	-0.1265	0	-0	0	0	0	0	0	-0	0	0.105	-0.015	0	0	-0	0	0	-0.098	0.1	0	-0	0	0	0	0	0	-0	0	0.05595	0	0	0	-0	0	0	0	0	0	-0	0	555.454	559.432	320.793	220.319	-0.141423	1.39602	0.00282109	-0.0196604	-3.67507
89	-0.0532554	-0.0219621	0.00954131	0.0103634	-0.0163878	-0.0407266	0.0211115	0.0286407	-0.00105289	0.0359142	-0.0221225	0.023369	0.0533412	-0.00390615	0.0165612	-2.27975	0.0259158	-1.53201	0	0	0	0	-0	0	0	0	-0.1265	0	-0	0	0	0	0	0	-0	0	0.105	-0.015	0	0	-0	0	0	-0.098	0.1	0	-0	0	0	0	0	0	-0	0	0.05595	0	0	0	-0	0	0	0	0	0	-0	0	555.455	559.433	320.792	220.324	-0.141435	1.39621	0.00282244	-0.0196614	-3.67572
90	-0.0498173	-0.0219623	0.00954119	0.0103632	-0.0163878	-0.0407264	0.0211116	0.0286408	-0.00105281	0.0365739	-0.0240426	0.0260952	0.0532842	-0.00390614	0.0167447	-2.27634	0.0257871	-1.53192	0	0	0	0	-0	0	0	0	-0.1265	0	-0	0	0	0	0	0	-0	0	0.105	-0.015	0	0	-0	0	0	-0.098	0.1	0	-0	0	0	0	0	0	-0	0	0.05595	0	0	0	-0	0	0	0	0	0	-0	0	555.458	559.437	320.789	220.335	-0.141495	1.39684	0.00282598	-0.0196641	-3.67743
91	-0.0514752	-0.0219624	0.00954104	0.0103632	-0.0163877	-0.0407262	0.0211115	0.0286408	-0.00105285	0.038858	-0.0256423	0.0264114	0.0533115	-0.00390611	0.0166565	-2.27802	0.0258584	-1.53196	0	0	0	0	-0	0	0	0	-0.1265	0	-0	0	0	0	0	0	-0	0	0.105	-0.015	0	0	-0	0	0	-0.098	0.1	0	-0	0	0	0	0	0	-0	0	0.05595	0	0	0	-0	0	0	0	0	0	-0	0	555.462	559.442	320.784	220.35	-0.14152	1.3973	0.00282995	-0.0196681	-3.6789
92	-0.0528311	-0.0219627	0.00954084	0.0103627	-0.0163877	-0.0407258	0.0211116	0.0286412	-0.00105263	0.0352724	-0.0256256	0.0310166	0.0533338	-0.00390607	0.0165845	-2.27942	0.0259213	-1.53198	0	0	0	0	-0	0	0	0	-0.1265	0	-0	0	0	0	0	0	-0	0	0.105	-0.015	0	0	-0	0	0	-0.098	0.1	0	-0	0	0	0	0	0	-0	0	0.05595	0	0	0	-0	0	0	0	0	0	-0	0	555.469	559.448	320.777	220.372	-0.141589	1.39812	0.00283851	-0.0196739	-3.68128
93	-0.0524	-0.0219628	0.00954074	0.0103623	-0.0163875	-0.0407256	0.0211116	0.0286408	-0.00105267	0.0355219	-0.0279034	0.0343209	0.0533266	-0.00390604	0.0166075	-2.27901	0.0259097	-1.53197	0	0	0	0	-0	0	0	0	-0.1265	0	-0	0	0	0	0	0	-0	0	0.105	-0.015	0	0	-0	0	0	-0.098	0.1	0	-0	0	0	0	0	0	-0	0	0.05595	0	0	0	-0	0	0	0	0	0	-0	0	555.472	559.452	320.774	220.383	-0.141651	1.39875	0.00284252	-0.0196763	-3.68301
94	-0.0559421	-0.0219632	0.00954048	0.010362	-0.0163875	-0.0407252	0.0211116	0.0286407	-0.00105277	0.036504	-0.0314593	0.0334616	0.0533852	-0.00390599	0.016419	-2.28259	0.0260581	-1.53205	0	0	0	0	-0	0	0	0	-0.1265	0	-0	0	0	0	0	0	-0	0	0.105	-0.015	0	0	-0	0	0	-0.098	0.1	0	-0	0	0	0	0	0	-0	0	0.05595	0	0	0	-0	0	0	0	0	0	-0	0	555.479	559.46	320.766	220.407	-0.141736	1.39979	0.00285036	-0.0196828	-3.68604
95	-0.060657	-0.0219636	0.00954011	0.0103615	-0.0163875	-0.0407247	0.0211118	0.0286414	-0.0010524	0.0395624	-0.0307888	0.0269171	0.0534619	-0.00390593	0.0161677	-2.28737	0.0262567	-1.53217	0	0	0	0	-0	0	0	0	-0.1265	0	-0	0	0	0	0	0	-0	0	0.105	-0.015	0	0	-0	0	0	-0.098	0.1	0	-0	0	0	0	0	0	-0	0	0.05595	0	0	0	-0	0	0	0	0	0	-0	0	555.49	559.471	320.755	220.442	-0.141827	1.40098	0.00286205	-0.0196921	-3.68959
96	-0.064156	-0.0219637	0.00954004	0.010361	-0.0163872	-0.0407244	0.0211117	0.0286411	-0.00105238	0.0425285	-0.0298663	0.0215045	0.0535177	-0.00390588	0.0159807	-2.2909	0.0263996	-1.53226	0	0	0	0	-0	0	0	0	-0.1265	0	-0	0	0	0	0	0	-0	0	0.105	-0.015	0	0	-0	0	0	-0.098	0.1	0	-0	0	0	0	0	0	-0	0	0.05595	0	0	0	-0	0	0	0	0	0	-0	0	555.495	559.476	320.75	220.459	-0.141881	1.40171	0.00286782	-0.0196962	-3.69185
97	-0.0655729	-0.0219639	0.00953992	0.0103607	-0.0163872	-0.0407241	0.0211115	0.0286406	-0.00105263	0.0438522	-0.0266561	0.0221729	0.0535399	-0.00390585	0.015905	-2.29234	0.0264602	-1.53229	0	0	0	0	-0	0	0	0	-0.1265	0	-0	0	0	0	0	0	-0	0	0.105	-0.015	0	0	-0	0	0	-0.098	0.1	0	-0	0	0	0	0	0	-0	0	0.05595	0	0	0	-0	0	0	0	0	0	-0	0	555.499	559.48	320.746	220.472	-0.141915	1.40214	0.00287263	-0.0196994	-3.69315
98	-0.0648889	-0.0219641	0.00953975	0.0103605	-0.0163873	-0.0407239	0.0211115	0.0286407	-0.00105257	0.0423423	-0.0253673	0.020057	0.053529	-0.00390583	0.0159416	-2.29167	0.0264384	-1.53227	0	0	0	0	-0	0	0	0	-0.1265	0	-0	0	0	0	0	0	-0	0	0.105	-0.015	0	0	-0	0	0	-0.098	0.1	0	-0	0	0	0	0	0	-0	0	0.05595	0	0	0	-0	0	0	0	0	0	-0	0	555.501	559.483	320.743	220.481	-0.141962	1.40262	0.0028761	-0.0197017	-3.69448
99	-0.0645722	-0.0219642	0.00953966	0.0103605	-0.0163872	-0.0407238	0.0211115	0.0286407	-0.00105259	0.0430335	-0.0272958	0.0185454	0.0535239	-0.00390582	0.0159586	-2.29137	0.0264295	-1.53226	0	0	0	0	-0	0	0	0	-0.1265	0	-0	0	0	0	0	0	-0	0	0.105	-0.015	0	0	-0	0	0	-0.098	0.1	0	-0	0	0	0	0	0	-0	0	0.05595	0	0	0	-0	0	0	0	0	0	-0	0	555.503	559.485	320.741	220.488	-0.141997	1.40302	0.00287789	-0.0197033	-3.69559
100	-0.0617654	-0.0219644	0.00953953	0.0103602	-0.0163872	-0.0407236	0.0211115	0.0286407	-0.00105254	0.0427192	-0.026599	0.0203365	0.0534789	-0.00390579	0.0161091	-2.28859	0.0263285	-1.53218	0	0	0	0	-0	0	0	0	-0.1265	0	-0	0	0	0	0	0	-0	0	0.105	-0.015	0	0	-0	0	0	-0.098	0.1	0	-0	0	0	0	0	0	-0	0	0.05595	0	0	0	-0	0	0	0	0	0	-0	0	555.508	559.49	320.736	220.504	-0.142038	1.40358	0.00288312	-0.0197076	-3.69729
