Stefan210/kinematic_calibration/src/kinematic_calibration/validation/experiments/experiments/impact_noise/outlier/larm_randomize_8_measurements_rk_true/optimization_intermediate_results.csv
iteration	HeadPitch_offset	HeadYaw_offset	LElbowRoll_offset	LElbowYaw_offset	LShoulderPitch_offset	LShoulderRoll_offset	marker_transform_larm_tx	marker_transform_larm_ty	marker_transform_larm_tz	marker_transform_larm_rr	marker_transform_larm_rp	marker_transform_larm_ry	camera_transform_tx	camera_transform_ty	camera_transform_tz	camera_transform_rr	camera_transform_rp	camera_transform_ry	HeadPitch_transform_tx	HeadPitch_transform_ty	HeadPitch_transform_tz	HeadPitch_transform_rr	HeadPitch_transform_rp	HeadPitch_transform_ry	HeadYaw_transform_tx	HeadYaw_transform_ty	HeadYaw_transform_tz	HeadYaw_transform_rr	HeadYaw_transform_rp	HeadYaw_transform_ry	LElbowRoll_transform_tx	LElbowRoll_transform_ty	LElbowRoll_transform_tz	LElbowRoll_transform_rr	LElbowRoll_transform_rp	LElbowRoll_transform_ry	LElbowYaw_transform_tx	LElbowYaw_transform_ty	LElbowYaw_transform_tz	LElbowYaw_transform_rr	LElbowYaw_transform_rp	LElbowYaw_transform_ry	LShoulderPitch_transform_tx	LShoulderPitch_transform_ty	LShoulderPitch_transform_tz	LShoulderPitch_transform_rr	LShoulderPitch_transform_rp	LShoulderPitch_transform_ry	LShoulderRoll_transform_tx	LShoulderRoll_transform_ty	LShoulderRoll_transform_tz	LShoulderRoll_transform_rr	LShoulderRoll_transform_rp	LShoulderRoll_transform_ry	LWristYaw_transform_tx	LWristYaw_transform_ty	LWristYaw_transform_tz	LWristYaw_transform_rr	LWristYaw_transform_rp	LWristYaw_transform_ry	l_wrist_joint_transform_tx	l_wrist_joint_transform_ty	l_wrist_joint_transform_tz	l_wrist_joint_transform_rr	l_wrist_joint_transform_rp	l_wrist_joint_transform_ry	camera_fx	camera_fy	camera_cx	camera_cy	camera_D0	camera_D1	camera_D2	camera_D3	camera_D4	
0	0.0249164	-0.0307543	0.000853157	4.65819e-06	-0.000318322	-0.00310766	0.05071	0	0.01774	-2.26369	1.66533e-16	-1.5708	545.901	551.038	324.928	201.58	0.0255298	2.61142	-0.0636736	-0.0350419	0.213964
1	-0.0110901	0.0171553	0.023036	0.058822	0.0387455	0.0174123	0.0262898	-0.0299487	0.00577163	-0.000597532	-0.000802483	-0.00285988	0.0562224	-0.00240657	0.0147289	-2.21833	0.00291177	-1.57173	0	0	0	0	-0	0	0	0	-0.1265	0	-0	0	0	0	0	0	-0	0	0.105	0.015	0	0	-0	0	0	0.098	0.1	0	-0	0	0	0	0	0	-0	0	0.05595	0	0	0	-0	0	0	0	0	0	-0	0	545.901	551.039	324.928	201.581	0.00162937	2.60302	-0.0745589	0.0806737	0.212237
2	-0.0157627	0.022797	0.0189456	0.0495885	0.00631866	0.0337198	0.0256588	-0.0302134	0.00425078	-0.000414562	-0.000656376	-0.00296588	0.0548748	-0.001115	0.0157636	-2.19999	-0.00124532	-1.55599	0	0	0	0	-0	0	0	0	-0.1265	0	-0	0	0	0	0	0	-0	0	0.105	0.015	0	0	-0	0	0	0.098	0.1	0	-0	0	0	0	0	0	-0	0	0.05595	0	0	0	-0	0	0	0	0	0	-0	0	545.912	551.039	324.917	201.597	-0.3852	2.30544	-0.0106535	-0.00239328	0.119491
3	-0.01655	0.0195041	0.0204077	0.0473986	0.00386035	0.0341667	0.0255591	-0.0302576	0.0038119	-0.000345879	-0.000621709	-0.00300347	0.0556617	-0.00125524	0.0141671	-2.19639	0.00201216	-1.5502	0	0	0	0	-0	0	0	0	-0.1265	0	-0	0	0	0	0	0	-0	0	0.105	0.015	0	0	-0	0	0	0.098	0.1	0	-0	0	0	0	0	0	-0	0	0.05595	0	0	0	-0	0	0	0	0	0	-0	0	545.951	551.033	324.911	201.625	-0.418778	1.73336	-0.00370487	-0.00922976	-0.07591
4	-0.0163689	0.0178527	0.0189181	0.0481988	0.00344298	0.0343639	0.0253938	-0.0301617	0.00382524	-0.000337185	-0.000596042	-0.00302639	0.0551367	-0.00113336	0.0146712	-2.19727	0.00360095	-1.54797	0	0	0	0	-0	0	0	0	-0.1265	0	-0	0	0	0	0	0	-0	0	0.105	0.015	0	0	-0	0	0	0.098	0.1	0	-0	0	0	0	0	0	-0	0	0.05595	0	0	0	-0	0	0	0	0	0	-0	0	546.035	551.012	324.915	201.657	-0.201834	0.798587	-0.00845567	-0.010593	-0.409207
5	-0.0160318	0.0176367	0.0177719	0.0481897	0.00312541	0.0347054	0.0252849	-0.0300845	0.0038225	-0.000176897	-0.000524505	-0.00307873	0.0544452	-0.00100847	0.0155468	-2.19854	0.00412383	-1.54802	0	0	0	0	-0	0	0	0	-0.1265	0	-0	0	0	0	0	0	-0	0	0.105	0.015	0	0	-0	0	0	0.098	0.1	0	-0	0	0	0	0	0	-0	0	0.05595	0	0	0	-0	0	0	0	0	0	-0	0	546.221	550.956	324.94	201.666	0.00476817	0.0506345	-0.0137601	-0.0107211	-0.615253
6	-0.0157761	0.0176186	0.0172883	0.0478005	0.00305628	0.0347241	0.0252418	-0.0300498	0.00380152	-0.000353199	0.000362394	-0.0035237	0.0540537	-0.000936684	0.0161316	-2.1996	0.00422421	-1.54845	0	0	0	0	-0	0	0	0	-0.1265	0	-0	0	0	0	0	0	-0	0	0.105	0.015	0	0	-0	0	0	0.098	0.1	0	-0	0	0	0	0	0	-0	0	0.05595	0	0	0	-0	0	0	0	0	0	-0	0	546.722	550.806	324.947	201.677	0.117706	-0.418501	-0.0161304	-0.0106939	-0.439654
7	-0.0136887	0.0181728	0.0170541	0.0475031	0.00273806	0.0345705	0.025217	-0.0300299	0.00379076	-0.000145788	-0.000638773	-0.000840435	0.0536218	-0.000930359	0.0168305	-2.19871	0.00406591	-1.54909	0	0	0	0	-0	0	0	0	-0.1265	0	-0	0	0	0	0	0	-0	0	0.105	0.015	0	0	-0	0	0	0.098	0.1	0	-0	0	0	0	0	0	-0	0	0.05595	0	0	0	-0	0	0	0	0	0	-0	0	548.044	550.458	324.86	201.71	0.183766	-0.901231	-0.0138798	-0.0108877	0.427837
8	-0.0147561	0.0187967	0.0168745	0.0474391	0.00245257	0.0344082	0.0251985	-0.0300176	0.00380878	0.00157619	0.000258802	0.00314215	0.0529401	-0.000965692	0.017682	-2.20142	0.00422421	-1.54921	0	0	0	0	-0	0	0	0	-0.1265	0	-0	0	0	0	0	0	-0	0	0.105	0.015	0	0	-0	0	0	0.098	0.1	0	-0	0	0	0	0	0	-0	0	0.05595	0	0	0	-0	0	0	0	0	0	-0	0	550.998	549.931	324.55	201.75	0.246076	-1.69015	-0.0058874	-0.0113043	2.47446
9	-0.00939373	0.0192903	0.0167232	0.0475446	0.00227275	0.034243	0.0251867	-0.0300144	0.00385062	0.0162212	0.00584398	0.00178733	0.0518242	-0.0010301	0.0192295	-2.19808	0.00488401	-1.54841	0	0	0	0	-0	0	0	0	-0.1265	0	-0	0	0	0	0	0	-0	0	0.105	0.015	0	0	-0	0	0	0.098	0.1	0	-0	0	0	0	0	0	-0	0	0.05595	0	0	0	-0	0	0	0	0	0	-0	0	555.79	550.289	323.787	201.666	0.319265	-2.80004	0.00485628	-0.0118961	5.73577
10	-0.0108555	0.0194152	0.0167634	0.0475591	0.00217827	0.0341194	0.0251814	-0.0300145	0.00385986	0.0115784	0.0153301	0.0119918	0.0516343	-0.00105427	0.0194144	-2.19976	0.00504545	-1.5483	0	0	0	0	-0	0	0	0	-0.1265	0	-0	0	0	0	0	0	-0	0	0.105	0.015	0	0	-0	0	0	0.098	0.1	0	-0	0	0	0	0	0	-0	0	0.05595	0	0	0	-0	0	0	0	0	0	-0	0	556.937	550.449	323.651	201.561	0.329397	-3.04048	0.00715486	-0.0119607	6.5978
11	-0.0168684	0.0196636	0.016691	0.0478207	0.0020852	0.0340318	0.0251763	-0.0300129	0.00389412	0.00852116	0.0262032	0.0231447	0.0512348	-0.00110001	0.0197077	-2.20652	0.00583383	-1.54767	0	0	0	0	-0	0	0	0	-0.1265	0	-0	0	0	0	0	0	-0	0	0.105	0.015	0	0	-0	0	0	0.098	0.1	0	-0	0	0	0	0	0	-0	0	0.05595	0	0	0	-0	0	0	0	0	0	-0	0	559.656	551.758	323.083	201.378	0.36284	-3.57977	0.0106343	-0.0122539	8.38326
12	-0.0279888	0.0198081	0.016672	0.0480571	0.00205673	0.0339722	0.0251813	-0.0300155	0.00392298	0.00870812	0.0490664	0.0367005	0.0511439	-0.0011357	0.0194972	-2.2182	0.00669398	-1.54715	0	0	0	0	-0	0	0	0	-0.1265	0	-0	0	0	0	0	0	-0	0	0.105	0.015	0	0	-0	0	0	0.098	0.1	0	-0	0	0	0	0	0	-0	0	0.05595	0	0	0	-0	0	0	0	0	0	-0	0	561.543	553.199	322.593	201.308	0.381048	-3.88087	0.0116437	-0.0124441	9.46484
13	-0.0142477	0.0198462	0.0166801	0.0482047	0.00207329	0.033966	0.0251855	-0.0300227	0.00392772	0.00653776	0.0655398	0.0121625	0.0506755	-0.00116248	0.0204343	-2.20506	0.00698907	-1.54642	0	0	0	0	-0	0	0	0	-0.1265	0	-0	0	0	0	0	0	-0	0	0.105	0.015	0	0	-0	0	0	0.098	0.1	0	-0	0	0	0	0	0	-0	0	0.05595	0	0	0	-0	0	0	0	0	0	-0	0	562.973	554.642	322.124	201.367	0.391669	-4.05106	0.0114803	-0.0126033	10.1274
14	0.00337543	0.0199919	0.0166316	0.0479848	0.00200008	0.033963	0.025162	-0.0300253	0.00391785	0.0391244	0.0523678	0.0150659	0.0502039	-0.00116147	0.0214602	-2.18801	0.00693624	-1.54596	0	0	0	0	-0	0	0	0	-0.1265	0	-0	0	0	0	0	0	-0	0	0.105	0.015	0	0	-0	0	0	0.098	0.1	0	-0	0	0	0	0	0	-0	0	0.05595	0	0	0	-0	0	0	0	0	0	-0	0	563.853	555.688	321.754	201.491	0.394618	-4.12433	0.0113591	-0.0126853	10.4443
15	0.0154274	0.020138	0.0165503	0.0479307	0.00192221	0.0338926	0.0251542	-0.030013	0.00391144	0.0385413	0.059337	0.0161653	0.0498596	-0.00116099	0.0221482	-2.17641	0.00686215	-1.54566	0	0	0	0	-0	0	0	0	-0.1265	0	-0	0	0	0	0	0	-0	0	0.105	0.015	0	0	-0	0	0	0.098	0.1	0	-0	0	0	0	0	0	-0	0	0.05595	0	0	0	-0	0	0	0	0	0	-0	0	564.461	556.444	321.482	201.604	0.394966	-4.16421	0.0113442	-0.0128508	10.6283
16	0.0239841	0.0201863	0.0165359	0.0480121	0.00190776	0.0338444	0.0251507	-0.0300175	0.0039145	0.0167775	0.0666581	0.00614292	0.0495784	-0.00117276	0.0226577	-2.1685	0.00710166	-1.54512	0	0	0	0	-0	0	0	0	-0.1265	0	-0	0	0	0	0	0	-0	0	0.105	0.015	0	0	-0	0	0	0.098	0.1	0	-0	0	0	0	0	0	-0	0	0.05595	0	0	0	-0	0	0	0	0	0	-0	0	565.247	557.472	321.092	201.825	0.394121	-4.19045	0.010911	-0.0130109	10.8146
17	0.0265563	0.0202055	0.0165271	0.0480228	0.001907	0.0338321	0.0251513	-0.0300147	0.00391691	0.00619628	0.0633518	0.00201111	0.0494837	-0.00117645	0.0228153	-2.16619	0.00721763	-1.54491	0	0	0	0	-0	0	0	0	-0.1265	0	-0	0	0	0	0	0	-0	0	0.105	0.015	0	0	-0	0	0	0.098	0.1	0	-0	0	0	0	0	0	-0	0	0.05595	0	0	0	-0	0	0	0	0	0	-0	0	565.553	557.886	320.935	201.922	0.394115	-4.20028	0.0106676	-0.0130658	10.8858
18	0.0241554	0.0201983	0.0165388	0.0481217	0.00192172	0.0338286	0.0251553	-0.030015	0.00392455	0.00885854	0.068053	-0.0095102	0.0494974	-0.00118564	0.0227313	-2.16894	0.00755487	-1.54463	0	0	0	0	-0	0	0	0	-0.1265	0	-0	0	0	0	0	0	-0	0	0.105	0.015	0	0	-0	0	0	0.098	0.1	0	-0	0	0	0	0	0	-0	0	0.05595	0	0	0	-0	0	0	0	0	0	-0	0	565.947	558.42	320.721	202.068	0.393288	-4.20651	0.0103392	-0.0131518	10.9667
19	0.0185863	0.0202034	0.0165374	0.0482039	0.00193313	0.0338361	0.025163	-0.0300232	0.00393445	0.00184481	0.0698106	0.0152135	0.0495746	-0.00119373	0.0225006	-2.17507	0.00809268	-1.54425	0	0	0	0	-0	0	0	0	-0.1265	0	-0	0	0	0	0	0	-0	0	0.105	0.015	0	0	-0	0	0	0.098	0.1	0	-0	0	0	0	0	0	-0	0	0.05595	0	0	0	-0	0	0	0	0	0	-0	0	566.481	559.161	320.405	202.312	0.391195	-4.20755	0.00992331	-0.0132674	11.0569
20	0.00876462	0.0201634	0.0165488	0.0482789	0.00197067	0.0338865	0.0251614	-0.0300172	0.00393791	0.00418954	0.0603653	0.0221031	0.0497642	-0.00119941	0.0220397	-2.18531	0.00867263	-1.54396	0	0	0	0	-0	0	0	0	-0.1265	0	-0	0	0	0	0	0	-0	0	0.105	0.015	0	0	-0	0	0	0.098	0.1	0	-0	0	0	0	0	0	-0	0	0.05595	0	0	0	-0	0	0	0	0	0	-0	0	566.844	559.691	320.168	202.507	0.390423	-4.20667	0.00945862	-0.0133291	11.1174
21	0.0128568	0.0202188	0.0165136	0.0482944	0.00194761	0.0338686	0.0251558	-0.0300158	0.0039368	0.0143376	0.0545381	0.0314213	0.0496297	-0.00120323	0.0222845	-2.18189	0.0089629	-1.54352	0	0	0	0	-0	0	0	0	-0.1265	0	-0	0	0	0	0	0	-0	0	0.105	0.015	0	0	-0	0	0	0.098	0.1	0	-0	0	0	0	0	0	-0	0	0.05595	0	0	0	-0	0	0	0	0	0	-0	0	567.349	560.417	319.819	202.813	0.387296	-4.20175	0.00917095	-0.0134689	11.1876
22	0.013408	0.0202433	0.016504	0.0482945	0.00193327	0.0338554	0.025155	-0.0300172	0.00393769	0.000958786	0.0484265	0.0292721	0.0495989	-0.00120455	0.022328	-2.18161	0.00910567	-1.54336	0	0	0	0	-0	0	0	0	-0.1265	0	-0	0	0	0	0	0	-0	0	0.105	0.015	0	0	-0	0	0	0.098	0.1	0	-0	0	0	0	0	0	-0	0	0.05595	0	0	0	-0	0	0	0	0	0	-0	0	567.545	560.714	319.678	202.939	0.386485	-4.20084	0.00900217	-0.0135236	11.2173
23	0.00984624	0.0202443	0.0165053	0.0483393	0.00193801	0.0338569	0.0251553	-0.030016	0.00394145	-0.00189234	0.0496773	0.0396132	0.0496584	-0.00120825	0.0221686	-2.18554	0.00943658	-1.54315	0	0	0	0	-0	0	0	0	-0.1265	0	-0	0	0	0	0	0	-0	0	0.105	0.015	0	0	-0	0	0	0.098	0.1	0	-0	0	0	0	0	0	-0	0	0.05595	0	0	0	-0	0	0	0	0	0	-0	0	567.805	561.096	319.487	203.114	0.385016	-4.19688	0.00876368	-0.0136019	11.2534
24	0.00614844	0.0202564	0.016498	0.0483917	0.00193665	0.0338558	0.025155	-0.0300159	0.00394503	-0.009235	0.047556	0.0470102	0.0497126	-0.00121279	0.02201	-2.18979	0.0098735	-1.54283	0	0	0	0	-0	0	0	0	-0.1265	0	-0	0	0	0	0	0	-0	0	0.105	0.015	0	0	-0	0	0	0.098	0.1	0	-0	0	0	0	0	0	-0	0	0.05595	0	0	0	-0	0	0	0	0	0	-0	0	568.169	561.628	319.209	203.383	0.382823	-4.19184	0.00847538	-0.013714	11.3067
25	0.00044924	0.0202573	0.0164985	0.0484134	0.0019377	0.0338576	0.0251543	-0.0300142	0.00394582	-0.00934351	0.0531626	0.0456187	0.0498262	-0.00121504	0.0217362	-2.19571	0.010175	-1.54274	0	0	0	0	-0	0	0	0	-0.1265	0	-0	0	0	0	0	0	-0	0	0.105	0.015	0	0	-0	0	0	0.098	0.1	0	-0	0	0	0	0	0	-0	0	0.05595	0	0	0	-0	0	0	0	0	0	-0	0	568.31	561.843	319.097	203.493	0.382382	-4.19087	0.00830972	-0.0137531	11.33
26	0.000142654	0.0202736	0.0164884	0.0484241	0.0019296	0.0338524	0.0251541	-0.0300146	0.00394462	-0.00607711	0.0453113	0.0555558	0.0498182	-0.00121649	0.0217338	-2.19632	0.0103633	-1.54256	0	0	0	0	-0	0	0	0	-0.1265	0	-0	0	0	0	0	0	-0	0	0.105	0.015	0	0	-0	0	0	0.098	0.1	0	-0	0	0	0	0	0	-0	0	0.05595	0	0	0	-0	0	0	0	0	0	-0	0	568.497	562.128	318.943	203.645	0.381337	-4.18872	0.00815492	-0.0138109	11.359
27	7.33587e-05	0.0202757	0.0164859	0.0484111	0.00193229	0.0338548	0.0251529	-0.030014	0.00394502	-0.00736245	0.0405112	0.0513439	0.0498145	-0.00121626	0.0217346	-2.19652	0.0104409	-1.54249	0	0	0	0	-0	0	0	0	-0.1265	0	-0	0	0	0	0	0	-0	0	0.105	0.015	0	0	-0	0	0	0.098	0.1	0	-0	0	0	0	0	0	-0	0	0.05595	0	0	0	-0	0	0	0	0	0	-0	0	568.569	562.244	318.88	203.708	0.381137	-4.18827	0.0080599	-0.0138238	11.3714
28	-0.0153819	0.0202885	0.0164766	0.0484569	0.00192944	0.0338516	0.0251534	-0.0300154	0.00394811	-0.00432643	0.0434126	0.0615301	0.0501305	-0.00121951	0.0209829	-2.21249	0.011179	-1.54234	0	0	0	0	-0	0	0	0	-0.1265	0	-0	0	0	0	0	0	-0	0	0.105	0.015	0	0	-0	0	0	0.098	0.1	0	-0	0	0	0	0	0	-0	0	0.05595	0	0	0	-0	0	0	0	0	0	-0	0	568.864	562.681	318.628	203.968	0.379097	-4.18346	0.00784103	-0.0139322	11.417
29	-0.00481758	0.020324	0.0164336	0.0484177	0.0019199	0.033855	0.0251487	-0.0300132	0.00394441	-0.00571534	0.0415281	0.0594779	0.0498812	-0.00121749	0.0215347	-2.20271	0.0113003	-1.5418	0	0	0	0	-0	0	0	0	-0.1265	0	-0	0	0	0	0	0	-0	0	0.105	0.015	0	0	-0	0	0	0.098	0.1	0	-0	0	0	0	0	0	-0	0	0.05595	0	0	0	-0	0	0	0	0	0	-0	0	569.253	563.274	318.258	204.361	0.376568	-4.17842	0.007562	-0.0140576	11.4802
30	-0.000205009	0.0203538	0.0164054	0.0484663	0.00191384	0.0338468	0.025147	-0.0300139	0.00394661	-0.000299375	0.0432703	0.0662689	0.0497442	-0.00122127	0.0217942	-2.19939	0.0118595	-1.54102	0	0	0	0	-0	0	0	0	-0.1265	0	-0	0	0	0	0	0	-0	0	0.105	0.015	0	0	-0	0	0	0.098	0.1	0	-0	0	0	0	0	0	-0	0	0.05595	0	0	0	-0	0	0	0	0	0	-0	0	569.839	564.145	317.665	205.028	0.372714	-4.17392	0.00715773	-0.0143017	11.5985
31	-0.00088015	0.0203415	0.0164187	0.0485031	0.00192229	0.0338485	0.0251499	-0.0300155	0.00394817	0.00144639	0.0497887	0.055071	0.0497485	-0.00122459	0.021765	-2.20039	0.0120858	-1.54081	0	0	0	0	-0	0	0	0	-0.1265	0	-0	0	0	0	0	0	-0	0	0.105	0.015	0	0	-0	0	0	0.098	0.1	0	-0	0	0	0	0	0	-0	0	0.05595	0	0	0	-0	0	0	0	0	0	-0	0	569.982	564.39	317.504	205.205	0.372922	-4.17531	0.00687066	-0.0143481	11.6362
32	-9.3365e-06	0.0203281	0.0164258	0.0485281	0.00193658	0.0338592	0.0251499	-0.0300151	0.0039515	-0.00265362	0.0524994	0.0617271	0.049724	-0.00122661	0.02181	-2.19974	0.0122077	-1.54065	0	0	0	0	-0	0	0	0	-0.1265	0	-0	0	0	0	0	0	-0	0	0.105	0.015	0	0	-0	0	0	0.098	0.1	0	-0	0	0	0	0	0	-0	0	0.05595	0	0	0	-0	0	0	0	0	0	-0	0	570.075	564.552	317.392	205.328	0.373037	-4.17644	0.00667603	-0.0143781	11.6637
33	-0.00683973	0.0203449	0.0164159	0.0486035	0.00193096	0.0338566	0.0251538	-0.0300182	0.00395075	0.00502155	0.038256	0.0806141	0.0498506	-0.00123154	0.0214891	-2.20758	0.0129754	-1.54015	0	0	0	0	-0	0	0	0	-0.1265	0	-0	0	0	0	0	0	-0	0	0.105	0.015	0	0	-0	0	0	0.098	0.1	0	-0	0	0	0	0	0	-0	0	0.05595	0	0	0	-0	0	0	0	0	0	-0	0	570.482	565.155	316.92	205.864	0.370792	-4.18169	0.0064115	-0.0145809	11.7849
34	-0.0143703	0.0203457	0.0163908	0.0485299	0.00195	0.0338749	0.0251488	-0.0300162	0.00394922	0.0129858	0.0398661	0.08711	0.050006	-0.00122754	0.0211161	-2.21561	0.013488	-1.53996	0	0	0	0	-0	0	0	0	-0.1265	0	-0	0	0	0	0	0	-0	0	0.105	0.015	0	0	-0	0	0	0.098	0.1	0	-0	0	0	0	0	0	-0	0	0.05595	0	0	0	-0	0	0	0	0	0	-0	0	570.64	565.453	316.682	206.132	0.371289	-4.18721	0.00609611	-0.014626	11.8424
35	-0.0117155	0.0203551	0.0163918	0.0485593	0.00193778	0.0338668	0.0251477	-0.0300145	0.00395133	0.0164954	0.0385531	0.092449	0.049944	-0.0012294	0.0212517	-2.21315	0.0135231	-1.53981	0	0	0	0	-0	0	0	0	-0.1265	0	-0	0	0	0	0	0	-0	0	0.105	0.015	0	0	-0	0	0	0.098	0.1	0	-0	0	0	0	0	0	-0	0	0.05595	0	0	0	-0	0	0	0	0	0	-0	0	570.708	565.574	316.584	206.239	0.371341	-4.18997	0.00600302	-0.0146646	11.8684
36	-0.00316673	0.0203607	0.0163987	0.0486047	0.00192811	0.0338575	0.0251496	-0.030017	0.00395738	0.0253375	0.0323395	0.079806	0.0497567	-0.00123244	0.0216823	-2.20487	0.0134204	-1.53954	0	0	0	0	-0	0	0	0	-0.1265	0	-0	0	0	0	0	0	-0	0	0.105	0.015	0	0	-0	0	0	0.098	0.1	0	-0	0	0	0	0	0	-0	0	0.05595	0	0	0	-0	0	0	0	0	0	-0	0	570.804	565.735	316.452	206.383	0.371175	-4.19344	0.00588702	-0.0147231	11.9067
37	-0.00171331	0.020348	0.0164048	0.0486461	0.00193634	0.0338676	0.0251498	-0.0300154	0.00395905	0.0194488	0.0354154	0.0850459	0.0497197	-0.00123466	0.0217557	-2.20361	0.0135049	-1.53938	0	0	0	0	-0	0	0	0	-0.1265	0	-0	0	0	0	0	0	-0	0	0.105	0.015	0	0	-0	0	0	0.098	0.1	0	-0	0	0	0	0	0	-0	0	0.05595	0	0	0	-0	0	0	0	0	0	-0	0	570.873	565.849	316.353	206.49	0.371425	-4.19678	0.00575732	-0.0147612	11.9364
38	-0.00414761	0.0203539	0.0164075	0.0486757	0.00193107	0.0338629	0.0251516	-0.0300151	0.00396162	0.0195871	0.0246365	0.0770237	0.0497668	-0.00123705	0.0216388	-2.20633	0.0137584	-1.53924	0	0	0	0	-0	0	0	0	-0.1265	0	-0	0	0	0	0	0	-0	0	0.105	0.015	0	0	-0	0	0	0.098	0.1	0	-0	0	0	0	0	0	-0	0	0.05595	0	0	0	-0	0	0	0	0	0	-0	0	570.978	566.013	316.208	206.648	0.371199	-4.20115	0.0056616	-0.014822	11.9802
39	-0.00300625	0.0203451	0.016414	0.0487063	0.00193748	0.0338686	0.0251519	-0.0300142	0.00396259	0.0204551	0.0143287	0.0767318	0.0497381	-0.00123899	0.0216971	-2.2054	0.0138618	-1.53908	0	0	0	0	-0	0	0	0	-0.1265	0	-0	0	0	0	0	0	-0	0	0.105	0.015	0	0	-0	0	0	0.098	0.1	0	-0	0	0	0	0	0	-0	0	0.05595	0	0	0	-0	0	0	0	0	0	-0	0	571.049	566.134	316.1	206.766	0.371499	-4.20539	0.00552624	-0.0148585	12.0151
40	-0.00136583	0.0203501	0.0164143	0.0487051	0.00193409	0.0338661	0.0251508	-0.0300141	0.00396168	0.0198906	0.00992497	0.079391	0.0497007	-0.00123949	0.02178	-2.20385	0.0138636	-1.53901	0	0	0	0	-0	0	0	0	-0.1265	0	-0	0	0	0	0	0	-0	0	0.105	0.015	0	0	-0	0	0	0.098	0.1	0	-0	0	0	0	0	0	-0	0	0.05595	0	0	0	-0	0	0	0	0	0	-0	0	571.078	566.185	316.055	206.814	0.371637	-4.20746	0.00548183	-0.0148691	12.0293
41	-0.00643839	0.0203648	0.0164052	0.0487088	0.00192685	0.0338603	0.0251495	-0.0300138	0.00396151	0.0211612	0.00933087	0.0831423	0.0498053	-0.00123986	0.0215333	-2.20928	0.0142308	-1.53887	0	0	0	0	-0	0	0	0	-0.1265	0	-0	0	0	0	0	0	-0	0	0.105	0.015	0	0	-0	0	0	0.098	0.1	0	-0	0	0	0	0	0	-0	0	0.05595	0	0	0	-0	0	0	0	0	0	-0	0	571.199	566.376	315.875	207.009	0.371421	-4.21484	0.00540167	-0.0149427	12.0881
42	-0.00386933	0.0203767	0.016396	0.0487079	0.00192046	0.0338557	0.0251484	-0.0300167	0.00396335	0.0358113	0.00371843	0.0760446	0.049744	-0.00123987	0.0216659	-2.20707	0.0143518	-1.53863	0	0	0	0	-0	0	0	0	-0.1265	0	-0	0	0	0	0	0	-0	0	0.105	0.015	0	0	-0	0	0	0.098	0.1	0	-0	0	0	0	0	0	-0	0	0.05595	0	0	0	-0	0	0	0	0	0	-0	0	571.311	566.556	315.699	207.2	0.371488	-4.22258	0.00530178	-0.0150094	12.1446
43	-0.00340756	0.0203722	0.0163949	0.0487459	0.00192535	0.0338606	0.0251513	-0.0300186	0.00396421	0.0491861	0.0093212	0.082902	0.0497282	-0.00124152	0.0216924	-2.20694	0.0145444	-1.5384	0	0	0	0	-0	0	0	0	-0.1265	0	-0	0	0	0	0	0	-0	0	0.105	0.015	0	0	-0	0	0	0.098	0.1	0	-0	0	0	0	0	0	-0	0	0.05595	0	0	0	-0	0	0	0	0	0	-0	0	571.417	566.722	315.529	207.383	0.371767	-4.2308	0.00517525	-0.0150828	12.2026
44	-0.00948011	0.0203638	0.0163893	0.0487371	0.00193922	0.0338732	0.0251502	-0.0300149	0.00396314	0.0494005	0.00425583	0.0866785	0.0498574	-0.00124102	0.0213908	-2.21326	0.0148985	-1.53832	0	0	0	0	-0	0	0	0	-0.1265	0	-0	0	0	0	0	0	-0	0	0.105	0.015	0	0	-0	0	0	0.098	0.1	0	-0	0	0	0	0	0	-0	0	0.05595	0	0	0	-0	0	0	0	0	0	-0	0	571.485	566.845	315.4	207.521	0.372394	-4.23733	0.00502632	-0.0151182	12.2442
45	-0.0145173	0.0203759	0.0163849	0.0487233	0.00192915	0.0338649	0.0251486	-0.0300136	0.0039618	0.0496196	0.00639581	0.0866047	0.0499629	-0.00124099	0.0211409	-2.2184	0.01512	-1.53835	0	0	0	0	-0	0	0	0	-0.1265	0	-0	0	0	0	0	0	-0	0	0.105	0.015	0	0	-0	0	0	0.098	0.1	0	-0	0	0	0	0	0	-0	0	0.05595	0	0	0	-0	0	0	0	0	0	-0	0	571.512	566.895	315.347	207.576	0.372545	-4.24037	0.00500134	-0.0151307	12.2614
46	-0.00891995	0.0203849	0.0163834	0.0487276	0.00192062	0.0338568	0.0251479	-0.0300135	0.00396182	0.0456062	0.00598352	0.0883969	0.0498424	-0.00124136	0.0214216	-2.21294	0.0150181	-1.53819	0	0	0	0	-0	0	0	0	-0.1265	0	-0	0	0	0	0	0	-0	0	0.105	0.015	0	0	-0	0	0	0.098	0.1	0	-0	0	0	0	0	0	-0	0	0.05595	0	0	0	-0	0	0	0	0	0	-0	0	571.549	566.963	315.277	207.65	0.372611	-4.24378	0.00496271	-0.0151586	12.2845
47	-0.0215345	0.0203955	0.0163751	0.0487448	0.00191578	0.0338525	0.0251495	-0.0300151	0.00396243	0.0402163	0.00045773	0.0984281	0.0501062	-0.00124222	0.0207969	-2.22605	0.0157345	-1.53807	0	0	0	0	-0	0	0	0	-0.1265	0	-0	0	0	0	0	0	-0	0	0.105	0.015	0	0	-0	0	0	0.098	0.1	0	-0	0	0	0	0	0	-0	0	0.05595	0	0	0	-0	0	0	0	0	0	-0	0	571.694	567.189	315.017	207.927	0.372575	-4.25576	0.0048598	-0.0152686	12.3712
48	-0.0281663	0.020397	0.0163578	0.0486998	0.00192349	0.0338608	0.0251482	-0.0300141	0.00396488	0.0268644	0.0229561	0.106842	0.0502394	-0.00123957	0.0204638	-2.23293	0.0161057	-1.53802	0	0	0	0	-0	0	0	0	-0.1265	0	-0	0	0	0	0	0	-0	0	0.105	0.015	0	0	-0	0	0	0.098	0.1	0	-0	0	0	0	0	0	-0	0	0.05595	0	0	0	-0	0	0	0	0	0	-0	0	571.75	567.302	314.886	208.064	0.373431	-4.26393	0.00472966	-0.0152973	12.4136
49	-0.0268221	0.0203701	0.0163757	0.0488107	0.00193602	0.0338704	0.025151	-0.0300138	0.00396859	0.028029	0.01109	0.107638	0.050207	-0.00124445	0.0205291	-2.23175	0.0162038	-1.53785	0	0	0	0	-0	0	0	0	-0.1265	0	-0	0	0	0	0	0	-0	0	0.105	0.015	0	0	-0	0	0	0.098	0.1	0	-0	0	0	0	0	0	-0	0	0.05595	0	0	0	-0	0	0	0	0	0	-0	0	571.798	567.381	314.79	208.163	0.373997	-4.2688	0.00457496	-0.0153501	12.4494
50	-0.025337	0.020375	0.0163761	0.0488155	0.0019347	0.0338687	0.0251497	-0.0300146	0.00396927	0.0367592	0.00413245	0.102079	0.0501738	-0.00124574	0.0206049	-2.23053	0.0163333	-1.53765	0	0	0	0	-0	0	0	0	-0.1265	0	-0	0	0	0	0	0	-0	0	0.105	0.015	0	0	-0	0	0	0.098	0.1	0	-0	0	0	0	0	0	-0	0	0.05595	0	0	0	-0	0	0	0	0	0	-0	0	571.866	567.499	314.647	208.31	0.374449	-4.27794	0.00448743	-0.0154025	12.5035
51	-0.0275117	0.020379	0.016375	0.0488262	0.00193141	0.0338666	0.0251493	-0.0300136	0.00396827	0.0330372	0.00980137	0.099092	0.0502168	-0.00124623	0.020497	-2.23281	0.0164768	-1.53762	0	0	0	0	-0	0	0	0	-0.1265	0	-0	0	0	0	0	0	-0	0	0.105	0.015	0	0	-0	0	0	0.098	0.1	0	-0	0	0	0	0	0	-0	0	0.05595	0	0	0	-0	0	0	0	0	0	-0	0	571.893	567.547	314.588	208.369	0.374803	-4.28217	0.00444042	-0.0154257	12.5254
52	-0.0281384	0.0203898	0.0163711	0.0488116	0.00192424	0.0338604	0.0251485	-0.0300139	0.0039672	0.0398034	0.00956216	0.0962081	0.0502285	-0.00124596	0.0204668	-2.23358	0.0165894	-1.53755	0	0	0	0	-0	0	0	0	-0.1265	0	-0	0	0	0	0	0	-0	0	0.105	0.015	0	0	-0	0	0	0.098	0.1	0	-0	0	0	0	0	0	-0	0	0.05595	0	0	0	-0	0	0	0	0	0	-0	0	571.928	567.614	314.507	208.45	0.375101	-4.28778	0.00440063	-0.0154528	12.5553
53	-0.0237338	0.0203934	0.016368	0.0488167	0.00192311	0.0338587	0.0251494	-0.0300135	0.00396588	0.0425768	-0.000762722	0.103548	0.0501367	-0.00124615	0.020689	-2.22939	0.0165845	-1.53734	0	0	0	0	-0	0	0	0	-0.1265	0	-0	0	0	0	0	0	-0	0	0.105	0.015	0	0	-0	0	0	0.098	0.1	0	-0	0	0	0	0	0	-0	0	0.05595	0	0	0	-0	0	0	0	0	0	-0	0	571.981	567.704	314.389	208.569	0.375428	-4.29483	0.00433649	-0.0155006	12.5972
54	-0.0336846	0.0204005	0.0163583	0.0488045	0.00192414	0.0338589	0.0251508	-0.030013	0.00396544	0.0450373	0.0144808	0.100767	0.0503398	-0.00124576	0.0201909	-2.23981	0.0172244	-1.5372	0	0	0	0	-0	0	0	0	-0.1265	0	-0	0	0	0	0	0	-0	0	0.105	0.015	0	0	-0	0	0	0.098	0.1	0	-0	0	0	0	0	0	-0	0	0.05595	0	0	0	-0	0	0	0	0	0	-0	0	572.089	567.887	314.131	208.829	0.376124	-4.3107	0.00422104	-0.0155983	12.6901
55	-0.0322259	0.020395	0.01635	0.0487858	0.00193338	0.0338671	0.0251491	-0.0300138	0.00396474	0.0489468	0.0217735	0.106146	0.0503078	-0.00124457	0.0202618	-2.23857	0.0173354	-1.53701	0	0	0	0	-0	0	0	0	-0.1265	0	-0	0	0	0	0	0	-0	0	0.105	0.015	0	0	-0	0	0	0.098	0.1	0	-0	0	0	0	0	0	-0	0	0.05595	0	0	0	-0	0	0	0	0	0	-0	0	572.129	567.981	314.001	208.957	0.377255	-4.31992	0.00406759	-0.0156293	12.7353
56	-0.0357676	0.0203897	0.0163536	0.0488184	0.00193565	0.0338679	0.0251482	-0.0300133	0.00396661	0.0515848	0.0205952	0.107696	0.0503778	-0.00124593	0.020083	-2.2422	0.0175264	-1.537	0	0	0	0	-0	0	0	0	-0.1265	0	-0	0	0	0	0	0	-0	0	0.105	0.015	0	0	-0	0	0	0.098	0.1	0	-0	0	0	0	0	0	-0	0	0.05595	0	0	0	-0	0	0	0	0	0	-0	0	572.146	568.02	313.948	209.009	0.37779	-4.32411	0.00399174	-0.0156534	12.7561
57	-0.0328465	0.0203987	0.0163511	0.04883	0.00192644	0.033861	0.025148	-0.0300127	0.00396751	0.0518508	0.0133692	0.105452	0.0503177	-0.00124659	0.0202311	-2.2394	0.0175145	-1.53688	0	0	0	0	-0	0	0	0	-0.1265	0	-0	0	0	0	0	0	-0	0	0.105	0.015	0	0	-0	0	0	0.098	0.1	0	-0	0	0	0	0	0	-0	0	0.05595	0	0	0	-0	0	0	0	0	0	-0	0	572.173	568.07	313.875	209.078	0.378083	-4.3298	0.00396571	-0.0156868	12.7851
58	-0.0380925	0.0203989	0.0163518	0.0488465	0.0019257	0.0338595	0.025148	-0.0300129	0.00396808	0.0516598	0.0104844	0.110161	0.0504224	-0.00124746	0.0199672	-2.2448	0.017808	-1.53686	0	0	0	0	-0	0	0	0	-0.1265	0	-0	0	0	0	0	0	-0	0	0.105	0.015	0	0	-0	0	0	0.098	0.1	0	-0	0	0	0	0	0	-0	0	0.05595	0	0	0	-0	0	0	0	0	0	-0	0	572.208	568.133	313.782	209.165	0.378594	-4.33706	0.00390177	-0.0157253	12.823
59	-0.0367401	0.0204041	0.016348	0.0488408	0.00192229	0.0338577	0.0251483	-0.0300144	0.00396765	0.0425663	0.00629456	0.105938	0.0503939	-0.0012473	0.020036	-2.24358	0.0178585	-1.53674	0	0	0	0	-0	0	0	0	-0.1265	0	-0	0	0	0	0	0	-0	0	0.105	0.015	0	0	-0	0	0	0.098	0.1	0	-0	0	0	0	0	0	-0	0	0.05595	0	0	0	-0	0	0	0	0	0	-0	0	572.236	568.185	313.701	209.241	0.379092	-4.34379	0.00385958	-0.0157541	12.8554
60	-0.037284	0.0203978	0.0163475	0.0488474	0.00193017	0.0338634	0.0251492	-0.0300137	0.00396797	0.0464779	0.0138457	0.101045	0.0504043	-0.0012474	0.0200078	-2.24423	0.0179556	-1.53667	0	0	0	0	-0	0	0	0	-0.1265	0	-0	0	0	0	0	0	-0	0	0.105	0.015	0	0	-0	0	0	0.098	0.1	0	-0	0	0	0	0	0	-0	0	0.05595	0	0	0	-0	0	0	0	0	0	-0	0	572.255	568.225	313.641	209.297	0.379616	-4.3484	0.00378873	-0.015776	12.8782
61	-0.037361	0.0203941	0.0163479	0.0488524	0.00193414	0.0338664	0.0251487	-0.0300132	0.00396867	0.0496002	0.0184755	0.102809	0.0504054	-0.00124772	0.0200032	-2.24437	0.0180178	-1.53661	0	0	0	0	-0	0	0	0	-0.1265	0	-0	0	0	0	0	0	-0	0	0.105	0.015	0	0	-0	0	0	0.098	0.1	0	-0	0	0	0	0	0	-0	0	0.05595	0	0	0	-0	0	0	0	0	0	-0	0	572.268	568.254	313.595	209.339	0.38004	-4.35209	0.00373416	-0.0157899	12.8962
62	-0.0259756	0.0203987	0.0163443	0.0488696	0.00193055	0.0338639	0.0251486	-0.0300139	0.00397001	0.0428919	0.0169766	0.108512	0.0501762	-0.00124842	0.0205775	-2.23322	0.017795	-1.53625	0	0	0	0	-0	0	0	0	-0.1265	0	-0	0	0	0	0	0	-0	0	0.105	0.015	0	0	-0	0	0	0.098	0.1	0	-0	0	0	0	0	0	-0	0	0.05595	0	0	0	-0	0	0	0	0	0	-0	0	572.318	568.337	313.457	209.466	0.380504	-4.36191	0.00368367	-0.0158507	12.95
63	-0.0206828	0.0204109	0.016333	0.0488307	0.00192222	0.0338613	0.0251469	-0.0300129	0.00396676	0.0401873	0.0179667	0.114137	0.0500644	-0.00124676	0.0208435	-2.22804	0.0176848	-1.53608	0	0	0	0	-0	0	0	0	-0.1265	0	-0	0	0	0	0	0	-0	0	0.105	0.015	0	0	-0	0	0	0.098	0.1	0	-0	0	0	0	0	0	-0	0	0.05595	0	0	0	-0	0	0	0	0	0	-0	0	572.336	568.382	313.387	209.529	0.381107	-4.36834	0.00365493	-0.0158667	12.9754
64	-0.0246425	0.0204105	0.016333	0.0488485	0.00192193	0.0338587	0.0251469	-0.0300129	0.00396682	0.0444175	0.0129669	0.120761	0.0501453	-0.00124734	0.0206441	-2.23216	0.0179461	-1.53603	0	0	0	0	-0	0	0	0	-0.1265	0	-0	0	0	0	0	0	-0	0	0.105	0.015	0	0	-0	0	0	0.098	0.1	0	-0	0	0	0	0	0	-0	0	0.05595	0	0	0	-0	0	0	0	0	0	-0	0	572.367	568.442	313.284	209.621	0.381626	-4.37546	0.00358651	-0.015912	13.0132
65	-0.0364925	0.0204149	0.0163276	0.0488604	0.00192052	0.0338565	0.0251469	-0.0300128	0.00396807	0.0426097	0.0123498	0.127759	0.0503878	-0.00124778	0.0200498	-2.24436	0.0186264	-1.53598	0	0	0	0	-0	0	0	0	-0.1265	0	-0	0	0	0	0	0	-0	0	0.105	0.015	0	0	-0	0	0	0.098	0.1	0	-0	0	0	0	0	0	-0	0	0.05595	0	0	0	-0	0	0	0	0	0	-0	0	572.439	568.566	313.061	209.821	0.382715	-4.39325	0.00349164	-0.0160047	13.104
66	-0.0370917	0.0204221	0.0163203	0.0488262	0.00191441	0.0338526	0.0251456	-0.0300125	0.00396569	0.0385064	0.0136157	0.133726	0.0503961	-0.00124661	0.0200202	-2.24501	0.0186801	-1.53596	0	0	0	0	-0	0	0	0	-0.1265	0	-0	0	0	0	0	0	-0	0	0.105	0.015	0	0	-0	0	0	0.098	0.1	0	-0	0	0	0	0	0	-0	0	0.05595	0	0	0	-0	0	0	0	0	0	-0	0	572.444	568.585	313.029	209.848	0.383382	-4.39745	0.00346019	-0.0160026	13.1154
67	-0.0461922	0.0204143	0.016324	0.0488709	0.00192106	0.0338553	0.0251457	-0.0300138	0.00396854	0.0499364	0.00872794	0.135894	0.0505772	-0.00124817	0.0195591	-2.25429	0.0191582	-1.53597	0	0	0	0	-0	0	0	0	-0.1265	0	-0	0	0	0	0	0	-0	0	0.105	0.015	0	0	-0	0	0	0.098	0.1	0	-0	0	0	0	0	0	-0	0	0.05595	0	0	0	-0	0	0	0	0	0	-0	0	572.479	568.654	312.904	209.956	0.38415	-4.40712	0.00335501	-0.0160614	13.1665
68	-0.0476843	0.0204234	0.0163157	0.0488561	0.00191388	0.0338533	0.025146	-0.0300127	0.00396735	0.0559602	0.0137427	0.13436	0.0506041	-0.00124735	0.019484	-2.25588	0.0192826	-1.53594	0	0	0	0	-0	0	0	0	-0.1265	0	-0	0	0	0	0	0	-0	0	0.105	0.015	0	0	-0	0	0	0.098	0.1	0	-0	0	0	0	0	0	-0	0	0.05595	0	0	0	-0	0	0	0	0	0	-0	0	572.493	568.69	312.841	210.009	0.384734	-4.41334	0.00332324	-0.0160817	13.1914
69	-0.0513793	0.0204161	0.0163164	0.0488958	0.00192243	0.033857	0.0251457	-0.0300128	0.00397018	0.0655807	0.00648927	0.135704	0.0506741	-0.00124901	0.0192952	-2.25997	0.0197517	-1.53568	0	0	0	0	-0	0	0	0	-0.1265	0	-0	0	0	0	0	0	-0	0	0.105	0.015	0	0	-0	0	0	0.098	0.1	0	-0	0	0	0	0	0	-0	0	0.05595	0	0	0	-0	0	0	0	0	0	-0	0	572.571	568.819	312.573	210.238	0.386226	-4.4358	0.00319364	-0.0161984	13.3053
70	-0.0498583	0.0204173	0.0163139	0.0489084	0.00191994	0.0338562	0.0251462	-0.0300123	0.00397024	0.0689977	0.00165623	0.141734	0.0506431	-0.00124944	0.0193725	-2.25855	0.0197889	-1.53557	0	0	0	0	-0	0	0	0	-0.1265	0	-0	0	0	0	0	0	-0	0	0.105	0.015	0	0	-0	0	0	0.098	0.1	0	-0	0	0	0	0	0	-0	0	0.05595	0	0	0	-0	0	0	0	0	0	-0	0	572.586	568.858	312.502	210.295	0.387161	-4.44295	0.00311026	-0.0162222	13.334
71	-0.0582012	0.0204171	0.0163127	0.0489169	0.00192168	0.0338569	0.025146	-0.0300125	0.003971	0.0765665	-0.00130087	0.144786	0.0508044	-0.00124996	0.0189487	-2.26709	0.0202635	-1.53557	0	0	0	0	-0	0	0	0	-0.1265	0	-0	0	0	0	0	0	-0	0	0.105	0.015	0	0	-0	0	0	0.098	0.1	0	-0	0	0	0	0	0	-0	0	0.05595	0	0	0	-0	0	0	0	0	0	-0	0	572.618	568.925	312.358	210.412	0.388293	-4.45615	0.00301798	-0.0162778	13.3951
72	-0.0586898	0.0204266	0.0163023	0.0489082	0.00191546	0.0338548	0.0251455	-0.0300136	0.00397095	0.0883998	-0.0021533	0.141748	0.0508121	-0.00124936	0.0189227	-2.26787	0.020537	-1.53534	0	0	0	0	-0	0	0	0	-0.1265	0	-0	0	0	0	0	0	-0	0	0.105	0.015	0	0	-0	0	0	0.098	0.1	0	-0	0	0	0	0	0	-0	0	0.05595	0	0	0	-0	0	0	0	0	0	-0	0	572.662	569.022	312.147	210.579	0.389763	-4.47451	0.0029188	-0.016359	13.4787
73	-0.0580012	0.0204142	0.0163048	0.0489353	0.00192599	0.0338615	0.0251466	-0.0300121	0.0039726	0.0856582	-0.00597974	0.142788	0.050798	-0.00125022	0.0189564	-2.26725	0.0205959	-1.53524	0	0	0	0	-0	0	0	0	-0.1265	0	-0	0	0	0	0	0	-0	0	0.105	0.015	0	0	-0	0	0	0.098	0.1	0	-0	0	0	0	0	0	-0	0	0.05595	0	0	0	-0	0	0	0	0	0	-0	0	572.671	569.05	312.089	210.623	0.390774	-4.48066	0.00280858	-0.0163817	13.5029
74	-0.0597294	0.0204114	0.0163071	0.0489495	0.0019274	0.0338622	0.0251468	-0.0300123	0.00397383	0.0796974	-0.0050853	0.146305	0.0508304	-0.00125116	0.0188676	-2.26903	0.0207174	-1.53523	0	0	0	0	-0	0	0	0	-0.1265	0	-0	0	0	0	0	0	-0	0	0.105	0.015	0	0	-0	0	0	0.098	0.1	0	-0	0	0	0	0	0	-0	0	0.05595	0	0	0	-0	0	0	0	0	0	-0	0	572.678	569.07	312.046	210.655	0.391305	-4.48481	0.00275245	-0.0163967	13.5211
75	-0.0597651	0.0204113	0.0163059	0.0489637	0.00192761	0.0338632	0.0251472	-0.0300118	0.00397441	0.0814662	-0.00197702	0.142491	0.0508308	-0.0012517	0.0188649	-2.26919	0.0208415	-1.53511	0	0	0	0	-0	0	0	0	-0.1265	0	-0	0	0	0	0	0	-0	0	0.105	0.015	0	0	-0	0	0	0.098	0.1	0	-0	0	0	0	0	0	-0	0	0.05595	0	0	0	-0	0	0	0	0	0	-0	0	572.697	569.113	311.949	210.726	0.392078	-4.49368	0.00268792	-0.0164367	13.5619
76	-0.0642831	0.0204124	0.0163035	0.0489717	0.00192749	0.0338635	0.0251483	-0.0300123	0.00397528	0.0757447	-0.00924017	0.139201	0.0509155	-0.00125205	0.0186345	-2.27388	0.0211809	-1.53504	0	0	0	0	-0	0	0	0	-0.1265	0	-0	0	0	0	0	0	-0	0	0.105	0.015	0	0	-0	0	0	0.098	0.1	0	-0	0	0	0	0	0	-0	0	0.05595	0	0	0	-0	0	0	0	0	0	-0	0	572.724	569.172	311.808	210.829	0.393301	-4.50788	0.00260712	-0.016493	13.6248
77	-0.0597951	0.0204057	0.0163031	0.048974	0.00193479	0.0338696	0.0251485	-0.0300127	0.00397564	0.0747135	-0.0128106	0.130891	0.0508315	-0.00125217	0.0188615	-2.26948	0.0211157	-1.53486	0	0	0	0	-0	0	0	0	-0.1265	0	-0	0	0	0	0	0	-0	0	0.105	0.015	0	0	-0	0	0	0.098	0.1	0	-0	0	0	0	0	0	-0	0	0.05595	0	0	0	-0	0	0	0	0	0	-0	0	572.732	569.202	311.736	210.88	0.394328	-4.51561	0.00251595	-0.016515	13.6553
78	-0.056399	0.0204042	0.0163009	0.0489773	0.00193693	0.0338724	0.0251477	-0.0300117	0.00397548	0.0728695	-0.0155535	0.131278	0.050767	-0.00125222	0.0190332	-2.26615	0.0210626	-1.53472	0	0	0	0	-0	0	0	0	-0.1265	0	-0	0	0	0	0	0	-0	0	0.105	0.015	0	0	-0	0	0	0.098	0.1	0	-0	0	0	0	0	0	-0	0	0.05595	0	0	0	-0	0	0	0	0	0	-0	0	572.738	569.224	311.682	210.918	0.394984	-4.52113	0.00246173	-0.0165341	13.6777
79	-0.0614103	0.0204101	0.0162981	0.04898	0.00193065	0.0338681	0.0251477	-0.0300117	0.00397546	0.0683827	-0.0204907	0.130313	0.0508619	-0.00125228	0.0187786	-2.27123	0.0213195	-1.53476	0	0	0	0	-0	0	0	0	-0.1265	0	-0	0	0	0	0	0	-0	0	0.105	0.015	0	0	-0	0	0	0.098	0.1	0	-0	0	0	0	0	0	-0	0	0.05595	0	0	0	-0	0	0	0	0	0	-0	0	572.747	569.249	311.618	210.962	0.395508	-4.52733	0.00243354	-0.0165605	13.704
80	-0.0539962	0.0204123	0.0162946	0.0489824	0.00192937	0.0338673	0.0251477	-0.0300107	0.00397553	0.0726877	-0.0336926	0.131005	0.0507225	-0.00125225	0.0191542	-2.26399	0.021225	-1.53444	0	0	0	0	-0	0	0	0	-0.1265	0	-0	0	0	0	0	0	-0	0	0.105	0.015	0	0	-0	0	0	0.098	0.1	0	-0	0	0	0	0	0	-0	0	0.05595	0	0	0	-0	0	0	0	0	0	-0	0	572.767	569.297	311.478	211.058	0.396659	-4.5408	0.00236476	-0.0166174	13.7627
81	-0.0570508	0.0204148	0.0162923	0.0489753	0.0019269	0.0338658	0.0251474	-0.0300113	0.00397416	0.0721094	-0.039309	0.13703	0.0507799	-0.00125211	0.0189984	-2.26712	0.0214218	-1.53442	0	0	0	0	-0	0	0	0	-0.1265	0	-0	0	0	0	0	0	-0	0	0.105	0.015	0	0	-0	0	0	0.098	0.1	0	-0	0	0	0	0	0	-0	0	0.05595	0	0	0	-0	0	0	0	0	0	-0	0	572.774	569.325	311.408	211.105	0.397539	-4.54825	0.00230454	-0.0166398	13.7911
82	-0.0593605	0.0204134	0.0162916	0.0489769	0.00192896	0.0338663	0.0251464	-0.030012	0.00397432	0.0806614	-0.0424628	0.139733	0.0508236	-0.00125206	0.0188799	-2.26949	0.0215728	-1.53441	0	0	0	0	-0	0	0	0	-0.1265	0	-0	0	0	0	0	0	-0	0	0.105	0.015	0	0	-0	0	0	0.098	0.1	0	-0	0	0	0	0	0	-0	0	0.05595	0	0	0	-0	0	0	0	0	0	-0	0	572.778	569.344	311.355	211.14	0.3982	-4.55367	0.00224875	-0.0166593	13.8126
83	-0.0545941	0.0204179	0.0162865	0.0489858	0.00192532	0.0338645	0.0251471	-0.0300128	0.00397495	0.0889982	-0.0399585	0.145882	0.0507336	-0.001252	0.0191214	-2.26485	0.021542	-1.53417	0	0	0	0	-0	0	0	0	-0.1265	0	-0	0	0	0	0	0	-0	0	0.105	0.015	0	0	-0	0	0	0.098	0.1	0	-0	0	0	0	0	0	-0	0	0.05595	0	0	0	-0	0	0	0	0	0	-0	0	572.794	569.384	311.238	211.215	0.399154	-4.56501	0.00219358	-0.0167106	13.8614
84	-0.0588933	0.0204128	0.0162859	0.0489838	0.00193086	0.0338683	0.0251467	-0.0300113	0.00397509	0.0875231	-0.041688	0.14349	0.0508156	-0.00125199	0.0189021	-2.26921	0.0217762	-1.53419	0	0	0	0	-0	0	0	0	-0.1265	0	-0	0	0	0	0	0	-0	0	0.105	0.015	0	0	-0	0	0	0.098	0.1	0	-0	0	0	0	0	0	-0	0	0.05595	0	0	0	-0	0	0	0	0	0	-0	0	572.798	569.404	311.179	211.252	0.400006	-4.57126	0.002124	-0.0167303	13.8848
85	-0.0600149	0.0204156	0.0162842	0.0489937	0.00192684	0.0338661	0.0251464	-0.0300111	0.00397513	0.0829793	-0.0364937	0.139431	0.0508361	-0.00125236	0.0188445	-2.2704	0.0218943	-1.53415	0	0	0	0	-0	0	0	0	-0.1265	0	-0	0	0	0	0	0	-0	0	0.105	0.015	0	0	-0	0	0	0.098	0.1	0	-0	0	0	0	0	0	-0	0	0.05595	0	0	0	-0	0	0	0	0	0	-0	0	572.805	569.425	311.117	211.291	0.400607	-4.57754	0.00208629	-0.0167561	13.9109
86	-0.0594323	0.0204173	0.0162837	0.0489975	0.00192476	0.0338643	0.0251468	-0.0300107	0.00397534	0.0830239	-0.0296879	0.135513	0.0508249	-0.00125252	0.0188738	-2.26987	0.0219308	-1.53408	0	0	0	0	-0	0	0	0	-0.1265	0	-0	0	0	0	0	0	-0	0	0.105	0.015	0	0	-0	0	0	0.098	0.1	0	-0	0	0	0	0	0	-0	0	0.05595	0	0	0	-0	0	0	0	0	0	-0	0	572.809	569.44	311.07	211.319	0.401111	-4.58235	0.00205394	-0.0167747	13.9302
87	-0.0664975	0.0204155	0.0162838	0.0490065	0.00192669	0.0338653	0.0251468	-0.030011	0.00397632	0.0808192	-0.031036	0.130731	0.0509589	-0.00125289	0.018513	-2.27703	0.0223202	-1.53412	0	0	0	0	-0	0	0	0	-0.1265	0	-0	0	0	0	0	0	-0	0	0.105	0.015	0	0	-0	0	0	0.098	0.1	0	-0	0	0	0	0	0	-0	0	0.05595	0	0	0	-0	0	0	0	0	0	-0	0	572.819	569.47	310.968	211.381	0.40206	-4.59221	0.00198732	-0.0168163	13.9724
88	-0.0646822	0.0204189	0.0162793	0.0489973	0.00192377	0.0338651	0.0251462	-0.0300106	0.00397655	0.0877018	-0.0421193	0.127896	0.0509241	-0.00125245	0.0186053	-2.27527	0.022316	-1.53402	0	0	0	0	-0	0	0	0	-0.1265	0	-0	0	0	0	0	0	-0	0	0.105	0.015	0	0	-0	0	0	0.098	0.1	0	-0	0	0	0	0	0	-0	0	0.05595	0	0	0	-0	0	0	0	0	0	-0	0	572.823	569.486	310.916	211.412	0.402727	-4.59805	0.00195439	-0.0168331	13.9934
89	-0.0641541	0.0204131	0.0162827	0.0490244	0.00192662	0.0338664	0.0251468	-0.0300106	0.00397779	0.0897229	-0.0402045	0.127735	0.0509136	-0.00125351	0.0186315	-2.27475	0.0223215	-1.53398	0	0	0	0	-0	0	0	0	-0.1265	0	-0	0	0	0	0	0	-0	0	0.105	0.015	0	0	-0	0	0	0.098	0.1	0	-0	0	0	0	0	0	-0	0	0.05595	0	0	0	-0	0	0	0	0	0	-0	0	572.824	569.491	310.901	211.42	0.403037	-4.59958	0.00191386	-0.0168435	13.9996
90	-0.0628609	0.0204135	0.0162826	0.0490282	0.00192618	0.0338664	0.0251472	-0.0300105	0.00397799	0.0883899	-0.0461907	0.127718	0.0508895	-0.00125373	0.018697	-2.27349	0.0223131	-1.53392	0	0	0	0	-0	0	0	0	-0.1265	0	-0	0	0	0	0	0	-0	0	0.105	0.015	0	0	-0	0	0	0.098	0.1	0	-0	0	0	0	0	0	-0	0	0.05595	0	0	0	-0	0	0	0	0	0	-0	0	572.827	569.501	310.871	211.437	0.403354	-4.60266	0.00189027	-0.0168554	14.0124
91	-0.0659469	0.020412	0.016283	0.0490314	0.00192796	0.0338678	0.0251474	-0.0300108	0.00397788	0.0884839	-0.0427193	0.122645	0.0509474	-0.00125391	0.018539	-2.27662	0.0224853	-1.53393	0	0	0	0	-0	0	0	0	-0.1265	0	-0	0	0	0	0	0	-0	0	0.105	0.015	0	0	-0	0	0	0.098	0.1	0	-0	0	0	0	0	0	-0	0	0.05595	0	0	0	-0	0	0	0	0	0	-0	0	572.83	569.515	310.826	211.463	0.403856	-4.60734	0.00185166	-0.0168725	14.0317
92	-0.0687621	0.0204141	0.01628	0.0490264	0.00192736	0.0338682	0.0251469	-0.0300106	0.00397767	0.0858257	-0.0451039	0.123172	0.0509995	-0.00125363	0.0183952	-2.2795	0.0226718	-1.53392	0	0	0	0	-0	0	0	0	-0.1265	0	-0	0	0	0	0	0	-0	0	0.105	0.015	0	0	-0	0	0	0.098	0.1	0	-0	0	0	0	0	0	-0	0	0.05595	0	0	0	-0	0	0	0	0	0	-0	0	572.836	569.535	310.759	211.501	0.404565	-4.61478	0.00181589	-0.0168978	14.0615
93	-0.068281	0.020415	0.0162787	0.0490284	0.00192611	0.0338675	0.025147	-0.0300107	0.00397779	0.0816652	-0.0489	0.124292	0.0509903	-0.00125365	0.0184196	-2.27905	0.0226961	-1.53387	0	0	0	0	-0	0	0	0	-0.1265	0	-0	0	0	0	0	0	-0	0	0.105	0.015	0	0	-0	0	0	0.098	0.1	0	-0	0	0	0	0	0	-0	0	0.05595	0	0	0	-0	0	0	0	0	0	-0	0	572.839	569.545	310.725	211.52	0.405005	-4.61857	0.00178873	-0.016911	14.0756
94	-0.0670586	0.0204136	0.0162778	0.0490358	0.0019277	0.0338686	0.0251471	-0.0300109	0.00397892	0.0850178	-0.0533406	0.118837	0.050968	-0.00125386	0.018481	-2.27789	0.0227465	-1.53376	0	0	0	0	-0	0	0	0	-0.1265	0	-0	0	0	0	0	0	-0	0	0.105	0.015	0	0	-0	0	0	0.098	0.1	0	-0	0	0	0	0	0	-0	0	0.05595	0	0	0	-0	0	0	0	0	0	-0	0	572.846	569.567	310.651	211.562	0.405737	-4.62596	0.00173771	-0.0169422	14.1067
95	-0.0659223	0.0204105	0.016278	0.0490483	0.0019297	0.0338707	0.0251476	-0.030011	0.00397928	0.0860278	-0.0519657	0.112725	0.0509466	-0.0012543	0.0185385	-2.27679	0.022755	-1.53368	0	0	0	0	-0	0	0	0	-0.1265	0	-0	0	0	0	0	0	-0	0	0.105	0.015	0	0	-0	0	0	0.098	0.1	0	-0	0	0	0	0	0	-0	0	0.05595	0	0	0	-0	0	0	0	0	0	-0	0	572.849	569.577	310.613	211.582	0.406271	-4.63021	0.00169641	-0.0169583	14.1231
96	-0.0640293	0.0204115	0.0162755	0.0490477	0.00192988	0.0338716	0.0251471	-0.0300106	0.00397918	0.0835552	-0.0535601	0.110953	0.0509117	-0.00125424	0.0186343	-2.27497	0.022789	-1.53354	0	0	0	0	-0	0	0	0	-0.1265	0	-0	0	0	0	0	0	-0	0	0.105	0.015	0	0	-0	0	0	0.098	0.1	0	-0	0	0	0	0	0	-0	0	0.05595	0	0	0	-0	0	0	0	0	0	-0	0	572.857	569.599	310.53	211.627	0.407111	-4.63892	0.00165138	-0.0169911	14.1583
97	-0.0608605	0.0204137	0.0162738	0.0490477	0.00192743	0.0338701	0.0251469	-0.0300104	0.00397904	0.0816541	-0.0548903	0.113326	0.0508524	-0.00125422	0.0187956	-2.27184	0.0227219	-1.53342	0	0	0	0	-0	0	0	0	-0.1265	0	-0	0	0	0	0	0	-0	0	0.105	0.015	0	0	-0	0	0	0.098	0.1	0	-0	0	0	0	0	0	-0	0	0.05595	0	0	0	-0	0	0	0	0	0	-0	0	572.859	569.611	310.488	211.649	0.407655	-4.64374	0.00162023	-0.0170067	14.1762
98	-0.0689905	0.0204167	0.0162711	0.0490488	0.00192473	0.0338684	0.0251468	-0.0300103	0.0039791	0.0828892	-0.0518658	0.11658	0.0510054	-0.00125416	0.0183813	-2.28005	0.0231386	-1.53351	0	0	0	0	-0	0	0	0	-0.1265	0	-0	0	0	0	0	0	-0	0	0.105	0.015	0	0	-0	0	0	0.098	0.1	0	-0	0	0	0	0	0	-0	0	0.05595	0	0	0	-0	0	0	0	0	0	-0	0	572.866	569.636	310.396	211.697	0.408549	-4.65308	0.00156967	-0.0170443	14.214
99	-0.0670578	0.0204234	0.0162643	0.0490341	0.00191946	0.033866	0.0251466	-0.030011	0.00397705	0.0866809	-0.0537311	0.125121	0.0509692	-0.00125346	0.0184787	-2.27824	0.0232316	-1.53331	0	0	0	0	-0	0	0	0	-0.1265	0	-0	0	0	0	0	0	-0	0	0.105	0.015	0	0	-0	0	0	0.098	0.1	0	-0	0	0	0	0	0	-0	0	0.05595	0	0	0	-0	0	0	0	0	0	-0	0	572.875	569.673	310.26	211.768	0.409912	-4.66712	0.00150362	-0.0170956	14.269
100	-0.0686271	0.0204201	0.0162618	0.04904	0.00192413	0.0338679	0.0251464	-0.0300137	0.00397782	0.101684	-0.0544996	0.127345	0.0509989	-0.00125342	0.018396	-2.27998	0.023539	-1.53311	0	0	0	0	-0	0	0	0	-0.1265	0	-0	0	0	0	0	0	-0	0	0.105	0.015	0	0	-0	0	0	0.098	0.1	0	-0	0	0	0	0	0	-0	0	0.05595	0	0	0	-0	0	0	0	0	0	-0	0	572.886	569.711	310.063	211.868	0.41197	-4.6873	0.00138834	-0.0171768	14.3495
