Stefan210/kinematic_calibration/src/kinematic_calibration/validation/experiments/experiments/anzahl_messungen/BC_A/larm_35/optimization_intermediate_results.csv
iteration	HeadPitch_offset	HeadYaw_offset	LElbowRoll_offset	LElbowYaw_offset	LShoulderPitch_offset	LShoulderRoll_offset	marker_transform_larm_tx	marker_transform_larm_ty	marker_transform_larm_tz	marker_transform_larm_rr	marker_transform_larm_rp	marker_transform_larm_ry	camera_transform_tx	camera_transform_ty	camera_transform_tz	camera_transform_rr	camera_transform_rp	camera_transform_ry	HeadPitch_transform_tx	HeadPitch_transform_ty	HeadPitch_transform_tz	HeadPitch_transform_rr	HeadPitch_transform_rp	HeadPitch_transform_ry	HeadYaw_transform_tx	HeadYaw_transform_ty	HeadYaw_transform_tz	HeadYaw_transform_rr	HeadYaw_transform_rp	HeadYaw_transform_ry	LElbowRoll_transform_tx	LElbowRoll_transform_ty	LElbowRoll_transform_tz	LElbowRoll_transform_rr	LElbowRoll_transform_rp	LElbowRoll_transform_ry	LElbowYaw_transform_tx	LElbowYaw_transform_ty	LElbowYaw_transform_tz	LElbowYaw_transform_rr	LElbowYaw_transform_rp	LElbowYaw_transform_ry	LShoulderPitch_transform_tx	LShoulderPitch_transform_ty	LShoulderPitch_transform_tz	LShoulderPitch_transform_rr	LShoulderPitch_transform_rp	LShoulderPitch_transform_ry	LShoulderRoll_transform_tx	LShoulderRoll_transform_ty	LShoulderRoll_transform_tz	LShoulderRoll_transform_rr	LShoulderRoll_transform_rp	LShoulderRoll_transform_ry	LWristYaw_transform_tx	LWristYaw_transform_ty	LWristYaw_transform_tz	LWristYaw_transform_rr	LWristYaw_transform_rp	LWristYaw_transform_ry	l_wrist_joint_transform_tx	l_wrist_joint_transform_ty	l_wrist_joint_transform_tz	l_wrist_joint_transform_rr	l_wrist_joint_transform_rp	l_wrist_joint_transform_ry	camera_fx	camera_fy	camera_cx	camera_cy	camera_D0	camera_D1	camera_D2	camera_D3	camera_D4	
0	0.0249164	-0.0307543	0.000853157	4.65819e-06	-0.000318322	-0.00310766	0.05071	0	0.01774	-2.26369	1.66533e-16	-1.5708	545.901	551.038	324.928	201.58	0.0255298	2.61142	-0.0636736	-0.0350419	0.213964
1	-0.0143553	0.0247046	0.0100533	0.0249779	-0.00812027	0.0290459	0.0242492	-0.0296671	0.00261833	-0.000214186	-0.000495959	-0.00308143	0.0582742	0.000136365	0.0167301	-2.20554	-0.00631458	-1.56204	0	0	0	0	-0	0	0	0	-0.1265	0	-0	0	0	0	0	0	-0	0	0.105	0.015	0	0	-0	0	0	0.098	0.1	0	-0	0	0	0	0	0	-0	0	0.05595	0	0	0	-0	0	0	0	0	0	-0	0	545.901	551.039	324.927	201.581	-0.0174237	2.59509	-0.0905646	0.0700917	0.210065
2	-0.0115667	0.0418564	0.0132993	0.0277496	-0.0221483	0.0344074	0.0241888	-0.0299849	0.00256466	-0.000204695	-0.000491712	-0.0031187	0.0536724	-0.000695375	0.02532	-2.21904	-0.0136035	-1.57303	0	0	0	0	-0	0	0	0	-0.1265	0	-0	0	0	0	0	0	-0	0	0.105	0.015	0	0	-0	0	0	0.098	0.1	0	-0	0	0	0	0	0	-0	0	0.05595	0	0	0	-0	0	0	0	0	0	-0	0	545.902	551.039	324.924	201.585	-0.138214	2.50372	-0.0241015	0.0100728	0.176616
3	-0.0135906	0.0345521	0.00925625	0.0284556	-0.0163686	0.036105	0.0241746	-0.0297886	0.00263752	-0.000214713	-0.000500852	-0.00310029	0.055657	0.000323984	0.0211015	-2.20984	-0.0120578	-1.57052	0	0	0	0	-0	0	0	0	-0.1265	0	-0	0	0	0	0	0	-0	0	0.105	0.015	0	0	-0	0	0	0.098	0.1	0	-0	0	0	0	0	0	-0	0	0.05595	0	0	0	-0	0	0	0	0	0	-0	0	545.904	551.039	324.92	201.588	-0.291471	2.41024	-0.0334926	0.0192885	0.146419
4	-0.0142096	0.0329068	0.0103345	0.0284369	-0.0166307	0.0341202	0.024338	-0.0296644	0.00263516	-0.000215385	-0.000496938	-0.00306798	0.0560335	0.000324689	0.0193951	-2.20696	-0.0103614	-1.56688	0	0	0	0	-0	0	0	0	-0.1265	0	-0	0	0	0	0	0	-0	0	0.105	0.015	0	0	-0	0	0	0.098	0.1	0	-0	0	0	0	0	0	-0	0	0.05595	0	0	0	-0	0	0	0	0	0	-0	0	545.906	551.04	324.913	201.595	-0.582907	2.2034	0.0118243	-0.0144278	0.0731519
5	-0.0152475	0.0297903	0.0104775	0.0277691	-0.0155911	0.0322979	0.0244671	-0.0295062	0.00256863	-0.000223208	-0.000492481	-0.00304458	0.0567256	0.000517898	0.0170443	-2.2022	-0.00912171	-1.56337	0	0	0	0	-0	0	0	0	-0.1265	0	-0	0	0	0	0	0	-0	0	0.105	0.015	0	0	-0	0	0	0.098	0.1	0	-0	0	0	0	0	0	-0	0	0.05595	0	0	0	-0	0	0	0	0	0	-0	0	545.911	551.039	324.907	201.602	-0.833506	1.97137	0.0443008	-0.0373353	-0.0153326
6	-0.0153605	0.0300561	0.0110805	0.027063	-0.0157635	0.0313034	0.0245191	-0.0294694	0.00245611	-0.000248165	-0.000503419	-0.00303023	0.056274	0.000463495	0.0171563	-2.20178	-0.00959098	-1.56333	0	0	0	0	-0	0	0	0	-0.1265	0	-0	0	0	0	0	0	-0	0	0.105	0.015	0	0	-0	0	0	0.098	0.1	0	-0	0	0	0	0	0	-0	0	0.05595	0	0	0	-0	0	0	0	0	0	-0	0	545.922	551.036	324.902	201.607	-0.82527	1.74054	0.0528116	-0.0441951	-0.122308
7	-0.0153846	0.029341	0.010416	0.0266918	-0.0144127	0.0313122	0.0245106	-0.0294545	0.00234606	-0.000249777	-0.000500922	-0.00306061	0.0554214	0.000561698	0.0177308	-2.20171	-0.0103797	-1.56341	0	0	0	0	-0	0	0	0	-0.1265	0	-0	0	0	0	0	0	-0	0	0.105	0.015	0	0	-0	0	0	0.098	0.1	0	-0	0	0	0	0	0	-0	0	0.05595	0	0	0	-0	0	0	0	0	0	-0	0	545.95	551.026	324.898	201.613	-0.615052	1.38119	0.0385048	-0.0353507	-0.300944
8	-0.0154992	0.0283924	0.00940283	0.0264024	-0.0126742	0.0315108	0.0244899	-0.0294401	0.00222683	-0.000253971	-0.000514394	-0.00309051	0.0543502	0.000699698	0.0184871	-2.20165	-0.011369	-1.56352	0	0	0	0	-0	0	0	0	-0.1265	0	-0	0	0	0	0	0	-0	0	0.105	0.015	0	0	-0	0	0	0.098	0.1	0	-0	0	0	0	0	0	-0	0	0.05595	0	0	0	-0	0	0	0	0	0	-0	0	546.019	550.993	324.899	201.615	-0.324563	0.92345	0.0171218	-0.0218904	-0.528899
9	-0.0157291	0.0279308	0.0088185	0.0262254	-0.0117087	0.0316598	0.0244799	-0.0294354	0.00215289	-0.000460242	-0.0006338	-0.00321653	0.0536349	0.000770917	0.0190294	-2.20177	-0.0120146	-1.56368	0	0	0	0	-0	0	0	0	-0.1265	0	-0	0	0	0	0	0	-0	0	0.105	0.015	0	0	-0	0	0	0.098	0.1	0	-0	0	0	0	0	0	-0	0	0.05595	0	0	0	-0	0	0	0	0	0	-0	0	546.205	550.892	324.911	201.6	-0.131981	0.611303	0.00344591	-0.0130961	-0.675719
10	-0.0158054	0.0278266	0.00868301	0.0261545	-0.0114899	0.0317514	0.0244818	-0.0294387	0.00213424	0.000650731	-0.000272037	-0.00310238	0.0533856	0.00077377	0.019256	-2.20178	-0.0121056	-1.56368	0	0	0	0	-0	0	0	0	-0.1265	0	-0	0	0	0	0	0	-0	0	0.105	0.015	0	0	-0	0	0	0.098	0.1	0	-0	0	0	0	0	0	-0	0	0.05595	0	0	0	-0	0	0	0	0	0	-0	0	546.735	550.594	324.937	201.543	-0.0776231	0.510485	0.000636808	-0.0102959	-0.695371
11	-0.0127079	0.0277988	0.00871712	0.0260403	-0.0115072	0.0318726	0.0244928	-0.0294494	0.00213701	-0.000365187	-0.00326937	-0.00659388	0.0531783	0.000727968	0.0196301	-2.19857	-0.0118116	-1.56353	0	0	0	0	-0	0	0	0	-0.1265	0	-0	0	0	0	0	0	-0	0	0.105	0.015	0	0	-0	0	0	0.098	0.1	0	-0	0	0	0	0	0	-0	0	0.05595	0	0	0	-0	0	0	0	0	0	-0	0	548.22	549.767	325.004	201.377	-0.0767238	0.484798	0.00345931	-0.00894078	-0.650501
12	-0.0175106	0.0277501	0.00883823	0.0257511	-0.0115989	0.0321383	0.0245183	-0.0294766	0.00214737	0.0141798	-0.00598648	-0.00042239	0.0529718	0.000608707	0.019834	-2.20305	-0.0109484	-1.56304	0	0	0	0	-0	0	0	0	-0.1265	0	-0	0	0	0	0	0	-0	0	0.105	0.015	0	0	-0	0	0	0.098	0.1	0	-0	0	0	0	0	0	-0	0	0.05595	0	0	0	-0	0	0	0	0	0	-0	0	551.956	547.795	325.196	200.947	-0.0971433	0.496074	0.011596	-0.00629037	-0.631947
13	-0.0428029	0.0276211	0.00902774	0.025243	-0.0117409	0.0325975	0.0245757	-0.0295604	0.00216816	-0.0321103	-0.0149857	-0.0258963	0.0529149	0.000383264	0.019351	-2.22747	-0.00936077	-1.56218	0	0	0	0	-0	0	0	0	-0.1265	0	-0	0	0	0	0	0	-0	0	0.105	0.015	0	0	-0	0	0	0.098	0.1	0	-0	0	0	0	0	0	-0	0	0.05595	0	0	0	-0	0	0	0	0	0	-0	0	559.258	544.645	325.746	199.972	-0.155996	0.64013	0.026925	-0.00172397	-0.849806
14	-0.110032	0.0274439	0.00912584	0.0248907	-0.0118163	0.0329343	0.0246436	-0.0295564	0.00222893	-0.0389876	0.0318896	0.0118632	0.0536972	0.000174894	0.0165995	-2.29309	-0.00784985	-1.56148	0	0	0	0	-0	0	0	0	-0.1265	0	-0	0	0	0	0	0	-0	0	0.105	0.015	0	0	-0	0	0	0.098	0.1	0	-0	0	0	0	0	0	-0	0	0.05595	0	0	0	-0	0	0	0	0	0	-0	0	566.294	542.976	326.603	198.552	-0.232136	0.898398	0.0401555	0.00148651	-1.30847
15	-0.0779915	0.0273726	0.00914464	0.0247737	-0.0118351	0.0330309	0.0246168	-0.0295437	0.00221153	-0.0295689	0.00787658	0.00594035	0.0529253	0.00010044	0.0186089	-2.26013	-0.00789533	-1.56182	0	0	0	0	-0	0	0	0	-0.1265	0	-0	0	0	0	0	0	-0	0	0.105	0.015	0	0	-0	0	0	0.098	0.1	0	-0	0	0	0	0	0	-0	0	0.05595	0	0	0	-0	0	0	0	0	0	-0	0	568.898	542.674	326.995	197.839	-0.265107	1.01774	0.0446194	0.00225411	-1.5221
16	-0.0694612	0.0273217	0.00914811	0.0247291	-0.0118428	0.0330824	0.0246254	-0.0295537	0.00221595	-0.0441742	-0.00847644	0.00598748	0.0526198	5.59348e-05	0.0192148	-2.25088	-0.00788882	-1.56199	0	0	0	0	-0	0	0	0	-0.1265	0	-0	0	0	0	0	0	-0	0	0.105	0.015	0	0	-0	0	0	0.098	0.1	0	-0	0	0	0	0	0	-0	0	0.05595	0	0	0	-0	0	0	0	0	0	-0	0	570.478	542.679	327.292	197.301	-0.287082	1.10169	0.0470438	0.00260173	-1.67266
17	-0.085898	0.0272496	0.00913378	0.0247132	-0.0118349	0.0331244	0.0246363	-0.0295587	0.00223366	-0.0513255	0.0109674	0.0321114	0.0527987	7.02656e-06	0.0185401	-2.26621	-0.00781288	-1.56213	0	0	0	0	-0	0	0	0	-0.1265	0	-0	0	0	0	0	0	-0	0	0.105	0.015	0	0	-0	0	0	0.098	0.1	0	-0	0	0	0	0	0	-0	0	0.05595	0	0	0	-0	0	0	0	0	0	-0	0	572.283	542.995	327.759	196.513	-0.313645	1.20872	0.0492872	0.0028192	-1.86826
18	-0.0816069	0.0272042	0.00911891	0.0247129	-0.01183	0.0331415	0.0246318	-0.0295534	0.00222891	-0.0636281	-3.06605e-05	0.0283822	0.0526349	-2.25203e-05	0.0188823	-2.26109	-0.0079758	-1.56242	0	0	0	0	-0	0	0	0	-0.1265	0	-0	0	0	0	0	0	-0	0	0.105	0.015	0	0	-0	0	0	0.098	0.1	0	-0	0	0	0	0	0	-0	0	0.05595	0	0	0	-0	0	0	0	0	0	-0	0	573.405	543.333	328.115	195.932	-0.331748	1.28056	0.050503	0.00281301	-1.99577
19	-0.0794547	0.0271886	0.00911414	0.0247105	-0.0118303	0.033147	0.0246307	-0.029551	0.00223058	-0.0604454	0.00217594	0.0179793	0.0525639	-3.3542e-05	0.019037	-2.25859	-0.0080516	-1.56254	0	0	0	0	-0	0	0	0	-0.1265	0	-0	0	0	0	0	0	-0	0	0.105	0.015	0	0	-0	0	0	0.098	0.1	0	-0	0	0	0	0	0	-0	0	0.05595	0	0	0	-0	0	0	0	0	0	-0	0	573.832	543.482	328.261	195.697	-0.339289	1.31014	0.0509602	0.0027753	-2.04727
20	-0.0966363	0.0271655	0.00910453	0.0247151	-0.011827	0.0331504	0.0246304	-0.0295512	0.00223032	-0.0463742	-0.00837715	0.0272609	0.0528518	-4.7288e-05	0.0181876	-2.27531	-0.008009	-1.56257	0	0	0	0	-0	0	0	0	-0.1265	0	-0	0	0	0	0	0	-0	0	0.105	0.015	0	0	-0	0	0	0.098	0.1	0	-0	0	0	0	0	0	-0	0	0.05595	0	0	0	-0	0	0	0	0	0	-0	0	574.365	543.71	328.464	195.378	-0.348293	1.34626	0.0514286	0.00272777	-2.11099
21	-0.101603	0.0271492	0.009097	0.0247189	-0.0118254	0.0331511	0.0246322	-0.0295506	0.00223337	-0.0537562	-0.00513821	0.0165793	0.0529092	-5.67337e-05	0.0179599	-2.27993	-0.0080541	-1.56265	0	0	0	0	-0	0	0	0	-0.1265	0	-0	0	0	0	0	0	-0	0	0.105	0.015	0	0	-0	0	0	0.098	0.1	0	-0	0	0	0	0	0	-0	0	0.05595	0	0	0	-0	0	0	0	0	0	-0	0	574.739	543.894	328.617	195.143	-0.354988	1.37272	0.0517399	0.00266628	-2.15695
22	-0.0991826	0.0270832	0.00905984	0.0247551	-0.0118084	0.0331396	0.024633	-0.029549	0.00225127	-0.0821487	0.0246343	0.0266025	0.0527677	-8.9638e-05	0.0182199	-2.27604	-0.00857336	-1.56329	0	0	0	0	-0	0	0	0	-0.1265	0	-0	0	0	0	0	0	-0	0	0.105	0.015	0	0	-0	0	0	0.098	0.1	0	-0	0	0	0	0	0	-0	0	0.05595	0	0	0	-0	0	0	0	0	0	-0	0	576.077	544.766	329.316	194.158	-0.379111	1.47043	0.0524251	0.00237469	-2.32729
23	-0.0963098	0.0270592	0.00904469	0.0247735	-0.0118052	0.0331341	0.0246364	-0.0295474	0.00224646	-0.0872647	0.0299677	0.0410687	0.052673	-0.00010437	0.0184274	-2.27246	-0.00885645	-1.56364	0	0	0	0	-0	0	0	0	-0.1265	0	-0	0	0	0	0	0	-0	0	0.105	0.015	0	0	-0	0	0	0.098	0.1	0	-0	0	0	0	0	0	-0	0	0.05595	0	0	0	-0	0	0	0	0	0	-0	0	576.675	545.19	329.664	193.684	-0.390602	1.51351	0.0527336	0.00218263	-2.39706
24	-0.0960485	0.027059	0.00904552	0.024771	-0.0118062	0.0331348	0.024634	-0.0295443	0.00224434	-0.0844297	0.031684	0.0403058	0.0526657	-0.000105144	0.0184436	-2.27215	-0.00887333	-1.56366	0	0	0	0	-0	0	0	0	-0.1265	0	-0	0	0	0	0	0	-0	0	0.105	0.015	0	0	-0	0	0	0.098	0.1	0	-0	0	0	0	0	0	-0	0	0.05595	0	0	0	-0	0	0	0	0	0	-0	0	576.711	545.215	329.685	193.656	-0.391532	1.51636	0.0527768	0.00215542	-2.40124
25	-0.0916903	0.0270533	0.00904226	0.024774	-0.0118052	0.033133	0.0246344	-0.0295438	0.00224486	-0.0844322	0.0265019	0.0407195	0.0525764	-0.00010817	0.018685	-2.26765	-0.00896008	-1.56377	0	0	0	0	-0	0	0	0	-0.1265	0	-0	0	0	0	0	0	-0	0	0.105	0.015	0	0	-0	0	0	0.098	0.1	0	-0	0	0	0	0	0	-0	0	0.05595	0	0	0	-0	0	0	0	0	0	-0	0	576.836	545.306	329.758	193.557	-0.393843	1.52532	0.0528285	0.00211948	-2.41614
26	-0.0963535	0.0270375	0.00903234	0.0247846	-0.011801	0.0331278	0.0246394	-0.0295478	0.00224686	-0.0709488	0.039595	0.0447383	0.052639	-0.000115903	0.0184704	-2.27191	-0.00908613	-1.56392	0	0	0	0	-0	0	0	0	-0.1265	0	-0	0	0	0	0	0	-0	0	0.105	0.015	0	0	-0	0	0	0.098	0.1	0	-0	0	0	0	0	0	-0	0	0.05595	0	0	0	-0	0	0	0	0	0	-0	0	577.157	545.55	329.96	193.292	-0.399672	1.54769	0.0529397	0.00202681	-2.45317
27	-0.099437	0.0270301	0.00902778	0.0247904	-0.0117989	0.0331257	0.0246359	-0.0295433	0.00224656	-0.0702311	0.0454624	0.0367592	0.0526843	-0.000119524	0.0183221	-2.2748	-0.0091471	-1.56399	0	0	0	0	-0	0	0	0	-0.1265	0	-0	0	0	0	0	0	-0	0	0.105	0.015	0	0	-0	0	0	0.098	0.1	0	-0	0	0	0	0	0	-0	0	0.05595	0	0	0	-0	0	0	0	0	0	-0	0	577.311	545.672	330.06	193.161	-0.402648	1.55892	0.0529966	0.0019722	-2.47159
28	-0.0909212	0.0270201	0.00902103	0.0247974	-0.0117968	0.0331213	0.0246382	-0.0295437	0.00224667	-0.0724395	0.0341744	0.0479419	0.0525123	-0.000124781	0.0187913	-2.26599	-0.00932886	-1.56421	0	0	0	0	-0	0	0	0	-0.1265	0	-0	0	0	0	0	0	-0	0	0.105	0.015	0	0	-0	0	0	0.098	0.1	0	-0	0	0	0	0	0	-0	0	0.05595	0	0	0	-0	0	0	0	0	0	-0	0	577.533	545.855	330.21	192.969	-0.406959	1.57564	0.0530583	0.00189621	-2.49911
29	-0.0882395	0.0270123	0.00901614	0.0248027	-0.011795	0.0331183	0.0246381	-0.0295423	0.0022488	-0.0774214	0.0205437	0.0498021	0.0524478	-0.000128603	0.0189463	-2.26309	-0.00943938	-1.56435	0	0	0	0	-0	0	0	0	-0.1265	0	-0	0	0	0	0	0	-0	0	0.105	0.015	0	0	-0	0	0	0.098	0.1	0	-0	0	0	0	0	0	-0	0	0.05595	0	0	0	-0	0	0	0	0	0	-0	0	577.695	545.988	330.323	192.826	-0.410013	1.58684	0.0531069	0.00183857	-2.51699
30	-0.0840408	0.0269956	0.00900476	0.0248167	-0.0117899	0.0331105	0.0246348	-0.0295436	0.00224922	-0.0930508	0.0248049	0.0429895	0.0523419	-0.000136745	0.0191988	-2.25842	-0.00968216	-1.56464	0	0	0	0	-0	0	0	0	-0.1265	0	-0	0	0	0	0	0	-0	0	0.105	0.015	0	0	-0	0	0	0.098	0.1	0	-0	0	0	0	0	0	-0	0	0.05595	0	0	0	-0	0	0	0	0	0	-0	0	578.038	546.285	330.577	192.515	-0.416275	1.61019	0.0531636	0.00172369	-2.55438
31	-0.0848924	0.0269865	0.00899814	0.0248258	-0.0117883	0.0331056	0.0246391	-0.0295445	0.00225324	-0.086857	0.0237022	0.02539	0.0523424	-0.000141739	0.0191726	-2.25898	-0.00981336	-1.56479	0	0	0	0	-0	0	0	0	-0.1265	0	-0	0	0	0	0	0	-0	0	0.105	0.015	0	0	-0	0	0	0.098	0.1	0	-0	0	0	0	0	0	-0	0	0.05595	0	0	0	-0	0	0	0	0	0	-0	0	578.249	546.471	330.737	192.321	-0.420455	1.62537	0.0532146	0.00163744	-2.57808
32	-0.0736896	0.0269792	0.0089933	0.0248322	-0.0117859	0.0331023	0.0246368	-0.0295394	0.00225317	-0.0869192	0.0148135	0.0192428	0.0521158	-0.000145392	0.0197734	-2.24756	-0.0099834	-1.56502	0	0	0	0	-0	0	0	0	-0.1265	0	-0	0	0	0	0	0	-0	0	0.105	0.015	0	0	-0	0	0	0.098	0.1	0	-0	0	0	0	0	0	-0	0	0.05595	0	0	0	-0	0	0	0	0	0	-0	0	578.403	546.607	330.856	192.178	-0.423252	1.63535	0.0532399	0.00158248	-2.59355
33	-0.0784289	0.0269714	0.00898773	0.0248378	-0.0117845	0.0330974	0.0246377	-0.0295421	0.00225415	-0.0978288	0.0119294	0.0303482	0.0521925	-0.000149613	0.0195413	-2.25204	-0.0100817	-1.56513	0	0	0	0	-0	0	0	0	-0.1265	0	-0	0	0	0	0	0	-0	0	0.105	0.015	0	0	-0	0	0	0.098	0.1	0	-0	0	0	0	0	0	-0	0	0.05595	0	0	0	-0	0	0	0	0	0	-0	0	578.583	546.771	331.002	192.007	-0.426691	1.64786	0.0532647	0.00151445	-2.61302
34	-0.096182	0.0269527	0.00897456	0.0248552	-0.0117783	0.0330871	0.0246367	-0.029538	0.00225497	-0.0943913	0.0136165	0.0216775	0.0525095	-0.000158438	0.0186494	-2.26922	-0.0102755	-1.56528	0	0	0	0	-0	0	0	0	-0.1265	0	-0	0	0	0	0	0	-0	0	0.105	0.015	0	0	-0	0	0	0.098	0.1	0	-0	0	0	0	0	0	-0	0	0.05595	0	0	0	-0	0	0	0	0	0	-0	0	578.961	547.119	331.328	191.637	-0.433532	1.67215	0.0532859	0.0013843	-2.65015
35	-0.0992079	0.0269458	0.00896965	0.0248606	-0.0117779	0.0330819	0.0246377	-0.0295354	0.00225664	-0.0996897	0.0299286	0.0242233	0.0525452	-0.00016273	0.0185043	-2.27197	-0.0104109	-1.56541	0	0	0	0	-0	0	0	0	-0.1265	0	-0	0	0	0	0	0	-0	0	0.105	0.015	0	0	-0	0	0	0.098	0.1	0	-0	0	0	0	0	0	-0	0	0.05595	0	0	0	-0	0	0	0	0	0	-0	0	579.144	547.29	331.49	191.455	-0.437098	1.68414	0.0533155	0.00130502	-2.66764
36	-0.105254	0.0269433	0.00896803	0.0248636	-0.011777	0.0330806	0.0246359	-0.0295359	0.00225592	-0.10057	0.0316913	0.0276787	0.0526512	-0.000164519	0.0181936	-2.27791	-0.0104401	-1.56542	0	0	0	0	-0	0	0	0	-0.1265	0	-0	0	0	0	0	0	-0	0	0.105	0.015	0	0	-0	0	0	0.098	0.1	0	-0	0	0	0	0	0	-0	0	0.05595	0	0	0	-0	0	0	0	0	0	-0	0	579.218	547.359	331.556	191.382	-0.438433	1.68877	0.0533195	0.00127806	-2.67453
37	-0.110414	0.0269387	0.0089647	0.024868	-0.0117759	0.0330776	0.0246364	-0.0295359	0.00225596	-0.100672	0.0283317	0.0338931	0.0527368	-0.000166866	0.0179309	-2.28291	-0.0104975	-1.56546	0	0	0	0	-0	0	0	0	-0.1265	0	-0	0	0	0	0	0	-0	0	0.105	0.015	0	0	-0	0	0	0.098	0.1	0	-0	0	0	0	0	0	-0	0	0.05595	0	0	0	-0	0	0	0	0	0	-0	0	579.318	547.453	331.647	191.281	-0.440286	1.69509	0.0533274	0.00124078	-2.68381
38	-0.116381	0.0269319	0.00895986	0.024874	-0.0117737	0.0330733	0.0246368	-0.029536	0.00225792	-0.0965332	0.0240811	0.0251536	0.0528322	-0.000170267	0.0176298	-2.28865	-0.0105953	-1.56553	0	0	0	0	-0	0	0	0	-0.1265	0	-0	0	0	0	0	0	-0	0	0.105	0.015	0	0	-0	0	0	0.098	0.1	0	-0	0	0	0	0	0	-0	0	0.05595	0	0	0	-0	0	0	0	0	0	-0	0	579.464	547.59	331.782	191.134	-0.442881	1.70394	0.0533307	0.00119079	-2.69682
39	-0.103766	0.0269224	0.00895299	0.0248832	-0.0117707	0.0330669	0.0246389	-0.0295382	0.00225798	-0.0830536	0.0331041	0.0285028	0.0525932	-0.000175165	0.0183161	-2.2757	-0.0108569	-1.56587	0	0	0	0	-0	0	0	0	-0.1265	0	-0	0	0	0	0	0	-0	0	0.105	0.015	0	0	-0	0	0	0.098	0.1	0	-0	0	0	0	0	0	-0	0	0.05595	0	0	0	-0	0	0	0	0	0	-0	0	579.672	547.788	331.985	190.917	-0.446508	1.71583	0.0533287	0.00112017	-2.71368
40	-0.103571	0.0269154	0.00894804	0.0248893	-0.0117689	0.033062	0.0246389	-0.0295368	0.00225854	-0.0870012	0.0295319	0.0140205	0.0525738	-0.000178725	0.0183386	-2.27526	-0.011002	-1.56603	0	0	0	0	-0	0	0	0	-0.1265	0	-0	0	0	0	0	0	-0	0	0.105	0.015	0	0	-0	0	0	0.098	0.1	0	-0	0	0	0	0	0	-0	0	0.05595	0	0	0	-0	0	0	0	0	0	-0	0	579.828	547.937	332.137	190.758	-0.449416	1.72552	0.0533377	0.00106015	-2.72765
41	-0.104045	0.026911	0.00894497	0.0248943	-0.0117675	0.0330589	0.0246382	-0.0295326	0.00225912	-0.0882413	0.0434939	0.0140169	0.0525738	-0.000181404	0.0183244	-2.27556	-0.0111097	-1.56614	0	0	0	0	-0	0	0	0	-0.1265	0	-0	0	0	0	0	0	-0	0	0.105	0.015	0	0	-0	0	0	0.098	0.1	0	-0	0	0	0	0	0	-0	0	0.05595	0	0	0	-0	0	0	0	0	0	-0	0	579.94	548.046	332.25	190.64	-0.45133	1.73155	0.0533339	0.00102081	-2.73584
42	-0.111029	0.0269057	0.00894119	0.0248985	-0.0117662	0.0330547	0.0246388	-0.0295329	0.00225822	-0.0882987	0.0565207	0.00731474	0.0526919	-0.000184463	0.0179695	-2.28232	-0.01121	-1.56621	0	0	0	0	-0	0	0	0	-0.1265	0	-0	0	0	0	0	0	-0	0	0.105	0.015	0	0	-0	0	0	0.098	0.1	0	-0	0	0	0	0	0	-0	0	0.05595	0	0	0	-0	0	0	0	0	0	-0	0	580.072	548.172	332.386	190.501	-0.453677	1.73926	0.0533313	0.000977078	-2.74666
43	-0.104643	0.0269016	0.0089383	0.0249021	-0.0117652	0.0330516	0.0246363	-0.0295323	0.00225966	-0.0841265	0.0573526	0.00916037	0.0525689	-0.000186675	0.0183144	-2.27578	-0.0113395	-1.56639	0	0	0	0	-0	0	0	0	-0.1265	0	-0	0	0	0	0	0	-0	0	0.105	0.015	0	0	-0	0	0	0.098	0.1	0	-0	0	0	0	0	0	-0	0	0.05595	0	0	0	-0	0	0	0	0	0	-0	0	580.169	548.267	332.488	190.397	-0.455474	1.74513	0.0533312	0.000940812	-2.75493
44	-0.112635	0.0268958	0.00893385	0.0249085	-0.0117637	0.0330468	0.0246364	-0.0295314	0.0022602	-0.0845547	0.0603797	0.00654418	0.0527035	-0.000190007	0.017907	-2.28353	-0.011454	-1.56645	0	0	0	0	-0	0	0	0	-0.1265	0	-0	0	0	0	0	0	-0	0	0.105	0.015	0	0	-0	0	0	0.098	0.1	0	-0	0	0	0	0	0	-0	0	0.05595	0	0	0	-0	0	0	0	0	0	-0	0	580.309	548.402	332.64	190.245	-0.457885	1.75253	0.0533244	0.000894892	-2.7646
45	-0.0889519	0.0268711	0.00891591	0.0249307	-0.0117548	0.0330267	0.0246361	-0.0295351	0.00228306	-0.128186	0.106703	0.016042	0.052235	-0.000202855	0.0192079	-2.25885	-0.0122376	-1.56745	0	0	0	0	-0	0	0	0	-0.1265	0	-0	0	0	0	0	0	-0	0	0.105	0.015	0	0	-0	0	0	0.098	0.1	0	-0	0	0	0	0	0	-0	0	0.05595	0	0	0	-0	0	0	0	0	0	-0	0	580.869	548.941	333.316	189.608	-0.467051	1.7801	0.0532449	0.000753929	-2.7998
46	-0.0973432	0.0268456	0.00889588	0.0249601	-0.0117473	0.032999	0.0246396	-0.0295339	0.0022737	-0.147566	0.120224	0.0326654	0.0523238	-0.000219777	0.0188305	-2.26589	-0.0132163	-1.56843	0	0	0	0	-0	0	0	0	-0.1265	0	-0	0	0	0	0	0	-0	0	0.105	0.015	0	0	-0	0	0	0.098	0.1	0	-0	0	0	0	0	0	-0	0	0.05595	0	0	0	-0	0	0	0	0	0	-0	0	581.582	549.621	334.302	188.75	-0.478108	1.80797	0.0531354	0.000600477	-2.82727
47	-0.0889399	0.0268365	0.00889128	0.0249685	-0.0117453	0.0329887	0.024643	-0.0295236	0.00225925	-0.130478	0.0873972	0.0463338	0.0521383	-0.000227518	0.0193012	-2.25684	-0.0137398	-1.56907	0	0	0	0	-0	0	0	0	-0.1265	0	-0	0	0	0	0	0	-0	0	0.105	0.015	0	0	-0	0	0	0.098	0.1	0	-0	0	0	0	0	0	-0	0	0.05595	0	0	0	-0	0	0	0	0	0	-0	0	581.911	549.928	334.783	188.345	-0.483214	1.81931	0.0531165	0.000519652	-2.83644
48	-0.0892433	0.0268358	0.00889273	0.024963	-0.0117466	0.032987	0.0246406	-0.0295269	0.00226439	-0.134501	0.0779647	0.0575055	0.0521368	-0.000228955	0.0192905	-2.25701	-0.0138382	-1.56917	0	0	0	0	-0	0	0	0	-0.1265	0	-0	0	0	0	0	0	-0	0	0.105	0.015	0	0	-0	0	0	0.098	0.1	0	-0	0	0	0	0	0	-0	0	0.05595	0	0	0	-0	0	0	0	0	0	-0	0	581.977	549.99	334.88	188.264	-0.484363	1.82177	0.0531264	0.000493242	-2.83865
49	-0.0969295	0.0268315	0.00888926	0.02497	-0.011745	0.0329816	0.0246393	-0.0295253	0.00226683	-0.137392	0.070075	0.0487029	0.0522748	-0.00023215	0.0189021	-2.26444	-0.0140341	-1.56929	0	0	0	0	-0	0	0	0	-0.1265	0	-0	0	0	0	0	0	-0	0	0.105	0.015	0	0	-0	0	0	0.098	0.1	0	-0	0	0	0	0	0	-0	0	0.05595	0	0	0	-0	0	0	0	0	0	-0	0	582.109	550.116	335.08	188.099	-0.486324	1.82625	0.0530998	0.000470446	-2.84211
50	-0.0989116	0.026826	0.00888528	0.0249755	-0.0117435	0.0329742	0.0246384	-0.0295226	0.00226883	-0.122313	0.0471932	0.0467746	0.0522957	-0.000236575	0.0188162	-2.26604	-0.0143463	-1.56959	0	0	0	0	-0	0	0	0	-0.1265	0	-0	0	0	0	0	0	-0	0	0.105	0.015	0	0	-0	0	0	0.098	0.1	0	-0	0	0	0	0	0	-0	0	0.05595	0	0	0	-0	0	0	0	0	0	-0	0	582.295	550.287	335.376	187.861	-0.48885	1.83096	0.053062	0.00044694	-2.84394
