Stefan210/kinematic_calibration/src/kinematic_calibration/validation/experiments/experiments/anzahl_messungen/AC_B/larm_99/optimization_intermediate_results.csv
iteration	HeadPitch_offset	HeadYaw_offset	LElbowRoll_offset	LElbowYaw_offset	LShoulderPitch_offset	LShoulderRoll_offset	marker_transform_larm_tx	marker_transform_larm_ty	marker_transform_larm_tz	marker_transform_larm_rr	marker_transform_larm_rp	marker_transform_larm_ry	camera_transform_tx	camera_transform_ty	camera_transform_tz	camera_transform_rr	camera_transform_rp	camera_transform_ry	HeadPitch_transform_tx	HeadPitch_transform_ty	HeadPitch_transform_tz	HeadPitch_transform_rr	HeadPitch_transform_rp	HeadPitch_transform_ry	HeadYaw_transform_tx	HeadYaw_transform_ty	HeadYaw_transform_tz	HeadYaw_transform_rr	HeadYaw_transform_rp	HeadYaw_transform_ry	LElbowRoll_transform_tx	LElbowRoll_transform_ty	LElbowRoll_transform_tz	LElbowRoll_transform_rr	LElbowRoll_transform_rp	LElbowRoll_transform_ry	LElbowYaw_transform_tx	LElbowYaw_transform_ty	LElbowYaw_transform_tz	LElbowYaw_transform_rr	LElbowYaw_transform_rp	LElbowYaw_transform_ry	LShoulderPitch_transform_tx	LShoulderPitch_transform_ty	LShoulderPitch_transform_tz	LShoulderPitch_transform_rr	LShoulderPitch_transform_rp	LShoulderPitch_transform_ry	LShoulderRoll_transform_tx	LShoulderRoll_transform_ty	LShoulderRoll_transform_tz	LShoulderRoll_transform_rr	LShoulderRoll_transform_rp	LShoulderRoll_transform_ry	LWristYaw_transform_tx	LWristYaw_transform_ty	LWristYaw_transform_tz	LWristYaw_transform_rr	LWristYaw_transform_rp	LWristYaw_transform_ry	l_wrist_joint_transform_tx	l_wrist_joint_transform_ty	l_wrist_joint_transform_tz	l_wrist_joint_transform_rr	l_wrist_joint_transform_rp	l_wrist_joint_transform_ry	camera_fx	camera_fy	camera_cx	camera_cy	camera_D0	camera_D1	camera_D2	camera_D3	camera_D4	
0	0.0249164	-0.0307543	0.000853157	4.65819e-06	-0.000318322	-0.00310766	0.05071	0	0.01774	-2.26369	1.66533e-16	-1.5708	545.901	551.038	324.928	201.58	0.0255298	2.61142	-0.0636736	-0.0350419	0.213964
1	-0.0161289	0.0231935	0.0113611	0.0368558	-0.0112655	0.0210938	0.0241502	-0.0294991	0.00268494	-0.000223098	-0.000502915	-0.00307685	0.0558784	0.000727142	0.016442	-2.19858	-0.0125923	-1.56401	0	0	0	0	-0	0	0	0	-0.1265	0	-0	0	0	0	0	0	-0	0	0.105	0.015	0	0	-0	0	0	0.098	0.1	0	-0	0	0	0	0	0	-0	0	0.05595	0	0	0	-0	0	0	0	0	0	-0	0	545.901	551.039	324.928	201.581	-0.0105514	2.59996	-0.0896294	0.0383228	0.211589
2	-0.0159722	0.0333515	0.0111352	0.0407415	-0.0187631	0.0248384	0.0243085	-0.0296295	0.00295788	-0.000254036	-0.00052819	-0.00307031	0.0536269	0.000123004	0.0197231	-2.20009	-0.0146927	-1.56971	0	0	0	0	-0	0	0	0	-0.1265	0	-0	0	0	0	0	0	-0	0	0.105	0.015	0	0	-0	0	0	0.098	0.1	0	-0	0	0	0	0	0	-0	0	0.05595	0	0	0	-0	0	0	0	0	0	-0	0	545.903	551.039	324.925	201.585	-0.166445	2.50317	-0.0499509	0.00555299	0.180811
3	-0.0161558	0.0351908	0.0101447	0.0401063	-0.0186456	0.0244973	0.0242452	-0.0296134	0.00289042	-0.000245417	-0.000518836	-0.00307823	0.0553088	0.000630402	0.0174859	-2.19874	-0.0169644	-1.57525	0	0	0	0	-0	0	0	0	-0.1265	0	-0	0	0	0	0	0	-0	0	0.105	0.015	0	0	-0	0	0	0.098	0.1	0	-0	0	0	0	0	0	-0	0	0.05595	0	0	0	-0	0	0	0	0	0	-0	0	545.908	551.039	324.921	201.593	-0.434928	2.32995	-0.0198035	-0.000667803	0.126793
4	-0.0157108	0.039694	0.0108396	0.0391281	-0.020207	0.0254864	0.0242777	-0.0296388	0.00280219	-0.000234522	-0.000510724	-0.00307509	0.0565428	0.000807387	0.0164071	-2.20019	-0.0194354	-1.5814	0	0	0	0	-0	0	0	0	-0.1265	0	-0	0	0	0	0	0	-0	0	0.105	0.015	0	0	-0	0	0	0.098	0.1	0	-0	0	0	0	0	0	-0	0	0.05595	0	0	0	-0	0	0	0	0	0	-0	0	545.919	551.037	324.915	201.602	-0.632665	2.06354	0.0169402	-0.00924472	0.0314332
5	-0.0154201	0.0406905	0.0112321	0.0379834	-0.0197356	0.0267511	0.0243075	-0.0296848	0.00271755	-0.000226393	-0.000500426	-0.00308892	0.0564761	0.000849177	0.016605	-2.20144	-0.0192637	-1.58283	0	0	0	0	-0	0	0	0	-0.1265	0	-0	0	0	0	0	0	-0	0	0.105	0.015	0	0	-0	0	0	0.098	0.1	0	-0	0	0	0	0	0	-0	0	0.05595	0	0	0	-0	0	0	0	0	0	-0	0	545.949	551.027	324.907	201.614	-0.553627	1.64045	0.0210258	-0.0109941	-0.138344
6	-0.0151716	0.0388453	0.0113913	0.0371415	-0.0176753	0.0279874	0.0243363	-0.0297414	0.00265287	-0.000241932	-0.000521348	-0.0030631	0.0555175	0.000829183	0.017563	-2.20272	-0.0170349	-1.58052	0	0	0	0	-0	0	0	0	-0.1265	0	-0	0	0	0	0	0	-0	0	0.105	0.015	0	0	-0	0	0	0.098	0.1	0	-0	0	0	0	0	0	-0	0	0.05595	0	0	0	-0	0	0	0	0	0	-0	0	546.016	551.003	324.897	201.626	-0.274112	0.944855	0.0063574	-0.00993393	-0.41358
7	-0.0149579	0.0369844	0.0116606	0.0364705	-0.0158201	0.0291315	0.0243685	-0.0297943	0.00260147	-0.000245417	-0.000505051	-0.00312546	0.0544375	0.000749291	0.0186683	-2.204	-0.0147069	-1.57787	0	0	0	0	-0	0	0	0	-0.1265	0	-0	0	0	0	0	0	-0	0	0.105	0.015	0	0	-0	0	0	0.098	0.1	0	-0	0	0	0	0	0	-0	0	0.05595	0	0	0	-0	0	0	0	0	0	-0	0	546.155	550.949	324.891	201.623	0.0310877	0.16707	-0.0094647	-0.00886183	-0.66765
8	-0.0148822	0.0362158	0.0119816	0.0361383	-0.0150325	0.029824	0.024393	-0.0298213	0.00257826	2.7514e-05	-0.000617168	-0.00285974	0.0537605	0.000660239	0.0194151	-2.20492	-0.0134152	-1.57641	0	0	0	0	-0	0	0	0	-0.1265	0	-0	0	0	0	0	0	-0	0	0.105	0.015	0	0	-0	0	0	0.098	0.1	0	-0	0	0	0	0	0	-0	0	0.05595	0	0	0	-0	0	0	0	0	0	-0	0	546.495	550.813	324.877	201.601	0.208999	-0.368373	-0.0166378	-0.00852787	-0.655037
9	-0.0150628	0.0360235	0.0121961	0.0360108	-0.014831	0.0301283	0.0244053	-0.0298264	0.00257238	0.000518525	-0.000894103	-0.00281295	0.0533944	0.000606325	0.0198378	-2.20564	-0.0128455	-1.57574	0	0	0	0	-0	0	0	0	-0.1265	0	-0	0	0	0	0	0	-0	0	0.105	0.015	0	0	-0	0	0	0.098	0.1	0	-0	0	0	0	0	0	-0	0	0.05595	0	0	0	-0	0	0	0	0	0	-0	0	547.42	550.437	324.824	201.558	0.266455	-0.710862	-0.0152389	-0.00853571	-0.142575
10	-0.014485	0.0358371	0.0124302	0.0358046	-0.014667	0.0304215	0.0244168	-0.0298248	0.00256374	9.25289e-05	-0.00178422	-0.00323201	0.0528332	0.000548628	0.020507	-2.20578	-0.0122131	-1.5749	0	0	0	0	-0	0	0	0	-0.1265	0	-0	0	0	0	0	0	-0	0	0.105	0.015	0	0	-0	0	0	0.098	0.1	0	-0	0	0	0	0	0	-0	0	0.05595	0	0	0	-0	0	0	0	0	0	-0	0	549.819	549.445	324.708	201.448	0.292386	-1.22492	-0.00641548	-0.00861129	1.20097
11	-0.0231099	0.0355156	0.0127948	0.0354769	-0.0143625	0.03092	0.0244358	-0.0298206	0.00255306	-0.00515672	0.000703479	-0.00536089	0.0519469	0.000443769	0.0212739	-2.2156	-0.0113053	-1.5734	0	0	0	0	-0	0	0	0	-0.1265	0	-0	0	0	0	0	0	-0	0	0.105	0.015	0	0	-0	0	0	0.098	0.1	0	-0	0	0	0	0	0	-0	0	0.05595	0	0	0	-0	0	0	0	0	0	-0	0	554.881	547.287	324.622	201.2	0.302636	-2.04449	0.0132857	-0.00879331	3.55637
12	-0.0450854	0.0352011	0.0131418	0.0352554	-0.0139807	0.0314938	0.0244741	-0.0298237	0.00255657	-0.0196839	-0.0226926	0.0128175	0.0510542	0.000305283	0.0217324	-2.23908	-0.0111591	-1.57234	0	0	0	0	-0	0	0	0	-0.1265	0	-0	0	0	0	0	0	-0	0	0.105	0.015	0	0	-0	0	0	0.098	0.1	0	-0	0	0	0	0	0	-0	0	0.05595	0	0	0	-0	0	0	0	0	0	-0	0	562.064	544.2	325.249	200.979	0.247752	-2.73374	0.0427325	-0.00893139	5.91935
13	-0.0337449	0.0351308	0.0132765	0.0352164	-0.0138027	0.0317267	0.0244728	-0.0298144	0.00257027	-0.0145291	-0.0148813	0.0309332	0.0500626	0.000221329	0.0232599	-2.22869	-0.0134097	-1.57426	0	0	0	0	-0	0	0	0	-0.1265	0	-0	0	0	0	0	0	-0	0	0.105	0.015	0	0	-0	0	0	0.098	0.1	0	-0	0	0	0	0	0	-0	0	0.05595	0	0	0	-0	0	0	0	0	0	-0	0	566.443	542.492	327.447	200.989	0.178836	-2.89365	0.0613436	-0.00841103	6.78853
14	-0.0540988	0.0352203	0.0133189	0.0352227	-0.0138062	0.0317646	0.0244715	-0.0298093	0.00257255	-0.0224644	-0.00523122	0.0171027	0.0501933	0.000182978	0.0226182	-2.24963	-0.0165824	-1.57674	0	0	0	0	-0	0	0	0	-0.1265	0	-0	0	0	0	0	0	-0	0	0.105	0.015	0	0	-0	0	0	0.098	0.1	0	-0	0	0	0	0	0	-0	0	0.05595	0	0	0	-0	0	0	0	0	0	-0	0	568.391	541.88	330.053	201.138	0.13877	-2.8264	0.0692488	-0.00771789	6.71464
15	-0.0170672	0.035455	0.0132486	0.0353431	-0.0139412	0.031589	0.0244619	-0.0298064	0.00258914	-0.00739371	-0.00347596	0.0136205	0.0491565	0.000154439	0.0246988	-2.21387	-0.0281364	-1.58838	0	0	0	0	-0	0	0	0	-0.1265	0	-0	0	0	0	0	0	-0	0	0.105	0.015	0	0	-0	0	0	0.098	0.1	0	-0	0	0	0	0	0	-0	0	0.05595	0	0	0	-0	0	0	0	0	0	-0	0	570.162	543.231	339.547	201.858	0.104548	-2.48753	0.0700715	-0.00415028	5.68057
16	-0.0364762	0.0356936	0.0132019	0.0355053	-0.0140399	0.031525	0.0245121	-0.0298036	0.00262618	-0.00277723	-0.0720369	-0.000506021	0.0495303	0.00013991	0.0237894	-2.23457	-0.033506	-1.59307	0	0	0	0	-0	0	0	0	-0.1265	0	-0	0	0	0	0	0	-0	0	0.105	0.015	0	0	-0	0	0	0.098	0.1	0	-0	0	0	0	0	0	-0	0	0.05595	0	0	0	-0	0	0	0	0	0	-0	0	571.003	543.5	343.779	202.66	0.0852892	-2.28276	0.0712204	-0.0027997	5.02993
17	-0.0264129	0.0358096	0.0131591	0.0355891	-0.0140886	0.0314557	0.0244929	-0.0298361	0.00259461	-0.00100366	-0.0479034	-0.0501002	0.0492737	0.00013509	0.0242886	-2.22544	-0.0371066	-1.59695	0	0	0	0	-0	0	0	0	-0.1265	0	-0	0	0	0	0	0	-0	0	0.105	0.015	0	0	-0	0	0	0.098	0.1	0	-0	0	0	0	0	0	-0	0	0.05595	0	0	0	-0	0	0	0	0	0	-0	0	571.406	543.909	346.801	203.276	0.0799878	-2.18172	0.0707155	-0.00159472	4.71063
18	-0.00641606	0.0358798	0.0131364	0.0356591	-0.01412	0.0314141	0.0244815	-0.0298388	0.00261536	0.0232906	-0.0293754	-0.0138732	0.0487822	0.00013142	0.0252723	-2.20614	-0.0390901	-1.60018	0	0	0	0	-0	0	0	0	-0.1265	0	-0	0	0	0	0	0	-0	0	0.105	0.015	0	0	-0	0	0	0.098	0.1	0	-0	0	0	0	0	0	-0	0	0.05595	0	0	0	-0	0	0	0	0	0	-0	0	571.683	544.267	348.859	203.725	0.0782395	-2.12049	0.0701199	-0.000735761	4.51284
19	-0.0203887	0.0359206	0.0131129	0.0357121	-0.0141387	0.0313833	0.0244657	-0.0298001	0.00261966	0.0266025	-0.0623624	-0.0131288	0.0491237	0.000129531	0.024584	-2.22062	-0.0412255	-1.60138	0	0	0	0	-0	0	0	0	-0.1265	0	-0	0	0	0	0	0	-0	0	0.105	0.015	0	0	-0	0	0	0.098	0.1	0	-0	0	0	0	0	0	-0	0	0.05595	0	0	0	-0	0	0	0	0	0	-0	0	571.888	544.553	350.291	204.049	0.0772844	-2.0768	0.0696059	-0.000113932	4.37289
20	-0.0307847	0.035956	0.0130833	0.0357703	-0.0141578	0.0313402	0.0244562	-0.0298049	0.00262327	0.01824	-0.0707769	0.000469782	0.0493731	0.000127609	0.0240657	-2.23166	-0.0439587	-1.60326	0	0	0	0	-0	0	0	0	-0.1265	0	-0	0	0	0	0	0	-0	0	0.105	0.015	0	0	-0	0	0	0.098	0.1	0	-0	0	0	0	0	0	-0	0	0.05595	0	0	0	-0	0	0	0	0	0	-0	0	572.172	545.067	352.243	204.466	0.0785469	-2.03091	0.068509	0.000780638	4.22068
21	-0.036691	0.0359827	0.0130739	0.0358043	-0.0141699	0.0313282	0.0244559	-0.0298034	0.00262699	0.0263153	-0.0571859	0.00614908	0.0495098	0.000126049	0.0237748	-2.23786	-0.0450963	-1.60387	0	0	0	0	-0	0	0	0	-0.1265	0	-0	0	0	0	0	0	-0	0	0.105	0.015	0	0	-0	0	0	0.098	0.1	0	-0	0	0	0	0	0	-0	0	0.05595	0	0	0	-0	0	0	0	0	0	-0	0	572.314	545.255	352.992	204.647	0.0773657	-2.00172	0.0682408	0.00111125	4.13194
22	-0.0397201	0.0359941	0.013072	0.0358133	-0.0141746	0.0313251	0.0244522	-0.0298006	0.00262742	0.0243688	-0.0493562	0.0105874	0.0495803	0.00012552	0.0236251	-2.24098	-0.0454549	-1.60397	0	0	0	0	-0	0	0	0	-0.1265	0	-0	0	0	0	0	0	-0	0	0.105	0.015	0	0	-0	0	0	0.098	0.1	0	-0	0	0	0	0	0	-0	0	0.05595	0	0	0	-0	0	0	0	0	0	-0	0	572.356	545.304	353.195	204.699	0.0767105	-1.99158	0.0681916	0.00119658	4.10222
23	-0.0427258	0.0360033	0.0130562	0.035841	-0.0141795	0.0313064	0.024456	-0.0298025	0.00263358	0.0280993	-0.0679588	-0.00320461	0.0496515	0.00012522	0.023472	-2.24428	-0.0465633	-1.60477	0	0	0	0	-0	0	0	0	-0.1265	0	-0	0	0	0	0	0	-0	0	0.105	0.015	0	0	-0	0	0	0.098	0.1	0	-0	0	0	0	0	0	-0	0	0.05595	0	0	0	-0	0	0	0	0	0	-0	0	572.5	545.541	354	204.888	0.0764185	-1.96732	0.0677246	0.00158656	4.0318
24	-0.0327185	0.0360135	0.0130504	0.0358551	-0.0141841	0.0312991	0.0244504	-0.0298003	0.00262966	0.0243241	-0.0697424	-0.00495416	0.0494158	0.000124786	0.0239685	-2.23442	-0.0467107	-1.60569	0	0	0	0	-0	0	0	0	-0.1265	0	-0	0	0	0	0	0	-0	0	0.105	0.015	0	0	-0	0	0	0.098	0.1	0	-0	0	0	0	0	0	-0	0	0.05595	0	0	0	-0	0	0	0	0	0	-0	0	572.575	545.654	354.39	204.984	0.0760173	-1.9537	0.0675407	0.00176693	3.99136
25	-0.0444403	0.0360221	0.0130415	0.035875	-0.0141886	0.0312877	0.0244517	-0.0298013	0.00263117	0.0173458	-0.0784381	-0.00178232	0.0496937	0.000124291	0.0233867	-2.24636	-0.0478201	-1.6058	0	0	0	0	-0	0	0	0	-0.1265	0	-0	0	0	0	0	0	-0	0	0.105	0.015	0	0	-0	0	0	0.098	0.1	0	-0	0	0	0	0	0	-0	0	0.05595	0	0	0	-0	0	0	0	0	0	-0	0	572.683	545.833	354.956	205.12	0.0759785	-1.93748	0.0672039	0.00204082	3.94323
26	-0.0364458	0.0360299	0.0130345	0.035891	-0.0141926	0.0312788	0.0244501	-0.0297999	0.00263236	0.0196178	-0.0717647	-0.0013423	0.0495023	0.00012385	0.0237821	-2.23855	-0.0481302	-1.60673	0	0	0	0	-0	0	0	0	-0.1265	0	-0	0	0	0	0	0	-0	0	0.105	0.015	0	0	-0	0	0	0.098	0.1	0	-0	0	0	0	0	0	-0	0	0.05595	0	0	0	-0	0	0	0	0	0	-0	0	572.777	545.987	355.426	205.235	0.0759009	-1.92374	0.0669308	0.00226757	3.90238
27	-0.0377028	0.0360373	0.0130243	0.0359128	-0.0141967	0.0312666	0.0244493	-0.0298022	0.00263903	0.00224656	-0.0558296	0.00983942	0.0495286	0.000123252	0.0237191	-2.24007	-0.0490132	-1.60746	0	0	0	0	-0	0	0	0	-0.1265	0	-0	0	0	0	0	0	-0	0	0.105	0.015	0	0	-0	0	0	0.098	0.1	0	-0	0	0	0	0	0	-0	0	0.05595	0	0	0	-0	0	0	0	0	0	-0	0	572.915	546.221	356.103	205.399	0.0763198	-1.90738	0.0664939	0.00260249	3.85241
28	-0.0472842	0.0360446	0.0130167	0.0359314	-0.0142005	0.0312585	0.0244486	-0.0298003	0.00263453	-0.00391845	-0.0548191	0.00442917	0.0497533	0.000122655	0.0232459	-2.24985	-0.049972	-1.60755	0	0	0	0	-0	0	0	0	-0.1265	0	-0	0	0	0	0	0	-0	0	0.105	0.015	0	0	-0	0	0	0.098	0.1	0	-0	0	0	0	0	0	-0	0	0.05595	0	0	0	-0	0	0	0	0	0	-0	0	573.025	546.395	356.592	205.52	0.0762889	-1.8932	0.0662047	0.00284175	3.81022
29	-0.0604632	0.0360519	0.0130072	0.0359532	-0.0142045	0.0312465	0.0244497	-0.0298004	0.0026346	1.23639e-05	-0.0645967	0.0147558	0.0500547	0.000121978	0.0225899	-2.26332	-0.0513372	-1.60768	0	0	0	0	-0	0	0	0	-0.1265	0	-0	0	0	0	0	0	-0	0	0.105	0.015	0	0	-0	0	0	0.098	0.1	0	-0	0	0	0	0	0	-0	0	0.05595	0	0	0	-0	0	0	0	0	0	-0	0	573.18	546.654	357.293	205.694	0.0766224	-1.87578	0.0657444	0.00319301	3.75846
30	-0.0647693	0.0360595	0.0130007	0.0359707	-0.0142085	0.0312386	0.0244507	-0.0298002	0.00263641	-0.00175287	-0.077746	0.0233705	0.0501454	0.000121382	0.0223737	-2.26784	-0.0521413	-1.60803	0	0	0	0	-0	0	0	0	-0.1265	0	-0	0	0	0	0	0	-0	0	0.105	0.015	0	0	-0	0	0	0.098	0.1	0	-0	0	0	0	0	0	-0	0	0.05595	0	0	0	-0	0	0	0	0	0	-0	0	573.3	546.844	357.797	205.823	0.0765042	-1.86069	0.0654364	0.0034431	3.71477
31	-0.0600955	0.036065	0.0129989	0.0359775	-0.014211	0.0312363	0.0244479	-0.0297994	0.00263815	0.00135039	-0.0732832	0.0203698	0.0500395	0.000121068	0.0226086	-2.26324	-0.05218	-1.60846	0	0	0	0	-0	0	0	0	-0.1265	0	-0	0	0	0	0	0	-0	0	0.105	0.015	0	0	-0	0	0	0.098	0.1	0	-0	0	0	0	0	0	-0	0	0.05595	0	0	0	-0	0	0	0	0	0	-0	0	573.342	546.905	357.963	205.868	0.0761826	-1.85362	0.0653544	0.0035222	3.69484
32	-0.0660063	0.036068	0.0129945	0.0359871	-0.0142125	0.0312323	0.0244484	-0.0298009	0.00263878	0.00805024	-0.0691687	0.027733	0.0501717	0.000120874	0.0223128	-2.26925	-0.0526873	-1.6084	0	0	0	0	-0	0	0	0	-0.1265	0	-0	0	0	0	0	0	-0	0	0.105	0.015	0	0	-0	0	0	0.098	0.1	0	-0	0	0	0	0	0	-0	0	0.05595	0	0	0	-0	0	0	0	0	0	-0	0	573.399	546.99	358.188	205.929	0.0759119	-1.84527	0.0652202	0.00363653	3.67199
33	-0.0564749	0.0360706	0.0129829	0.0360114	-0.0142145	0.0312202	0.0244486	-0.0297999	0.00264036	0.0136227	-0.0591911	0.0245716	0.0499536	0.000120225	0.0227933	-2.26005	-0.0533202	-1.60979	0	0	0	0	-0	0	0	0	-0.1265	0	-0	0	0	0	0	0	-0	0	0.105	0.015	0	0	-0	0	0	0.098	0.1	0	-0	0	0	0	0	0	-0	0	0.05595	0	0	0	-0	0	0	0	0	0	-0	0	573.592	547.31	358.974	206.132	0.0766607	-1.82832	0.0646635	0.00404554	3.62182
34	-0.0571101	0.0360771	0.0129675	0.0360479	-0.0142187	0.0312042	0.0244476	-0.0298072	0.00264168	-0.00759344	-0.0624596	0.0168775	0.0499577	0.000118997	0.0227664	-2.26118	-0.0547812	-1.61105	0	0	0	0	-0	0	0	0	-0.1265	0	-0	0	0	0	0	0	-0	0	0.105	0.015	0	0	-0	0	0	0.098	0.1	0	-0	0	0	0	0	0	-0	0	0.05595	0	0	0	-0	0	0	0	0	0	-0	0	573.885	547.788	360.121	206.431	0.0775963	-1.8023	0.0638665	0.00464102	3.54481
35	-0.0538982	0.0360871	0.0129675	0.036058	-0.0142237	0.0312037	0.0244468	-0.0297999	0.00264329	-0.00800467	-0.0643516	0.0268158	0.0498831	0.000118338	0.0229289	-2.25805	-0.0548429	-1.6114	0	0	0	0	-0	0	0	0	-0.1265	0	-0	0	0	0	0	0	-0	0	0.105	0.015	0	0	-0	0	0	0.098	0.1	0	-0	0	0	0	0	0	-0	0	0.05595	0	0	0	-0	0	0	0	0	0	-0	0	573.933	547.845	360.271	206.477	0.0768584	-1.7928	0.0638318	0.00470714	3.51877
36	-0.0527515	0.0360911	0.0129629	0.0360669	-0.0142255	0.0311994	0.0244469	-0.0297998	0.00264421	-0.000971676	-0.0571688	0.0231499	0.0498564	0.000118288	0.0229854	-2.257	-0.0550544	-1.6117	0	0	0	0	-0	0	0	0	-0.1265	0	-0	0	0	0	0	0	-0	0	0.105	0.015	0	0	-0	0	0	0.098	0.1	0	-0	0	0	0	0	0	-0	0	0.05595	0	0	0	-0	0	0	0	0	0	-0	0	573.995	547.927	360.474	206.537	0.0760244	-1.78113	0.0637227	0.00481317	3.48928
37	-0.0562035	0.0360947	0.0129576	0.0360779	-0.0142272	0.0311948	0.0244447	-0.0297992	0.00264449	-0.0104587	-0.0516493	0.0206641	0.0499349	0.00011816	0.0228133	-2.26058	-0.0555319	-1.61181	0	0	0	0	-0	0	0	0	-0.1265	0	-0	0	0	0	0	0	-0	0	0.105	0.015	0	0	-0	0	0	0.098	0.1	0	-0	0	0	0	0	0	-0	0	0.05595	0	0	0	-0	0	0	0	0	0	-0	0	574.073	548.038	360.74	206.616	0.0753838	-1.76922	0.0635674	0.0049532	3.45865
38	-0.0576834	0.0360986	0.0129511	0.0360932	-0.0142294	0.031189	0.0244467	-0.0298005	0.00264627	-0.0060847	-0.0464941	0.030969	0.0499664	0.00011785	0.0227402	-2.26225	-0.0560827	-1.61217	0	0	0	0	-0	0	0	0	-0.1265	0	-0	0	0	0	0	0	-0	0	0.105	0.015	0	0	-0	0	0	0.098	0.1	0	-0	0	0	0	0	0	-0	0	0.05595	0	0	0	-0	0	0	0	0	0	-0	0	574.184	548.206	361.127	206.73	0.0750063	-1.75545	0.0633148	0.00515864	3.42192
39	-0.0517134	0.0361023	0.0129493	0.0360992	-0.0142313	0.0311871	0.0244447	-0.0297987	0.00264655	-0.0116377	-0.0462633	0.0336707	0.0498295	0.000117612	0.0230395	-2.25635	-0.0560317	-1.61268	0	0	0	0	-0	0	0	0	-0.1265	0	-0	0	0	0	0	0	-0	0	0.105	0.015	0	0	-0	0	0	0.098	0.1	0	-0	0	0	0	0	0	-0	0	0.05595	0	0	0	-0	0	0	0	0	0	-0	0	574.232	548.274	361.283	206.777	0.0747318	-1.7493	0.0632299	0.00523791	3.40548
40	-0.044247	0.0361046	0.0129459	0.0361076	-0.0142325	0.0311841	0.0244446	-0.0297983	0.00264678	-0.0101026	-0.0478498	0.0369448	0.0496553	0.00011741	0.023412	-2.24899	-0.0559801	-1.61334	0	0	0	0	-0	0	0	0	-0.1265	0	-0	0	0	0	0	0	-0	0	0.105	0.015	0	0	-0	0	0	0.098	0.1	0	-0	0	0	0	0	0	-0	0	0.05595	0	0	0	-0	0	0	0	0	0	-0	0	574.295	548.368	361.493	206.842	0.0745137	-1.74178	0.0630943	0.00534991	3.38549
41	-0.0499827	0.036107	0.0129411	0.0361188	-0.0142338	0.0311799	0.0244477	-0.029798	0.00264643	-0.00848413	-0.0654261	0.0426532	0.0497861	0.000117139	0.0231279	-2.25489	-0.0566068	-1.61337	0	0	0	0	-0	0	0	0	-0.1265	0	-0	0	0	0	0	0	-0	0	0.105	0.015	0	0	-0	0	0	0.098	0.1	0	-0	0	0	0	0	0	-0	0	0.05595	0	0	0	-0	0	0	0	0	0	-0	0	574.388	548.508	361.801	206.936	0.0743332	-1.73187	0.0628904	0.00551505	3.35899
42	-0.0573195	0.0361099	0.0129384	0.036126	-0.0142353	0.0311769	0.0244454	-0.0298007	0.00264794	0.00122348	-0.0612589	0.0487011	0.0499534	0.000116904	0.0227636	-2.26235	-0.0572026	-1.6132	0	0	0	0	-0	0	0	0	-0.1265	0	-0	0	0	0	0	0	-0	0	0.105	0.015	0	0	-0	0	0	0.098	0.1	0	-0	0	0	0	0	0	-0	0	0.05595	0	0	0	-0	0	0	0	0	0	-0	0	574.458	548.612	362.026	207.007	0.0741299	-1.72433	0.0627492	0.00563472	3.33899
43	-0.060329	0.0361123	0.0129355	0.0361341	-0.0142367	0.0311748	0.0244446	-0.0297987	0.00264895	0.002177	-0.0578468	0.0550194	0.0500194	0.000116695	0.0226136	-2.26545	-0.0575413	-1.61322	0	0	0	0	-0	0	0	0	-0.1265	0	-0	0	0	0	0	0	-0	0	0.105	0.015	0	0	-0	0	0	0.098	0.1	0	-0	0	0	0	0	0	-0	0	0.05595	0	0	0	-0	0	0	0	0	0	-0	0	574.51	548.687	362.192	207.061	0.0738849	-1.71785	0.0626485	0.00572332	3.32186
44	-0.0622107	0.0361143	0.0129317	0.0361433	-0.0142378	0.0311717	0.0244444	-0.0297989	0.00264927	0.00679359	-0.0549067	0.0603948	0.0500598	0.000116452	0.0225208	-2.26746	-0.0579304	-1.61338	0	0	0	0	-0	0	0	0	-0.1265	0	-0	0	0	0	0	0	-0	0	0.105	0.015	0	0	-0	0	0	0.098	0.1	0	-0	0	0	0	0	0	-0	0	0.05595	0	0	0	-0	0	0	0	0	0	-0	0	574.587	548.802	362.437	207.139	0.0737136	-1.70976	0.0624875	0.0058559	3.30039
45	-0.0648555	0.0361167	0.0129306	0.0361475	-0.0142391	0.0311706	0.024444	-0.0297985	0.00264956	0.00280795	-0.0574465	0.0567146	0.0501186	0.000116284	0.0223891	-2.27017	-0.0581688	-1.61334	0	0	0	0	-0	0	0	0	-0.1265	0	-0	0	0	0	0	0	-0	0	0.105	0.015	0	0	-0	0	0	0.098	0.1	0	-0	0	0	0	0	0	-0	0	0.05595	0	0	0	-0	0	0	0	0	0	-0	0	574.619	548.847	362.535	207.171	0.0735331	-1.70571	0.0624312	0.0059072	3.28964
46	-0.0598014	0.0361179	0.0129284	0.0361526	-0.0142397	0.0311688	0.0244448	-0.0297995	0.00265008	0.00188346	-0.0569335	0.0671886	0.0500042	0.000116148	0.0226432	-2.26518	-0.0581231	-1.61378	0	0	0	0	-0	0	0	0	-0.1265	0	-0	0	0	0	0	0	-0	0	0.105	0.015	0	0	-0	0	0	0.098	0.1	0	-0	0	0	0	0	0	-0	0	0.05595	0	0	0	-0	0	0	0	0	0	-0	0	574.662	548.91	362.67	207.215	0.073405	-1.70118	0.0623486	0.00598015	3.27777
47	-0.062886	0.0361191	0.0129239	0.0361628	-0.0142404	0.0311651	0.0244445	-0.0297993	0.00265087	0.000332965	-0.0559614	0.0772389	0.050071	0.000115903	0.0224905	-2.26843	-0.0586274	-1.61393	0	0	0	0	-0	0	0	0	-0.1265	0	-0	0	0	0	0	0	-0	0	0.105	0.015	0	0	-0	0	0	0.098	0.1	0	-0	0	0	0	0	0	-0	0	0.05595	0	0	0	-0	0	0	0	0	0	-0	0	574.755	549.048	362.964	207.311	0.0733577	-1.69279	0.0621519	0.00614231	3.2554
48	-0.067606	0.0361217	0.0129216	0.0361697	-0.0142418	0.0311632	0.0244453	-0.0297983	0.00265011	0.00145515	-0.0445757	0.0708142	0.0501754	0.000115651	0.0222555	-2.27325	-0.0590507	-1.61385	0	0	0	0	-0	0	0	0	-0.1265	0	-0	0	0	0	0	0	-0	0	0.105	0.015	0	0	-0	0	0	0.098	0.1	0	-0	0	0	0	0	0	-0	0	0.05595	0	0	0	-0	0	0	0	0	0	-0	0	574.813	549.131	363.137	207.369	0.07316	-1.68656	0.0620457	0.00623502	3.23889
49	-0.0643853	0.0361238	0.0129201	0.0361743	-0.0142429	0.0311616	0.0244438	-0.0297984	0.00265076	0.000308629	-0.0400258	0.0639685	0.0501025	0.000115521	0.0224174	-2.2701	-0.0590756	-1.61418	0	0	0	0	-0	0	0	0	-0.1265	0	-0	0	0	0	0	0	-0	0	0.105	0.015	0	0	-0	0	0	0.098	0.1	0	-0	0	0	0	0	0	-0	0	0.05595	0	0	0	-0	0	0	0	0	0	-0	0	574.855	549.194	363.265	207.413	0.0729582	-1.68156	0.0619635	0.00630409	3.22598
50	-0.0602588	0.0361252	0.0129171	0.0361819	-0.0142437	0.0311594	0.024445	-0.0297989	0.00265344	-0.000314477	-0.0297837	0.0729875	0.0500079	0.000115307	0.0226256	-2.26608	-0.0591345	-1.61464	0	0	0	0	-0	0	0	0	-0.1265	0	-0	0	0	0	0	0	-0	0	0.105	0.015	0	0	-0	0	0	0.098	0.1	0	-0	0	0	0	0	0	-0	0	0.05595	0	0	0	-0	0	0	0	0	0	-0	0	574.919	549.286	363.454	207.477	0.0728278	-1.67541	0.061841	0.00640818	3.20981
