Stefan210/kinematic_calibration/src/kinematic_calibration/validation/experiments/experiments/anzahl_messungen/BC_A/larm_83/optimization_intermediate_results.csv
iteration	HeadPitch_offset	HeadYaw_offset	LElbowRoll_offset	LElbowYaw_offset	LShoulderPitch_offset	LShoulderRoll_offset	marker_transform_larm_tx	marker_transform_larm_ty	marker_transform_larm_tz	marker_transform_larm_rr	marker_transform_larm_rp	marker_transform_larm_ry	camera_transform_tx	camera_transform_ty	camera_transform_tz	camera_transform_rr	camera_transform_rp	camera_transform_ry	HeadPitch_transform_tx	HeadPitch_transform_ty	HeadPitch_transform_tz	HeadPitch_transform_rr	HeadPitch_transform_rp	HeadPitch_transform_ry	HeadYaw_transform_tx	HeadYaw_transform_ty	HeadYaw_transform_tz	HeadYaw_transform_rr	HeadYaw_transform_rp	HeadYaw_transform_ry	LElbowRoll_transform_tx	LElbowRoll_transform_ty	LElbowRoll_transform_tz	LElbowRoll_transform_rr	LElbowRoll_transform_rp	LElbowRoll_transform_ry	LElbowYaw_transform_tx	LElbowYaw_transform_ty	LElbowYaw_transform_tz	LElbowYaw_transform_rr	LElbowYaw_transform_rp	LElbowYaw_transform_ry	LShoulderPitch_transform_tx	LShoulderPitch_transform_ty	LShoulderPitch_transform_tz	LShoulderPitch_transform_rr	LShoulderPitch_transform_rp	LShoulderPitch_transform_ry	LShoulderRoll_transform_tx	LShoulderRoll_transform_ty	LShoulderRoll_transform_tz	LShoulderRoll_transform_rr	LShoulderRoll_transform_rp	LShoulderRoll_transform_ry	LWristYaw_transform_tx	LWristYaw_transform_ty	LWristYaw_transform_tz	LWristYaw_transform_rr	LWristYaw_transform_rp	LWristYaw_transform_ry	l_wrist_joint_transform_tx	l_wrist_joint_transform_ty	l_wrist_joint_transform_tz	l_wrist_joint_transform_rr	l_wrist_joint_transform_rp	l_wrist_joint_transform_ry	camera_fx	camera_fy	camera_cx	camera_cy	camera_D0	camera_D1	camera_D2	camera_D3	camera_D4	
0	0.0249164	-0.0307543	0.000853157	4.65819e-06	-0.000318322	-0.00310766	0.05071	0	0.01774	-2.26369	1.66533e-16	-1.5708	545.901	551.038	324.928	201.58	0.0255298	2.61142	-0.0636736	-0.0350419	0.213964
1	-0.0154509	0.0262825	0.0177536	0.0301129	-0.0108225	0.0244012	0.0242977	-0.0300094	0.00273356	-0.00022698	-0.000507187	-0.00310962	0.0568762	-0.000979318	0.016981	-2.20132	-0.00581618	-1.55821	0	0	0	0	-0	0	0	0	-0.1265	0	-0	0	0	0	0	0	-0	0	0.105	0.015	0	0	-0	0	0	0.098	0.1	0	-0	0	0	0	0	0	-0	0	0.05595	0	0	0	-0	0	0	0	0	0	-0	0	545.901	551.039	324.928	201.581	-0.0139973	2.59846	-0.085077	0.0469707	0.211116
2	-0.0144334	0.036655	0.0161932	0.034566	-0.0155372	0.0313436	0.0244262	-0.0301947	0.00300424	-0.000257074	-0.000533037	-0.00311247	0.054927	-0.00126039	0.0204216	-2.20632	-0.00809761	-1.56485	0	0	0	0	-0	0	0	0	-0.1265	0	-0	0	0	0	0	0	-0	0	0.105	0.015	0	0	-0	0	0	0.098	0.1	0	-0	0	0	0	0	0	-0	0	0.05595	0	0	0	-0	0	0	0	0	0	-0	0	545.902	551.039	324.924	201.585	-0.154998	2.51012	-0.0473732	0.0142149	0.182097
3	-0.0155977	0.0340864	0.0150968	0.0336901	-0.013709	0.0321014	0.0244078	-0.0300909	0.00282998	-0.000238207	-0.000518515	-0.00310493	0.056376	-0.00067382	0.0173338	-2.20086	-0.00777555	-1.56564	0	0	0	0	-0	0	0	0	-0.1265	0	-0	0	0	0	0	0	-0	0	0.105	0.015	0	0	-0	0	0	0.098	0.1	0	-0	0	0	0	0	0	-0	0	0.05595	0	0	0	-0	0	0	0	0	0	-0	0	545.905	551.04	324.92	201.592	-0.41551	2.34797	-0.0247878	0.00862153	0.130503
4	-0.0162827	0.0342925	0.0146862	0.0320629	-0.0133999	0.033368	0.0244261	-0.0299994	0.0025446	-0.000199157	-0.000493049	-0.00308861	0.0574323	-0.000229389	0.0150788	-2.19753	-0.00879609	-1.5676	0	0	0	0	-0	0	0	0	-0.1265	0	-0	0	0	0	0	0	-0	0	0.105	0.015	0	0	-0	0	0	0.098	0.1	0	-0	0	0	0	0	0	-0	0	0.05595	0	0	0	-0	0	0	0	0	0	-0	0	545.913	551.038	324.912	201.601	-0.621747	2.10295	0.00522299	-0.00048378	0.040996
5	-0.0164195	0.0333818	0.0143543	0.0310285	-0.0127596	0.033227	0.0244464	-0.0299542	0.00240383	-0.000188526	-0.000489272	-0.00308772	0.0571597	-7.5853e-05	0.0149477	-2.197	-0.0087803	-1.56759	0	0	0	0	-0	0	0	0	-0.1265	0	-0	0	0	0	0	0	-0	0	0.105	0.015	0	0	-0	0	0	0.098	0.1	0	-0	0	0	0	0	0	-0	0	0.05595	0	0	0	-0	0	0	0	0	0	-0	0	545.933	551.031	324.903	201.614	-0.551806	1.74733	0.00739866	-0.00285746	-0.106814
6	-0.0163188	0.0312635	0.0140517	0.0301582	-0.011711	0.0322955	0.024468	-0.029934	0.00232669	-0.000183324	-0.000515417	-0.00310019	0.0560281	-3.63992e-05	0.0159328	-2.19768	-0.00801789	-1.5658	0	0	0	0	-0	0	0	0	-0.1265	0	-0	0	0	0	0	0	-0	0	0.105	0.015	0	0	-0	0	0	0.098	0.1	0	-0	0	0	0	0	0	-0	0	0.05595	0	0	0	-0	0	0	0	0	0	-0	0	545.978	551.012	324.891	201.628	-0.317958	1.20503	-0.00415006	-0.00269977	-0.321841
7	-0.0162307	0.0297478	0.0138824	0.0293947	-0.0110385	0.0315027	0.0244853	-0.0299255	0.0022621	-0.000196905	-0.000491935	-0.00305227	0.0549338	-4.31664e-05	0.016981	-2.19851	-0.00746994	-1.56428	0	0	0	0	-0	0	0	0	-0.1265	0	-0	0	0	0	0	0	-0	0	0.105	0.015	0	0	-0	0	0	0.098	0.1	0	-0	0	0	0	0	0	-0	0	0.05595	0	0	0	-0	0	0	0	0	0	-0	0	546.086	550.964	324.877	201.631	-0.0858604	0.640766	-0.0152583	-0.00257188	-0.472362
8	-0.0161004	0.0293247	0.0138579	0.0289969	-0.0109063	0.031186	0.0244952	-0.0299248	0.00222662	-8.07991e-05	-0.000490149	-0.00311633	0.0543138	-6.97992e-05	0.0176469	-2.19908	-0.00726668	-1.56362	0	0	0	0	-0	0	0	0	-0.1265	0	-0	0	0	0	0	0	-0	0	0.105	0.015	0	0	-0	0	0	0.098	0.1	0	-0	0	0	0	0	0	-0	0	0.05595	0	0	0	-0	0	0	0	0	0	-0	0	546.371	550.835	324.828	201.602	0.043335	0.24328	-0.0198049	-0.00274623	-0.343143
9	-0.0156822	0.0295207	0.0139095	0.0287655	-0.0110332	0.0312103	0.0245013	-0.0299273	0.0022048	0.000314249	-6.63266e-05	-0.00295246	0.0539584	-9.9059e-05	0.0181121	-2.19919	-0.0070863	-1.56338	0	0	0	0	-0	0	0	0	-0.1265	0	-0	0	0	0	0	0	-0	0	0.105	0.015	0	0	-0	0	0	0.098	0.1	0	-0	0	0	0	0	0	-0	0	0.05595	0	0	0	-0	0	0	0	0	0	-0	0	547.159	550.479	324.661	201.489	0.10026	-0.123056	-0.0183106	-0.00306767	0.305755
10	-0.0137853	0.0302172	0.0140507	0.0283895	-0.0113611	0.0314382	0.024511	-0.0299331	0.00217032	0.00278557	-0.00181819	-0.00341267	0.053391	-0.000152816	0.0189475	-2.19802	-0.00668246	-1.56317	0	0	0	0	-0	0	0	0	-0.1265	0	-0	0	0	0	0	0	-0	0	0.105	0.015	0	0	-0	0	0	0.098	0.1	0	-0	0	0	0	0	0	-0	0	0.05595	0	0	0	-0	0	0	0	0	0	-0	0	549.135	549.608	324.234	201.135	0.161335	-0.779491	-0.0114741	-0.00370178	1.81838
11	-0.00939571	0.0314406	0.01435	0.0277462	-0.0118745	0.0318246	0.0245281	-0.0299436	0.00211265	0.00454727	-0.000730554	-0.00191211	0.0523712	-0.000247349	0.0204574	-2.1942	-0.00591973	-1.5628	0	0	0	0	-0	0	0	0	-0.1265	0	-0	0	0	0	0	0	-0	0	0.105	0.015	0	0	-0	0	0	0.098	0.1	0	-0	0	0	0	0	0	-0	0	0.05595	0	0	0	-0	0	0	0	0	0	-0	0	553.044	548.102	323.443	200.164	0.235093	-1.75685	0.00191312	-0.00481397	4.1753
12	-0.0119761	0.0326291	0.0147117	0.0270732	-0.0122765	0.0322118	0.0245517	-0.0299602	0.00205336	0.0154702	0.00562281	-0.0207298	0.0512775	-0.000352907	0.0218149	-2.19528	-0.00500683	-1.56236	0	0	0	0	-0	0	0	0	-0.1265	0	-0	0	0	0	0	0	-0	0	0.105	0.015	0	0	-0	0	0	0.098	0.1	0	-0	0	0	0	0	0	-0	0	0.05595	0	0	0	-0	0	0	0	0	0	-0	0	558.396	547.281	322.657	197.818	0.272332	-2.53663	0.0171854	-0.00592397	6.1456
13	-0.0186741	0.0329983	0.0148342	0.0267768	-0.0123463	0.0323588	0.0245569	-0.0299594	0.00202635	0.0270522	0.0169699	-0.0072686	0.0508261	-0.00039701	0.022227	-2.19956	-0.00531125	-1.56294	0	0	0	0	-0	0	0	0	-0.1265	0	-0	0	0	0	0	0	-0	0	0.105	0.015	0	0	-0	0	0	0.098	0.1	0	-0	0	0	0	0	0	-0	0	0.05595	0	0	0	-0	0	0	0	0	0	-0	0	561.298	547.719	323.022	195.68	0.273251	-2.70411	0.0228616	-0.00597349	6.52374
14	-0.0202314	0.0331494	0.0148731	0.0266766	-0.0123911	0.0324105	0.0245557	-0.0299583	0.00201765	0.0149477	0.0144393	0.00504552	0.0506687	-0.000411074	0.0223994	-2.2001	-0.00563454	-1.56335	0	0	0	0	-0	0	0	0	-0.1265	0	-0	0	0	0	0	0	-0	0	0.105	0.015	0	0	-0	0	0	0.098	0.1	0	-0	0	0	0	0	0	-0	0	0.05595	0	0	0	-0	0	0	0	0	0	-0	0	562.256	547.981	323.313	194.845	0.271065	-2.72489	0.0244769	-0.00598927	6.54053
15	-0.0334686	0.0331945	0.0148866	0.026648	-0.0123492	0.0324861	0.0245672	-0.0299691	0.00200926	0.0368424	0.0245724	0.031565	0.0505659	-0.000437951	0.0222138	-2.20919	-0.00680364	-1.56473	0	0	0	0	-0	0	0	0	-0.1265	0	-0	0	0	0	0	0	-0	0	0.105	0.015	0	0	-0	0	0	0.098	0.1	0	-0	0	0	0	0	0	-0	0	0.05595	0	0	0	-0	0	0	0	0	0	-0	0	564.576	549.609	324.545	191.945	0.249916	-2.54277	0.0249929	-0.00552082	5.96628
16	-0.0324835	0.0332698	0.0149053	0.0266107	-0.0123611	0.032525	0.0245633	-0.0299505	0.00201321	0.0401403	0.0018702	0.016069	0.0503781	-0.00044987	0.0224765	-2.20635	-0.00746931	-1.56546	0	0	0	0	-0	0	0	0	-0.1265	0	-0	0	0	0	0	0	-0	0	0.105	0.015	0	0	-0	0	0	0.098	0.1	0	-0	0	0	0	0	0	-0	0	0.05595	0	0	0	-0	0	0	0	0	0	-0	0	565.581	550.336	325.144	190.638	0.238038	-2.45746	0.0254362	-0.00542911	5.71925
17	-0.0705556	0.0331194	0.0148541	0.0266537	-0.0122241	0.0325708	0.0245483	-0.0299726	0.00202515	-0.0108346	0.0182464	0.0308454	0.0508139	-0.000473162	0.0210542	-2.23777	-0.00994406	-1.568	0	0	0	0	-0	0	0	0	-0.1265	0	-0	0	0	0	0	0	-0	0	0.105	0.015	0	0	-0	0	0	0.098	0.1	0	-0	0	0	0	0	0	-0	0	0.05595	0	0	0	-0	0	0	0	0	0	-0	0	568.216	553.131	327.656	186.242	0.204766	-2.08541	0.0229965	-0.00433164	4.62944
18	-0.0713196	0.0332614	0.0148836	0.0266177	-0.0122892	0.0326067	0.0245578	-0.0299431	0.00200317	-0.00487218	0.0217508	0.0147588	0.0507412	-0.000480761	0.0211179	-2.23785	-0.0102902	-1.56827	0	0	0	0	-0	0	0	0	-0.1265	0	-0	0	0	0	0	0	-0	0	0.105	0.015	0	0	-0	0	0	0.098	0.1	0	-0	0	0	0	0	0	-0	0	0.05595	0	0	0	-0	0	0	0	0	0	-0	0	568.669	553.356	327.887	185.714	0.198027	-2.08317	0.0240455	-0.00453164	4.65225
19	-0.0701653	0.0332828	0.0148906	0.026588	-0.0122859	0.0326262	0.0245577	-0.0299408	0.00200051	-0.0136366	0.00963374	0.00878271	0.0506297	-0.000486484	0.0212948	-2.23574	-0.0106774	-1.56869	0	0	0	0	-0	0	0	0	-0.1265	0	-0	0	0	0	0	0	-0	0	0.105	0.015	0	0	-0	0	0	0.098	0.1	0	-0	0	0	0	0	0	-0	0	0.05595	0	0	0	-0	0	0	0	0	0	-0	0	569.162	553.694	328.238	185.037	0.195411	-2.06211	0.0241802	-0.00441741	4.57957
20	-0.0611958	0.0332041	0.0148673	0.0265961	-0.0122127	0.032651	0.0245628	-0.0299339	0.00199104	-0.00233256	-0.0228641	0.0242674	0.0502259	-0.000498934	0.0220212	-2.22317	-0.0122907	-1.57043	0	0	0	0	-0	0	0	0	-0.1265	0	-0	0	0	0	0	0	-0	0	0.105	0.015	0	0	-0	0	0	0.098	0.1	0	-0	0	0	0	0	0	-0	0	0.05595	0	0	0	-0	0	0	0	0	0	-0	0	570.501	555.074	329.717	182.655	0.180663	-1.90206	0.0230296	-0.00381525	4.12301
21	-0.0693934	0.0332854	0.0148851	0.0265664	-0.012251	0.0326736	0.0245533	-0.0299339	0.00199572	0.0030599	-0.0211041	0.025519	0.0503611	-0.000502674	0.0216648	-2.23099	-0.0124812	-1.57056	0	0	0	0	-0	0	0	0	-0.1265	0	-0	0	0	0	0	0	-0	0	0.105	0.015	0	0	-0	0	0	0.098	0.1	0	-0	0	0	0	0	0	-0	0	0.05595	0	0	0	-0	0	0	0	0	0	-0	0	570.729	555.188	329.874	182.362	0.178044	-1.90295	0.0235508	-0.00390392	4.12735
22	-0.0695115	0.0332973	0.0148839	0.0265627	-0.0122509	0.0326831	0.0245556	-0.0299321	0.00199462	0.00748176	-0.0387613	0.0280697	0.0503151	-0.000505827	0.0217227	-2.23057	-0.0127337	-1.57082	0	0	0	0	-0	0	0	0	-0.1265	0	-0	0	0	0	0	0	-0	0	0.105	0.015	0	0	-0	0	0	0.098	0.1	0	-0	0	0	0	0	0	-0	0	0.05595	0	0	0	-0	0	0	0	0	0	-0	0	570.988	555.355	330.102	181.981	0.176655	-1.89234	0.0236396	-0.00383246	4.09143
23	-0.0708996	0.0332984	0.0148836	0.026556	-0.0122432	0.0326929	0.0245568	-0.0299428	0.00199753	-0.015064	-0.0421052	0.0412965	0.0502917	-0.000509243	0.0217236	-2.23118	-0.0131038	-1.57119	0	0	0	0	-0	0	0	0	-0.1265	0	-0	0	0	0	0	0	-0	0	0.105	0.015	0	0	-0	0	0	0.098	0.1	0	-0	0	0	0	0	0	-0	0	0.05595	0	0	0	-0	0	0	0	0	0	-0	0	571.302	555.611	330.439	181.456	0.173741	-1.86636	0.0235934	-0.00371986	4.01613
24	-0.0807536	0.0333062	0.0148835	0.0265533	-0.0122418	0.0327008	0.0245548	-0.0299329	0.00199406	-0.019453	-0.049289	0.0338893	0.0504691	-0.000511639	0.021277	-2.2405	-0.0133811	-1.57134	0	0	0	0	-0	0	0	0	-0.1265	0	-0	0	0	0	0	0	-0	0	0.105	0.015	0	0	-0	0	0	0.098	0.1	0	-0	0	0	0	0	0	-0	0	0.05595	0	0	0	-0	0	0	0	0	0	-0	0	571.517	555.784	330.682	181.089	0.171455	-1.84806	0.0236006	-0.00365307	3.96394
25	-0.0769081	0.0333172	0.0148859	0.0265468	-0.0122457	0.0327055	0.0245537	-0.0299316	0.00199239	-0.0196123	-0.0426014	0.0288989	0.05037	-0.000512723	0.0214918	-2.23644	-0.0134943	-1.57151	0	0	0	0	-0	0	0	0	-0.1265	0	-0	0	0	0	0	0	-0	0	0.105	0.015	0	0	-0	0	0	0.098	0.1	0	-0	0	0	0	0	0	-0	0	0.05595	0	0	0	-0	0	0	0	0	0	-0	0	571.607	555.848	330.78	180.943	0.170527	-1.84237	0.0236505	-0.00363578	3.94715
26	-0.0659009	0.0333031	0.0148821	0.0265455	-0.0122308	0.0327114	0.0245549	-0.0299322	0.00199224	-0.0252726	-0.0501224	0.0371124	0.0500853	-0.000515577	0.0221087	-2.22461	-0.0139203	-1.5721	0	0	0	0	-0	0	0	0	-0.1265	0	-0	0	0	0	0	0	-0	0	0.105	0.015	0	0	-0	0	0	0.098	0.1	0	-0	0	0	0	0	0	-0	0	0.05595	0	0	0	-0	0	0	0	0	0	-0	0	571.891	556.111	331.175	180.397	0.167606	-1.81197	0.0234632	-0.00348338	3.86081
27	-0.0578866	0.033317	0.0148839	0.0265394	-0.0122349	0.0327188	0.024553	-0.02993	0.00199157	-0.0274552	-0.0433664	0.0361007	0.0498785	-0.000517312	0.022543	-2.21622	-0.0141181	-1.57244	0	0	0	0	-0	0	0	0	-0.1265	0	-0	0	0	0	0	0	-0	0	0.105	0.015	0	0	-0	0	0	0.098	0.1	0	-0	0	0	0	0	0	-0	0	0.05595	0	0	0	-0	0	0	0	0	0	-0	0	572.035	556.223	331.361	180.142	0.166143	-1.80201	0.0235133	-0.00344379	3.83123
28	-0.0468275	0.0333156	0.0148826	0.0265364	-0.0122296	0.0327241	0.0245539	-0.0299317	0.00199115	-0.0358774	-0.0482981	0.0302362	0.0495943	-0.000519297	0.023136	-2.20463	-0.0143981	-1.57292	0	0	0	0	-0	0	0	0	-0.1265	0	-0	0	0	0	0	0	-0	0	0.105	0.015	0	0	-0	0	0	0.098	0.1	0	-0	0	0	0	0	0	-0	0	0.05595	0	0	0	-0	0	0	0	0	0	-0	0	572.221	556.382	331.634	179.788	0.164292	-1.7845	0.0234498	-0.00334917	3.78076
29	-0.040379	0.0333227	0.014883	0.0265322	-0.0122301	0.0327297	0.0245559	-0.029933	0.00199307	-0.039386	-0.0411144	0.0464268	0.0494172	-0.000520793	0.0234852	-2.19781	-0.0146012	-1.57325	0	0	0	0	-0	0	0	0	-0.1265	0	-0	0	0	0	0	0	-0	0	0.105	0.015	0	0	-0	0	0	0.098	0.1	0	-0	0	0	0	0	0	-0	0	0.05595	0	0	0	-0	0	0	0	0	0	-0	0	572.352	556.485	331.832	179.54	0.162997	-1.77411	0.0234595	-0.00329313	3.74987
30	-0.0317404	0.0333274	0.0148832	0.0265292	-0.0122302	0.0327334	0.0245554	-0.0299318	0.00198954	-0.0442908	-0.048247	0.0588236	0.0491955	-0.000521857	0.0239336	-2.1889	-0.014739	-1.57355	0	0	0	0	-0	0	0	0	-0.1265	0	-0	0	0	0	0	0	-0	0	0.105	0.015	0	0	-0	0	0	0.098	0.1	0	-0	0	0	0	0	0	-0	0	0.05595	0	0	0	-0	0	0	0	0	0	-0	0	572.447	556.556	331.978	179.363	0.161986	-1.76619	0.023472	-0.00325066	3.72685
31	-0.0265447	0.0333323	0.014884	0.026526	-0.0122311	0.0327368	0.0245524	-0.029929	0.00198967	-0.0477886	-0.0480407	0.0570811	0.0490558	-0.000522644	0.0242048	-2.18352	-0.0148424	-1.57376	0	0	0	0	-0	0	0	0	-0.1265	0	-0	0	0	0	0	0	-0	0	0.105	0.015	0	0	-0	0	0	0.098	0.1	0	-0	0	0	0	0	0	-0	0	0.05595	0	0	0	-0	0	0	0	0	0	-0	0	572.514	556.605	332.086	179.236	0.16141	-1.76164	0.0234867	-0.00321954	3.71257
32	-0.0271737	0.0333173	0.0148798	0.0265244	-0.0122174	0.0327405	0.0245544	-0.0299371	0.00198733	-0.0268228	-0.0466282	0.0673619	0.0490273	-0.000524954	0.0242241	-2.18337	-0.0153492	-1.57432	0	0	0	0	-0	0	0	0	-0.1265	0	-0	0	0	0	0	0	-0	0	0.105	0.015	0	0	-0	0	0	0.098	0.1	0	-0	0	0	0	0	0	-0	0	0.05595	0	0	0	-0	0	0	0	0	0	-0	0	572.742	556.817	332.557	178.729	0.158878	-1.73387	0.0232973	-0.00303757	3.63311
33	-0.0332268	0.0333351	0.014882	0.0265194	-0.0122239	0.0327488	0.0245558	-0.0299306	0.00198757	-0.022383	-0.0371703	0.0548673	0.0491498	-0.000526423	0.0239579	-2.18908	-0.0156161	-1.5745	0	0	0	0	-0	0	0	0	-0.1265	0	-0	0	0	0	0	0	-0	0	0.105	0.015	0	0	-0	0	0	0.098	0.1	0	-0	0	0	0	0	0	-0	0	0.05595	0	0	0	-0	0	0	0	0	0	-0	0	572.861	556.89	332.775	178.501	0.157675	-1.72684	0.0233924	-0.00298772	3.61068
34	-0.0290133	0.0333441	0.0148833	0.026513	-0.0122266	0.0327529	0.0245563	-0.0299286	0.00198488	-0.0253124	-0.01928	0.0440482	0.0490311	-0.000527435	0.0241864	-2.18463	-0.015784	-1.57477	0	0	0	0	-0	0	0	0	-0.1265	0	-0	0	0	0	0	0	-0	0	0.105	0.015	0	0	-0	0	0	0.098	0.1	0	-0	0	0	0	0	0	-0	0	0.05595	0	0	0	-0	0	0	0	0	0	-0	0	572.943	556.934	332.938	178.341	0.156937	-1.72185	0.0234477	-0.00294015	3.59438
35	-0.0287543	0.0333509	0.0148846	0.0265089	-0.0122285	0.0327562	0.0245534	-0.0299289	0.00198828	-0.0246961	-0.0239736	0.0343218	0.0490122	-0.000528136	0.0242142	-2.1842	-0.0159197	-1.57492	0	0	0	0	-0	0	0	0	-0.1265	0	-0	0	0	0	0	0	-0	0	0.105	0.015	0	0	-0	0	0	0.098	0.1	0	-0	0	0	0	0	0	-0	0	0.05595	0	0	0	-0	0	0	0	0	0	-0	0	573	556.964	333.061	178.227	0.156386	-1.71813	0.0234905	-0.00290421	3.58225
36	-0.0280251	0.0333565	0.0148844	0.0265087	-0.0122312	0.0327579	0.0245525	-0.0299278	0.0019878	-0.0251245	-0.0188011	0.0388131	0.0489894	-0.000528451	0.0242567	-2.18341	-0.0159739	-1.575	0	0	0	0	-0	0	0	0	-0.1265	0	-0	0	0	0	0	0	-0	0	0.105	0.015	0	0	-0	0	0	0.098	0.1	0	-0	0	0	0	0	0	-0	0	0.05595	0	0	0	-0	0	0	0	0	0	-0	0	573.024	556.974	333.11	178.182	0.156143	-1.71713	0.0235246	-0.00289335	3.57874
37	-0.0223857	0.0333571	0.0148845	0.0265068	-0.0122297	0.0327597	0.0245535	-0.0299293	0.00198722	-0.0267057	-0.0197674	0.0501185	0.0488396	-0.000529198	0.0245489	-2.17756	-0.0161166	-1.57528	0	0	0	0	-0	0	0	0	-0.1265	0	-0	0	0	0	0	0	-0	0	0.105	0.015	0	0	-0	0	0	0.098	0.1	0	-0	0	0	0	0	0	-0	0	0.05595	0	0	0	-0	0	0	0	0	0	-0	0	573.086	557.009	333.262	178.05	0.155516	-1.71124	0.0235322	-0.00283795	3.56085
38	-0.0223374	0.0333632	0.0148853	0.0265046	-0.0122321	0.0327622	0.0245523	-0.0299282	0.0019874	-0.021045	-0.0209854	0.0444309	0.0488307	-0.000529579	0.0245595	-2.17742	-0.0162012	-1.57537	0	0	0	0	-0	0	0	0	-0.1265	0	-0	0	0	0	0	0	-0	0	0.105	0.015	0	0	-0	0	0	0.098	0.1	0	-0	0	0	0	0	0	-0	0	0.05595	0	0	0	-0	0	0	0	0	0	-0	0	573.118	557.024	333.338	177.986	0.155162	-1.70936	0.0235706	-0.00281906	3.55457
39	-0.0169487	0.0333657	0.0148855	0.0265031	-0.0122323	0.0327638	0.0245521	-0.0299282	0.00198667	-0.0132594	-0.0199621	0.0455718	0.0486892	-0.000530101	0.0248339	-2.17189	-0.0163006	-1.5756	0	0	0	0	-0	0	0	0	-0.1265	0	-0	0	0	0	0	0	-0	0	0.105	0.015	0	0	-0	0	0	0.098	0.1	0	-0	0	0	0	0	0	-0	0	0.05595	0	0	0	-0	0	0	0	0	0	-0	0	573.16	557.043	333.45	177.895	0.154707	-1.70559	0.0235908	-0.00278028	3.5429
40	-0.0236383	0.0333702	0.0148861	0.0265011	-0.0122337	0.0327659	0.0245522	-0.0299274	0.00198624	-0.0128018	-0.0231775	0.0496938	0.0488467	-0.000530539	0.0245175	-2.17847	-0.0164395	-1.57561	0	0	0	0	-0	0	0	0	-0.1265	0	-0	0	0	0	0	0	-0	0	0.105	0.015	0	0	-0	0	0	0.098	0.1	0	-0	0	0	0	0	0	-0	0	0.05595	0	0	0	-0	0	0	0	0	0	-0	0	573.195	557.058	333.546	177.819	0.154336	-1.70302	0.0236221	-0.0027506	3.53444
41	-0.019516	0.0333741	0.0148866	0.0264992	-0.0122351	0.0327675	0.0245527	-0.0299282	0.0019864	-0.0180944	-0.0258471	0.0561263	0.0487389	-0.000530848	0.0247256	-2.17426	-0.016501	-1.57577	0	0	0	0	-0	0	0	0	-0.1265	0	-0	0	0	0	0	0	-0	0	0.105	0.015	0	0	-0	0	0	0.098	0.1	0	-0	0	0	0	0	0	-0	0	0.05595	0	0	0	-0	0	0	0	0	0	-0	0	573.221	557.069	333.618	177.765	0.154067	-1.70123	0.0236465	-0.00272878	3.52849
42	-0.0234872	0.0333769	0.0148869	0.0264982	-0.0122361	0.0327687	0.0245518	-0.0299271	0.00198607	-0.0194017	-0.0249883	0.0548719	0.0488324	-0.000531078	0.0245371	-2.17817	-0.0165812	-1.57577	0	0	0	0	-0	0	0	0	-0.1265	0	-0	0	0	0	0	0	-0	0	0.105	0.015	0	0	-0	0	0	0.098	0.1	0	-0	0	0	0	0	0	-0	0	0.05595	0	0	0	-0	0	0	0	0	0	-0	0	573.24	557.076	333.672	177.725	0.153847	-1.69984	0.0236684	-0.00271236	3.52397
43	-0.0271139	0.0333792	0.0148872	0.026497	-0.0122367	0.0327698	0.0245524	-0.0299275	0.0019853	-0.016993	-0.0304167	0.0610781	0.048916	-0.000531363	0.0243661	-2.18173	-0.0166751	-1.5758	0	0	0	0	-0	0	0	0	-0.1265	0	-0	0	0	0	0	0	-0	0	0.105	0.015	0	0	-0	0	0	0.098	0.1	0	-0	0	0	0	0	0	-0	0	0.05595	0	0	0	-0	0	0	0	0	0	-0	0	573.262	557.084	333.74	177.676	0.153608	-1.69798	0.0236866	-0.00268971	3.51797
44	-0.0265357	0.033382	0.0148876	0.0264958	-0.0122377	0.032771	0.0245522	-0.029927	0.00198594	-0.017234	-0.0361827	0.0601347	0.0488979	-0.000531562	0.0243991	-2.18109	-0.0167299	-1.57587	0	0	0	0	-0	0	0	0	-0.1265	0	-0	0	0	0	0	0	-0	0	0.105	0.015	0	0	-0	0	0	0.098	0.1	0	-0	0	0	0	0	0	-0	0	0.05595	0	0	0	-0	0	0	0	0	0	-0	0	573.279	557.089	333.79	177.64	0.15343	-1.69687	0.0237064	-0.00267435	3.51416
45	-0.0242055	0.0333816	0.0148872	0.0264943	-0.0122362	0.0327719	0.0245521	-0.0299277	0.00198408	-0.00882107	-0.0458897	0.0667468	0.0488308	-0.000532109	0.0245254	-2.17858	-0.0169071	-1.57612	0	0	0	0	-0	0	0	0	-0.1265	0	-0	0	0	0	0	0	-0	0	0.105	0.015	0	0	-0	0	0	0.098	0.1	0	-0	0	0	0	0	0	-0	0	0.05595	0	0	0	-0	0	0	0	0	0	-0	0	573.324	557.112	333.96	177.526	0.152906	-1.69138	0.0237044	-0.00261084	3.49718
46	-0.0250138	0.0333888	0.0148882	0.0264923	-0.0122394	0.0327745	0.0245523	-0.0299276	0.00198551	-0.00563928	-0.0447852	0.0603515	0.0488447	-0.000532413	0.0244935	-2.17931	-0.0170081	-1.57621	0	0	0	0	-0	0	0	0	-0.1265	0	-0	0	0	0	0	0	-0	0	0.105	0.015	0	0	-0	0	0	0.098	0.1	0	-0	0	0	0	0	0	-0	0	0.05595	0	0	0	-0	0	0	0	0	0	-0	0	573.349	557.119	334.044	177.471	0.152593	-1.68996	0.0237503	-0.00258864	3.49204
47	-0.023355	0.0333918	0.0148882	0.0264908	-0.0122403	0.0327758	0.0245521	-0.0299267	0.00198491	-0.00881066	-0.0367206	0.0582617	0.0487972	-0.000532779	0.0245831	-2.17755	-0.0171217	-1.57638	0	0	0	0	-0	0	0	0	-0.1265	0	-0	0	0	0	0	0	-0	0	0.105	0.015	0	0	-0	0	0	0.098	0.1	0	-0	0	0	0	0	0	-0	0	0.05595	0	0	0	-0	0	0	0	0	0	-0	0	573.378	557.128	334.153	177.404	0.152276	-1.68742	0.0237763	-0.00255148	3.48361
48	-0.0243553	0.0333966	0.0148888	0.0264893	-0.0122426	0.0327773	0.0245519	-0.0299271	0.00198501	-0.0123353	-0.0385319	0.0564229	0.0488188	-0.000532928	0.0245382	-2.17851	-0.017179	-1.57642	0	0	0	0	-0	0	0	0	-0.1265	0	-0	0	0	0	0	0	-0	0	0.105	0.015	0	0	-0	0	0	0.098	0.1	0	-0	0	0	0	0	0	-0	0	0.05595	0	0	0	-0	0	0	0	0	0	-0	0	573.391	557.13	334.198	177.377	0.152094	-1.68683	0.0238076	-0.00254067	3.4814
49	-0.0253759	0.0333988	0.014889	0.0264888	-0.0122435	0.0327781	0.0245519	-0.029927	0.00198512	-0.0124057	-0.0413285	0.052525	0.0488416	-0.000533039	0.0244911	-2.1795	-0.01722	-1.57644	0	0	0	0	-0	0	0	0	-0.1265	0	-0	0	0	0	0	0	-0	0	0.105	0.015	0	0	-0	0	0	0.098	0.1	0	-0	0	0	0	0	0	-0	0	0.05595	0	0	0	-0	0	0	0	0	0	-0	0	573.4	557.13	334.228	177.359	0.15201	-1.68647	0.0238251	-0.0025315	3.47986
50	-0.0253687	0.0334005	0.0148892	0.0264878	-0.0122439	0.0327788	0.0245526	-0.0299279	0.00198523	-0.012199	-0.0440909	0.0438816	0.0488371	-0.000533283	0.0244969	-2.17943	-0.0172978	-1.57652	0	0	0	0	-0	0	0	0	-0.1265	0	-0	0	0	0	0	0	-0	0	0.105	0.015	0	0	-0	0	0	0.098	0.1	0	-0	0	0	0	0	0	-0	0	0.05595	0	0	0	-0	0	0	0	0	0	-0	0	573.417	557.132	334.297	177.319	0.151849	-1.6851	0.0238447	-0.00250698	3.47503
