Stefan210/kinematic_calibration/src/kinematic_calibration/validation/experiments/experiments/anzahl_messungen/BC_A/larm_55/optimization_intermediate_results.csv
iteration	HeadPitch_offset	HeadYaw_offset	LElbowRoll_offset	LElbowYaw_offset	LShoulderPitch_offset	LShoulderRoll_offset	marker_transform_larm_tx	marker_transform_larm_ty	marker_transform_larm_tz	marker_transform_larm_rr	marker_transform_larm_rp	marker_transform_larm_ry	camera_transform_tx	camera_transform_ty	camera_transform_tz	camera_transform_rr	camera_transform_rp	camera_transform_ry	HeadPitch_transform_tx	HeadPitch_transform_ty	HeadPitch_transform_tz	HeadPitch_transform_rr	HeadPitch_transform_rp	HeadPitch_transform_ry	HeadYaw_transform_tx	HeadYaw_transform_ty	HeadYaw_transform_tz	HeadYaw_transform_rr	HeadYaw_transform_rp	HeadYaw_transform_ry	LElbowRoll_transform_tx	LElbowRoll_transform_ty	LElbowRoll_transform_tz	LElbowRoll_transform_rr	LElbowRoll_transform_rp	LElbowRoll_transform_ry	LElbowYaw_transform_tx	LElbowYaw_transform_ty	LElbowYaw_transform_tz	LElbowYaw_transform_rr	LElbowYaw_transform_rp	LElbowYaw_transform_ry	LShoulderPitch_transform_tx	LShoulderPitch_transform_ty	LShoulderPitch_transform_tz	LShoulderPitch_transform_rr	LShoulderPitch_transform_rp	LShoulderPitch_transform_ry	LShoulderRoll_transform_tx	LShoulderRoll_transform_ty	LShoulderRoll_transform_tz	LShoulderRoll_transform_rr	LShoulderRoll_transform_rp	LShoulderRoll_transform_ry	LWristYaw_transform_tx	LWristYaw_transform_ty	LWristYaw_transform_tz	LWristYaw_transform_rr	LWristYaw_transform_rp	LWristYaw_transform_ry	l_wrist_joint_transform_tx	l_wrist_joint_transform_ty	l_wrist_joint_transform_tz	l_wrist_joint_transform_rr	l_wrist_joint_transform_rp	l_wrist_joint_transform_ry	camera_fx	camera_fy	camera_cx	camera_cy	camera_D0	camera_D1	camera_D2	camera_D3	camera_D4	
0	0.0249164	-0.0307543	0.000853157	4.65819e-06	-0.000318322	-0.00310766	0.05071	0	0.01774	-2.26369	1.66533e-16	-1.5708	545.901	551.038	324.928	201.58	0.0255298	2.61142	-0.0636736	-0.0350419	0.213964
1	-0.0151886	0.0254638	0.0143921	0.0268088	-0.0126133	0.0245143	0.0242398	-0.0299443	0.00252572	-0.000202061	-0.000486687	-0.00311002	0.0568568	-0.00028818	0.0174999	-2.20247	-0.00812998	-1.56229	0	0	0	0	-0	0	0	0	-0.1265	0	-0	0	0	0	0	0	-0	0	0.105	0.015	0	0	-0	0	0	0.098	0.1	0	-0	0	0	0	0	0	-0	0	0.05595	0	0	0	-0	0	0	0	0	0	-0	0	545.901	551.039	324.928	201.581	-0.0169281	2.59648	-0.0847507	0.0512266	0.210547
2	-0.0130122	0.039834	0.0147494	0.0304444	-0.0215027	0.0321511	0.0242038	-0.0299884	0.00262276	-0.000212556	-0.000494697	-0.00311925	0.0551606	-0.000550774	0.0220372	-2.21234	-0.0123518	-1.57165	0	0	0	0	-0	0	0	0	-0.1265	0	-0	0	0	0	0	0	-0	0	0.105	0.015	0	0	-0	0	0	0.098	0.1	0	-0	0	0	0	0	0	-0	0	0.05595	0	0	0	-0	0	0	0	0	0	-0	0	545.903	551.039	324.924	201.585	-0.151601	2.50275	-0.0372515	0.0163041	0.178298
3	-0.0145318	0.035302	0.0122596	0.0346428	-0.0183023	0.0333449	0.0242549	-0.0298384	0.00282404	-0.00024098	-0.000512932	-0.00309911	0.0566335	0.000157235	0.0186329	-2.20539	-0.0114904	-1.57187	0	0	0	0	-0	0	0	0	-0.1265	0	-0	0	0	0	0	0	-0	0	0.105	0.015	0	0	-0	0	0	0.098	0.1	0	-0	0	0	0	0	0	-0	0	0.05595	0	0	0	-0	0	0	0	0	0	-0	0	545.905	551.039	324.919	201.591	-0.381836	2.35751	-0.0254047	0.0138935	0.131353
4	-0.0152492	0.0327892	0.0115899	0.0402985	-0.0159659	0.0344687	0.0244246	-0.0296752	0.00309223	-0.000270201	-0.000529552	-0.00306868	0.0579426	0.000457285	0.0157368	-2.20177	-0.0110858	-1.56976	0	0	0	0	-0	0	0	0	-0.1265	0	-0	0	0	0	0	0	-0	0	0.105	0.015	0	0	-0	0	0	0.098	0.1	0	-0	0	0	0	0	0	-0	0	0.05595	0	0	0	-0	0	0	0	0	0	-0	0	545.912	551.038	324.913	201.6	-0.627363	2.11532	0.00773472	0.00114354	0.042656
5	-0.0155354	0.0311208	0.0114039	0.041759	-0.0143919	0.0339886	0.0245098	-0.0296085	0.0031318	-0.000287037	-0.000531231	-0.00305698	0.0579264	0.00053589	0.0149956	-2.20043	-0.0106821	-1.56857	0	0	0	0	-0	0	0	0	-0.1265	0	-0	0	0	0	0	0	-0	0	0.105	0.015	0	0	-0	0	0	0.098	0.1	0	-0	0	0	0	0	0	-0	0	0.05595	0	0	0	-0	0	0	0	0	0	-0	0	545.927	551.031	324.906	201.612	-0.60915	1.79689	0.0142259	-0.00256243	-0.0936196
6	-0.0154427	0.0298269	0.0116941	0.0400203	-0.0131417	0.0325499	0.0245485	-0.0296226	0.00300322	-0.000328591	-0.000522118	-0.00308588	0.0566522	0.000451016	0.0160651	-2.20097	-0.0102409	-1.56723	0	0	0	0	-0	0	0	0	-0.1265	0	-0	0	0	0	0	0	-0	0	0.105	0.015	0	0	-0	0	0	0.098	0.1	0	-0	0	0	0	0	0	-0	0	0.05595	0	0	0	-0	0	0	0	0	0	-0	0	545.964	551.012	324.903	201.627	-0.383287	1.30957	0.00339476	-0.00196057	-0.302633
7	-0.0152487	0.0289397	0.0121191	0.0379917	-0.0122386	0.0312319	0.0245787	-0.0296523	0.00286215	-0.000476662	-0.000461043	-0.00312284	0.055288	0.000335306	0.0173637	-2.20175	-0.00996429	-1.566	0	0	0	0	-0	0	0	0	-0.1265	0	-0	0	0	0	0	0	-0	0	0.105	0.015	0	0	-0	0	0	0.098	0.1	0	-0	0	0	0	0	0	-0	0	0.05595	0	0	0	-0	0	0	0	0	0	-0	0	546.053	550.963	324.903	201.636	-0.12876	0.749104	-0.00902097	-0.00110771	-0.490186
8	-0.0150703	0.0287653	0.0124959	0.0367131	-0.0119513	0.0305317	0.0245989	-0.0296768	0.00277227	-0.000264702	-9.91864e-05	-0.00310253	0.0544279	0.00023354	0.0182656	-2.20242	-0.00987203	-1.56533	0	0	0	0	-0	0	0	0	-0.1265	0	-0	0	0	0	0	0	-0	0	0.105	0.015	0	0	-0	0	0	0.098	0.1	0	-0	0	0	0	0	0	-0	0	0.05595	0	0	0	-0	0	0	0	0	0	-0	0	546.292	550.83	324.886	201.626	0.0357843	0.312185	-0.0154432	-0.000956263	-0.460377
9	-0.0153428	0.0289645	0.0127006	0.036122	-0.0120165	0.0304172	0.0246106	-0.0296973	0.00272879	-0.000536752	0.00058763	-0.00290938	0.0539897	0.000170241	0.0187764	-2.20328	-0.0097057	-1.565	0	0	0	0	-0	0	0	0	-0.1265	0	-0	0	0	0	0	0	-0	0	0.105	0.015	0	0	-0	0	0	0.098	0.1	0	-0	0	0	0	0	0	-0	0	0.05595	0	0	0	-0	0	0	0	0	0	-0	0	546.96	550.456	324.778	201.563	0.10966	-0.0427273	-0.0151855	-0.00126266	0.0133631
10	-0.0138244	0.0295374	0.0128878	0.0355203	-0.0123289	0.0306528	0.024623	-0.0297322	0.00268199	-0.000719398	0.000709181	-0.00401293	0.0534244	9.58238e-05	0.019565	-2.20251	-0.00924273	-1.56469	0	0	0	0	-0	0	0	0	-0.1265	0	-0	0	0	0	0	0	-0	0	0.105	0.015	0	0	-0	0	0	0.098	0.1	0	-0	0	0	0	0	0	-0	0	0.05595	0	0	0	-0	0	0	0	0	0	-0	0	548.694	549.482	324.457	201.354	0.173515	-0.629629	-0.00920619	-0.00192874	1.27087
11	-0.0122705	0.0306862	0.0132512	0.0343886	-0.0129406	0.0311576	0.0246446	-0.0297972	0.00259398	0.000931423	-0.000489947	-0.000601873	0.0524018	-3.73927e-05	0.020964	-2.20196	-0.00836751	-1.56427	0	0	0	0	-0	0	0	0	-0.1265	0	-0	0	0	0	0	0	-0	0	0.105	0.015	0	0	-0	0	0	0.098	0.1	0	-0	0	0	0	0	0	-0	0	0.05595	0	0	0	-0	0	0	0	0	0	-0	0	552.336	547.488	323.857	200.775	0.266224	-1.64819	0.00398588	-0.00308739	3.58447
12	0.00988024	0.0321027	0.013758	0.0329059	-0.0136326	0.0317621	0.02469	-0.0299157	0.00248982	-0.0409658	-0.0181746	0.0107762	0.0506213	-0.000205969	0.023845	-2.17995	-0.00758347	-1.56421	0	0	0	0	-0	0	0	0	-0.1265	0	-0	0	0	0	0	0	-0	0	0.105	0.015	0	0	-0	0	0	0.098	0.1	0	-0	0	0	0	0	0	-0	0	0.05595	0	0	0	-0	0	0	0	0	0	-0	0	557.513	545.125	323.292	199.407	0.35455	-2.79808	0.021967	-0.00433139	6.30916
13	0.00942927	0.0327839	0.0140168	0.0320722	-0.0139036	0.0320639	0.0246903	-0.0299484	0.00240166	-0.0772441	-0.0159321	-0.0182937	0.0497002	-0.000302877	0.0248486	-2.17888	-0.00773091	-1.56482	0	0	0	0	-0	0	0	0	-0.1265	0	-0	0	0	0	0	0	-0	0	0.105	0.015	0	0	-0	0	0	0.098	0.1	0	-0	0	0	0	0	0	-0	0	0.05595	0	0	0	-0	0	0	0	0	0	-0	0	560.842	544.283	323.622	197.647	0.397967	-3.38264	0.0316611	-0.00460109	7.68271
14	0.00792491	0.0330326	0.0141023	0.0317918	-0.0139938	0.0321947	0.0246872	-0.0299372	0.00238645	-0.0503324	-0.0236225	-0.00629497	0.0493714	-0.000342051	0.0252079	-2.17904	-0.00817058	-1.56547	0	0	0	0	-0	0	0	0	-0.1265	0	-0	0	0	0	0	0	-0	0	0.105	0.015	0	0	-0	0	0	0.098	0.1	0	-0	0	0	0	0	0	-0	0	0.05595	0	0	0	-0	0	0	0	0	0	-0	0	562.231	544.225	324.12	196.505	0.411426	-3.55055	0.0347449	-0.00456357	8.02738
15	-0.00969572	0.0330925	0.0140448	0.0317282	-0.0139673	0.0323698	0.0246742	-0.0299511	0.00239434	-0.117758	0.0359346	-0.00627667	0.049323	-0.000382242	0.0248854	-2.19118	-0.0101875	-1.56786	0	0	0	0	-0	0	0	0	-0.1265	0	-0	0	0	0	0	0	-0	0	0.105	0.015	0	0	-0	0	0	0.098	0.1	0	-0	0	0	0	0	0	-0	0	0.05595	0	0	0	-0	0	0	0	0	0	-0	0	564.457	545.459	326.247	192.906	0.402288	-3.39486	0.0345888	-0.00359351	7.40511
16	-0.0342247	0.0330646	0.0139661	0.0318288	-0.0139045	0.0325089	0.0246927	-0.0299387	0.00238712	-0.100639	0.0451053	-0.000469191	0.0496535	-0.000403553	0.0239938	-2.21041	-0.0122964	-1.57004	0	0	0	0	-0	0	0	0	-0.1265	0	-0	0	0	0	0	0	-0	0	0.105	0.015	0	0	-0	0	0	0.098	0.1	0	-0	0	0	0	0	0	-0	0	0.05595	0	0	0	-0	0	0	0	0	0	-0	0	566.042	546.676	328.353	189.596	0.373606	-3.10181	0.033441	-0.00272071	6.55727
17	-0.034636	0.033124	0.0139821	0.0318386	-0.0139299	0.032559	0.0246941	-0.0299323	0.00238572	-0.101577	0.062975	-0.00489925	0.049636	-0.000408186	0.0240053	-2.21023	-0.0125438	-1.57026	0	0	0	0	-0	0	0	0	-0.1265	0	-0	0	0	0	0	0	-0	0	0.105	0.015	0	0	-0	0	0	0.098	0.1	0	-0	0	0	0	0	0	-0	0	0.05595	0	0	0	-0	0	0	0	0	0	-0	0	566.315	546.759	328.562	189.207	0.36353	-3.07065	0.0341813	-0.00282278	6.51869
18	-0.0324253	0.0331341	0.013982	0.0318296	-0.0139326	0.0325688	0.0246906	-0.0299337	0.00238567	-0.10787	0.0605321	-0.00984982	0.0495671	-0.000409337	0.0241351	-2.20783	-0.0126437	-1.5704	0	0	0	0	-0	0	0	0	-0.1265	0	-0	0	0	0	0	0	-0	0	0.105	0.015	0	0	-0	0	0	0.098	0.1	0	-0	0	0	0	0	0	-0	0	0.05595	0	0	0	-0	0	0	0	0	0	-0	0	566.402	546.793	328.654	189.079	0.362457	-3.06339	0.0342525	-0.00279048	6.49704
19	-0.0341947	0.033128	0.0139687	0.0318379	-0.0139222	0.0325878	0.02469	-0.0299332	0.00238621	-0.102274	0.0604769	-0.0115218	0.0495626	-0.000412498	0.0241021	-2.20885	-0.0130389	-1.57082	0	0	0	0	-0	0	0	0	-0.1265	0	-0	0	0	0	0	0	-0	0	0.105	0.015	0	0	-0	0	0	0.098	0.1	0	-0	0	0	0	0	0	-0	0	0.05595	0	0	0	-0	0	0	0	0	0	-0	0	566.647	546.96	329.028	188.605	0.35952	-3.02748	0.0340816	-0.00261431	6.38775
20	-0.0338813	0.0331364	0.0139681	0.0318451	-0.0139253	0.0325989	0.0246903	-0.029933	0.00238597	-0.0998711	0.0571905	-0.00635754	0.0495473	-0.000413477	0.0241282	-2.20834	-0.0131405	-1.57093	0	0	0	0	-0	0	0	0	-0.1265	0	-0	0	0	0	0	0	-0	0	0.105	0.015	0	0	-0	0	0	0.098	0.1	0	-0	0	0	0	0	0	-0	0	0.05595	0	0	0	-0	0	0	0	0	0	-0	0	566.717	546.996	329.121	188.484	0.357392	-3.01608	0.0341646	-0.00259867	6.36145
21	-0.0351487	0.0331352	0.013964	0.031848	-0.0139222	0.0326058	0.0246899	-0.0299345	0.0023854	-0.110972	0.0605291	-0.0132947	0.0495636	-0.000414386	0.0240821	-2.20936	-0.0132799	-1.57107	0	0	0	0	-0	0	0	0	-0.1265	0	-0	0	0	0	0	0	-0	0	0.105	0.015	0	0	-0	0	0	0.098	0.1	0	-0	0	0	0	0	0	-0	0	0.05595	0	0	0	-0	0	0	0	0	0	-0	0	566.802	547.054	329.252	188.326	0.355873	-3.00118	0.0341217	-0.00254014	6.31962
22	-0.0326898	0.0331329	0.0139584	0.0318546	-0.0139181	0.0326147	0.0246912	-0.0299332	0.00238662	-0.11468	0.0525451	-0.0110464	0.0494877	-0.000415455	0.0242235	-2.20658	-0.0134621	-1.5713	0	0	0	0	-0	0	0	0	-0.1265	0	-0	0	0	0	0	0	-0	0	0.105	0.015	0	0	-0	0	0	0.098	0.1	0	-0	0	0	0	0	0	-0	0	0.05595	0	0	0	-0	0	0	0	0	0	-0	0	566.901	547.125	329.422	188.126	0.354072	-2.98313	0.0340549	-0.00246532	6.26861
23	-0.0356346	0.033135	0.0139569	0.0318584	-0.0139183	0.0326201	0.0246908	-0.0299338	0.00238776	-0.119355	0.055118	-0.00245585	0.0495537	-0.0004159	0.024084	-2.2094	-0.0135363	-1.57134	0	0	0	0	-0	0	0	0	-0.1265	0	-0	0	0	0	0	0	-0	0	0.105	0.015	0	0	-0	0	0	0.098	0.1	0	-0	0	0	0	0	0	-0	0	0.05595	0	0	0	-0	0	0	0	0	0	-0	0	566.942	547.153	329.489	188.048	0.352923	-2.97525	0.0340653	-0.00244451	6.24885
24	-0.0297589	0.0331323	0.0139521	0.0318632	-0.0139147	0.0326263	0.0246913	-0.0299354	0.00238742	-0.131233	0.0493656	-0.0012396	0.049399	-0.000416675	0.0243901	-2.20327	-0.0136813	-1.57158	0	0	0	0	-0	0	0	0	-0.1265	0	-0	0	0	0	0	0	-0	0	0.105	0.015	0	0	-0	0	0	0.098	0.1	0	-0	0	0	0	0	0	-0	0	0.05595	0	0	0	-0	0	0	0	0	0	-0	0	567.017	547.208	329.627	187.894	0.351596	-2.96113	0.0340023	-0.00238073	6.20868
25	-0.0315959	0.0331331	0.0139502	0.0318677	-0.0139142	0.0326309	0.02469	-0.0299326	0.00238668	-0.136566	0.055578	-0.00602098	0.049438	-0.000417038	0.0243047	-2.20499	-0.013755	-1.57164	0	0	0	0	-0	0	0	0	-0.1265	0	-0	0	0	0	0	0	-0	0	0.105	0.015	0	0	-0	0	0	0.098	0.1	0	-0	0	0	0	0	0	-0	0	0.05595	0	0	0	-0	0	0	0	0	0	-0	0	567.053	547.235	329.694	187.82	0.350659	-2.95404	0.0339968	-0.00235759	6.19021
26	-0.0296334	0.0331316	0.0139471	0.0318712	-0.0139121	0.0326357	0.0246901	-0.0299329	0.00238748	-0.131563	0.0586693	-0.00328735	0.049382	-0.000417507	0.0244113	-2.20286	-0.0138607	-1.57178	0	0	0	0	-0	0	0	0	-0.1265	0	-0	0	0	0	0	0	-0	0	0.105	0.015	0	0	-0	0	0	0.098	0.1	0	-0	0	0	0	0	0	-0	0	0.05595	0	0	0	-0	0	0	0	0	0	-0	0	567.104	547.273	329.793	187.714	0.349666	-2.944	0.0339525	-0.0023124	6.16219
27	-0.0297053	0.0331327	0.013946	0.0318743	-0.0139123	0.0326388	0.0246904	-0.0299326	0.00238786	-0.133697	0.053474	-0.0070031	0.0493811	-0.000417723	0.0244108	-2.20286	-0.013904	-1.57183	0	0	0	0	-0	0	0	0	-0.1265	0	-0	0	0	0	0	0	-0	0	0.105	0.015	0	0	-0	0	0	0.098	0.1	0	-0	0	0	0	0	0	-0	0	0.05595	0	0	0	-0	0	0	0	0	0	-0	0	567.124	547.288	329.833	187.672	0.349063	-2.93995	0.0339568	-0.00229994	6.15206
28	-0.0249078	0.0331307	0.0139433	0.031877	-0.01391	0.032642	0.0246911	-0.0299321	0.00238678	-0.129839	0.0411842	-0.00163849	0.0492573	-0.000418076	0.0246553	-2.19792	-0.0139871	-1.57199	0	0	0	0	-0	0	0	0	-0.1265	0	-0	0	0	0	0	0	-0	0	0.105	0.015	0	0	-0	0	0	0.098	0.1	0	-0	0	0	0	0	0	-0	0	0.05595	0	0	0	-0	0	0	0	0	0	-0	0	567.165	547.32	329.915	187.587	0.348252	-2.93135	0.0339151	-0.00226146	6.12804
29	-0.0224101	0.0331313	0.0139425	0.0318789	-0.0139098	0.0326447	0.0246901	-0.0299323	0.00238789	-0.12729	0.0454503	-0.00147522	0.0491923	-0.000418274	0.0247814	-2.19536	-0.0140274	-1.57208	0	0	0	0	-0	0	0	0	-0.1265	0	-0	0	0	0	0	0	-0	0	0.105	0.015	0	0	-0	0	0	0.098	0.1	0	-0	0	0	0	0	0	-0	0	0.05595	0	0	0	-0	0	0	0	0	0	-0	0	567.185	547.335	329.955	187.546	0.347744	-2.9275	0.0339125	-0.00224735	6.11795
30	-0.0124519	0.0331272	0.0139373	0.0318845	-0.0139056	0.0326498	0.0246904	-0.0299326	0.00238941	-0.122892	0.0378905	-0.0082571	0.0489339	-0.000418845	0.0252839	-2.18517	-0.0141707	-1.57239	0	0	0	0	-0	0	0	0	-0.1265	0	-0	0	0	0	0	0	-0	0	0.105	0.015	0	0	-0	0	0	0.098	0.1	0	-0	0	0	0	0	0	-0	0	0.05595	0	0	0	-0	0	0	0	0	0	-0	0	567.251	547.388	330.101	187.401	0.346494	-2.91323	0.0338293	-0.00217669	6.07746
31	-0.0114654	0.033128	0.0139353	0.0318895	-0.0139054	0.0326544	0.02469	-0.0299321	0.00238874	-0.122537	0.0429376	-0.004209	0.0489024	-0.000419127	0.0253354	-2.18407	-0.0142442	-1.57249	0	0	0	0	-0	0	0	0	-0.1265	0	-0	0	0	0	0	0	-0	0	0.105	0.015	0	0	-0	0	0	0.098	0.1	0	-0	0	0	0	0	0	-0	0	0.05595	0	0	0	-0	0	0	0	0	0	-0	0	567.284	547.413	330.172	187.333	0.345477	-2.9059	0.0338271	-0.00215216	6.05904
32	-0.0133163	0.033129	0.0139347	0.0318915	-0.0139057	0.0326566	0.0246897	-0.0299321	0.00238878	-0.125612	0.0444626	-0.000458205	0.0489478	-0.00041922	0.0252467	-2.18587	-0.0142784	-1.5725	0	0	0	0	-0	0	0	0	-0.1265	0	-0	0	0	0	0	0	-0	0	0.105	0.015	0	0	-0	0	0	0.098	0.1	0	-0	0	0	0	0	0	-0	0	0.05595	0	0	0	-0	0	0	0	0	0	-0	0	567.298	547.422	330.2	187.305	0.345025	-2.9029	0.0338312	-0.00214222	6.05173
33	-0.0143481	0.0331277	0.0139327	0.0318939	-0.0139042	0.0326589	0.02469	-0.0299317	0.00238838	-0.128173	0.0523181	-0.00293998	0.0489694	-0.000419434	0.0252009	-2.18681	-0.0143433	-1.57256	0	0	0	0	-0	0	0	0	-0.1265	0	-0	0	0	0	0	0	-0	0	0.105	0.015	0	0	-0	0	0	0.098	0.1	0	-0	0	0	0	0	0	-0	0	0.05595	0	0	0	-0	0	0	0	0	0	-0	0	567.324	547.443	330.259	187.25	0.344466	-2.89713	0.0338039	-0.00211468	6.0358
34	-0.0110457	0.0331263	0.0139302	0.031897	-0.0139023	0.0326625	0.0246895	-0.029932	0.00238848	-0.12372	0.0493034	0.000778026	0.0488798	-0.000419777	0.0253697	-2.18338	-0.0144307	-1.57271	0	0	0	0	-0	0	0	0	-0.1265	0	-0	0	0	0	0	0	-0	0	0.105	0.015	0	0	-0	0	0	0.098	0.1	0	-0	0	0	0	0	0	-0	0	0.05595	0	0	0	-0	0	0	0	0	0	-0	0	567.363	547.474	330.346	187.17	0.343697	-2.88929	0.0337681	-0.00207547	6.01391
35	-0.0199306	0.0331242	0.0139263	0.0319025	-0.0138997	0.0326675	0.0246906	-0.0299312	0.00238937	-0.119969	0.0365378	0.000725112	0.0490964	-0.000420214	0.0249446	-2.19208	-0.0145847	-1.57273	0	0	0	0	-0	0	0	0	-0.1265	0	-0	0	0	0	0	0	-0	0	0.105	0.015	0	0	-0	0	0	0.098	0.1	0	-0	0	0	0	0	0	-0	0	0.05595	0	0	0	-0	0	0	0	0	0	-0	0	567.415	547.515	330.474	187.058	0.342556	-2.87782	0.0337167	-0.002018	5.9822
36	-0.0227897	0.0331253	0.0139249	0.031906	-0.0138999	0.0326713	0.0246903	-0.0299319	0.00238927	-0.117163	0.0437295	-0.000134669	0.049163	-0.000420395	0.0248068	-2.19486	-0.0146589	-1.57277	0	0	0	0	-0	0	0	0	-0.1265	0	-0	0	0	0	0	0	-0	0	0.105	0.015	0	0	-0	0	0	0.098	0.1	0	-0	0	0	0	0	0	-0	0	0.05595	0	0	0	-0	0	0	0	0	0	-0	0	567.442	547.534	330.535	187.004	0.341671	-2.87159	0.0337193	-0.00199573	5.9668
37	-0.0300171	0.0331257	0.0139237	0.0319085	-0.0138996	0.0326738	0.0246897	-0.0299317	0.00238937	-0.119437	0.0396919	0.00169737	0.0493393	-0.000420563	0.0244547	-2.20202	-0.0147236	-1.57272	0	0	0	0	-0	0	0	0	-0.1265	0	-0	0	0	0	0	0	-0	0	0.105	0.015	0	0	-0	0	0	0.098	0.1	0	-0	0	0	0	0	0	-0	0	0.05595	0	0	0	-0	0	0	0	0	0	-0	0	567.462	547.548	330.581	186.965	0.341169	-2.86754	0.0337146	-0.00197683	5.95617
38	-0.0381951	0.0331237	0.0139206	0.0319122	-0.0138973	0.0326772	0.0246897	-0.0299332	0.00238961	-0.129457	0.0372176	-0.000273832	0.0495316	-0.000420883	0.0240579	-2.21006	-0.0148528	-1.57272	0	0	0	0	-0	0	0	0	-0.1265	0	-0	0	0	0	0	0	-0	0	0.105	0.015	0	0	-0	0	0	0.098	0.1	0	-0	0	0	0	0	0	-0	0	0.05595	0	0	0	-0	0	0	0	0	0	-0	0	567.502	547.58	330.684	186.881	0.340325	-2.85864	0.0336713	-0.00192885	5.93142
39	-0.0432949	0.0331221	0.0139166	0.0319183	-0.013895	0.0326828	0.0246896	-0.0299362	0.00238992	-0.146779	0.0356126	-0.00301995	0.0496442	-0.000421335	0.0238146	-2.21497	-0.0150306	-1.57282	0	0	0	0	-0	0	0	0	-0.1265	0	-0	0	0	0	0	0	-0	0	0.105	0.015	0	0	-0	0	0	0.098	0.1	0	-0	0	0	0	0	0	-0	0	0.05595	0	0	0	-0	0	0	0	0	0	-0	0	567.555	547.619	330.833	186.764	0.339172	-2.84702	0.0336239	-0.00186187	5.89894
40	-0.0429144	0.0331239	0.0139149	0.0319238	-0.0138954	0.0326873	0.0246893	-0.0299314	0.00239091	-0.140832	0.0288922	-0.00595601	0.0496316	-0.000421544	0.023837	-2.2145	-0.0151121	-1.57291	0	0	0	0	-0	0	0	0	-0.1265	0	-0	0	0	0	0	0	-0	0	0.105	0.015	0	0	-0	0	0	0.098	0.1	0	-0	0	0	0	0	0	-0	0	0.05595	0	0	0	-0	0	0	0	0	0	-0	0	567.583	547.636	330.905	186.71	0.338232	-2.84077	0.0336365	-0.00183621	5.88362
41	-0.036032	0.0331236	0.0139126	0.0319263	-0.0138946	0.032691	0.0246895	-0.0299318	0.00239051	-0.145593	0.0271635	-0.00219143	0.0494626	-0.000421799	0.0241846	-2.2075	-0.0152048	-1.57313	0	0	0	0	-0	0	0	0	-0.1265	0	-0	0	0	0	0	0	-0	0	0.105	0.015	0	0	-0	0	0	0.098	0.1	0	-0	0	0	0	0	0	-0	0	0.05595	0	0	0	-0	0	0	0	0	0	-0	0	567.617	547.662	331.001	186.64	0.337433	-2.83327	0.0336104	-0.001793	5.86333
42	-0.0332377	0.0331243	0.0139112	0.0319296	-0.0138944	0.0326943	0.02469	-0.0299323	0.00238952	-0.141813	0.0224959	0.00693167	0.0493908	-0.000421952	0.0243259	-2.20463	-0.0152772	-1.57325	0	0	0	0	-0	0	0	0	-0.1265	0	-0	0	0	0	0	0	-0	0	0.105	0.015	0	0	-0	0	0	0.098	0.1	0	-0	0	0	0	0	0	-0	0	0.05595	0	0	0	-0	0	0	0	0	0	-0	0	567.642	547.678	331.071	186.591	0.336648	-2.82725	0.0336087	-0.00176443	5.84795
43	-0.0247288	0.0331215	0.0139072	0.0319349	-0.0138913	0.0326989	0.0246886	-0.0299319	0.0023928	-0.1273	0.00806172	0.00334831	0.0491756	-0.000422311	0.0247551	-2.19595	-0.0154296	-1.57357	0	0	0	0	-0	0	0	0	-0.1265	0	-0	0	0	0	0	0	-0	0	0.105	0.015	0	0	-0	0	0	0.098	0.1	0	-0	0	0	0	0	0	-0	0	0.05595	0	0	0	-0	0	0	0	0	0	-0	0	567.696	547.722	331.227	186.488	0.335461	-2.81489	0.0335507	-0.00169135	5.81397
44	-0.0182825	0.0331243	0.0139054	0.0319404	-0.0138928	0.0327033	0.0246892	-0.0299308	0.00239175	-0.120785	-0.00158332	0.00138892	0.0490121	-0.000422478	0.0250741	-2.18943	-0.015494	-1.57376	0	0	0	0	-0	0	0	0	-0.1265	0	-0	0	0	0	0	0	-0	0	0.105	0.015	0	0	-0	0	0	0.098	0.1	0	-0	0	0	0	0	0	-0	0	0.05595	0	0	0	-0	0	0	0	0	0	-0	0	567.722	547.735	331.301	186.441	0.334461	-2.80886	0.0335746	-0.00166516	5.79994
45	-0.0241681	0.0331254	0.0139047	0.0319418	-0.013893	0.032706	0.0246894	-0.0299316	0.00239179	-0.117174	-0.00449003	-0.00525428	0.0491564	-0.000422577	0.0247879	-2.19526	-0.0155733	-1.57374	0	0	0	0	-0	0	0	0	-0.1265	0	-0	0	0	0	0	0	-0	0	0.105	0.015	0	0	-0	0	0	0.098	0.1	0	-0	0	0	0	0	0	-0	0	0.05595	0	0	0	-0	0	0	0	0	0	-0	0	567.741	547.745	331.356	186.407	0.333882	-2.8045	0.0335793	-0.0016417	5.78884
46	-0.0282821	0.0331261	0.0139039	0.0319437	-0.0138931	0.0327079	0.0246894	-0.0299315	0.00239135	-0.115077	-0.00221684	0.000697771	0.0492559	-0.00042266	0.0245873	-2.19933	-0.0156322	-1.57372	0	0	0	0	-0	0	0	0	-0.1265	0	-0	0	0	0	0	0	-0	0	0.105	0.015	0	0	-0	0	0	0.098	0.1	0	-0	0	0	0	0	0	-0	0	0.05595	0	0	0	-0	0	0	0	0	0	-0	0	567.755	547.753	331.398	186.383	0.333424	-2.80117	0.0335835	-0.00162469	5.78049
47	-0.0279093	0.0331267	0.0139035	0.0319448	-0.0138933	0.0327093	0.0246892	-0.0299312	0.00239138	-0.111715	0.000886324	0.00307183	0.0492453	-0.000422703	0.0246068	-2.19893	-0.0156663	-1.57377	0	0	0	0	-0	0	0	0	-0.1265	0	-0	0	0	0	0	0	-0	0	0.105	0.015	0	0	-0	0	0	0.098	0.1	0	-0	0	0	0	0	0	-0	0	0.05595	0	0	0	-0	0	0	0	0	0	-0	0	567.765	547.758	331.429	186.365	0.333054	-2.79845	0.0335876	-0.00161163	5.77373
48	-0.0292924	0.0331264	0.0139021	0.0319468	-0.0138925	0.0327113	0.02469	-0.0299322	0.00239154	-0.106274	0.00493117	-0.00390857	0.0492763	-0.00042284	0.0245422	-2.20025	-0.0157483	-1.57383	0	0	0	0	-0	0	0	0	-0.1265	0	-0	0	0	0	0	0	-0	0	0.105	0.015	0	0	-0	0	0	0.098	0.1	0	-0	0	0	0	0	0	-0	0	0.05595	0	0	0	-0	0	0	0	0	0	-0	0	567.787	547.772	331.498	186.326	0.332516	-2.7933	0.033574	-0.00157938	5.75985
49	-0.0328098	0.0331274	0.0139016	0.0319487	-0.0138929	0.0327132	0.0246892	-0.029931	0.00239131	-0.106753	0.00852483	-0.00827924	0.0493618	-0.000422874	0.0243699	-2.20373	-0.0157978	-1.57381	0	0	0	0	-0	0	0	0	-0.1265	0	-0	0	0	0	0	0	-0	0	0.105	0.015	0	0	-0	0	0	0.098	0.1	0	-0	0	0	0	0	0	-0	0	0.05595	0	0	0	-0	0	0	0	0	0	-0	0	567.798	547.777	331.532	186.307	0.332049	-2.79035	0.033585	-0.00156671	5.7529
50	-0.0277851	0.0331281	0.0139012	0.0319496	-0.0138933	0.0327144	0.0246888	-0.0299308	0.00239176	-0.102412	0.00300471	-0.00899525	0.0492383	-0.000422903	0.0246188	-2.19869	-0.0158116	-1.57393	0	0	0	0	-0	0	0	0	-0.1265	0	-0	0	0	0	0	0	-0	0	0.105	0.015	0	0	-0	0	0	0.098	0.1	0	-0	0	0	0	0	0	-0	0	0.05595	0	0	0	-0	0	0	0	0	0	-0	0	567.806	547.781	331.557	186.294	0.331758	-2.78832	0.0335889	-0.00155603	5.74797
