Stefan210/kinematic_calibration/src/kinematic_calibration/validation/experiments/experiments/single_point_vs_pose/marker_pose/rarm_70/optimization_intermediate_results.csv
iteration	HeadPitch_offset	HeadYaw_offset	RElbowRoll_offset	RElbowYaw_offset	RShoulderPitch_offset	RShoulderRoll_offset	marker_transform_rarm_tx	marker_transform_rarm_ty	marker_transform_rarm_tz	marker_transform_rarm_rr	marker_transform_rarm_rp	marker_transform_rarm_ry	camera_transform_tx	camera_transform_ty	camera_transform_tz	camera_transform_rr	camera_transform_rp	camera_transform_ry	HeadPitch_transform_tx	HeadPitch_transform_ty	HeadPitch_transform_tz	HeadPitch_transform_rr	HeadPitch_transform_rp	HeadPitch_transform_ry	HeadYaw_transform_tx	HeadYaw_transform_ty	HeadYaw_transform_tz	HeadYaw_transform_rr	HeadYaw_transform_rp	HeadYaw_transform_ry	RElbowRoll_transform_tx	RElbowRoll_transform_ty	RElbowRoll_transform_tz	RElbowRoll_transform_rr	RElbowRoll_transform_rp	RElbowRoll_transform_ry	RElbowYaw_transform_tx	RElbowYaw_transform_ty	RElbowYaw_transform_tz	RElbowYaw_transform_rr	RElbowYaw_transform_rp	RElbowYaw_transform_ry	RShoulderPitch_transform_tx	RShoulderPitch_transform_ty	RShoulderPitch_transform_tz	RShoulderPitch_transform_rr	RShoulderPitch_transform_rp	RShoulderPitch_transform_ry	RShoulderRoll_transform_tx	RShoulderRoll_transform_ty	RShoulderRoll_transform_tz	RShoulderRoll_transform_rr	RShoulderRoll_transform_rp	RShoulderRoll_transform_ry	RWristYaw_transform_tx	RWristYaw_transform_ty	RWristYaw_transform_tz	RWristYaw_transform_rr	RWristYaw_transform_rp	RWristYaw_transform_ry	r_wrist_joint_transform_tx	r_wrist_joint_transform_ty	r_wrist_joint_transform_tz	r_wrist_joint_transform_rr	r_wrist_joint_transform_rp	r_wrist_joint_transform_ry	camera_fx	camera_fy	camera_cx	camera_cy	camera_D0	camera_D1	camera_D2	camera_D3	camera_D4	
0	0.0230449	0.0294606	-0.0013508	-0.00116347	0.000678263	0.00258603	0.05071	0	0.01774	-2.26369	1.66533e-16	-1.5708	545.901	551.038	324.928	201.58	0.0255298	2.61142	-0.0636736	-0.0350419	0.213964
1	-0.0148592	-0.0390079	-0.0132402	-0.028015	-0.0135991	-0.0408256	0.0260593	0.0365015	-0.00100724	-0.607904	0.256413	0.168747	0.0513822	0.00259751	0.0226579	-2.20508	0.00567226	-1.53264	0	0	0	0	-0	0	0	0	-0.1265	0	-0	0	0	0	0	0	-0	0	0.105	-0.015	0	0	-0	0	0	-0.098	0.1	0	-0	0	0	0	0	0	-0	0	0.05595	0	0	0	-0	0	0	0	0	0	-0	0	545.902	551.039	324.931	201.582	-0.0676975	2.55968	-0.0859186	-0.0682505	0.198242
2	-0.00940297	-0.059098	-0.0404952	0.00425407	-0.0290448	-0.0331537	0.0229429	0.02956	0.000733077	-0.881066	0.265585	0.0602121	0.0490518	0.00349956	0.0293281	-2.22779	0.022736	-1.52495	0	0	0	0	-0	0	0	0	-0.1265	0	-0	0	0	0	0	0	-0	0	0.105	-0.015	0	0	-0	0	0	-0.098	0.1	0	-0	0	0	0	0	0	-0	0	0.05595	0	0	0	-0	0	0	0	0	0	-0	0	545.905	551.039	324.937	201.588	-0.18962	2.41697	0.0394549	-0.0215885	0.134687
3	-0.0138297	-0.0342502	-0.0348653	-0.00784925	-0.0104473	-0.0471451	0.0239049	0.0277588	0.000724813	-1.10485	0.218975	0.0287822	0.0525106	0.00253369	0.0223862	-2.20876	0.00961402	-1.54667	0	0	0	0	-0	0	0	0	-0.1265	0	-0	0	0	0	0	0	-0	0	0.105	-0.015	0	0	-0	0	0	-0.098	0.1	0	-0	0	0	0	0	0	-0	0	0.05595	0	0	0	-0	0	0	0	0	0	-0	0	545.911	551.04	324.948	201.596	-0.537534	2.12937	-0.0334902	0.003341	0.0267889
4	-0.0134498	-0.0301797	-0.0271231	-0.0189909	-0.0111625	-0.0522839	0.0237062	0.0286019	0.00119383	-1.30779	0.143255	0.106457	0.0546608	0.000575849	0.0191066	-2.20941	0.00928325	-1.54618	0	0	0	0	-0	0	0	0	-0.1265	0	-0	0	0	0	0	0	-0	0	0.105	-0.015	0	0	-0	0	0	-0.098	0.1	0	-0	0	0	0	0	0	-0	0	0.05595	0	0	0	-0	0	0	0	0	0	-0	0	545.919	551.04	324.957	201.606	-0.810046	1.74374	0.0246618	0.0340977	-0.154441
5	-0.0136546	-0.0199536	-0.00964746	-0.0199706	-0.0109288	-0.0519261	0.0227292	0.0302588	0.00139829	-1.58224	0.106887	0.258488	0.0557092	-0.00215606	0.0165521	-2.20792	0.0108122	-1.5446	0	0	0	0	-0	0	0	0	-0.1265	0	-0	0	0	0	0	0	-0	0	0.105	-0.015	0	0	-0	0	0	-0.098	0.1	0	-0	0	0	0	0	0	-0	0	0.05595	0	0	0	-0	0	0	0	0	0	-0	0	545.932	551.038	324.965	201.614	-0.756472	1.30876	0.0278767	0.0296243	-0.403182
6	-0.0140453	-0.0204402	0.00186861	-0.00367601	-0.0156877	-0.0421143	0.0218354	0.0290841	-0.000226762	-1.68466	0.144045	0.25856	0.0537982	-0.00317817	0.0175877	-2.20657	0.0155543	-1.53673	0	0	0	0	-0	0	0	0	-0.1265	0	-0	0	0	0	0	0	-0	0	0.105	-0.015	0	0	-0	0	0	-0.098	0.1	0	-0	0	0	0	0	0	-0	0	0.05595	0	0	0	-0	0	0	0	0	0	-0	0	545.951	551.03	324.969	201.617	-0.4527	0.938565	0.0203286	0.0130624	-0.639887
7	-0.0142356	-0.0180392	0.00459646	0.001623	-0.014429	-0.0419046	0.0216724	0.0289852	-0.000648281	-1.69084	0.152011	0.242399	0.0528277	-0.0034904	0.0183201	-2.20609	0.0151607	-1.53803	0	0	0	0	-0	0	0	0	-0.1265	0	-0	0	0	0	0	0	-0	0	0.105	-0.015	0	0	-0	0	0	-0.098	0.1	0	-0	0	0	0	0	0	-0	0	0.05595	0	0	0	-0	0	0	0	0	0	-0	0	545.993	551.007	324.972	201.617	-0.210804	0.612167	0.00462517	-3.86611e-05	-0.797362
8	-0.0142509	-0.017305	0.00526934	0.00293436	-0.0139588	-0.0421124	0.021643	0.0289427	-0.000707114	-1.69164	0.15374	0.237668	0.0523589	-0.00352512	0.0187613	-2.20607	0.014704	-1.53887	0	0	0	0	-0	0	0	0	-0.1265	0	-0	0	0	0	0	0	-0	0	0.105	-0.015	0	0	-0	0	0	-0.098	0.1	0	-0	0	0	0	0	0	-0	0	0.05595	0	0	0	-0	0	0	0	0	0	-0	0	546.107	550.94	324.986	201.612	-0.0991206	0.401217	-0.00196186	-0.00478309	-0.738786
9	-0.0142062	-0.0170802	0.00541244	0.00318049	-0.0138299	-0.0421058	0.0216332	0.0289368	-0.000719544	-1.69171	0.153923	0.236692	0.0521109	-0.00350915	0.0189943	-2.20618	0.0143869	-1.53942	0	0	0	0	-0	0	0	0	-0.1265	0	-0	0	0	0	0	0	-0	0	0.105	-0.015	0	0	-0	0	0	-0.098	0.1	0	-0	0	0	0	0	0	-0	0	0.05595	0	0	0	-0	0	0	0	0	0	-0	0	546.421	550.754	325.027	201.596	-0.0429229	0.156044	-0.00304496	-0.00577721	-0.396314
10	-0.013658	-0.0167244	0.00556556	0.00329727	-0.0136227	-0.0420636	0.0216188	0.028938	-0.00072982	-1.69154	0.153756	0.236186	0.0517538	-0.00348353	0.0193235	-2.20584	0.0138246	-1.54038	0	0	0	0	-0	0	0	0	-0.1265	0	-0	0	0	0	0	0	-0	0	0.105	-0.015	0	0	-0	0	0	-0.098	0.1	0	-0	0	0	0	0	0	-0	0	0.05595	0	0	0	-0	0	0	0	0	0	-0	0	547.21	550.279	325.127	201.546	0.0308158	-0.262174	-0.00288109	-0.00645365	0.279742
11	-0.0122813	-0.0162579	0.00581098	0.00347245	-0.0133449	-0.0419052	0.0215899	0.0289424	-0.000747977	-1.69086	0.15346	0.235941	0.0512933	-0.00346022	0.0197404	-2.2044	0.0130336	-1.54171	0	0	0	0	-0	0	0	0	-0.1265	0	-0	0	0	0	0	0	-0	0	0.105	-0.015	0	0	-0	0	0	-0.098	0.1	0	-0	0	0	0	0	0	-0	0	0.05595	0	0	0	-0	0	0	0	0	0	-0	0	548.815	549.342	325.343	201.43	0.103706	-0.706445	-0.00157916	-0.00749554	1.02809
12	-0.00869418	-0.0158772	0.00608494	0.00368636	-0.0131169	-0.0416263	0.0215515	0.0289489	-0.000771873	-1.68958	0.153192	0.236221	0.0509025	-0.00345968	0.0201343	-2.20028	0.0120938	-1.54303	0	0	0	0	-0	0	0	0	-0.1265	0	-0	0	0	0	0	0	-0	0	0.105	-0.015	0	0	-0	0	0	-0.098	0.1	0	-0	0	0	0	0	0	-0	0	0.05595	0	0	0	-0	0	0	0	0	0	-0	0	551.083	548.331	325.792	201.252	0.120559	-0.857598	0.000959742	-0.00854658	1.3223
13	-0.0122986	-0.0156786	0.0062312	0.00386773	-0.013017	-0.0414239	0.0215262	0.0289546	-0.000790465	-1.68851	0.153145	0.236526	0.0507964	-0.00346122	0.0200669	-2.20339	0.0108165	-1.54474	0	0	0	0	-0	0	0	0	-0.1265	0	-0	0	0	0	0	0	-0	0	0.105	-0.015	0	0	-0	0	0	-0.098	0.1	0	-0	0	0	0	0	0	-0	0	0.05595	0	0	0	-0	0	0	0	0	0	-0	0	553.24	548.602	326.782	201.001	0.0962176	-0.768901	0.00274659	-0.00870702	1.22094
14	0.000643087	-0.0156322	0.00623446	0.00395573	-0.0130137	-0.0413717	0.0215206	0.0289571	-0.000797652	-1.68815	0.153217	0.236566	0.0504523	-0.00345213	0.0208068	-2.19033	0.00924313	-1.54593	0	0	0	0	-0	0	0	0	-0.1265	0	-0	0	0	0	0	0	-0	0	0.105	-0.015	0	0	-0	0	0	-0.098	0.1	0	-0	0	0	0	0	0	-0	0	0.05595	0	0	0	-0	0	0	0	0	0	-0	0	554.318	549.497	327.705	200.817	0.080937	-0.705795	0.00304374	-0.00829284	1.14201
15	0.0317204	-0.0156352	0.00617635	0.00412868	-0.0131157	-0.0412961	0.0215171	0.0289594	-0.000808662	-1.68808	0.153514	0.236133	0.0495879	-0.00341754	0.0226175	-2.15967	0.00371412	-1.55094	0	0	0	0	-0	0	0	0	-0.1265	0	-0	0	0	0	0	0	-0	0	0.105	-0.015	0	0	-0	0	0	-0.098	0.1	0	-0	0	0	0	0	0	-0	0	0.05595	0	0	0	-0	0	0	0	0	0	-0	0	556.674	552.807	331.51	200.524	0.0534083	-0.597336	0.00252953	-0.00622728	1.02791
16	-0.00342017	-0.0156757	0.00613892	0.00417185	-0.013186	-0.0412522	0.0215164	0.0289598	-0.000811986	-1.68815	0.153579	0.235977	0.0502722	-0.00340294	0.0209458	-2.19509	0.00225065	-1.55365	0	0	0	0	-0	0	0	0	-0.1265	0	-0	0	0	0	0	0	-0	0	0.105	-0.015	0	0	-0	0	0	-0.098	0.1	0	-0	0	0	0	0	0	-0	0	0.05595	0	0	0	-0	0	0	0	0	0	-0	0	557.604	554.135	333.37	200.485	0.0421347	-0.55354	0.00237622	-0.00528326	0.986691
17	0.023932	-0.0157038	0.00611889	0.0041974	-0.013232	-0.0412224	0.0215158	0.0289602	-0.000813828	-1.68818	0.153624	0.235899	0.0496231	-0.00339423	0.0223688	-2.16797	9.05613e-05	-1.55538	0	0	0	0	-0	0	0	0	-0.1265	0	-0	0	0	0	0	0	-0	0	0.105	-0.015	0	0	-0	0	0	-0.098	0.1	0	-0	0	0	0	0	0	-0	0	0.05595	0	0	0	-0	0	0	0	0	0	-0	0	558.188	554.994	334.736	200.489	0.0351236	-0.526712	0.00226341	-0.00459693	0.963316
18	0.0109868	-0.0157263	0.00610328	0.00421341	-0.0132661	-0.0412012	0.0215153	0.0289607	-0.000815029	-1.6882	0.153646	0.235865	0.049861	-0.00338865	0.0217526	-2.1811	-0.000878457	-1.55676	0	0	0	0	-0	0	0	0	-0.1265	0	-0	0	0	0	0	0	-0	0	0.105	-0.015	0	0	-0	0	0	-0.098	0.1	0	-0	0	0	0	0	0	-0	0	0.05595	0	0	0	-0	0	0	0	0	0	-0	0	558.571	555.565	335.743	200.508	0.0305069	-0.509486	0.0021936	-0.00409782	0.949811
19	0.031918	-0.0158195	0.00607191	0.0042618	-0.0133856	-0.0411255	0.0215133	0.0289618	-0.000817937	-1.68821	0.153731	0.235794	0.0493138	-0.00337627	0.0229005	-2.16084	-0.00592331	-1.56218	0	0	0	0	-0	0	0	0	-0.1265	0	-0	0	0	0	0	0	-0	0	0.105	-0.015	0	0	-0	0	0	-0.098	0.1	0	-0	0	0	0	0	0	-0	0	0.05595	0	0	0	-0	0	0	0	0	0	-0	0	559.649	557.322	339.815	200.647	0.0185128	-0.46083	0.00175102	-0.00223604	0.914778
20	0.0512187	-0.015985	0.00602998	0.00427695	-0.0135586	-0.0410168	0.0215108	0.0289637	-0.000819595	-1.68827	0.153735	0.235912	0.0487918	-0.00336713	0.0239266	-2.14232	-0.0117968	-1.56921	0	0	0	0	-0	0	0	0	-0.1265	0	-0	0	0	0	0	0	-0	0	0.105	-0.015	0	0	-0	0	0	-0.098	0.1	0	-0	0	0	0	0	0	-0	0	0.05595	0	0	0	-0	0	0	0	0	0	-0	0	560.626	558.938	344.974	200.907	0.00729674	-0.421146	0.00141175	8.49626e-05	0.909222
21	0.032673	-0.0160382	0.00600111	0.00425928	-0.0136084	-0.0409889	0.0215106	0.0289652	-0.000819802	-1.68833	0.153683	0.236083	0.0492225	-0.00336317	0.0230213	-2.16102	-0.0124517	-1.56996	0	0	0	0	-0	0	0	0	-0.1265	0	-0	0	0	0	0	0	-0	0	0.105	-0.015	0	0	-0	0	0	-0.098	0.1	0	-0	0	0	0	0	0	-0	0	0.05595	0	0	0	-0	0	0	0	0	0	-0	0	560.789	559.096	345.672	200.972	0.00439554	-0.422872	0.00168222	0.000501442	0.937447
22	0.0414035	-0.0160529	0.00599709	0.00425763	-0.0136235	-0.0409769	0.0215103	0.0289656	-0.000819881	-1.68834	0.153673	0.236131	0.0490073	-0.00336219	0.0234535	-2.15238	-0.0130041	-1.57071	0	0	0	0	-0	0	0	0	-0.1265	0	-0	0	0	0	0	0	-0	0	0.105	-0.015	0	0	-0	0	0	-0.098	0.1	0	-0	0	0	0	0	0	-0	0	0.05595	0	0	0	-0	0	0	0	0	0	-0	0	560.878	559.214	346.153	201.014	0.00354149	-0.422406	0.00170914	0.000726348	0.945144
23	0.0222615	-0.016076	0.00599204	0.00425761	-0.0136463	-0.0409616	0.0215099	0.028966	-0.000820013	-1.68834	0.153667	0.236171	0.0494478	-0.00336143	0.0225222	-2.17166	-0.0137854	-1.57139	0	0	0	0	-0	0	0	0	-0.1265	0	-0	0	0	0	0	0	-0	0	0.105	-0.015	0	0	-0	0	0	-0.098	0.1	0	-0	0	0	0	0	0	-0	0	0.05595	0	0	0	-0	0	0	0	0	0	-0	0	560.989	559.386	346.857	201.077	0.00244603	-0.419507	0.00168885	0.00103797	0.949645
24	0.0388769	-0.0161255	0.00598418	0.00425857	-0.013694	-0.0409302	0.0215091	0.0289665	-0.000820237	-1.68837	0.153659	0.236236	0.0490532	-0.00336049	0.0233545	-2.15532	-0.0154516	-1.57357	0	0	0	0	-0	0	0	0	-0.1265	0	-0	0	0	0	0	0	-0	0	0.105	-0.015	0	0	-0	0	0	-0.098	0.1	0	-0	0	0	0	0	0	-0	0	0.05595	0	0	0	-0	0	0	0	0	0	-0	0	561.199	559.734	348.346	201.204	0.000608112	-0.41431	0.00160377	0.00168503	0.959525
25	0.0206319	-0.0161993	0.00597016	0.00425533	-0.0137635	-0.040886	0.021508	0.0289674	-0.000820445	-1.68839	0.153638	0.236357	0.0494603	-0.00335939	0.0224721	-2.17392	-0.01776	-1.57597	0	0	0	0	-0	0	0	0	-0.1265	0	-0	0	0	0	0	0	-0	0	0.105	-0.015	0	0	-0	0	0	-0.098	0.1	0	-0	0	0	0	0	0	-0	0	0.05595	0	0	0	-0	0	0	0	0	0	-0	0	561.459	560.157	350.383	201.381	-0.00168449	-0.410451	0.00153855	0.00258339	0.981105
26	-0.000355523	-0.0162444	0.00595651	0.00424792	-0.0138055	-0.0408598	0.0215074	0.0289683	-0.000820564	-1.68842	0.153612	0.23647	0.0499199	-0.00335793	0.021437	-2.19512	-0.0189979	-1.57682	0	0	0	0	-0	0	0	0	-0.1265	0	-0	0	0	0	0	0	-0	0	0.105	-0.015	0	0	-0	0	0	-0.098	0.1	0	-0	0	0	0	0	0	-0	0	0.05595	0	0	0	-0	0	0	0	0	0	-0	0	561.587	560.329	351.359	201.485	-0.00294782	-0.413953	0.00163585	0.0030526	1.00763
27	0.00967529	-0.0162727	0.00594926	0.00424464	-0.013832	-0.0408424	0.021507	0.0289689	-0.000820645	-1.68844	0.153596	0.236541	0.049691	-0.0033573	0.0219378	-2.18524	-0.0197673	-1.57792	0	0	0	0	-0	0	0	0	-0.1265	0	-0	0	0	0	0	0	-0	0	0.105	-0.015	0	0	-0	0	0	-0.098	0.1	0	-0	0	0	0	0	0	-0	0	0.05595	0	0	0	-0	0	0	0	0	0	-0	0	561.673	560.451	352.074	201.565	-0.0035733	-0.416443	0.00167385	0.00338206	1.02541
28	-0.00229694	-0.0162865	0.00594361	0.0042417	-0.013845	-0.0408348	0.0215069	0.0289693	-0.000820671	-1.68845	0.153586	0.236585	0.0499502	-0.00335671	0.0213434	-2.19728	-0.0201779	-1.57806	0	0	0	0	-0	0	0	0	-0.1265	0	-0	0	0	0	0	0	-0	0	0.105	-0.015	0	0	-0	0	0	-0.098	0.1	0	-0	0	0	0	0	0	-0	0	0.05595	0	0	0	-0	0	0	0	0	0	-0	0	561.709	560.497	352.364	201.6	-0.00389769	-0.418572	0.00171835	0.00352644	1.03607
29	-0.0125117	-0.0163067	0.00594111	0.00424027	-0.0138636	-0.0408218	0.0215065	0.0289695	-0.000820685	-1.68846	0.153577	0.236625	0.0501623	-0.00335671	0.020835	-2.20762	-0.0209277	-1.57859	0	0	0	0	-0	0	0	0	-0.1265	0	-0	0	0	0	0	0	-0	0	0.105	-0.015	0	0	-0	0	0	-0.098	0.1	0	-0	0	0	0	0	0	-0	0	0.05595	0	0	0	-0	0	0	0	0	0	-0	0	561.773	560.593	352.945	201.668	-0.0041826	-0.419674	0.00171107	0.00377919	1.04697
30	-0.0209093	-0.0163459	0.00593559	0.00423735	-0.013899	-0.0407985	0.0215059	0.02897	-0.000820693	-1.68847	0.153563	0.236697	0.0503317	-0.00335684	0.0204179	-2.21624	-0.0222449	-1.57974	0	0	0	0	-0	0	0	0	-0.1265	0	-0	0	0	0	0	0	-0	0	0.105	-0.015	0	0	-0	0	0	-0.098	0.1	0	-0	0	0	0	0	0	-0	0	0.05595	0	0	0	-0	0	0	0	0	0	-0	0	561.883	560.765	354.011	201.791	-0.00474945	-0.421058	0.00168822	0.0042433	1.06567
31	-0.0230258	-0.0163563	0.00592804	0.00423398	-0.0139085	-0.0407955	0.021506	0.0289704	-0.000820774	-1.68849	0.153555	0.236739	0.050375	-0.0033561	0.0203097	-2.21837	-0.0223162	-1.57974	0	0	0	0	-0	0	0	0	-0.1265	0	-0	0	0	0	0	0	-0	0	0.105	-0.015	0	0	-0	0	0	-0.098	0.1	0	-0	0	0	0	0	0	-0	0	0.05595	0	0	0	-0	0	0	0	0	0	-0	0	561.891	560.769	354.054	201.797	-0.00542132	-0.421448	0.00177034	0.00429268	1.0708
32	-0.0242579	-0.0163596	0.0059279	0.00423362	-0.0139121	-0.0407917	0.0215058	0.0289705	-0.000820785	-1.68849	0.15355	0.236753	0.0503981	-0.00335593	0.0202494	-2.21964	-0.0225054	-1.5799	0	0	0	0	-0	0	0	0	-0.1265	0	-0	0	0	0	0	0	-0	0	0.105	-0.015	0	0	-0	0	0	-0.098	0.1	0	-0	0	0	0	0	0	-0	0	0.05595	0	0	0	-0	0	0	0	0	0	-0	0	561.91	560.788	354.204	201.817	-0.00515358	-0.424542	0.00177864	0.00435926	1.07961
33	-0.0344752	-0.0163651	0.00592678	0.00423284	-0.0139173	-0.0407877	0.0215057	0.0289706	-0.000820792	-1.68849	0.153546	0.236768	0.0506041	-0.00335579	0.0197356	-2.22989	-0.022774	-1.57986	0	0	0	0	-0	0	0	0	-0.1265	0	-0	0	0	0	0	0	-0	0	0.105	-0.015	0	0	-0	0	0	-0.098	0.1	0	-0	0	0	0	0	0	-0	0	0.05595	0	0	0	-0	0	0	0	0	0	-0	0	561.926	560.808	354.353	201.837	-0.0051176	-0.426185	0.00178948	0.00442708	1.08566
34	-0.0366502	-0.0163767	0.00592557	0.00423199	-0.0139279	-0.0407802	0.0215055	0.0289707	-0.000820792	-1.6885	0.153541	0.236789	0.0506433	-0.00335585	0.0196262	-2.23215	-0.0231867	-1.58021	0	0	0	0	-0	0	0	0	-0.1265	0	-0	0	0	0	0	0	-0	0	0.105	-0.015	0	0	-0	0	0	-0.098	0.1	0	-0	0	0	0	0	0	-0	0	0.05595	0	0	0	-0	0	0	0	0	0	-0	0	561.96	560.857	354.681	201.881	-0.00514067	-0.427719	0.00178722	0.00456966	1.09386
35	-0.0230422	-0.0164097	0.005922	0.0042297	-0.0139573	-0.0407604	0.021505	0.028971	-0.00082077	-1.68851	0.153529	0.236848	0.050374	-0.00335622	0.0203192	-2.21874	-0.0241582	-1.58168	0	0	0	0	-0	0	0	0	-0.1265	0	-0	0	0	0	0	0	-0	0	0.105	-0.015	0	0	-0	0	0	-0.098	0.1	0	-0	0	0	0	0	0	-0	0	0.05595	0	0	0	-0	0	0	0	0	0	-0	0	562.051	560.999	355.61	202	-0.00543357	-0.429517	0.00175983	0.00496907	1.11137
36	-0.00818753	-0.0164586	0.00591429	0.00422563	-0.0140015	-0.0407312	0.0215042	0.0289717	-0.000820826	-1.68854	0.153508	0.236946	0.0500647	-0.00335631	0.0210708	-2.20418	-0.0254735	-1.58364	0	0	0	0	-0	0	0	0	-0.1265	0	-0	0	0	0	0	0	-0	0	0.105	-0.015	0	0	-0	0	0	-0.098	0.1	0	-0	0	0	0	0	0	-0	0	0.05595	0	0	0	-0	0	0	0	0	0	-0	0	562.179	561.183	356.884	202.168	-0.00581056	-0.434872	0.00177228	0.00553315	1.14374
37	0.00548043	-0.0164877	0.00590521	0.00422119	-0.0140285	-0.0407143	0.0215038	0.0289723	-0.000820964	-1.68856	0.153488	0.237031	0.0497701	-0.00335557	0.0217551	-2.19067	-0.0259847	-1.58478	0	0	0	0	-0	0	0	0	-0.1265	0	-0	0	0	0	0	0	-0	0	0.105	-0.015	0	0	-0	0	0	-0.098	0.1	0	-0	0	0	0	0	0	-0	0	0.05595	0	0	0	-0	0	0	0	0	0	-0	0	562.247	561.255	357.497	202.264	-0.00610103	-0.441769	0.001878	0.00583207	1.17235
38	0.01313	-0.0165333	0.00589984	0.00421712	-0.014069	-0.0406862	0.021503	0.0289729	-0.000820936	-1.68858	0.153467	0.237127	0.0495967	-0.00335607	0.0221377	-2.18334	-0.0273025	-1.5866	0	0	0	0	-0	0	0	0	-0.1265	0	-0	0	0	0	0	0	-0	0	0.105	-0.015	0	0	-0	0	0	-0.098	0.1	0	-0	0	0	0	0	0	-0	0	0.05595	0	0	0	-0	0	0	0	0	0	-0	0	562.366	561.42	358.759	202.453	-0.00608405	-0.448747	0.00188483	0.00638383	1.2081
39	0.00341825	-0.0165537	0.00589065	0.00421305	-0.0140883	-0.0406755	0.0215028	0.0289735	-0.000821084	-1.6886	0.153451	0.2372	0.0498102	-0.00335511	0.0216565	-2.19317	-0.0278271	-1.58677	0	0	0	0	-0	0	0	0	-0.1265	0	-0	0	0	0	0	0	-0	0	0.105	-0.015	0	0	-0	0	0	-0.098	0.1	0	-0	0	0	0	0	0	-0	0	0.05595	0	0	0	-0	0	0	0	0	0	-0	0	562.404	561.448	359.095	202.516	-0.00630161	-0.455569	0.00200843	0.00656717	1.23304
40	0.0111283	-0.016563	0.00588831	0.00421152	-0.0140969	-0.0406692	0.0215026	0.0289737	-0.000821098	-1.68861	0.153443	0.237232	0.0496402	-0.00335493	0.0220404	-2.18553	-0.0279741	-1.58729	0	0	0	0	-0	0	0	0	-0.1265	0	-0	0	0	0	0	0	-0	0	0.105	-0.015	0	0	-0	0	0	-0.098	0.1	0	-0	0	0	0	0	0	-0	0	0.05595	0	0	0	-0	0	0	0	0	0	-0	0	562.426	561.47	359.332	202.56	-0.00616167	-0.459514	0.00204458	0.0066797	1.24658
41	0.00417069	-0.0165758	0.00588651	0.00420972	-0.0141084	-0.0406609	0.0215024	0.0289739	-0.00082107	-1.68862	0.153435	0.237263	0.0497916	-0.00335501	0.0216953	-2.1926	-0.0284796	-1.58754	0	0	0	0	-0	0	0	0	-0.1265	0	-0	0	0	0	0	0	-0	0	0.105	-0.015	0	0	-0	0	0	-0.098	0.1	0	-0	0	0	0	0	0	-0	0	0.05595	0	0	0	-0	0	0	0	0	0	-0	0	562.456	561.505	359.679	202.626	-0.00593986	-0.463729	0.00206674	0.00683507	1.26202
42	0.00350096	-0.0166237	0.00588318	0.00420604	-0.0141501	-0.0406313	0.0215015	0.0289742	-0.000820979	-1.68864	0.153415	0.237351	0.0498037	-0.00335615	0.0216643	-2.19366	-0.0300522	-1.58927	0	0	0	0	-0	0	0	0	-0.1265	0	-0	0	0	0	0	0	-0	0	0.105	-0.015	0	0	-0	0	0	-0.098	0.1	0	-0	0	0	0	0	0	-0	0	0.05595	0	0	0	-0	0	0	0	0	0	-0	0	562.579	561.674	361.048	202.86	-0.00567584	-0.471391	0.00205458	0.00742528	1.30144
43	-0.0112176	-0.016673	0.00587318	0.00420019	-0.0141946	-0.0406015	0.0215007	0.028975	-0.000821081	-1.68868	0.153386	0.237475	0.0501214	-0.00335604	0.0209341	-2.20879	-0.0316937	-1.59035	0	0	0	0	-0	0	0	0	-0.1265	0	-0	0	0	0	0	0	-0	0	0.105	-0.015	0	0	-0	0	0	-0.098	0.1	0	-0	0	0	0	0	0	-0	0	0.05595	0	0	0	-0	0	0	0	0	0	-0	0	562.696	561.797	362.246	203.103	-0.00541268	-0.485658	0.00219236	0.00798108	1.35819
44	-0.0143613	-0.0166842	0.00586395	0.00419853	-0.0142054	-0.0405986	0.0215008	0.0289756	-0.000821324	-1.68871	0.153379	0.237526	0.0501835	-0.003355	0.0207736	-2.21195	-0.0318057	-1.59028	0	0	0	0	-0	0	0	0	-0.1265	0	-0	0	0	0	0	0	-0	0	0.105	-0.015	0	0	-0	0	0	-0.098	0.1	0	-0	0	0	0	0	0	-0	0	0.05595	0	0	0	-0	0	0	0	0	0	-0	0	562.705	561.794	362.282	203.112	-0.00607904	-0.487523	0.00230913	0.00803396	1.36781
45	-0.0151536	-0.016686	0.00586394	0.00419793	-0.0142079	-0.0405948	0.0215006	0.0289757	-0.000821328	-1.6887	0.153373	0.237544	0.0501977	-0.00335478	0.0207355	-2.2128	-0.0319727	-1.59042	0	0	0	0	-0	0	0	0	-0.1265	0	-0	0	0	0	0	0	-0	0	0.105	-0.015	0	0	-0	0	0	-0.098	0.1	0	-0	0	0	0	0	0	-0	0	0.05595	0	0	0	-0	0	0	0	0	0	-0	0	562.721	561.8	362.412	203.144	-0.00554399	-0.493301	0.00233775	0.00809457	1.38337
46	-0.0103954	-0.0166985	0.0058634	0.00419562	-0.0142188	-0.0405856	0.0215003	0.0289758	-0.000821231	-1.68871	0.153363	0.237573	0.0500985	-0.00335506	0.0209749	-2.20819	-0.0323108	-1.59105	0	0	0	0	-0	0	0	0	-0.1265	0	-0	0	0	0	0	0	-0	0	0.105	-0.015	0	0	-0	0	0	-0.098	0.1	0	-0	0	0	0	0	0	-0	0	0.05595	0	0	0	-0	0	0	0	0	0	-0	0	562.749	561.826	362.785	203.236	-0.00496741	-0.500136	0.00236754	0.00826021	1.40555
47	-0.0215025	-0.0167131	0.00586092	0.00419318	-0.0142316	-0.0405765	0.0215	0.028976	-0.000821198	-1.68872	0.153353	0.237611	0.0503314	-0.00335523	0.0204181	-2.21945	-0.0329475	-1.59114	0	0	0	0	-0	0	0	0	-0.1265	0	-0	0	0	0	0	0	-0	0	0.105	-0.015	0	0	-0	0	0	-0.098	0.1	0	-0	0	0	0	0	0	-0	0	0.05595	0	0	0	-0	0	0	0	0	0	-0	0	562.775	561.849	363.144	203.327	-0.00470574	-0.505787	0.00242119	0.00842703	1.42582
48	-0.034617	-0.016724	0.00585864	0.00419141	-0.0142415	-0.0405696	0.0214998	0.0289762	-0.000821199	-1.68873	0.153345	0.237642	0.0505962	-0.00335521	0.0197569	-2.23269	-0.0335213	-1.59103	0	0	0	0	-0	0	0	0	-0.1265	0	-0	0	0	0	0	0	-0	0	0.105	-0.015	0	0	-0	0	0	-0.098	0.1	0	-0	0	0	0	0	0	-0	0	0.05595	0	0	0	-0	0	0	0	0	0	-0	0	562.797	561.865	363.406	203.396	-0.00448001	-0.51083	0.00247235	0.00855233	1.44315
49	-0.0306516	-0.0167277	0.00585663	0.00419078	-0.014245	-0.0405678	0.0214998	0.0289763	-0.000821235	-1.68874	0.153342	0.237656	0.0505136	-0.00335499	0.019956	-2.22875	-0.033506	-1.59123	0	0	0	0	-0	0	0	0	-0.1265	0	-0	0	0	0	0	0	-0	0	0.105	-0.015	0	0	-0	0	0	-0.098	0.1	0	-0	0	0	0	0	0	-0	0	0.05595	0	0	0	-0	0	0	0	0	0	-0	0	562.802	561.867	363.46	203.411	-0.00448055	-0.51261	0.00250245	0.00858448	1.44904
50	-0.038749	-0.0167345	0.00585646	0.00418934	-0.0142509	-0.0405626	0.0214996	0.0289764	-0.000821168	-1.68874	0.153336	0.237674	0.0506746	-0.0033552	0.019547	-2.23694	-0.0339264	-1.59123	0	0	0	0	-0	0	0	0	-0.1265	0	-0	0	0	0	0	0	-0	0	0.105	-0.015	0	0	-0	0	0	-0.098	0.1	0	-0	0	0	0	0	0	-0	0	0.05595	0	0	0	-0	0	0	0	0	0	-0	0	562.817	561.88	363.677	203.469	-0.00411768	-0.516801	0.0025224	0.0086807	1.46259
51	-0.0435243	-0.0167397	0.00585493	0.00418849	-0.0142556	-0.0405597	0.0214995	0.0289765	-0.000821181	-1.68875	0.153333	0.23769	0.0507665	-0.00335514	0.0193043	-2.24177	-0.0341516	-1.5912	0	0	0	0	-0	0	0	0	-0.1265	0	-0	0	0	0	0	0	-0	0	0.105	-0.015	0	0	-0	0	0	-0.098	0.1	0	-0	0	0	0	0	0	-0	0	0.05595	0	0	0	-0	0	0	0	0	0	-0	0	562.826	561.886	363.784	203.498	-0.00407225	-0.518926	0.00255173	0.0087343	1.47012
52	-0.0396639	-0.0167418	0.00585409	0.00418801	-0.0142576	-0.0405585	0.0214995	0.0289766	-0.000821183	-1.68875	0.153331	0.237697	0.0506914	-0.00335507	0.0195001	-2.23793	-0.0341249	-1.59138	0	0	0	0	-0	0	0	0	-0.1265	0	-0	0	0	0	0	0	-0	0	0.105	-0.015	0	0	-0	0	0	-0.098	0.1	0	-0	0	0	0	0	0	-0	0	0.05595	0	0	0	-0	0	0	0	0	0	-0	0	562.83	561.888	363.827	203.511	-0.00404431	-0.519982	0.00256595	0.0087571	1.47367
53	-0.0378435	-0.0167468	0.00585404	0.00418706	-0.014262	-0.0405547	0.0214993	0.0289766	-0.000821135	-1.68875	0.153327	0.237709	0.0506554	-0.00335523	0.0195924	-2.23618	-0.0342756	-1.59164	0	0	0	0	-0	0	0	0	-0.1265	0	-0	0	0	0	0	0	-0	0	0.105	-0.015	0	0	-0	0	0	-0.098	0.1	0	-0	0	0	0	0	0	-0	0	0.05595	0	0	0	-0	0	0	0	0	0	-0	0	562.841	561.898	363.986	203.555	-0.00373686	-0.523365	0.00257963	0.0088275	1.48436
54	-0.0336587	-0.016753	0.00585303	0.00418596	-0.0142674	-0.0405508	0.0214992	0.0289767	-0.000821115	-1.68876	0.153322	0.237725	0.0505735	-0.00335531	0.0198043	-2.23207	-0.0343715	-1.59198	0	0	0	0	-0	0	0	0	-0.1265	0	-0	0	0	0	0	0	-0	0	0.105	-0.015	0	0	-0	0	0	-0.098	0.1	0	-0	0	0	0	0	0	-0	0	0.05595	0	0	0	-0	0	0	0	0	0	-0	0	562.853	561.907	364.142	203.598	-0.00359967	-0.52606	0.0026058	0.00890023	1.49388
55	-0.0393213	-0.0167562	0.00585185	0.00418546	-0.0142703	-0.0405491	0.0214992	0.0289767	-0.00082113	-1.68876	0.15332	0.237736	0.0506854	-0.00335525	0.0195177	-2.23776	-0.0345652	-1.59186	0	0	0	0	-0	0	0	0	-0.1265	0	-0	0	0	0	0	0	-0	0	0.105	-0.015	0	0	-0	0	0	-0.098	0.1	0	-0	0	0	0	0	0	-0	0	0.05595	0	0	0	-0	0	0	0	0	0	-0	0	562.858	561.91	364.205	203.617	-0.00359976	-0.527264	0.00262592	0.00893295	1.49835
56	-0.036214	-0.0167606	0.00585166	0.00418472	-0.0142741	-0.0405459	0.0214991	0.0289768	-0.000821103	-1.68876	0.153317	0.237746	0.0506239	-0.00335537	0.0196749	-2.23471	-0.0346522	-1.59213	0	0	0	0	-0	0	0	0	-0.1265	0	-0	0	0	0	0	0	-0	0	0.105	-0.015	0	0	-0	0	0	-0.098	0.1	0	-0	0	0	0	0	0	-0	0	0.05595	0	0	0	-0	0	0	0	0	0	-0	0	562.868	561.918	364.334	203.653	-0.00343189	-0.529579	0.00264148	0.00899104	1.50624
57	-0.0441623	-0.0167732	0.00585108	0.0041828	-0.0142848	-0.0405376	0.0214988	0.0289769	-0.000821017	-1.68877	0.153309	0.237772	0.0507805	-0.00335583	0.0192721	-2.24283	-0.0352552	-1.5923	0	0	0	0	-0	0	0	0	-0.1265	0	-0	0	0	0	0	0	-0	0	0.105	-0.015	0	0	-0	0	0	-0.098	0.1	0	-0	0	0	0	0	0	-0	0	0.05595	0	0	0	-0	0	0	0	0	0	-0	0	562.896	561.947	364.7	203.754	-0.0030834	-0.534546	0.00267008	0.00915361	1.52486
58	-0.0357754	-0.0167918	0.00584892	0.00418043	-0.0143011	-0.0405254	0.0214984	0.0289771	-0.000820977	-1.68879	0.153298	0.237815	0.0506173	-0.00335618	0.0196977	-2.23467	-0.0356797	-1.59322	0	0	0	0	-0	0	0	0	-0.1265	0	-0	0	0	0	0	0	-0	0	0.105	-0.015	0	0	-0	0	0	-0.098	0.1	0	-0	0	0	0	0	0	-0	0	0.05595	0	0	0	-0	0	0	0	0	0	-0	0	562.941	561.989	365.208	203.895	-0.00269132	-0.542117	0.00273279	0.00938633	1.55331
59	-0.0374119	-0.016817	0.00584589	0.00417713	-0.014323	-0.0405091	0.0214979	0.0289773	-0.000820931	-1.68881	0.153282	0.237876	0.0506484	-0.00335673	0.0196139	-2.23663	-0.036522	-1.59401	0	0	0	0	-0	0	0	0	-0.1265	0	-0	0	0	0	0	0	-0	0	0.105	-0.015	0	0	-0	0	0	-0.098	0.1	0	-0	0	0	0	0	0	-0	0	0.05595	0	0	0	-0	0	0	0	0	0	-0	0	562.999	562.036	365.891	204.086	-0.00217448	-0.552547	0.00282809	0.00970055	1.5925
60	-0.0441868	-0.0168273	0.0058408	0.00417552	-0.0143331	-0.0405034	0.0214978	0.0289777	-0.000821033	-1.68882	0.153273	0.237916	0.0507808	-0.00335611	0.0192717	-2.24351	-0.0368968	-1.59399	0	0	0	0	-0	0	0	0	-0.1265	0	-0	0	0	0	0	0	-0	0	0.105	-0.015	0	0	-0	0	0	-0.098	0.1	0	-0	0	0	0	0	0	-0	0	0.05595	0	0	0	-0	0	0	0	0	0	-0	0	563.02	562.042	366.075	204.146	-0.00196553	-0.559608	0.00292323	0.00980514	1.61504
61	-0.0445069	-0.0168397	0.00584014	0.00417357	-0.0143439	-0.040494	0.0214974	0.0289778	-0.00082096	-1.68883	0.153263	0.237948	0.0507858	-0.00335647	0.019255	-2.24403	-0.0373686	-1.59445	0	0	0	0	-0	0	0	0	-0.1265	0	-0	0	0	0	0	0	-0	0	0.105	-0.015	0	0	-0	0	0	-0.098	0.1	0	-0	0	0	0	0	0	-0	0	0.05595	0	0	0	-0	0	0	0	0	0	-0	0	563.052	562.067	366.463	204.269	-0.00142471	-0.567194	0.00297732	0.0099822	1.64125
62	-0.051572	-0.0168537	0.00583776	0.00417132	-0.0143562	-0.040485	0.0214971	0.028978	-0.00082093	-1.68884	0.153253	0.237985	0.0509222	-0.00335665	0.018896	-2.2513	-0.0379703	-1.59464	0	0	0	0	-0	0	0	0	-0.1265	0	-0	0	0	0	0	0	-0	0	0.105	-0.015	0	0	-0	0	0	-0.098	0.1	0	-0	0	0	0	0	0	-0	0	0.05595	0	0	0	-0	0	0	0	0	0	-0	0	563.083	562.086	366.827	204.388	-0.00105289	-0.574556	0.00305411	0.0101557	1.66731
63	-0.0455198	-0.0168606	0.00583523	0.00417019	-0.0143627	-0.0404808	0.021497	0.0289781	-0.000820959	-1.68885	0.153247	0.238009	0.0508065	-0.00335644	0.019204	-2.24533	-0.0380026	-1.59504	0	0	0	0	-0	0	0	0	-0.1265	0	-0	0	0	0	0	0	-0	0	0.105	-0.015	0	0	-0	0	0	-0.098	0.1	0	-0	0	0	0	0	0	-0	0	0.05595	0	0	0	-0	0	0	0	0	0	-0	0	563.096	562.09	366.974	204.439	-0.000826265	-0.579483	0.00311136	0.0102335	1.68306
64	-0.048766	-0.0168626	0.00583404	0.00416984	-0.0143647	-0.0404796	0.021497	0.0289782	-0.000820979	-1.68886	0.153245	0.238019	0.0508679	-0.00335629	0.0190389	-2.2486	-0.038124	-1.59497	0	0	0	0	-0	0	0	0	-0.1265	0	-0	0	0	0	0	0	-0	0	0.105	-0.015	0	0	-0	0	0	-0.098	0.1	0	-0	0	0	0	0	0	-0	0	0.05595	0	0	0	-0	0	0	0	0	0	-0	0	563.099	562.09	367.011	204.452	-0.000768759	-0.581104	0.00313321	0.0102551	1.68807
65	-0.0506155	-0.0168659	0.00583419	0.00416898	-0.0143676	-0.0404766	0.0214969	0.0289783	-0.000820933	-1.68886	0.153241	0.238028	0.0509026	-0.00335641	0.0189448	-2.25052	-0.0383108	-1.59504	0	0	0	0	-0	0	0	0	-0.1265	0	-0	0	0	0	0	0	-0	0	0.105	-0.015	0	0	-0	0	0	-0.098	0.1	0	-0	0	0	0	0	0	-0	0	0.05595	0	0	0	-0	0	0	0	0	0	-0	0	563.108	562.094	367.129	204.494	-0.000438993	-0.584773	0.00315325	0.0103092	1.69925
66	-0.0583204	-0.0168704	0.00583347	0.00416814	-0.0143715	-0.0404738	0.0214968	0.0289783	-0.000820911	-1.68886	0.153238	0.23804	0.0510488	-0.0033565	0.0185523	-2.2583	-0.0386359	-1.59489	0	0	0	0	-0	0	0	0	-0.1265	0	-0	0	0	0	0	0	-0	0	0.105	-0.015	0	0	-0	0	0	-0.098	0.1	0	-0	0	0	0	0	0	-0	0	0.05595	0	0	0	-0	0	0	0	0	0	-0	0	563.117	562.099	367.245	204.536	-0.000332715	-0.587009	0.00317931	0.0103645	1.70737
67	-0.0650578	-0.0168737	0.00583282	0.00416763	-0.0143745	-0.0404715	0.0214967	0.0289784	-0.000820906	-1.68887	0.153236	0.238049	0.0511723	-0.0033565	0.0182079	-2.26509	-0.0389019	-1.59473	0	0	0	0	-0	0	0	0	-0.1265	0	-0	0	0	0	0	0	-0	0	0.105	-0.015	0	0	-0	0	0	-0.098	0.1	0	-0	0	0	0	0	0	-0	0	0.05595	0	0	0	-0	0	0	0	0	0	-0	0	563.124	562.103	367.331	204.567	-0.000178517	-0.589432	0.003201	0.0104065	1.71524
68	-0.0558694	-0.0168796	0.00583257	0.00416668	-0.0143795	-0.0404672	0.0214966	0.0289784	-0.000820863	-1.68887	0.153231	0.238062	0.0510039	-0.00335671	0.0186776	-2.25601	-0.0389063	-1.59531	0	0	0	0	-0	0	0	0	-0.1265	0	-0	0	0	0	0	0	-0	0	0.105	-0.015	0	0	-0	0	0	-0.098	0.1	0	-0	0	0	0	0	0	-0	0	0.05595	0	0	0	-0	0	0	0	0	0	-0	0	563.14	562.116	367.517	204.633	6.34325e-05	-0.593004	0.00322953	0.0104918	1.72803
69	-0.0662789	-0.0168887	0.00583188	0.00416508	-0.0143874	-0.0404608	0.0214963	0.0289785	-0.000820805	-1.68888	0.153224	0.238084	0.0511964	-0.00335699	0.0181456	-2.26657	-0.0394776	-1.59523	0	0	0	0	-0	0	0	0	-0.1265	0	-0	0	0	0	0	0	-0	0	0.105	-0.015	0	0	-0	0	0	-0.098	0.1	0	-0	0	0	0	0	0	-0	0	0.05595	0	0	0	-0	0	0	0	0	0	-0	0	563.16	562.127	367.781	204.725	0.000491533	-0.599084	0.00327807	0.0106146	1.74859
70	-0.0748452	-0.0168944	0.00583012	0.00416414	-0.0143927	-0.0404572	0.0214962	0.0289786	-0.000820816	-1.68889	0.15322	0.238102	0.0513491	-0.00335689	0.0177061	-2.27523	-0.0398449	-1.59504	0	0	0	0	-0	0	0	0	-0.1265	0	-0	0	0	0	0	0	-0	0	0.105	-0.015	0	0	-0	0	0	-0.098	0.1	0	-0	0	0	0	0	0	-0	0	0.05595	0	0	0	-0	0	0	0	0	0	-0	0	563.171	562.131	367.91	204.773	0.000669975	-0.602984	0.00332432	0.0106813	1.76148
71	-0.0718108	-0.0168961	0.00582904	0.00416385	-0.0143943	-0.0404564	0.0214962	0.0289786	-0.000820835	-1.68889	0.153218	0.23811	0.0512936	-0.00335677	0.0178614	-2.27221	-0.0398043	-1.59519	0	0	0	0	-0	0	0	0	-0.1265	0	-0	0	0	0	0	0	-0	0	0.105	-0.015	0	0	-0	0	0	-0.098	0.1	0	-0	0	0	0	0	0	-0	0	0.05595	0	0	0	-0	0	0	0	0	0	-0	0	563.174	562.131	367.937	204.783	0.000694412	-0.604164	0.00334346	0.0106981	1.76521
72	-0.0694529	-0.0168991	0.00582914	0.00416306	-0.0143969	-0.0404539	0.0214961	0.0289787	-0.000820788	-1.6889	0.153215	0.238118	0.0512512	-0.00335691	0.0179822	-2.26991	-0.0398782	-1.59542	0	0	0	0	-0	0	0	0	-0.1265	0	-0	0	0	0	0	0	-0	0	0.105	-0.015	0	0	-0	0	0	-0.098	0.1	0	-0	0	0	0	0	0	-0	0	0.05595	0	0	0	-0	0	0	0	0	0	-0	0	563.182	562.135	368.044	204.824	0.000933575	-0.606966	0.00336052	0.010747	1.7743
73	-0.0623628	-0.0169069	0.00582895	0.00416169	-0.0144034	-0.0404484	0.0214959	0.0289787	-0.000820724	-1.6889	0.15321	0.238135	0.0511241	-0.00335729	0.0183448	-2.26296	-0.039991	-1.59598	0	0	0	0	-0	0	0	0	-0.1265	0	-0	0	0	0	0	0	-0	0	0.105	-0.015	0	0	-0	0	0	-0.098	0.1	0	-0	0	0	0	0	0	-0	0	0.05595	0	0	0	-0	0	0	0	0	0	-0	0	563.2	562.146	368.281	204.91	0.00123526	-0.611485	0.00339987	0.0108557	1.79065
74	-0.0565784	-0.0169097	0.00582707	0.00416145	-0.0144062	-0.0404473	0.0214959	0.0289788	-0.000820771	-1.68891	0.153208	0.238146	0.0510167	-0.00335705	0.0186403	-2.2572	-0.0398824	-1.59626	0	0	0	0	-0	0	0	0	-0.1265	0	-0	0	0	0	0	0	-0	0	0.105	-0.015	0	0	-0	0	0	-0.098	0.1	0	-0	0	0	0	0	0	-0	0	0.05595	0	0	0	-0	0	0	0	0	0	-0	0	563.204	562.147	368.313	204.922	0.00122323	-0.612977	0.00342953	0.0108783	1.79558
75	-0.056322	-0.0169114	0.00582712	0.00416102	-0.0144078	-0.0404455	0.0214958	0.0289788	-0.000820755	-1.68891	0.153205	0.238153	0.0510109	-0.00335709	0.0186532	-2.25698	-0.0399557	-1.59635	0	0	0	0	-0	0	0	0	-0.1265	0	-0	0	0	0	0	0	-0	0	0.105	-0.015	0	0	-0	0	0	-0.098	0.1	0	-0	0	0	0	0	0	-0	0	0.05595	0	0	0	-0	0	0	0	0	0	-0	0	563.209	562.147	368.38	204.948	0.00142015	-0.615389	0.0034465	0.0109095	1.80293
76	-0.0620388	-0.0169133	0.00582665	0.00416055	-0.0144095	-0.0404444	0.0214958	0.0289788	-0.000820739	-1.68891	0.153204	0.238158	0.0511176	-0.00335709	0.0183616	-2.26274	-0.0401604	-1.59618	0	0	0	0	-0	0	0	0	-0.1265	0	-0	0	0	0	0	0	-0	0	0.105	-0.015	0	0	-0	0	0	-0.098	0.1	0	-0	0	0	0	0	0	-0	0	0.05595	0	0	0	-0	0	0	0	0	0	-0	0	563.213	562.149	368.429	204.967	0.00153104	-0.616945	0.00345914	0.0109337	1.80787
77	-0.0652809	-0.0169147	0.00582641	0.0041603	-0.0144107	-0.0404433	0.0214957	0.0289789	-0.000820736	-1.68891	0.153203	0.238162	0.0511763	-0.0033571	0.0181955	-2.266	-0.0402869	-1.59609	0	0	0	0	-0	0	0	0	-0.1265	0	-0	0	0	0	0	0	-0	0	0.105	-0.015	0	0	-0	0	0	-0.098	0.1	0	-0	0	0	0	0	0	-0	0	0.05595	0	0	0	-0	0	0	0	0	0	-0	0	563.216	562.15	368.465	204.981	0.00158385	-0.617969	0.00347091	0.0109519	1.81131
78	-0.0609038	-0.0169158	0.00582623	0.00416008	-0.0144117	-0.0404425	0.0214957	0.0289789	-0.000820733	-1.68891	0.153201	0.238166	0.0510964	-0.00335711	0.0184194	-2.26165	-0.0402185	-1.59631	0	0	0	0	-0	0	0	0	-0.1265	0	-0	0	0	0	0	0	-0	0	0.105	-0.015	0	0	-0	0	0	-0.098	0.1	0	-0	0	0	0	0	0	-0	0	0.05595	0	0	0	-0	0	0	0	0	0	-0	0	563.219	562.151	368.5	204.995	0.00164366	-0.618955	0.00348127	0.010969	1.81457
79	-0.0573293	-0.0169183	0.00582621	0.0041596	-0.0144138	-0.0404406	0.0214956	0.0289789	-0.000820707	-1.68892	0.1532	0.238171	0.0510301	-0.00335722	0.0186018	-2.25812	-0.0402206	-1.59655	0	0	0	0	-0	0	0	0	-0.1265	0	-0	0	0	0	0	0	-0	0	0.105	-0.015	0	0	-0	0	0	-0.098	0.1	0	-0	0	0	0	0	0	-0	0	0.05595	0	0	0	-0	0	0	0	0	0	-0	0	563.225	562.154	368.578	205.025	0.00178031	-0.620766	0.00349487	0.0110047	1.82077
80	-0.0525117	-0.0169221	0.00582595	0.00415884	-0.014417	-0.0404379	0.0214955	0.0289789	-0.000820676	-1.68892	0.153197	0.238181	0.0509405	-0.00335739	0.0188471	-2.25337	-0.0402315	-1.59688	0	0	0	0	-0	0	0	0	-0.1265	0	-0	0	0	0	0	0	-0	0	0.105	-0.015	0	0	-0	0	0	-0.098	0.1	0	-0	0	0	0	0	0	-0	0	0.05595	0	0	0	-0	0	0	0	0	0	-0	0	563.232	562.157	368.691	205.069	0.00196546	-0.62345	0.00351871	0.0110576	1.82994
81	-0.0440386	-0.0169273	0.00582551	0.00415807	-0.0144216	-0.0404341	0.0214954	0.028979	-0.000820643	-1.68893	0.153193	0.238193	0.05078	-0.0033575	0.0192788	-2.245	-0.0402033	-1.59742	0	0	0	0	-0	0	0	0	-0.1265	0	-0	0	0	0	0	0	-0	0	0.105	-0.015	0	0	-0	0	0	-0.098	0.1	0	-0	0	0	0	0	0	-0	0	0.05595	0	0	0	-0	0	0	0	0	0	-0	0	563.248	562.169	368.853	205.131	0.00224511	-0.627423	0.00354901	0.0111339	1.84354
82	-0.0406012	-0.0169349	0.00582497	0.00415684	-0.0144282	-0.0404286	0.0214952	0.028979	-0.000820601	-1.68893	0.153187	0.238211	0.0507122	-0.00335776	0.0194523	-2.2417	-0.0403822	-1.59784	0	0	0	0	-0	0	0	0	-0.1265	0	-0	0	0	0	0	0	-0	0	0.105	-0.015	0	0	-0	0	0	-0.098	0.1	0	-0	0	0	0	0	0	-0	0	0.05595	0	0	0	-0	0	0	0	0	0	-0	0	563.267	562.179	369.081	205.218	0.00259589	-0.632799	0.00359706	0.0112414	1.86221
83	-0.0463013	-0.0169383	0.00582318	0.00415643	-0.0144315	-0.0404268	0.0214952	0.0289791	-0.000820637	-1.68894	0.153184	0.238224	0.0508227	-0.00335755	0.0191634	-2.24745	-0.0406089	-1.59769	0	0	0	0	-0	0	0	0	-0.1265	0	-0	0	0	0	0	0	-0	0	0.105	-0.015	0	0	-0	0	0	-0.098	0.1	0	-0	0	0	0	0	0	-0	0	0.05595	0	0	0	-0	0	0	0	0	0	-0	0	563.274	562.18	369.143	205.243	0.00265154	-0.635151	0.00363375	0.0112776	1.86999
84	-0.0449204	-0.0169419	0.00582313	0.00415582	-0.0144346	-0.0404238	0.0214951	0.0289791	-0.00082061	-1.68894	0.153181	0.238234	0.0507954	-0.00335769	0.0192332	-2.24615	-0.0407204	-1.5979	0	0	0	0	-0	0	0	0	-0.1265	0	-0	0	0	0	0	0	-0	0	0.105	-0.015	0	0	-0	0	0	-0.098	0.1	0	-0	0	0	0	0	0	-0	0	0.05595	0	0	0	-0	0	0	0	0	0	-0	0	563.286	562.186	369.268	205.293	0.00286301	-0.638223	0.00366008	0.0113358	1.88057
85	-0.0403763	-0.016946	0.00582248	0.00415492	-0.0144383	-0.040421	0.021495	0.0289792	-0.000820575	-1.68895	0.153178	0.238245	0.050708	-0.00335775	0.0194639	-2.24169	-0.0407363	-1.59823	0	0	0	0	-0	0	0	0	-0.1265	0	-0	0	0	0	0	0	-0	0	0.105	-0.015	0	0	-0	0	0	-0.098	0.1	0	-0	0	0	0	0	0	-0	0	0.05595	0	0	0	-0	0	0	0	0	0	-0	0	563.294	562.19	369.385	205.34	0.00313331	-0.641923	0.00368922	0.0113928	1.89249
86	-0.0339458	-0.0169505	0.00582197	0.00415422	-0.0144421	-0.0404179	0.0214948	0.0289792	-0.000820555	-1.68895	0.153174	0.238256	0.0505825	-0.00335788	0.0197896	-2.23534	-0.040715	-1.59865	0	0	0	0	-0	0	0	0	-0.1265	0	-0	0	0	0	0	0	-0	0	0.105	-0.015	0	0	-0	0	0	-0.098	0.1	0	-0	0	0	0	0	0	-0	0	0.05595	0	0	0	-0	0	0	0	0	0	-0	0	563.306	562.196	369.517	205.394	0.00330991	-0.644995	0.00372119	0.0114561	1.9034
87	-0.0380468	-0.0169522	0.00582096	0.00415404	-0.0144439	-0.040417	0.0214948	0.0289793	-0.00082058	-1.68896	0.153173	0.238263	0.0506625	-0.00335774	0.019582	-2.23946	-0.0408602	-1.59852	0	0	0	0	-0	0	0	0	-0.1265	0	-0	0	0	0	0	0	-0	0	0.105	-0.015	0	0	-0	0	0	-0.098	0.1	0	-0	0	0	0	0	0	-0	0	0.05595	0	0	0	-0	0	0	0	0	0	-0	0	563.309	562.196	369.544	205.405	0.00334038	-0.646321	0.00374208	0.0114732	1.90763
88	-0.040755	-0.0169536	0.005821	0.00415371	-0.0144451	-0.0404155	0.0214948	0.0289793	-0.000820569	-1.68896	0.153171	0.238268	0.0507151	-0.00335779	0.0194446	-2.24221	-0.0410008	-1.59848	0	0	0	0	-0	0	0	0	-0.1265	0	-0	0	0	0	0	0	-0	0	0.105	-0.015	0	0	-0	0	0	-0.098	0.1	0	-0	0	0	0	0	0	-0	0	0.05595	0	0	0	-0	0	0	0	0	0	-0	0	563.314	562.196	369.6	205.428	0.00346069	-0.648039	0.0037581	0.0114995	1.91322
89	-0.0428432	-0.0169543	0.00582051	0.00415353	-0.0144458	-0.0404153	0.0214948	0.0289793	-0.00082057	-1.68896	0.15317	0.238271	0.0507555	-0.00335773	0.0193387	-2.24431	-0.0410675	-1.5984	0	0	0	0	-0	0	0	0	-0.1265	0	-0	0	0	0	0	0	-0	0	0.105	-0.015	0	0	-0	0	0	-0.098	0.1	0	-0	0	0	0	0	0	-0	0	0.05595	0	0	0	-0	0	0	0	0	0	-0	0	563.315	562.196	369.607	205.431	0.00346532	-0.648441	0.00376507	0.0115049	1.9145
90	-0.0430388	-0.0169547	0.00582052	0.00415343	-0.0144461	-0.0404149	0.0214947	0.0289793	-0.000820566	-1.68896	0.15317	0.238272	0.0507592	-0.00335775	0.0193287	-2.24451	-0.0410914	-1.59842	0	0	0	0	-0	0	0	0	-0.1265	0	-0	0	0	0	0	0	-0	0	0.105	-0.015	0	0	-0	0	0	-0.098	0.1	0	-0	0	0	0	0	0	-0	0	0.05595	0	0	0	-0	0	0	0	0	0	-0	0	563.316	562.196	369.623	205.438	0.00351764	-0.649081	0.00376963	0.0115123	1.91644
91	-0.0433117	-0.0169554	0.0058205	0.00415325	-0.0144467	-0.0404143	0.0214947	0.0289793	-0.000820558	-1.68896	0.153169	0.238275	0.0507645	-0.00335779	0.0193147	-2.2448	-0.0411264	-1.59843	0	0	0	0	-0	0	0	0	-0.1265	0	-0	0	0	0	0	0	-0	0	0.105	-0.015	0	0	-0	0	0	-0.098	0.1	0	-0	0	0	0	0	0	-0	0	0.05595	0	0	0	-0	0	0	0	0	0	-0	0	563.317	562.196	369.646	205.448	0.00357186	-0.649788	0.00377571	0.0115234	1.91872
92	-0.0415988	-0.0169565	0.00582049	0.00415296	-0.0144477	-0.0404135	0.0214947	0.0289793	-0.000820542	-1.68896	0.153168	0.238277	0.0507315	-0.00335784	0.0194016	-2.24311	-0.0411198	-1.59855	0	0	0	0	-0	0	0	0	-0.1265	0	-0	0	0	0	0	0	-0	0	0.105	-0.015	0	0	-0	0	0	-0.098	0.1	0	-0	0	0	0	0	0	-0	0	0.05595	0	0	0	-0	0	0	0	0	0	-0	0	563.319	562.196	369.68	205.463	0.00366462	-0.650906	0.00378371	0.0115396	1.92225
93	-0.0358714	-0.0169582	0.00582036	0.00415268	-0.0144491	-0.0404123	0.0214946	0.0289794	-0.000820532	-1.68896	0.153167	0.238281	0.0506204	-0.0033579	0.019692	-2.23742	-0.0410202	-1.59884	0	0	0	0	-0	0	0	0	-0.1265	0	-0	0	0	0	0	0	-0	0	0.105	-0.015	0	0	-0	0	0	-0.098	0.1	0	-0	0	0	0	0	0	-0	0	0.05595	0	0	0	-0	0	0	0	0	0	-0	0	563.324	562.198	369.731	205.484	0.00372665	-0.652021	0.00379573	0.0115637	1.92633
94	-0.0387498	-0.0169592	0.00582011	0.00415251	-0.01445	-0.0404116	0.0214946	0.0289794	-0.000820531	-1.68896	0.153166	0.238284	0.0506762	-0.00335789	0.019546	-2.24032	-0.0411304	-1.59876	0	0	0	0	-0	0	0	0	-0.1265	0	-0	0	0	0	0	0	-0	0	0.105	-0.015	0	0	-0	0	0	-0.098	0.1	0	-0	0	0	0	0	0	-0	0	0.05595	0	0	0	-0	0	0	0	0	0	-0	0	563.326	562.199	369.756	205.495	0.00378643	-0.652988	0.00380563	0.0115768	1.92937
95	-0.0404391	-0.0169608	0.00582011	0.00415213	-0.0144514	-0.0404103	0.0214946	0.0289794	-0.00082051	-1.68896	0.153164	0.238289	0.0507091	-0.00335797	0.0194602	-2.24204	-0.0412438	-1.59876	0	0	0	0	-0	0	0	0	-0.1265	0	-0	0	0	0	0	0	-0	0	0.105	-0.015	0	0	-0	0	0	-0.098	0.1	0	-0	0	0	0	0	0	-0	0	0.05595	0	0	0	-0	0	0	0	0	0	-0	0	563.33	562.2	369.812	205.518	0.00392737	-0.654713	0.00381762	0.0116029	1.93494
96	-0.0341876	-0.0169636	0.00581996	0.00415152	-0.0144537	-0.0404084	0.0214945	0.0289794	-0.000820478	-1.68897	0.153162	0.238295	0.0505876	-0.0033581	0.0197769	-2.23585	-0.0411643	-1.59912	0	0	0	0	-0	0	0	0	-0.1265	0	-0	0	0	0	0	0	-0	0	0.105	-0.015	0	0	-0	0	0	-0.098	0.1	0	-0	0	0	0	0	0	-0	0	0.05595	0	0	0	-0	0	0	0	0	0	-0	0	563.335	562.202	369.894	205.552	0.00409409	-0.656922	0.00383544	0.0116414	1.94233
97	-0.0364741	-0.0169673	0.00581979	0.00415096	-0.0144569	-0.0404056	0.0214944	0.0289794	-0.000820458	-1.68897	0.153159	0.238304	0.050632	-0.00335825	0.0196607	-2.23821	-0.0413667	-1.59917	0	0	0	0	-0	0	0	0	-0.1265	0	-0	0	0	0	0	0	-0	0	0.105	-0.015	0	0	-0	0	0	-0.098	0.1	0	-0	0	0	0	0	0	-0	0	0.05595	0	0	0	-0	0	0	0	0	0	-0	0	563.345	562.207	370.011	205.601	0.00427105	-0.659772	0.0038633	0.0116969	1.95238
98	-0.0373604	-0.0169685	0.00581872	0.0041508	-0.014458	-0.0404055	0.0214944	0.0289795	-0.000820476	-1.68897	0.153159	0.238308	0.0506494	-0.00335812	0.0196158	-2.2391	-0.0413968	-1.59914	0	0	0	0	-0	0	0	0	-0.1265	0	-0	0	0	0	0	0	-0	0	0.105	-0.015	0	0	-0	0	0	-0.098	0.1	0	-0	0	0	0	0	0	-0	0	0.05595	0	0	0	-0	0	0	0	0	0	-0	0	563.345	562.207	370.015	205.603	0.00421004	-0.659876	0.003875	0.0117029	1.95297
99	-0.0380725	-0.0169685	0.00581873	0.00415074	-0.0144582	-0.0404052	0.0214944	0.0289795	-0.000820475	-1.68897	0.153158	0.23831	0.0506633	-0.00335811	0.0195798	-2.23982	-0.0414256	-1.59912	0	0	0	0	-0	0	0	0	-0.1265	0	-0	0	0	0	0	0	-0	0	0.105	-0.015	0	0	-0	0	0	-0.098	0.1	0	-0	0	0	0	0	0	-0	0	0.05595	0	0	0	-0	0	0	0	0	0	-0	0	563.346	562.206	370.022	205.606	0.00425056	-0.660374	0.00387827	0.0117066	1.95439
100	-0.039933	-0.0169688	0.0058187	0.00415074	-0.0144584	-0.0404049	0.0214944	0.0289795	-0.000820477	-1.68897	0.153158	0.238311	0.0506996	-0.0033581	0.0194856	-2.24169	-0.0414912	-1.59905	0	0	0	0	-0	0	0	0	-0.1265	0	-0	0	0	0	0	0	-0	0	0.105	-0.015	0	0	-0	0	0	-0.098	0.1	0	-0	0	0	0	0	0	-0	0	0.05595	0	0	0	-0	0	0	0	0	0	-0	0	563.347	562.207	370.033	205.611	0.00429346	-0.660902	0.00388174	0.0117118	1.95598
