Stefan210/kinematic_calibration/src/kinematic_calibration/validation/experiments/experiments/impact_noise/bad_precision/larm_noise_9_pixel_rk_false/optimization_intermediate_results.csv
iteration	HeadPitch_offset	HeadYaw_offset	LElbowRoll_offset	LElbowYaw_offset	LShoulderPitch_offset	LShoulderRoll_offset	marker_transform_larm_tx	marker_transform_larm_ty	marker_transform_larm_tz	marker_transform_larm_rr	marker_transform_larm_rp	marker_transform_larm_ry	camera_transform_tx	camera_transform_ty	camera_transform_tz	camera_transform_rr	camera_transform_rp	camera_transform_ry	HeadPitch_transform_tx	HeadPitch_transform_ty	HeadPitch_transform_tz	HeadPitch_transform_rr	HeadPitch_transform_rp	HeadPitch_transform_ry	HeadYaw_transform_tx	HeadYaw_transform_ty	HeadYaw_transform_tz	HeadYaw_transform_rr	HeadYaw_transform_rp	HeadYaw_transform_ry	LElbowRoll_transform_tx	LElbowRoll_transform_ty	LElbowRoll_transform_tz	LElbowRoll_transform_rr	LElbowRoll_transform_rp	LElbowRoll_transform_ry	LElbowYaw_transform_tx	LElbowYaw_transform_ty	LElbowYaw_transform_tz	LElbowYaw_transform_rr	LElbowYaw_transform_rp	LElbowYaw_transform_ry	LShoulderPitch_transform_tx	LShoulderPitch_transform_ty	LShoulderPitch_transform_tz	LShoulderPitch_transform_rr	LShoulderPitch_transform_rp	LShoulderPitch_transform_ry	LShoulderRoll_transform_tx	LShoulderRoll_transform_ty	LShoulderRoll_transform_tz	LShoulderRoll_transform_rr	LShoulderRoll_transform_rp	LShoulderRoll_transform_ry	LWristYaw_transform_tx	LWristYaw_transform_ty	LWristYaw_transform_tz	LWristYaw_transform_rr	LWristYaw_transform_rp	LWristYaw_transform_ry	l_wrist_joint_transform_tx	l_wrist_joint_transform_ty	l_wrist_joint_transform_tz	l_wrist_joint_transform_rr	l_wrist_joint_transform_rp	l_wrist_joint_transform_ry	camera_fx	camera_fy	camera_cx	camera_cy	camera_D0	camera_D1	camera_D2	camera_D3	camera_D4	
0	0.0249164	-0.0307543	0.000853157	4.65819e-06	-0.000318322	-0.00310766	0.05071	0	0.01774	-2.26369	1.66533e-16	-1.5708	545.901	551.038	324.928	201.58	0.0255298	2.61142	-0.0636736	-0.0350419	0.213964
1	-0.0157392	-0.00322858	0.0479593	0.014466	0.0216686	0.0205169	0.0270844	-0.0309424	0.000969858	-9.14708e-06	-0.000322859	-0.00286097	0.0557406	-0.00336726	0.0134888	-2.19931	0.0101281	-1.53398	0	0	0	0	-0	0	0	0	-0.1265	0	-0	0	0	0	0	0	-0	0	0.105	0.015	0	0	-0	0	0	0.098	0.1	0	-0	0	0	0	0	0	-0	0	0.05595	0	0	0	-0	0	0	0	0	0	-0	0	545.901	551.039	324.928	201.581	-0.00586477	2.6021	-0.0898257	0.0174664	0.212107
2	-0.0155167	0.0102602	0.051368	0.00896788	0.0143837	0.0228382	0.0274376	-0.0312064	0.000813827	1.04542e-05	-0.000303391	-0.00284598	0.0542486	-0.00368259	0.0166747	-2.20112	0.00588734	-1.54752	0	0	0	0	-0	0	0	0	-0.1265	0	-0	0	0	0	0	0	-0	0	0.105	0.015	0	0	-0	0	0	0.098	0.1	0	-0	0	0	0	0	0	-0	0	0.05595	0	0	0	-0	0	0	0	0	0	-0	0	545.903	551.039	324.926	201.585	-0.141693	2.5212	-0.058066	-0.00645558	0.187844
3	-0.0156952	0.00959446	0.0493372	0.0103826	0.0129914	0.0202696	0.0272497	-0.0311161	0.000827453	5.86239e-06	-0.000310501	-0.00285643	0.0557511	-0.00356616	0.0145565	-2.19982	0.00704733	-1.54838	0	0	0	0	-0	0	0	0	-0.1265	0	-0	0	0	0	0	0	-0	0	0.105	0.015	0	0	-0	0	0	0.098	0.1	0	-0	0	0	0	0	0	-0	0	0.05595	0	0	0	-0	0	0	0	0	0	-0	0	545.907	551.04	324.924	201.593	-0.415638	2.35662	-0.0285903	-0.0125188	0.139858
4	-0.0153822	0.012573	0.0458809	0.0120975	0.00839168	0.016416	0.0269074	-0.0309365	0.000874037	-4.60898e-07	-0.000323964	-0.00288571	0.0572035	-0.00348437	0.0129475	-2.20063	0.00607267	-1.55203	0	0	0	0	-0	0	0	0	-0.1265	0	-0	0	0	0	0	0	-0	0	0.105	0.015	0	0	-0	0	0	0.098	0.1	0	-0	0	0	0	0	0	-0	0	0.05595	0	0	0	-0	0	0	0	0	0	-0	0	545.917	551.04	324.92	201.605	-0.729758	2.06101	0.0198016	-0.0252281	0.0435434
5	-0.0150769	0.015318	0.0429702	0.0128869	0.00547174	0.0148253	0.0266328	-0.0308378	0.000867169	1.92624e-05	-0.000319923	-0.00294178	0.0576133	-0.00346199	0.0126399	-2.20178	0.00571044	-1.55482	0	0	0	0	-0	0	0	0	-0.1265	0	-0	0	0	0	0	0	-0	0	0.105	0.015	0	0	-0	0	0	0.098	0.1	0	-0	0	0	0	0	0	-0	0	0.05595	0	0	0	-0	0	0	0	0	0	-0	0	545.939	551.038	324.917	201.621	-0.768722	1.62026	0.037762	-0.0312694	-0.121709
6	-0.014762	0.0158212	0.0411706	0.0130652	0.00491178	0.0151431	0.0264837	-0.0308125	0.000847023	5.91561e-05	-0.000329734	-0.00293347	0.0569876	-0.00345778	0.0134699	-2.20335	0.00664884	-1.55489	0	0	0	0	-0	0	0	0	-0.1265	0	-0	0	0	0	0	0	-0	0	0.105	0.015	0	0	-0	0	0	0.098	0.1	0	-0	0	0	0	0	0	-0	0	0.05595	0	0	0	-0	0	0	0	0	0	-0	0	545.978	551.03	324.917	201.639	-0.562656	0.988246	0.03062	-0.0316441	-0.368032
7	-0.0144808	0.0157163	0.0400673	0.013127	0.00483424	0.0157085	0.0264039	-0.030802	0.000846151	0.000210568	-0.000411069	-0.0030208	0.0562627	-0.00346035	0.0144085	-2.20473	0.00750552	-1.55431	0	0	0	0	-0	0	0	0	-0.1265	0	-0	0	0	0	0	0	-0	0	0.105	0.015	0	0	-0	0	0	0.098	0.1	0	-0	0	0	0	0	0	-0	0	0.05595	0	0	0	-0	0	0	0	0	0	-0	0	546.039	551.013	324.931	201.656	-0.342174	0.373457	0.0209711	-0.0311495	-0.583342
8	-0.014314	0.0157781	0.0395994	0.0131677	0.00472903	0.0160291	0.0263733	-0.0307967	0.000855774	-0.000213828	-0.0012121	-0.00299933	0.0558671	-0.0034683	0.0149425	-2.2055	0.00776164	-1.55409	0	0	0	0	-0	0	0	0	-0.1265	0	-0	0	0	0	0	0	-0	0	0.105	0.015	0	0	-0	0	0	0.098	0.1	0	-0	0	0	0	0	0	-0	0	0.05595	0	0	0	-0	0	0	0	0	0	-0	0	546.166	550.969	324.964	201.686	-0.229978	0.0237372	0.0169515	-0.0310358	-0.617664
9	-0.0141391	0.0158467	0.039487	0.0132005	0.00465771	0.016109	0.0263662	-0.0307951	0.000864762	-0.00110721	0.000919297	-0.00144427	0.0557038	-0.00347505	0.015169	-2.20584	0.00770336	-1.55411	0	0	0	0	-0	0	0	0	-0.1265	0	-0	0	0	0	0	0	-0	0	0.105	0.015	0	0	-0	0	0	0.098	0.1	0	-0	0	0	0	0	0	-0	0	0.05595	0	0	0	-0	0	0	0	0	0	-0	0	546.505	550.846	325.035	201.778	-0.199271	-0.146765	0.0172335	-0.0311138	-0.384797
10	-0.0116248	0.0159434	0.039466	0.013203	0.00459272	0.0160846	0.0263629	-0.0307954	0.000874005	0.00248325	-0.00513752	-0.00695656	0.0554553	-0.0034854	0.0155714	-2.20419	0.00738174	-1.55433	0	0	0	0	-0	0	0	0	-0.1265	0	-0	0	0	0	0	0	-0	0	0.105	0.015	0	0	-0	0	0	0.098	0.1	0	-0	0	0	0	0	0	-0	0	0.05595	0	0	0	-0	0	0	0	0	0	-0	0	547.399	550.53	325.208	202.04	-0.18307	-0.397886	0.020271	-0.031308	0.283126
11	-0.00284827	0.0161337	0.0394482	0.0131859	0.00448161	0.0160107	0.0263596	-0.0308004	0.000887433	0.000817349	-0.00696161	0.00975117	0.0548937	-0.00350543	0.0165771	-2.19743	0.00666502	-1.55474	0	0	0	0	-0	0	0	0	-0.1265	0	-0	0	0	0	0	0	-0	0	0.105	0.015	0	0	-0	0	0	0.098	0.1	0	-0	0	0	0	0	0	-0	0	0.05595	0	0	0	-0	0	0	0	0	0	-0	0	549.362	549.938	325.547	202.733	-0.158974	-0.877447	0.0269066	-0.0317499	1.63017
12	-0.0119265	0.0162403	0.0394349	0.01318	0.00441627	0.0159569	0.0263575	-0.0308041	0.000895161	-0.00183841	-0.0108138	0.0304345	0.0547475	-0.00351855	0.016421	-2.20803	0.00658018	-1.55491	0	0	0	0	-0	0	0	0	-0.1265	0	-0	0	0	0	0	0	-0	0	0.105	0.015	0	0	-0	0	0	0.098	0.1	0	-0	0	0	0	0	0	-0	0	0.05595	0	0	0	-0	0	0	0	0	0	-0	0	550.824	549.599	325.65	203.297	-0.148346	-1.17879	0.0315971	-0.0321092	2.54065
13	-0.046185	0.0164278	0.0393986	0.0132096	0.0043491	0.0159055	0.0263673	-0.0308239	0.000917813	-0.0240812	-0.0342338	0.00585293	0.0548225	-0.00354104	0.015138	-2.24705	0.00765225	-1.55441	0	0	0	0	-0	0	0	0	-0.1265	0	-0	0	0	0	0	0	-0	0	0.105	0.015	0	0	-0	0	0	0.098	0.1	0	-0	0	0	0	0	0	-0	0	0.05595	0	0	0	-0	0	0	0	0	0	-0	0	553.861	549.842	325.092	205.419	-0.137324	-1.66255	0.0393726	-0.0329196	4.06803
14	-0.032052	0.0164246	0.039381	0.0132389	0.00437259	0.0159053	0.0263675	-0.0308168	0.000903093	-0.0273068	-0.00447149	-0.0269422	0.0544799	-0.00354654	0.0160636	-2.23465	0.00830621	-1.55338	0	0	0	0	-0	0	0	0	-0.1265	0	-0	0	0	0	0	0	-0	0	0.105	0.015	0	0	-0	0	0	0.098	0.1	0	-0	0	0	0	0	0	-0	0	0.05595	0	0	0	-0	0	0	0	0	0	-0	0	554.893	550.205	324.39	206.258	-0.138208	-1.78855	0.0412285	-0.0331828	4.57272
15	-0.0566736	0.0164295	0.0393632	0.0132667	0.00438673	0.0159041	0.0263445	-0.0308129	0.000918639	-0.0509687	-0.00583912	-0.0408169	0.0548002	-0.00354966	0.0147976	-2.26046	0.00948765	-1.55282	0	0	0	0	-0	0	0	0	-0.1265	0	-0	0	0	0	0	0	-0	0	0.105	0.015	0	0	-0	0	0	0.098	0.1	0	-0	0	0	0	0	0	-0	0	0.05595	0	0	0	-0	0	0	0	0	0	-0	0	555.51	550.524	323.786	206.836	-0.135938	-1.8827	0.0421301	-0.0333488	4.91296
16	-0.0315363	0.016421	0.0393541	0.0132843	0.00440391	0.0159073	0.0263591	-0.030811	0.000932694	-0.0469611	0.0215797	-0.0197055	0.0543766	-0.00355178	0.0162165	-2.23615	0.00967513	-1.55197	0	0	0	0	-0	0	0	0	-0.1265	0	-0	0	0	0	0	0	-0	0	0.105	0.015	0	0	-0	0	0	0.098	0.1	0	-0	0	0	0	0	0	-0	0	0.05595	0	0	0	-0	0	0	0	0	0	-0	0	555.908	550.767	323.294	207.248	-0.134204	-1.94303	0.0425972	-0.0334571	5.13217
17	-0.0448342	0.0164113	0.0393446	0.0133046	0.00442115	0.0159144	0.0263523	-0.03081	0.0009252	-0.0369145	0.0409956	-0.0355003	0.0545489	-0.0035528	0.0155143	-2.25004	0.010412	-1.5516	0	0	0	0	-0	0	0	0	-0.1265	0	-0	0	0	0	0	0	-0	0	0.105	0.015	0	0	-0	0	0	0.098	0.1	0	-0	0	0	0	0	0	-0	0	0.05595	0	0	0	-0	0	0	0	0	0	-0	0	556.171	550.959	322.908	207.546	-0.131751	-1.98997	0.042768	-0.0335139	5.29811
18	-0.0499579	0.0164084	0.0393381	0.0133137	0.00442844	0.0159161	0.0263426	-0.0308108	0.000928249	-0.0590076	0.0353393	-0.0377784	0.0546087	-0.00355375	0.015251	-2.25559	0.0108963	-1.55129	0	0	0	0	-0	0	0	0	-0.1265	0	-0	0	0	0	0	0	-0	0	0.105	0.015	0	0	-0	0	0	0.098	0.1	0	-0	0	0	0	0	0	-0	0	0.05595	0	0	0	-0	0	0	0	0	0	-0	0	556.355	551.1	322.612	207.765	-0.130172	-2.02626	0.0429268	-0.0335659	5.42709
19	-0.0436805	0.0163992	0.0393302	0.0133319	0.00444431	0.0159209	0.0263484	-0.0308051	0.000929335	-0.0522712	0.0554202	-0.043341	0.0544934	-0.00355494	0.015614	-2.24994	0.0113625	-1.55066	0	0	0	0	-0	0	0	0	-0.1265	0	-0	0	0	0	0	0	-0	0	0.105	0.015	0	0	-0	0	0	0.098	0.1	0	-0	0	0	0	0	0	-0	0	0.05595	0	0	0	-0	0	0	0	0	0	-0	0	556.61	551.305	322.158	208.087	-0.127958	-2.07543	0.0430979	-0.0336325	5.6049
20	-0.0355404	0.0163905	0.0393218	0.0133493	0.00445717	0.0159258	0.0263455	-0.0308117	0.000931466	-0.0322788	0.0664827	-0.0350143	0.0543512	-0.00355562	0.0160715	-2.24225	0.0116456	-1.55012	0	0	0	0	-0	0	0	0	-0.1265	0	-0	0	0	0	0	0	-0	0	0.105	0.015	0	0	-0	0	0	0.098	0.1	0	-0	0	0	0	0	0	-0	0	0.05595	0	0	0	-0	0	0	0	0	0	-0	0	556.787	551.454	321.81	208.321	-0.125508	-2.11604	0.0431668	-0.0336769	5.74679
21	-0.0309922	0.0163713	0.0393088	0.0133836	0.00448592	0.0159372	0.0263521	-0.0307979	0.000935799	-0.0445857	0.103191	-0.036097	0.0542534	-0.00355699	0.0163397	-2.23868	0.0125646	-1.54907	0	0	0	0	-0	0	0	0	-0.1265	0	-0	0	0	0	0	0	-0	0	0.105	0.015	0	0	-0	0	0	0.098	0.1	0	-0	0	0	0	0	0	-0	0	0.05595	0	0	0	-0	0	0	0	0	0	-0	0	557.154	551.768	321.018	208.83	-0.121531	-2.19457	0.0433219	-0.0337676	6.03371
22	-0.0330399	0.0163557	0.0392987	0.0134036	0.00450268	0.0159435	0.0263441	-0.0308032	0.000936872	-0.050684	0.0885164	-0.0345924	0.0542742	-0.00355761	0.016239	-2.24119	0.0131341	-1.54857	0	0	0	0	-0	0	0	0	-0.1265	0	-0	0	0	0	0	0	-0	0	0.105	0.015	0	0	-0	0	0	0.098	0.1	0	-0	0	0	0	0	0	-0	0	0.05595	0	0	0	-0	0	0	0	0	0	-0	0	557.316	551.923	320.609	209.075	-0.117774	-2.24396	0.0432955	-0.0338086	6.20126
23	-0.037003	0.0163375	0.0392888	0.0134285	0.00452484	0.0159523	0.0263343	-0.0308222	0.000950656	-0.0950357	0.104224	-0.0275991	0.0543252	-0.00355853	0.0160351	-2.24582	0.0140229	-1.54784	0	0	0	0	-0	0	0	0	-0.1265	0	-0	0	0	0	0	0	-0	0	0.105	0.015	0	0	-0	0	0	0.098	0.1	0	-0	0	0	0	0	0	-0	0	0.05595	0	0	0	-0	0	0	0	0	0	-0	0	557.549	552.141	319.988	209.43	-0.113355	-2.31246	0.0433218	-0.033866	6.44274
24	-0.0414091	0.0163198	0.0392829	0.0134421	0.00454389	0.015962	0.0263479	-0.0308087	0.000939112	-0.101621	0.0928411	-0.00783717	0.0543847	-0.00355923	0.0158052	-2.25071	0.014746	-1.54731	0	0	0	0	-0	0	0	0	-0.1265	0	-0	0	0	0	0	0	-0	0	0.105	0.015	0	0	-0	0	0	0.098	0.1	0	-0	0	0	0	0	0	-0	0	0.05595	0	0	0	-0	0	0	0	0	0	-0	0	557.712	552.289	319.512	209.688	-0.109007	-2.37003	0.0433136	-0.0339004	6.6375
25	-0.0356748	0.016309	0.0392728	0.0134636	0.00455555	0.0159668	0.0263478	-0.0308052	0.000942514	-0.112661	0.073313	-0.0072729	0.0542861	-0.00355956	0.0161229	-2.24532	0.0150821	-1.54677	0	0	0	0	-0	0	0	0	-0.1265	0	-0	0	0	0	0	0	-0	0	0.105	0.015	0	0	-0	0	0	0.098	0.1	0	-0	0	0	0	0	0	-0	0	0.05595	0	0	0	-0	0	0	0	0	0	-0	0	557.823	552.394	319.149	209.876	-0.105208	-2.41856	0.0432833	-0.0339299	6.80158
26	-0.0428704	0.01628	0.0392611	0.0135002	0.00458636	0.0159785	0.0263401	-0.0308044	0.000946187	-0.128642	0.0714656	-0.00658141	0.0543896	-0.00356047	0.0157391	-2.25326	0.0163206	-1.54584	0	0	0	0	-0	0	0	0	-0.1265	0	-0	0	0	0	0	0	-0	0	0.105	0.015	0	0	-0	0	0	0.098	0.1	0	-0	0	0	0	0	0	-0	0	0.05595	0	0	0	-0	0	0	0	0	0	-0	0	558.058	552.618	318.326	210.28	-0.0979377	-2.51642	0.0432185	-0.0339825	7.14173
27	-0.0433747	0.0162477	0.0392487	0.0135334	0.00461693	0.0159912	0.0263488	-0.03081	0.000945499	-0.125031	0.0667356	0.0199465	0.0543845	-0.0035614	0.0157191	-2.25446	0.0174372	-1.5448	0	0	0	0	-0	0	0	0	-0.1265	0	-0	0	0	0	0	0	-0	0	0.105	0.015	0	0	-0	0	0	0.098	0.1	0	-0	0	0	0	0	0	-0	0	0.05595	0	0	0	-0	0	0	0	0	0	-0	0	558.269	552.808	317.483	210.661	-0.089235	-2.62585	0.0431477	-0.0340326	7.51232
28	-0.0403374	0.0162385	0.0392419	0.0135402	0.00462373	0.0159973	0.0263412	-0.0308003	0.000950309	-0.124878	0.0754722	0.0275207	0.0543319	-0.00356148	0.0158889	-2.25157	0.0175948	-1.54452	0	0	0	0	-0	0	0	0	-0.1265	0	-0	0	0	0	0	0	-0	0	0.105	0.015	0	0	-0	0	0	0.098	0.1	0	-0	0	0	0	0	0	-0	0	0.05595	0	0	0	-0	0	0	0	0	0	-0	0	558.306	552.844	317.305	210.735	-0.0860055	-2.65661	0.0430789	-0.0340397	7.6051
29	-0.0463577	0.0162263	0.0392382	0.0135518	0.00463354	0.0159999	0.0263441	-0.0308038	0.000951523	-0.122431	0.0824553	0.0444733	0.0544239	-0.00356184	0.0155637	-2.25777	0.018078	-1.54431	0	0	0	0	-0	0	0	0	-0.1265	0	-0	0	0	0	0	0	-0	0	0.105	0.015	0	0	-0	0	0	0.098	0.1	0	-0	0	0	0	0	0	-0	0	0.05595	0	0	0	-0	0	0	0	0	0	-0	0	558.358	552.893	317.056	210.836	-0.0827722	-2.69463	0.0430371	-0.0340537	7.73129
30	-0.0551575	0.0162056	0.0392313	0.0135753	0.00465333	0.0160086	0.0263452	-0.0308056	0.00095223	-0.112236	0.0900075	0.0618203	0.0545536	-0.00356232	0.0150877	-2.26697	0.0190486	-1.54378	0	0	0	0	-0	0	0	0	-0.1265	0	-0	0	0	0	0	0	-0	0	0.105	0.015	0	0	-0	0	0	0.098	0.1	0	-0	0	0	0	0	0	-0	0	0.05595	0	0	0	-0	0	0	0	0	0	-0	0	558.466	552.99	316.495	211.056	-0.0758719	-2.7773	0.0429564	-0.0340721	8.00975
31	-0.0612926	0.0161726	0.03922	0.0136102	0.00468302	0.0160218	0.0263473	-0.0308147	0.000948032	-0.0903724	0.0877932	0.0882309	0.0546354	-0.00356302	0.0147568	-2.27366	0.0203483	-1.54286	0	0	0	0	-0	0	0	0	-0.1265	0	-0	0	0	0	0	0	-0	0	0.105	0.015	0	0	-0	0	0	0.098	0.1	0	-0	0	0	0	0	0	-0	0	0.05595	0	0	0	-0	0	0	0	0	0	-0	0	558.622	553.118	315.641	211.368	-0.0653987	-2.90155	0.0428377	-0.0341001	8.42752
32	-0.0584364	0.0161549	0.0392108	0.0136262	0.00469706	0.0160308	0.0263455	-0.0308014	0.000954849	-0.084755	0.100643	0.0756925	0.0545862	-0.00356338	0.0149171	-2.27106	0.0208592	-1.54226	0	0	0	0	-0	0	0	0	-0.1265	0	-0	0	0	0	0	0	-0	0	0.105	0.015	0	0	-0	0	0	0.098	0.1	0	-0	0	0	0	0	0	-0	0	0.05595	0	0	0	-0	0	0	0	0	0	-0	0	558.687	553.176	315.2	211.514	-0.0583501	-2.97711	0.0427274	-0.034111	8.67013
33	-0.0657806	0.0161264	0.0392025	0.013653	0.00471975	0.0160394	0.026344	-0.0308193	0.000969502	-0.1185	0.106627	0.0919117	0.0546904	-0.00356392	0.0145176	-2.27874	0.0218678	-1.54168	0	0	0	0	-0	0	0	0	-0.1265	0	-0	0	0	0	0	0	-0	0	0.105	0.015	0	0	-0	0	0	0.098	0.1	0	-0	0	0	0	0	0	-0	0	0.05595	0	0	0	-0	0	0	0	0	0	-0	0	558.763	553.242	314.6	211.701	-0.0495408	-3.07447	0.0425767	-0.0341249	8.99182
34	-0.0646095	0.0161031	0.0391973	0.013667	0.00473838	0.0160505	0.0263449	-0.0308096	0.000959137	-0.0933866	0.113217	0.102379	0.0546674	-0.00356426	0.0145836	-2.2778	0.022456	-1.54109	0	0	0	0	-0	0	0	0	-0.1265	0	-0	0	0	0	0	0	-0	0	0.105	0.015	0	0	-0	0	0	0.098	0.1	0	-0	0	0	0	0	0	-0	0	0.05595	0	0	0	-0	0	0	0	0	0	-0	0	558.812	553.288	314.139	211.835	-0.0419693	-3.15243	0.0424175	-0.0341244	9.24244
35	-0.0734481	0.0160636	0.0391835	0.0137113	0.00477071	0.0160649	0.0263492	-0.0308088	0.000966712	-0.0797598	0.11527	0.0794467	0.0547921	-0.0035648	0.0140978	-2.28712	0.0241098	-1.54003	0	0	0	0	-0	0	0	0	-0.1265	0	-0	0	0	0	0	0	-0	0	0.105	0.015	0	0	-0	0	0	0.098	0.1	0	-0	0	0	0	0	0	-0	0	0.05595	0	0	0	-0	0	0	0	0	0	-0	0	558.915	553.359	313.096	212.117	-0.0273483	-3.31869	0.0422081	-0.0341411	9.79891
36	-0.0674241	0.0160341	0.0391732	0.0137329	0.00479164	0.0160769	0.0263454	-0.0308008	0.000971594	-0.0707791	0.10128	0.0617848	0.0547003	-0.0035652	0.0144292	-2.28131	0.0246619	-1.53923	0	0	0	0	-0	0	0	0	-0.1265	0	-0	0	0	0	0	0	-0	0	0.105	0.015	0	0	-0	0	0	0.098	0.1	0	-0	0	0	0	0	0	-0	0	0.05595	0	0	0	-0	0	0	0	0	0	-0	0	558.946	553.389	312.555	212.245	-0.0172032	-3.4185	0.0419674	-0.0341433	10.1149
37	-0.081626	0.0160093	0.0391655	0.0137533	0.00480902	0.0160849	0.0263406	-0.0307954	0.000967681	-0.0643155	0.0940368	0.0582007	0.0549018	-0.00356554	0.0136511	-2.29569	0.0257569	-1.53899	0	0	0	0	-0	0	0	0	-0.1265	0	-0	0	0	0	0	0	-0	0	0.105	0.015	0	0	-0	0	0	0.098	0.1	0	-0	0	0	0	0	0	-0	0	0.05595	0	0	0	-0	0	0	0	0	0	-0	0	558.965	553.409	312.074	212.351	-0.00853777	-3.50732	0.0417786	-0.0341465	10.4013
38	-0.0849558	0.0159985	0.0391599	0.013763	0.00481498	0.0160883	0.0263413	-0.0307961	0.000966847	-0.0601181	0.092134	0.0673712	0.0549403	-0.00356569	0.0134672	-2.29909	0.0261418	-1.53884	0	0	0	0	-0	0	0	0	-0.1265	0	-0	0	0	0	0	0	-0	0	0.105	0.015	0	0	-0	0	0	0.098	0.1	0	-0	0	0	0	0	0	-0	0	0.05595	0	0	0	-0	0	0	0	0	0	-0	0	558.971	553.417	311.873	212.392	-0.004545	-3.54698	0.0416945	-0.0341522	10.5249
39	-0.0966067	0.015968	0.0391512	0.0137941	0.00483993	0.0161012	0.0263504	-0.0308033	0.000972183	-0.0712331	0.0776364	0.04773	0.0550956	-0.00356601	0.0128228	-2.311	0.0276373	-1.53817	0	0	0	0	-0	0	0	0	-0.1265	0	-0	0	0	0	0	0	-0	0	0.105	0.015	0	0	-0	0	0	0.098	0.1	0	-0	0	0	0	0	0	-0	0	0.05595	0	0	0	-0	0	0	0	0	0	-0	0	558.999	553.427	311.047	212.557	0.00910751	-3.69484	0.0414518	-0.0341472	11.0153
40	-0.105878	0.0159447	0.0391429	0.0138111	0.00485606	0.0161122	0.0263467	-0.0308016	0.00097054	-0.0613721	0.0822087	0.0679314	0.0552076	-0.00356627	0.0123118	-2.32039	0.0285348	-1.53794	0	0	0	0	-0	0	0	0	-0.1265	0	-0	0	0	0	0	0	-0	0	0.105	0.015	0	0	-0	0	0	0.098	0.1	0	-0	0	0	0	0	0	-0	0	0.05595	0	0	0	-0	0	0	0	0	0	-0	0	558.998	553.433	310.623	212.632	0.0182963	-3.7816	0.0412048	-0.0341413	11.2869
41	-0.0956486	0.0159291	0.0391369	0.0138241	0.00486603	0.016118	0.0263413	-0.0307934	0.000970653	-0.0715874	0.0962573	0.0618216	0.0550785	-0.00356647	0.0128747	-2.31025	0.0286471	-1.53727	0	0	0	0	-0	0	0	0	-0.1265	0	-0	0	0	0	0	0	-0	0	0.105	0.015	0	0	-0	0	0	0.098	0.1	0	-0	0	0	0	0	0	-0	0	0.05595	0	0	0	-0	0	0	0	0	0	-0	0	558.994	553.435	310.3	212.685	0.024785	-3.84669	0.0410572	-0.0341414	11.4946
42	-0.092574	0.0159088	0.0391295	0.0138444	0.00488058	0.0161251	0.0263412	-0.0307994	0.000976884	-0.0923005	0.100778	0.0680922	0.0550356	-0.00356669	0.0130401	-2.30729	0.0292115	-1.5366	0	0	0	0	-0	0	0	0	-0.1265	0	-0	0	0	0	0	0	-0	0	0.105	0.015	0	0	-0	0	0	0.098	0.1	0	-0	0	0	0	0	0	-0	0	0.05595	0	0	0	-0	0	0	0	0	0	-0	0	558.99	553.437	309.811	212.763	0.0341045	-3.94233	0.0408449	-0.0341396	11.8055
43	-0.113785	0.0158274	0.0391084	0.0139217	0.00494514	0.0161629	0.026351	-0.0308277	0.00097999	-0.137143	0.0925424	0.0597453	0.0553167	-0.00356685	0.0118516	-2.32896	0.0329043	-1.53472	0	0	0	0	-0	0	0	0	-0.1265	0	-0	0	0	0	0	0	-0	0	0.105	0.015	0	0	-0	0	0	0.098	0.1	0	-0	0	0	0	0	0	-0	0	0.05595	0	0	0	-0	0	0	0	0	0	-0	0	558.97	553.338	307.648	213.083	0.0705188	-4.32658	0.0401568	-0.0341191	13.0766
44	-0.112096	0.0157736	0.0390851	0.0139611	0.00498087	0.0161942	0.026351	-0.030796	0.000978568	-0.135039	0.106674	0.0400743	0.0552823	-0.00356741	0.0119362	-2.32743	0.0344495	-1.53338	0	0	0	0	-0	0	0	0	-0.1265	0	-0	0	0	0	0	0	-0	0	0.105	0.015	0	0	-0	0	0	0.098	0.1	0	-0	0	0	0	0	0	-0	0	0.05595	0	0	0	-0	0	0	0	0	0	-0	0	558.875	553.294	306.521	213.204	0.0975854	-4.57533	0.0393533	-0.0341065	13.851
45	-0.116727	0.0157416	0.0390713	0.0139862	0.00499837	0.0162038	0.0263453	-0.0307902	0.000984781	-0.12942	0.11825	0.0439191	0.0553372	-0.00356795	0.0116765	-2.33211	0.0352981	-1.53297	0	0	0	0	-0	0	0	0	-0.1265	0	-0	0	0	0	0	0	-0	0	0.105	0.015	0	0	-0	0	0	0.098	0.1	0	-0	0	0	0	0	0	-0	0	0.05595	0	0	0	-0	0	0	0	0	0	-0	0	558.818	553.275	306.043	213.246	0.110231	-4.688	0.0389387	-0.0341189	14.1961
46	-0.116805	0.0157146	0.0390602	0.0140119	0.00501696	0.0162171	0.0263453	-0.0307902	0.000986989	-0.13191	0.111016	0.0321545	0.0553401	-0.003568	0.0116632	-2.33225	0.036229	-1.53221	0	0	0	0	-0	0	0	0	-0.1265	0	-0	0	0	0	0	0	-0	0	0.105	0.015	0	0	-0	0	0	0.098	0.1	0	-0	0	0	0	0	0	-0	0	0.05595	0	0	0	-0	0	0	0	0	0	-0	0	558.74	553.239	305.379	213.303	0.125921	-4.83724	0.0384767	-0.0341126	14.6709
47	-0.116742	0.0156975	0.039054	0.0140227	0.0050265	0.0162248	0.0263452	-0.0307924	0.000989532	-0.144168	0.113446	0.0448162	0.0553394	-0.00356831	0.0116646	-2.33221	0.0366183	-1.53188	0	0	0	0	-0	0	0	0	-0.1265	0	-0	0	0	0	0	0	-0	0	0.105	0.015	0	0	-0	0	0	0.098	0.1	0	-0	0	0	0	0	0	-0	0	0.05595	0	0	0	-0	0	0	0	0	0	-0	0	558.7	553.225	305.103	213.324	0.133549	-4.90382	0.0382203	-0.0341144	14.8724
48	-0.113538	0.0156832	0.0390476	0.0140371	0.00503665	0.0162335	0.0263473	-0.0307934	0.000986196	-0.133667	0.115667	0.0631493	0.0553042	-0.00356828	0.011836	-2.32903	0.0370247	-1.53133	0	0	0	0	-0	0	0	0	-0.1265	0	-0	0	0	0	0	0	-0	0	0.105	0.015	0	0	-0	0	0	0.098	0.1	0	-0	0	0	0	0	0	-0	0	0.05595	0	0	0	-0	0	0	0	0	0	-0	0	558.641	553.198	304.721	213.353	0.143093	-4.99279	0.0379244	-0.0341093	15.1532
49	-0.122703	0.0156675	0.0390388	0.0140556	0.00504763	0.0162435	0.0263446	-0.030789	0.000987957	-0.125806	0.115281	0.0747524	0.055415	-0.00356827	0.011322	-2.33822	0.0380428	-1.53113	0	0	0	0	-0	0	0	0	-0.1265	0	-0	0	0	0	0	0	-0	0	0.105	0.015	0	0	-0	0	0	0.098	0.1	0	-0	0	0	0	0	0	-0	0	0.05595	0	0	0	-0	0	0	0	0	0	-0	0	558.574	553.169	304.249	213.387	0.154755	-5.10223	0.0375644	-0.0341053	15.5
50	-0.123744	0.0156432	0.0390267	0.0140824	0.00506494	0.0162581	0.0263487	-0.0307911	0.000990971	-0.14145	0.102994	0.0734724	0.0554282	-0.00356826	0.0112533	-2.3393	0.0390774	-1.53037	0	0	0	0	-0	0	0	0	-0.1265	0	-0	0	0	0	0	0	-0	0	0.105	0.015	0	0	-0	0	0	0.098	0.1	0	-0	0	0	0	0	0	-0	0	0.05595	0	0	0	-0	0	0	0	0	0	-0	0	558.471	553.107	303.54	213.438	0.172029	-5.26584	0.0370652	-0.0341044	16.0197
51	-0.132851	0.015626	0.0390205	0.014093	0.00507492	0.0162675	0.0263444	-0.0307856	0.000991467	-0.144333	0.100628	0.0668376	0.0555308	-0.00356863	0.0107463	-2.34842	0.0398642	-1.53038	0	0	0	0	-0	0	0	0	-0.1265	0	-0	0	0	0	0	0	-0	0	0.105	0.015	0	0	-0	0	0	0.098	0.1	0	-0	0	0	0	0	0	-0	0	0.05595	0	0	0	-0	0	0	0	0	0	-0	0	558.42	553.085	303.246	213.456	0.18062	-5.33928	0.036767	-0.0341087	16.2405
52	-0.13729	0.015612	0.0390126	0.0141092	0.00508442	0.0162761	0.0263466	-0.0307857	0.00099264	-0.13748	0.111778	0.067946	0.0555789	-0.00356858	0.0104925	-2.35288	0.0406157	-1.53011	0	0	0	0	-0	0	0	0	-0.1265	0	-0	0	0	0	0	0	-0	0	0.105	0.015	0	0	-0	0	0	0.098	0.1	0	-0	0	0	0	0	0	-0	0	0.05595	0	0	0	-0	0	0	0	0	0	-0	0	558.35	553.047	302.842	213.482	0.191008	-5.43594	0.036452	-0.034112	16.5445
53	-0.142307	0.0155929	0.0390023	0.014131	0.00509854	0.01629	0.0263517	-0.0307854	0.000994111	-0.144174	0.0907388	0.0677039	0.0556349	-0.0035685	0.0102036	-2.35791	0.0416747	-1.52964	0	0	0	0	-0	0	0	0	-0.1265	0	-0	0	0	0	0	0	-0	0	0.105	0.015	0	0	-0	0	0	0.098	0.1	0	-0	0	0	0	0	0	-0	0	0.05595	0	0	0	-0	0	0	0	0	0	-0	0	558.245	552.983	302.238	213.521	0.206488	-5.5801	0.0359863	-0.0341141	17
54	-0.154786	0.0155658	0.0389865	0.0141635	0.00511893	0.0163112	0.0263447	-0.0307849	0.000991436	-0.160889	0.108034	0.0558618	0.0557677	-0.00356834	0.00949399	-2.37042	0.0434513	-1.52919	0	0	0	0	-0	0	0	0	-0.1265	0	-0	0	0	0	0	0	-0	0	0.105	0.015	0	0	-0	0	0	0.098	0.1	0	-0	0	0	0	0	0	-0	0	0.05595	0	0	0	-0	0	0	0	0	0	-0	0	558.081	552.88	301.35	213.578	0.229691	-5.79485	0.0352842	-0.0341228	17.6765
55	-0.151435	0.0155472	0.0389785	0.0141762	0.00512829	0.0163224	0.0263467	-0.0307872	0.000997469	-0.177699	0.103462	0.0578465	0.0557325	-0.00356888	0.00967619	-2.36708	0.0438503	-1.52864	0	0	0	0	-0	0	0	0	-0.1265	0	-0	0	0	0	0	0	-0	0	0.105	0.015	0	0	-0	0	0	0.098	0.1	0	-0	0	0	0	0	0	-0	0	0.05595	0	0	0	-0	0	0	0	0	0	-0	0	558.004	552.839	300.984	213.6	0.240779	-5.8906	0.0349278	-0.0341397	17.9619
56	-0.161901	0.0155316	0.0389695	0.0141934	0.00514076	0.0163364	0.026345	-0.0307812	0.000997799	-0.180041	0.104105	0.0559718	0.0558368	-0.00356878	0.00908445	-2.37757	0.045009	-1.52855	0	0	0	0	-0	0	0	0	-0.1265	0	-0	0	0	0	0	0	-0	0	0.105	0.015	0	0	-0	0	0	0.098	0.1	0	-0	0	0	0	0	0	-0	0	0.05595	0	0	0	-0	0	0	0	0	0	-0	0	557.899	552.779	300.482	213.632	0.254796	-6.01735	0.0344807	-0.0341488	18.357
57	-0.155891	0.0155112	0.0389555	0.0142207	0.00515605	0.0163543	0.0263473	-0.0307887	0.00100104	-0.158794	0.106926	0.0515895	0.0557856	-0.00356858	0.00940445	-2.37158	0.0458225	-1.52748	0	0	0	0	-0	0	0	0	-0.1265	0	-0	0	0	0	0	0	-0	0	0.105	0.015	0	0	-0	0	0	0.098	0.1	0	-0	0	0	0	0	0	-0	0	0.05595	0	0	0	-0	0	0	0	0	0	-0	0	557.736	552.681	299.739	213.683	0.275264	-6.20497	0.033849	-0.0341693	18.9444
58	-0.152903	0.0154828	0.038937	0.0142561	0.00517931	0.016384	0.0263463	-0.0307806	0.00100807	-0.137447	0.0809037	0.0450614	0.0557663	-0.00356829	0.00954947	-2.36864	0.0472422	-1.52615	0	0	0	0	-0	0	0	0	-0.1265	0	-0	0	0	0	0	0	-0	0	0.105	0.015	0	0	-0	0	0	0.098	0.1	0	-0	0	0	0	0	0	-0	0	0.05595	0	0	0	-0	0	0	0	0	0	-0	0	557.486	552.514	298.653	213.767	0.305905	-6.48493	0.0329259	-0.0342042	19.8186
59	-0.135903	0.0154588	0.0389282	0.0142719	0.00519328	0.0164011	0.0263492	-0.0307806	0.00100507	-0.134105	0.071555	0.0325043	0.0556052	-0.00356909	0.0104933	-2.35167	0.0471183	-1.52484	0	0	0	0	-0	0	0	0	-0.1265	0	-0	0	0	0	0	0	-0	0	0.105	0.015	0	0	-0	0	0	0.098	0.1	0	-0	0	0	0	0	0	-0	0	0.05595	0	0	0	-0	0	0	0	0	0	-0	0	557.365	552.447	298.208	213.801	0.321083	-6.60961	0.0324023	-0.0342431	20.1815
60	-0.139158	0.0154453	0.0389155	0.0142952	0.00520463	0.0164195	0.0263545	-0.0307877	0.00100489	-0.152778	0.0597162	0.0436693	0.0556384	-0.00356872	0.010297	-2.35495	0.0481097	-1.52432	0	0	0	0	-0	0	0	0	-0.1265	0	-0	0	0	0	0	0	-0	0	0.105	0.015	0	0	-0	0	0	0.098	0.1	0	-0	0	0	0	0	0	-0	0	0.05595	0	0	0	-0	0	0	0	0	0	-0	0	557.201	552.348	297.607	213.854	0.339175	-6.77189	0.0318285	-0.0342744	20.6831
61	-0.118046	0.0154324	0.0389081	0.0143077	0.00521429	0.0164358	0.0263504	-0.0307817	0.00100565	-0.16199	0.0572122	0.0573848	0.055425	-0.00356894	0.0114631	-2.33387	0.0477457	-1.52281	0	0	0	0	-0	0	0	0	-0.1265	0	-0	0	0	0	0	0	-0	0	0.105	0.015	0	0	-0	0	0	0.098	0.1	0	-0	0	0	0	0	0	-0	0	0.05595	0	0	0	-0	0	0	0	0	0	-0	0	557.068	552.273	297.162	213.895	0.353856	-6.89817	0.0313393	-0.0343025	21.0636
62	-0.115678	0.0154129	0.0388902	0.014343	0.00523266	0.0164629	0.0263493	-0.0307784	0.00100705	-0.170429	0.0543434	0.065922	0.0553994	-0.00356816	0.0115671	-2.33159	0.0489556	-1.52159	0	0	0	0	-0	0	0	0	-0.1265	0	-0	0	0	0	0	0	-0	0	0.105	0.015	0	0	-0	0	0	0.098	0.1	0	-0	0	0	0	0	0	-0	0	0.05595	0	0	0	-0	0	0	0	0	0	-0	0	556.79	552.081	296.201	214.003	0.38289	-7.16406	0.030486	-0.0343648	21.8927
63	-0.10032	0.0153882	0.0388759	0.0143703	0.00525302	0.0164944	0.0263617	-0.0307885	0.00101468	-0.174502	0.0650211	0.0960793	0.0552345	-0.00356829	0.0123953	-2.31635	0.0494631	-1.51977	0	0	0	0	-0	0	0	0	-0.1265	0	-0	0	0	0	0	0	-0	0	0.105	0.015	0	0	-0	0	0	0.098	0.1	0	-0	0	0	0	0	0	-0	0	0.05595	0	0	0	-0	0	0	0	0	0	-0	0	556.488	551.878	295.282	214.125	0.413429	-7.43237	0.029544	-0.0344468	22.7078
64	-0.123171	0.0153424	0.0388502	0.0144311	0.00530018	0.0165596	0.0263592	-0.0307692	0.00100739	-0.158087	0.023478	0.102176	0.0555437	-0.00356685	0.011078	-2.33958	0.0531611	-1.51876	0	0	0	0	-0	0	0	0	-0.1265	0	-0	0	0	0	0	0	-0	0	0.105	0.015	0	0	-0	0	0	0.098	0.1	0	-0	0	0	0	0	0	-0	0	0.05595	0	0	0	-0	0	0	0	0	0	-0	0	555.862	551.366	293.436	214.472	0.473755	-7.98867	0.0279345	-0.0346253	24.4455
65	-0.142466	0.0152711	0.0388252	0.0145056	0.00536643	0.0166498	0.0263739	-0.0307769	0.00102508	-0.161221	-0.0122012	0.0845613	0.0557883	-0.00356624	0.00992282	-2.35972	0.0573223	-1.5173	0	0	0	0	-0	0	0	0	-0.1265	0	-0	0	0	0	0	0	-0	0	0.105	0.015	0	0	-0	0	0	0.098	0.1	0	-0	0	0	0	0	0	-0	0	0.05595	0	0	0	-0	0	0	0	0	0	-0	0	554.93	550.592	291.223	215.123	0.556319	-8.74908	0.0258515	-0.0349572	26.8052
66	-0.146172	0.0152381	0.0388308	0.0145145	0.0053901	0.0166959	0.0263615	-0.0307757	0.00101491	-0.171583	-0.0261549	0.0889087	0.0558053	-0.00356975	0.0097276	-2.3636	0.0579843	-1.51718	0	0	0	0	-0	0	0	0	-0.1265	0	-0	0	0	0	0	0	-0	0	0.105	0.015	0	0	-0	0	0	0.098	0.1	0	-0	0	0	0	0	0	-0	0	0.05595	0	0	0	-0	0	0	0	0	0	-0	0	554.746	550.504	290.942	215.229	0.577443	-8.88584	0.0250589	-0.0350935	27.1225
67	-0.159244	0.0152271	0.0388249	0.0145315	0.00540359	0.0167168	0.0263655	-0.0307752	0.00101624	-0.181756	-0.0464238	0.0910719	0.0559471	-0.003569	0.00897275	-2.37691	0.0592381	-1.51751	0	0	0	0	-0	0	0	0	-0.1265	0	-0	0	0	0	0	0	-0	0	0.105	0.015	0	0	-0	0	0	0.098	0.1	0	-0	0	0	0	0	0	-0	0	0.05595	0	0	0	-0	0	0	0	0	0	-0	0	554.521	550.365	290.559	215.396	0.593326	-9.0282	0.0245749	-0.0351687	27.5589
68	-0.161089	0.0152156	0.0388245	0.014544	0.00541493	0.0167344	0.0263627	-0.030776	0.00101784	-0.171832	-0.0349866	0.100717	0.0559669	-0.00356906	0.00885367	-2.37893	0.0597458	-1.51732	0	0	0	0	-0	0	0	0	-0.1265	0	-0	0	0	0	0	0	-0	0	0.105	0.015	0	0	-0	0	0	0.098	0.1	0	-0	0	0	0	0	0	-0	0	0.05595	0	0	0	-0	0	0	0	0	0	-0	0	554.352	550.259	290.284	215.525	0.606164	-9.13683	0.0241598	-0.0352321	27.8827
69	-0.140668	0.0151731	0.0388248	0.0145785	0.00545933	0.0167786	0.0263623	-0.0307721	0.00101381	-0.182853	-0.0142269	0.0917371	0.0558233	-0.00356757	0.00992837	-2.35927	0.0600207	-1.51505	0	0	0	0	-0	0	0	0	-0.1265	0	-0	0	0	0	0	0	-0	0	0.105	0.015	0	0	-0	0	0	0.098	0.1	0	-0	0	0	0	0	0	-0	0	0.05595	0	0	0	-0	0	0	0	0	0	-0	0	553.801	549.801	289.342	216.062	0.645108	-9.51362	0.0232257	-0.0354304	29.0971
70	-0.141669	0.0151572	0.0388288	0.0145875	0.00547002	0.0168003	0.0263627	-0.0307725	0.00101846	-0.185226	-0.0228035	0.0959613	0.0558193	-0.0035694	0.00987787	-2.3604	0.0602565	-1.51494	0	0	0	0	-0	0	0	0	-0.1265	0	-0	0	0	0	0	0	-0	0	0.105	0.015	0	0	-0	0	0	0.098	0.1	0	-0	0	0	0	0	0	-0	0	0.05595	0	0	0	-0	0	0	0	0	0	-0	0	553.715	549.744	289.223	216.14	0.654756	-9.58021	0.0229472	-0.0354933	29.2547
71	-0.14812	0.0151294	0.0388308	0.0146074	0.00549949	0.0168274	0.0263628	-0.0307775	0.0010205	-0.203744	-0.0207365	0.0993568	0.0559066	-0.00356838	0.00947686	-2.36734	0.0613093	-1.51479	0	0	0	0	-0	0	0	0	-0.1265	0	-0	0	0	0	0	0	-0	0	0.105	0.015	0	0	-0	0	0	0.098	0.1	0	-0	0	0	0	0	0	-0	0	0.05595	0	0	0	-0	0	0	0	0	0	-0	0	553.399	549.489	288.753	216.476	0.675569	-9.78053	0.0224249	-0.0356134	29.9025
72	-0.161896	0.0150949	0.0388384	0.0146257	0.00553106	0.0168586	0.0263666	-0.0307729	0.0010209	-0.202371	-0.00956895	0.103032	0.0560542	-0.00356852	0.00867364	-2.38164	0.0627184	-1.51515	0	0	0	0	-0	0	0	0	-0.1265	0	-0	0	0	0	0	0	-0	0	0.105	0.015	0	0	-0	0	0	0.098	0.1	0	-0	0	0	0	0	0	-0	0	0.05595	0	0	0	-0	0	0	0	0	0	-0	0	553.101	549.23	288.331	216.821	0.696607	-9.9789	0.0219536	-0.0357398	30.5307
73	-0.161587	0.015087	0.0388401	0.0146311	0.00553706	0.0168696	0.0263654	-0.0307731	0.00102092	-0.200943	-0.00804541	0.0999088	0.0560424	-0.00356933	0.00869591	-2.38138	0.0627514	-1.5151	0	0	0	0	-0	0	0	0	-0.1265	0	-0	0	0	0	0	0	-0	0	0.105	0.015	0	0	-0	0	0	0.098	0.1	0	-0	0	0	0	0	0	-0	0	0.05595	0	0	0	-0	0	0	0	0	0	-0	0	553.082	549.215	288.306	216.843	0.699856	-9.99811	0.021866	-0.0357637	30.5661
74	-0.159503	0.0150801	0.0388402	0.0146364	0.00554487	0.0168766	0.0263659	-0.0307729	0.00102121	-0.200696	-0.0141944	0.09995	0.0560284	-0.00356917	0.00880503	-2.37941	0.0627699	-1.51487	0	0	0	0	-0	0	0	0	-0.1265	0	-0	0	0	0	0	0	-0	0	0.105	0.015	0	0	-0	0	0	0.098	0.1	0	-0	0	0	0	0	0	-0	0	0.05595	0	0	0	-0	0	0	0	0	0	-0	0	553.015	549.162	288.218	216.921	0.704387	-10.0398	0.021753	-0.0357932	30.6965
75	-0.161784	0.0150599	0.0388443	0.0146483	0.00556392	0.0168918	0.0263764	-0.0307745	0.00101955	-0.195935	0.0108944	0.0941906	0.0560634	-0.00356871	0.00865008	-2.38204	0.0632776	-1.51472	0	0	0	0	-0	0	0	0	-0.1265	0	-0	0	0	0	0	0	-0	0	0.105	0.015	0	0	-0	0	0	0.098	0.1	0	-0	0	0	0	0	0	-0	0	0.05595	0	0	0	-0	0	0	0	0	0	-0	0	552.828	549.002	287.968	217.154	0.715954	-10.155	0.0214888	-0.0358684	31.0772
76	-0.179302	0.0150286	0.0388514	0.0146665	0.00559338	0.0169171	0.0263684	-0.03078	0.00102839	-0.175632	-0.00311596	0.081379	0.0562331	-0.00356852	0.00763395	-2.4001	0.0647715	-1.51546	0	0	0	0	-0	0	0	0	-0.1265	0	-0	0	0	0	0	0	-0	0	0.105	0.015	0	0	-0	0	0	0.098	0.1	0	-0	0	0	0	0	0	-0	0	0.05595	0	0	0	-0	0	0	0	0	0	-0	0	552.563	548.769	287.633	217.502	0.733598	-10.3296	0.0211084	-0.0359822	31.6515
77	-0.165106	0.0149949	0.0388604	0.0146812	0.00562265	0.0169418	0.0263709	-0.0307823	0.00102485	-0.196958	-0.00213001	0.0880171	0.0561288	-0.00356873	0.00840479	-2.38636	0.0644059	-1.51424	0	0	0	0	-0	0	0	0	-0.1265	0	-0	0	0	0	0	0	-0	0	0.105	0.015	0	0	-0	0	0	0.098	0.1	0	-0	0	0	0	0	0	-0	0	0.05595	0	0	0	-0	0	0	0	0	0	-0	0	552.345	548.571	287.368	217.801	0.748478	-10.4738	0.0208179	-0.0360809	32.1155
78	-0.169624	0.0149811	0.038864	0.0146892	0.00563559	0.0169563	0.0263712	-0.0307771	0.00101903	-0.212053	0.0141099	0.0777832	0.0561657	-0.00356909	0.0081428	-2.39108	0.064828	-1.5144	0	0	0	0	-0	0	0	0	-0.1265	0	-0	0	0	0	0	0	-0	0	0.105	0.015	0	0	-0	0	0	0.098	0.1	0	-0	0	0	0	0	0	-0	0	0.05595	0	0	0	-0	0	0	0	0	0	-0	0	552.252	548.492	287.264	217.927	0.755427	-10.5356	0.0206668	-0.0361273	32.302
79	-0.161861	0.0149731	0.0388649	0.0146954	0.00564324	0.0169636	0.0263716	-0.0307763	0.00102239	-0.203978	0.00904573	0.0859095	0.056106	-0.00356909	0.00857106	-2.38345	0.0645017	-1.51382	0	0	0	0	-0	0	0	0	-0.1265	0	-0	0	0	0	0	0	-0	0	0.105	0.015	0	0	-0	0	0	0.098	0.1	0	-0	0	0	0	0	0	-0	0	0.05595	0	0	0	-0	0	0	0	0	0	-0	0	552.188	548.438	287.193	218.016	0.759613	-10.5756	0.0205802	-0.0361579	32.4292
80	-0.156815	0.0149602	0.0388681	0.0147023	0.00565511	0.0169724	0.0263731	-0.0307777	0.0010245	-0.193426	0.0123428	0.0801297	0.0560681	-0.00356898	0.00884086	-2.37861	0.0643773	-1.51337	0	0	0	0	-0	0	0	0	-0.1265	0	-0	0	0	0	0	0	-0	0	0.105	0.015	0	0	-0	0	0	0.098	0.1	0	-0	0	0	0	0	0	-0	0	0.05595	0	0	0	-0	0	0	0	0	0	-0	0	552.097	548.361	287.089	218.149	0.765362	-10.633	0.0204494	-0.0361992	32.6205
81	-0.154625	0.0149534	0.0388701	0.0147057	0.00566146	0.0169787	0.0263744	-0.0307779	0.00102436	-0.18249	0.0199286	0.0793985	0.0560496	-0.00356914	0.00896066	-2.37651	0.0643197	-1.51317	0	0	0	0	-0	0	0	0	-0.1265	0	-0	0	0	0	0	0	-0	0	0.105	0.015	0	0	-0	0	0	0.098	0.1	0	-0	0	0	0	0	0	-0	0	0.05595	0	0	0	-0	0	0	0	0	0	-0	0	552.058	548.329	287.047	218.204	0.768321	-10.6587	0.020379	-0.0362195	32.6978
82	-0.160148	0.0149431	0.0388726	0.0147112	0.00567096	0.0169856	0.0263743	-0.0307786	0.00102439	-0.194948	0.0147192	0.0768823	0.0561058	-0.00356897	0.00863887	-2.3822	0.064771	-1.51343	0	0	0	0	-0	0	0	0	-0.1265	0	-0	0	0	0	0	0	-0	0	0.105	0.015	0	0	-0	0	0	0.098	0.1	0	-0	0	0	0	0	0	-0	0	0.05595	0	0	0	-0	0	0	0	0	0	-0	0	551.979	548.262	286.962	218.317	0.772917	-10.7057	0.0202767	-0.0362529	32.8566
83	-0.162607	0.0149251	0.0388775	0.0147195	0.00568692	0.0169967	0.0263748	-0.0307769	0.00102457	-0.198646	0.010904	0.0848225	0.0561361	-0.00356884	0.00848243	-2.38496	0.0651279	-1.51343	0	0	0	0	-0	0	0	0	-0.1265	0	-0	0	0	0	0	0	-0	0	0.105	0.015	0	0	-0	0	0	0.098	0.1	0	-0	0	0	0	0	0	-0	0	0.05595	0	0	0	-0	0	0	0	0	0	-0	0	551.859	548.152	286.827	218.504	0.780316	-10.7834	0.0201392	-0.0363069	33.1212
84	-0.163989	0.0149055	0.0388827	0.0147288	0.00570407	0.0170094	0.0263762	-0.0307754	0.00102583	-0.202991	0.026644	0.0866794	0.0561565	-0.00356887	0.00838808	-2.38663	0.0654164	-1.51336	0	0	0	0	-0	0	0	0	-0.1265	0	-0	0	0	0	0	0	-0	0	0.105	0.015	0	0	-0	0	0	0.098	0.1	0	-0	0	0	0	0	0	-0	0	0.05595	0	0	0	-0	0	0	0	0	0	-0	0	551.737	548.04	286.698	218.692	0.78805	-10.8617	0.0199972	-0.0363639	33.3816
85	-0.163289	0.0148959	0.0388849	0.0147346	0.00571284	0.0170176	0.0263765	-0.0307784	0.00102813	-0.196175	0.0180255	0.0753054	0.0561525	-0.00356907	0.00842337	-2.38606	0.0654632	-1.51325	0	0	0	0	-0	0	0	0	-0.1265	0	-0	0	0	0	0	0	-0	0	0.105	0.015	0	0	-0	0	0	0.098	0.1	0	-0	0	0	0	0	0	-0	0	0.05595	0	0	0	-0	0	0	0	0	0	-0	0	551.687	547.996	286.646	218.77	0.791917	-10.8962	0.019915	-0.0363923	33.4869
86	-0.161364	0.0148803	0.0388893	0.0147414	0.00572705	0.0170271	0.026377	-0.0307769	0.00102378	-0.202029	0.0311348	0.0679347	0.0561451	-0.00356888	0.00851514	-2.38438	0.0655226	-1.513	0	0	0	0	-0	0	0	0	-0.1265	0	-0	0	0	0	0	0	-0	0	0.105	0.015	0	0	-0	0	0	0.098	0.1	0	-0	0	0	0	0	0	-0	0	0.05595	0	0	0	-0	0	0	0	0	0	-0	0	551.585	547.905	286.541	218.931	0.797916	-10.9598	0.0197976	-0.0364368	33.7062
87	-0.16279	0.0148687	0.0388922	0.014748	0.00573713	0.0170356	0.026377	-0.0307783	0.00102666	-0.208605	0.0307885	0.0751532	0.0561622	-0.00356898	0.00842582	-2.38599	0.0657261	-1.513	0	0	0	0	-0	0	0	0	-0.1265	0	-0	0	0	0	0	0	-0	0	0.105	0.015	0	0	-0	0	0	0.098	0.1	0	-0	0	0	0	0	0	-0	0	0.05595	0	0	0	-0	0	0	0	0	0	-0	0	551.512	547.838	286.468	219.048	0.802724	-11.0082	0.0197172	-0.0364723	33.8649
88	-0.165545	0.0148624	0.038894	0.0147509	0.00574304	0.0170409	0.0263769	-0.0307776	0.00102626	-0.203454	0.0334304	0.0776986	0.0561866	-0.00356908	0.00826843	-2.38883	0.0659364	-1.51315	0	0	0	0	-0	0	0	0	-0.1265	0	-0	0	0	0	0	0	-0	0	0.105	0.015	0	0	-0	0	0	0.098	0.1	0	-0	0	0	0	0	0	-0	0	0.05595	0	0	0	-0	0	0	0	0	0	-0	0	551.481	547.811	286.437	219.097	0.805018	-11.0289	0.0196692	-0.0364887	33.9291
89	-0.157228	0.0148431	0.038899	0.0147591	0.00575979	0.0170504	0.0263827	-0.0307819	0.00102584	-0.192996	0.045351	0.0677367	0.0561285	-0.00356883	0.00871543	-2.38082	0.0656507	-1.51246	0	0	0	0	-0	0	0	0	-0.1265	0	-0	0	0	0	0	0	-0	0	0.105	0.015	0	0	-0	0	0	0.098	0.1	0	-0	0	0	0	0	0	-0	0	0.05595	0	0	0	-0	0	0	0	0	0	-0	0	551.366	547.7	286.317	219.295	0.811599	-11.1032	0.0195672	-0.0365415	34.1928
90	-0.166299	0.0148137	0.0389078	0.0147714	0.0057854	0.0170673	0.0263812	-0.0307766	0.00102958	-0.208902	0.0735582	0.0700228	0.0562198	-0.00356879	0.00818014	-2.39035	0.0664488	-1.51285	0	0	0	0	-0	0	0	0	-0.1265	0	-0	0	0	0	0	0	-0	0	0.105	0.015	0	0	-0	0	0	0.098	0.1	0	-0	0	0	0	0	0	-0	0	0.05595	0	0	0	-0	0	0	0	0	0	-0	0	551.198	547.536	286.153	219.586	0.821951	-11.2157	0.0194063	-0.03662	34.5846
91	-0.164499	0.014802	0.0389103	0.0147785	0.00579561	0.0170767	0.0263806	-0.0307805	0.00102715	-0.216233	0.0708941	0.0606137	0.0562034	-0.00356912	0.00827848	-2.38869	0.0664242	-1.51267	0	0	0	0	-0	0	0	0	-0.1265	0	-0	0	0	0	0	0	-0	0	0.105	0.015	0	0	-0	0	0	0.098	0.1	0	-0	0	0	0	0	0	-0	0	0.05595	0	0	0	-0	0	0	0	0	0	-0	0	551.149	547.495	286.108	219.667	0.82611	-11.2513	0.01932	-0.0366512	34.6887
92	-0.161333	0.0147917	0.0389131	0.0147833	0.00580521	0.0170839	0.026381	-0.0307791	0.00102822	-0.218615	0.0633963	0.0552246	0.0561828	-0.00356903	0.00844599	-2.3857	0.0663416	-1.51239	0	0	0	0	-0	0	0	0	-0.1265	0	-0	0	0	0	0	0	-0	0	0.105	0.015	0	0	-0	0	0	0.098	0.1	0	-0	0	0	0	0	0	-0	0	0.05595	0	0	0	-0	0	0	0	0	0	-0	0	551.083	547.436	286.047	219.779	0.83006	-11.2936	0.0192524	-0.0366805	34.8343
93	-0.158671	0.0147754	0.0389176	0.014791	0.00581935	0.0170927	0.0263814	-0.0307803	0.00102846	-0.224592	0.0623417	0.0629797	0.0561687	-0.00356892	0.00857942	-2.3833	0.0663331	-1.51211	0	0	0	0	-0	0	0	0	-0.1265	0	-0	0	0	0	0	0	-0	0	0.105	0.015	0	0	-0	0	0	0.098	0.1	0	-0	0	0	0	0	0	-0	0	0.05595	0	0	0	-0	0	0	0	0	0	-0	0	550.984	547.351	285.959	219.946	0.835797	-11.3555	0.0191414	-0.0367255	35.0502
94	-0.154623	0.0147675	0.0389199	0.0147951	0.00582652	0.0170992	0.0263831	-0.0307831	0.00102803	-0.237751	0.0562492	0.0564504	0.0561357	-0.00356908	0.00880313	-2.37936	0.0661564	-1.51179	0	0	0	0	-0	0	0	0	-0.1265	0	-0	0	0	0	0	0	-0	0	0.105	0.015	0	0	-0	0	0	0.098	0.1	0	-0	0	0	0	0	0	-0	0	0.05595	0	0	0	-0	0	0	0	0	0	-0	0	550.945	547.316	285.924	220.016	0.838737	-11.3832	0.019087	-0.0367467	35.1378
95	-0.165524	0.0147543	0.0389237	0.014801	0.00583842	0.0171069	0.0263847	-0.0307825	0.0010284	-0.248054	0.047037	0.0626043	0.0562384	-0.00356896	0.00817799	-2.39049	0.0669151	-1.51243	0	0	0	0	-0	0	0	0	-0.1265	0	-0	0	0	0	0	0	-0	0	0.105	0.015	0	0	-0	0	0	0.098	0.1	0	-0	0	0	0	0	0	-0	0	0.05595	0	0	0	-0	0	0	0	0	0	-0	0	550.866	547.246	285.852	220.157	0.843396	-11.4349	0.0190054	-0.0367832	35.3209
96	-0.155734	0.0147325	0.0389297	0.0148106	0.00585684	0.017118	0.0263866	-0.0307833	0.00102743	-0.244645	0.055897	0.0482389	0.0561647	-0.0035689	0.0087093	-2.38103	0.0665144	-1.51165	0	0	0	0	-0	0	0	0	-0.1265	0	-0	0	0	0	0	0	-0	0	0.105	0.015	0	0	-0	0	0	0.098	0.1	0	-0	0	0	0	0	0	-0	0	0.05595	0	0	0	-0	0	0	0	0	0	-0	0	550.751	547.134	285.75	220.365	0.850248	-11.5113	0.0189064	-0.0368382	35.5908
97	-0.147401	0.0147216	0.0389328	0.0148167	0.00586668	0.0171265	0.0263835	-0.0307804	0.00102946	-0.242472	0.0605562	0.0527343	0.0560931	-0.00356906	0.00917034	-2.37286	0.0661038	-1.51103	0	0	0	0	-0	0	0	0	-0.1265	0	-0	0	0	0	0	0	-0	0	0.105	0.015	0	0	-0	0	0	0.098	0.1	0	-0	0	0	0	0	0	-0	0	0.05595	0	0	0	-0	0	0	0	0	0	-0	0	550.693	547.084	285.701	220.47	0.854389	-11.5521	0.0188294	-0.0368686	35.7246
98	-0.150029	0.0147056	0.0389366	0.0148241	0.00588068	0.0171346	0.0263849	-0.030784	0.00103066	-0.25541	0.058794	0.0597487	0.0561228	-0.00356897	0.00900879	-2.37574	0.066385	-1.51111	0	0	0	0	-0	0	0	0	-0.1265	0	-0	0	0	0	0	0	-0	0	0.105	0.015	0	0	-0	0	0	0.098	0.1	0	-0	0	0	0	0	0	-0	0	0.05595	0	0	0	-0	0	0	0	0	0	-0	0	550.608	547.009	285.627	220.627	0.85962	-11.6101	0.0187416	-0.0369105	35.9292
99	-0.152929	0.0146822	0.0389438	0.014833	0.00590094	0.017147	0.0263877	-0.0307922	0.00103419	-0.232764	0.0582678	0.0463429	0.05616	-0.00356891	0.00882545	-2.37901	0.0667379	-1.51117	0	0	0	0	-0	0	0	0	-0.1265	0	-0	0	0	0	0	0	-0	0	0.105	0.015	0	0	-0	0	0	0.098	0.1	0	-0	0	0	0	0	0	-0	0	0.05595	0	0	0	-0	0	0	0	0	0	-0	0	550.484	546.895	285.522	220.859	0.867016	-11.6931	0.0186222	-0.0369692	36.2249
100	-0.139296	0.0146639	0.03895	0.0148405	0.00591747	0.0171593	0.0263837	-0.030786	0.0010296	-0.253557	0.0667902	0.0432877	0.0560463	-0.00356902	0.00957801	-2.36566	0.0660528	-1.51017	0	0	0	0	-0	0	0	0	-0.1265	0	-0	0	0	0	0	0	-0	0	0.105	0.015	0	0	-0	0	0	0.098	0.1	0	-0	0	0	0	0	0	-0	0	0.05595	0	0	0	-0	0	0	0	0	0	-0	0	550.39	546.814	285.445	221.034	0.873187	-11.7571	0.0185043	-0.0370151	36.4445
