Stefan210/kinematic_calibration/src/kinematic_calibration/validation/experiments/experiments/impact_noise/outlier/larm_randomize_13_measurements_rk_true/optimization_intermediate_results.csv
iteration	HeadPitch_offset	HeadYaw_offset	LElbowRoll_offset	LElbowYaw_offset	LShoulderPitch_offset	LShoulderRoll_offset	marker_transform_larm_tx	marker_transform_larm_ty	marker_transform_larm_tz	marker_transform_larm_rr	marker_transform_larm_rp	marker_transform_larm_ry	camera_transform_tx	camera_transform_ty	camera_transform_tz	camera_transform_rr	camera_transform_rp	camera_transform_ry	HeadPitch_transform_tx	HeadPitch_transform_ty	HeadPitch_transform_tz	HeadPitch_transform_rr	HeadPitch_transform_rp	HeadPitch_transform_ry	HeadYaw_transform_tx	HeadYaw_transform_ty	HeadYaw_transform_tz	HeadYaw_transform_rr	HeadYaw_transform_rp	HeadYaw_transform_ry	LElbowRoll_transform_tx	LElbowRoll_transform_ty	LElbowRoll_transform_tz	LElbowRoll_transform_rr	LElbowRoll_transform_rp	LElbowRoll_transform_ry	LElbowYaw_transform_tx	LElbowYaw_transform_ty	LElbowYaw_transform_tz	LElbowYaw_transform_rr	LElbowYaw_transform_rp	LElbowYaw_transform_ry	LShoulderPitch_transform_tx	LShoulderPitch_transform_ty	LShoulderPitch_transform_tz	LShoulderPitch_transform_rr	LShoulderPitch_transform_rp	LShoulderPitch_transform_ry	LShoulderRoll_transform_tx	LShoulderRoll_transform_ty	LShoulderRoll_transform_tz	LShoulderRoll_transform_rr	LShoulderRoll_transform_rp	LShoulderRoll_transform_ry	LWristYaw_transform_tx	LWristYaw_transform_ty	LWristYaw_transform_tz	LWristYaw_transform_rr	LWristYaw_transform_rp	LWristYaw_transform_ry	l_wrist_joint_transform_tx	l_wrist_joint_transform_ty	l_wrist_joint_transform_tz	l_wrist_joint_transform_rr	l_wrist_joint_transform_rp	l_wrist_joint_transform_ry	camera_fx	camera_fy	camera_cx	camera_cy	camera_D0	camera_D1	camera_D2	camera_D3	camera_D4	
0	0.0249164	-0.0307543	0.000853157	4.65819e-06	-0.000318322	-0.00310766	0.05071	0	0.01774	-2.26369	1.66533e-16	-1.5708	545.901	551.038	324.928	201.58	0.0255298	2.61142	-0.0636736	-0.0350419	0.213964
1	-0.0175229	0.0228325	0.0369672	0.0161801	0.0338146	0.00490186	0.0278291	-0.0309412	0.00139928	-6.12827e-05	-0.00036281	-0.00276993	0.0494573	-0.00263056	0.0151127	-2.19303	-0.00791867	-1.59812	0	0	0	0	-0	0	0	0	-0.1265	0	-0	0	0	0	0	0	-0	0	0.105	0.015	0	0	-0	0	0	0.098	0.1	0	-0	0	0	0	0	0	-0	0	0.05595	0	0	0	-0	0	0	0	0	0	-0	0	545.901	551.038	324.928	201.58	0.0101592	2.60827	-0.0576105	0.0384003	0.213412
2	-0.018181	0.0208083	0.0304671	0.0291078	0.00856743	0.0267478	0.0265068	-0.0305151	0.00236142	-0.000176873	-0.000479548	-0.0028906	0.0528104	-0.00118087	0.0153454	-2.19024	-0.00662407	-1.56568	0	0	0	0	-0	0	0	0	-0.1265	0	-0	0	0	0	0	0	-0	0	0.105	0.015	0	0	-0	0	0	0.098	0.1	0	-0	0	0	0	0	0	-0	0	0.05595	0	0	0	-0	0	0	0	0	0	-0	0	545.915	551.037	324.92	201.595	-0.340123	2.33095	-0.0227444	-0.00546153	0.131984
3	-0.0176132	0.0249679	0.0266026	0.0370627	0.000992769	0.0307386	0.0259568	-0.0303556	0.00290917	-0.000218517	-0.000560411	-0.00294215	0.0545766	-0.00121822	0.0148343	-2.19223	-0.00437524	-1.56305	0	0	0	0	-0	0	0	0	-0.1265	0	-0	0	0	0	0	0	-0	0	0.105	0.015	0	0	-0	0	0	0.098	0.1	0	-0	0	0	0	0	0	-0	0	0.05595	0	0	0	-0	0	0	0	0	0	-0	0	545.958	551.03	324.915	201.627	-0.378171	1.70706	-0.00821895	-0.0116003	-0.0803115
4	-0.0169085	0.0203043	0.0225194	0.0435967	0.00147011	0.0326981	0.0256164	-0.0301737	0.00341309	-0.000264021	-0.000599671	-0.00302733	0.0544727	-0.00120098	0.0151423	-2.19474	0.00121274	-1.55413	0	0	0	0	-0	0	0	0	-0.1265	0	-0	0	0	0	0	0	-0	0	0.105	0.015	0	0	-0	0	0	0.098	0.1	0	-0	0	0	0	0	0	-0	0	0.05595	0	0	0	-0	0	0	0	0	0	-0	0	546.048	551.008	324.92	201.665	-0.147152	0.737103	-0.0137674	-0.0112036	-0.420148
5	-0.0164516	0.0177575	0.0202278	0.0456093	0.00246778	0.0337883	0.0254359	-0.0300587	0.00357319	-0.000367273	-0.000620702	-0.0029524	0.0539853	-0.00111758	0.0157721	-2.19693	0.00394347	-1.54993	0	0	0	0	-0	0	0	0	-0.1265	0	-0	0	0	0	0	0	-0	0	0.105	0.015	0	0	-0	0	0	0.098	0.1	0	-0	0	0	0	0	0	-0	0	0.05595	0	0	0	-0	0	0	0	0	0	-0	0	546.244	550.949	324.94	201.689	0.0635335	-0.0372883	-0.0193069	-0.0108558	-0.609677
6	-0.0159297	0.0170554	0.0194991	0.0458118	0.00289578	0.0338767	0.025381	-0.0300212	0.00359808	-0.000524722	-0.000562997	-0.00343516	0.0537215	-0.00108962	0.0161709	-2.19791	0.00458924	-1.54878	0	0	0	0	-0	0	0	0	-0.1265	0	-0	0	0	0	0	0	-0	0	0.105	0.015	0	0	-0	0	0	0.098	0.1	0	-0	0	0	0	0	0	-0	0	0.05595	0	0	0	-0	0	0	0	0	0	-0	0	546.79	550.778	324.928	201.735	0.148857	-0.458811	-0.0198911	-0.0111731	-0.356515
7	-0.0169158	0.017358	0.0191281	0.0457892	0.0028581	0.0337602	0.0253544	-0.0300049	0.00360918	-0.00119866	0.000311315	-0.000638037	0.0533704	-0.00109714	0.0166051	-2.20013	0.00466201	-1.54874	0	0	0	0	-0	0	0	0	-0.1265	0	-0	0	0	0	0	0	-0	0	0.105	0.015	0	0	-0	0	0	0.098	0.1	0	-0	0	0	0	0	0	-0	0	0.05595	0	0	0	-0	0	0	0	0	0	-0	0	548.255	550.339	324.801	201.854	0.19298	-0.913261	-0.0158614	-0.0115272	0.627254
8	-0.0182867	0.0177867	0.0189302	0.0458582	0.00272873	0.0336834	0.0253408	-0.0299974	0.00363963	-1.85895e-05	0.00651082	-0.00209989	0.0526594	-0.00114057	0.0174582	-2.20354	0.00502551	-1.54837	0	0	0	0	-0	0	0	0	-0.1265	0	-0	0	0	0	0	0	-0	0	0.105	0.015	0	0	-0	0	0	0.098	0.1	0	-0	0	0	0	0	0	-0	0	0.05595	0	0	0	-0	0	0	0	0	0	-0	0	551.513	549.602	324.406	202.127	0.248084	-1.72379	-0.00653685	-0.0120407	2.85709
9	-0.0333104	0.0182088	0.0187923	0.0461481	0.00258765	0.0335985	0.0253591	-0.0299986	0.00370505	0.00493909	0.0497257	0.00664017	0.0518756	-0.00122163	0.0179669	-2.22179	0.00661124	-1.54706	0	0	0	0	-0	0	0	0	-0.1265	0	-0	0	0	0	0	0	-0	0	0.105	0.015	0	0	-0	0	0	0.098	0.1	0	-0	0	0	0	0	0	-0	0	0.05595	0	0	0	-0	0	0	0	0	0	-0	0	556.622	549.679	323.352	202.72	0.31638	-2.86769	0.00569912	-0.0129677	6.34382
10	-0.0533421	0.0182817	0.018886	0.0466658	0.0026814	0.0335599	0.025346	-0.030007	0.00377043	-0.00890756	0.0353687	0.00891114	0.0516087	-0.00132028	0.0177338	-2.24455	0.00901675	-1.54536	0	0	0	0	-0	0	0	0	-0.1265	0	-0	0	0	0	0	0	-0	0	0.105	0.015	0	0	-0	0	0	0.098	0.1	0	-0	0	0	0	0	0	-0	0	0.05595	0	0	0	-0	0	0	0	0	0	-0	0	560.447	551.257	322.057	203.487	0.361628	-3.6495	0.0106506	-0.013606	9.08527
11	-0.0765167	0.0184427	0.0188094	0.0468936	0.00255682	0.0334867	0.0253347	-0.0300124	0.00379127	-0.0242293	0.0228683	-0.00680325	0.0516723	-0.00136241	0.0169747	-2.26996	0.0109862	-1.54422	0	0	0	0	-0	0	0	0	-0.1265	0	-0	0	0	0	0	0	-0	0	0.105	0.015	0	0	-0	0	0	0.098	0.1	0	-0	0	0	0	0	0	-0	0	0.05595	0	0	0	-0	0	0	0	0	0	-0	0	562.866	553.13	320.97	204.327	0.381015	-4.07355	0.0127215	-0.0143112	10.7338
12	-0.0692561	0.0187517	0.0187072	0.0469289	0.00241416	0.0334367	0.0253391	-0.0300131	0.00380027	-0.0152449	0.0619859	0.00242082	0.0512865	-0.00137957	0.0176782	-2.26597	0.012499	-1.54263	0	0	0	0	-0	0	0	0	-0.1265	0	-0	0	0	0	0	0	-0	0	0.105	0.015	0	0	-0	0	0	0.098	0.1	0	-0	0	0	0	0	0	-0	0	0.05595	0	0	0	-0	0	0	0	0	0	-0	0	565.228	555.8	319.51	205.782	0.391304	-4.37886	0.013189	-0.0150423	12.0943
13	-0.0782329	0.0187804	0.0186814	0.0469577	0.00243716	0.0335051	0.0253273	-0.0300457	0.00379683	0.0261374	0.0769919	0.0193825	0.051332	-0.00138595	0.0173432	-2.27732	0.0140216	-1.5416	0	0	0	0	-0	0	0	0	-0.1265	0	-0	0	0	0	0	0	-0	0	0.105	0.015	0	0	-0	0	0	0.098	0.1	0	-0	0	0	0	0	0	-0	0	0.05595	0	0	0	-0	0	0	0	0	0	-0	0	566.526	557.739	318.531	206.941	0.4014	-4.54414	0.0118366	-0.0153307	12.9065
14	-0.0779122	0.0188442	0.018655	0.0468198	0.00242137	0.0335225	0.0253088	-0.0300184	0.00378538	0.0277166	0.0774519	0.00794218	0.051303	-0.00137727	0.0173843	-2.27746	0.0141981	-1.54141	0	0	0	0	-0	0	0	0	-0.1265	0	-0	0	0	0	0	0	-0	0	0.105	0.015	0	0	-0	0	0	0.098	0.1	0	-0	0	0	0	0	0	-0	0	0.05595	0	0	0	-0	0	0	0	0	0	-0	0	566.768	558.167	318.322	207.173	0.404644	-4.58252	0.0114651	-0.0153524	13.081
15	-0.09343	0.0189912	0.0185864	0.0469249	0.00233263	0.0334573	0.0253016	-0.0300238	0.00379078	0.0569478	0.0842723	0.00666	0.051485	-0.00138676	0.0166819	-2.29493	0.0156024	-1.54079	0	0	0	0	-0	0	0	0	-0.1265	0	-0	0	0	0	0	0	-0	0	0.105	0.015	0	0	-0	0	0	0.098	0.1	0	-0	0	0	0	0	0	-0	0	0.05595	0	0	0	-0	0	0	0	0	0	-0	0	567.745	559.626	317.513	208.143	0.406273	-4.68252	0.0110555	-0.0158338	13.646
16	-0.119363	0.0191042	0.0185087	0.0469526	0.00230375	0.0334527	0.0252998	-0.0300103	0.00378535	0.0559538	0.107516	-0.00445949	0.0518315	-0.00138978	0.015438	-2.3237	0.0177775	-1.54005	0	0	0	0	-0	0	0	0	-0.1265	0	-0	0	0	0	0	0	-0	0	0.105	0.015	0	0	-0	0	0	0.098	0.1	0	-0	0	0	0	0	0	-0	0	0.05595	0	0	0	-0	0	0	0	0	0	-0	0	568.958	561.463	316.394	209.605	0.406933	-4.7837	0.0102562	-0.0163432	14.3151
17	-0.128709	0.0191938	0.0184471	0.0467789	0.00227835	0.033466	0.0252929	-0.0300107	0.00376516	0.0593371	0.0931536	0.0143604	0.0519339	-0.00137968	0.0149802	-2.33439	0.0187379	-1.53972	0	0	0	0	-0	0	0	0	-0.1265	0	-0	0	0	0	0	0	-0	0	0.105	0.015	0	0	-0	0	0	0.098	0.1	0	-0	0	0	0	0	0	-0	0	0.05595	0	0	0	-0	0	0	0	0	0	-0	0	569.464	562.352	315.827	210.321	0.407588	-4.82097	0.00964083	-0.0165246	14.6095
18	-0.134743	0.0192107	0.0184238	0.0468256	0.00228203	0.0334667	0.0252835	-0.0300079	0.00377039	0.0782398	0.0733725	0.0217015	0.0520005	-0.00137959	0.0146857	-2.34142	0.0194722	-1.53943	0	0	0	0	-0	0	0	0	-0.1265	0	-0	0	0	0	0	0	-0	0	0.105	0.015	0	0	-0	0	0	0.098	0.1	0	-0	0	0	0	0	0	-0	0	0.05595	0	0	0	-0	0	0	0	0	0	-0	0	569.815	562.982	315.417	210.854	0.409479	-4.85491	0.0090714	-0.0166669	14.8382
19	-0.168045	0.0193163	0.0183636	0.0470152	0.00222964	0.0334503	0.0252889	-0.030005	0.0038069	0.0436342	0.123746	0.0321422	0.0524184	-0.0013914	0.013034	-2.37888	0.0225963	-1.53852	0	0	0	0	-0	0	0	0	-0.1265	0	-0	0	0	0	0	0	-0	0	0.105	0.015	0	0	-0	0	0	0.098	0.1	0	-0	0	0	0	0	0	-0	0	0.05595	0	0	0	-0	0	0	0	0	0	-0	0	571.201	564.984	313.849	213.094	0.406515	-4.97288	0.00858451	-0.0174557	15.7461
20	-0.195731	0.0192862	0.0183381	0.0471385	0.00223752	0.0335029	0.0252868	-0.0300364	0.00382429	-0.00119901	0.144192	0.0525682	0.0527315	-0.00139855	0.0116004	-2.40848	0.024562	-1.53842	0	0	0	0	-0	0	0	0	-0.1265	0	-0	0	0	0	0	0	-0	0	0.105	0.015	0	0	-0	0	0	0.098	0.1	0	-0	0	0	0	0	0	-0	0	0.05595	0	0	0	-0	0	0	0	0	0	-0	0	571.729	565.937	313.132	214.169	0.411924	-5.05401	0.00761523	-0.0177103	16.2596
21	-0.182862	0.0192656	0.0182814	0.0472788	0.00228748	0.0335731	0.0252886	-0.0300117	0.00381297	-0.00103878	0.164769	0.055949	0.0525408	-0.00140068	0.0122957	-2.39699	0.0249454	-1.53755	0	0	0	0	-0	0	0	0	-0.1265	0	-0	0	0	0	0	0	-0	0	0.105	0.015	0	0	-0	0	0	0.098	0.1	0	-0	0	0	0	0	0	-0	0	0.05595	0	0	0	-0	0	0	0	0	0	-0	0	572.079	566.568	312.599	214.942	0.418273	-5.13393	0.00691545	-0.0179338	16.6872
22	-0.192745	0.0192908	0.0182782	0.047231	0.00226464	0.0335632	0.0252853	-0.0300083	0.00379706	0.00549073	0.150352	0.0722489	0.0526502	-0.00139721	0.0117764	-2.40741	0.0255608	-1.53763	0	0	0	0	-0	0	0	0	-0.1265	0	-0	0	0	0	0	0	-0	0	0.105	0.015	0	0	-0	0	0	0.098	0.1	0	-0	0	0	0	0	0	-0	0	0.05595	0	0	0	-0	0	0	0	0	0	-0	0	572.192	566.837	312.372	215.249	0.420419	-5.16147	0.00660488	-0.0179748	16.8533
23	-0.1891	0.0193462	0.0182752	0.0471398	0.00223862	0.033545	0.0252795	-0.0300055	0.00378995	0.00442282	0.154245	0.0644887	0.0526034	-0.00139177	0.0119695	-2.40416	0.0256018	-1.53746	0	0	0	0	-0	0	0	0	-0.1265	0	-0	0	0	0	0	0	-0	0	0.105	0.015	0	0	-0	0	0	0.098	0.1	0	-0	0	0	0	0	0	-0	0	0.05595	0	0	0	-0	0	0	0	0	0	-0	0	572.267	567.019	312.211	215.46	0.421054	-5.1776	0.00649857	-0.0180092	16.9578
24	-0.182904	0.0193862	0.0182473	0.0472124	0.0022166	0.0335318	0.0252784	-0.0300087	0.0037931	-0.00798561	0.153011	0.048838	0.0525133	-0.00139361	0.0123105	-2.39958	0.0262865	-1.53669	0	0	0	0	-0	0	0	0	-0.1265	0	-0	0	0	0	0	0	-0	0	0.105	0.015	0	0	-0	0	0	0.098	0.1	0	-0	0	0	0	0	0	-0	0	0.05595	0	0	0	-0	0	0	0	0	0	-0	0	572.672	567.651	311.555	216.358	0.422333	-5.24768	0.00627916	-0.01834	17.424
25	-0.172467	0.0194198	0.0182118	0.0472523	0.00222058	0.0335383	0.025271	-0.0300087	0.00379739	0.0186398	0.132855	0.0539551	0.0523683	-0.0013934	0.0128708	-2.39134	0.0271033	-1.53559	0	0	0	0	-0	0	0	0	-0.1265	0	-0	0	0	0	0	0	-0	0	0.105	0.015	0	0	-0	0	0	0.098	0.1	0	-0	0	0	0	0	0	-0	0	0.05595	0	0	0	-0	0	0	0	0	0	-0	0	573.149	568.414	310.69	217.59	0.426418	-5.35686	0.00592536	-0.0187437	18.0932
26	-0.171833	0.0194512	0.0181854	0.047262	0.0021948	0.033533	0.0252731	-0.0300051	0.00379756	0.0236285	0.125672	0.0440729	0.0523503	-0.00139268	0.01291	-2.39125	0.0273728	-1.53537	0	0	0	0	-0	0	0	0	-0.1265	0	-0	0	0	0	0	0	-0	0	0.105	0.015	0	0	-0	0	0	0.098	0.1	0	-0	0	0	0	0	0	-0	0	0.05595	0	0	0	-0	0	0	0	0	0	-0	0	573.253	568.639	310.459	217.898	0.429383	-5.39199	0.00565352	-0.018826	18.2825
27	-0.172014	0.0194221	0.0181759	0.0473245	0.00221125	0.0335491	0.0252729	-0.030003	0.00380113	0.023146	0.127369	0.0375806	0.0523488	-0.00139277	0.0129005	-2.39161	0.0275276	-1.53527	0	0	0	0	-0	0	0	0	-0.1265	0	-0	0	0	0	0	0	-0	0	0.105	0.015	0	0	-0	0	0	0.098	0.1	0	-0	0	0	0	0	0	-0	0	0.05595	0	0	0	-0	0	0	0	0	0	-0	0	573.283	568.722	310.373	218.012	0.431822	-5.40803	0.00538854	-0.0188373	18.3564
28	-0.17641	0.0194263	0.0181715	0.0473412	0.00220747	0.0335536	0.0252728	-0.0300028	0.00380187	0.0289075	0.130414	0.0427452	0.0524039	-0.00139302	0.0126701	-2.39628	0.0278503	-1.53527	0	0	0	0	-0	0	0	0	-0.1265	0	-0	0	0	0	0	0	-0	0	0.105	0.015	0	0	-0	0	0	0.098	0.1	0	-0	0	0	0	0	0	-0	0	0.05595	0	0	0	-0	0	0	0	0	0	-0	0	573.329	568.832	310.254	218.168	0.433146	-5.42653	0.0052569	-0.018884	18.4587
29	-0.179144	0.0194349	0.0181649	0.0473493	0.00220456	0.033557	0.0252727	-0.0300025	0.00380206	0.0268426	0.128942	0.0499568	0.0524359	-0.00139294	0.0125276	-2.39942	0.028189	-1.53518	0	0	0	0	-0	0	0	0	-0.1265	0	-0	0	0	0	0	0	-0	0	0.105	0.015	0	0	-0	0	0	0.098	0.1	0	-0	0	0	0	0	0	-0	0	0.05595	0	0	0	-0	0	0	0	0	0	-0	0	573.405	568.98	310.076	218.397	0.434658	-5.45344	0.00513775	-0.0189636	18.6102
30	-0.176106	0.0194418	0.018154	0.0473682	0.00220464	0.0335611	0.0252746	-0.0300043	0.00380608	0.0311066	0.11946	0.036519	0.052394	-0.00139299	0.0126888	-2.39697	0.0284361	-1.53484	0	0	0	0	-0	0	0	0	-0.1265	0	-0	0	0	0	0	0	-0	0	0.105	0.015	0	0	-0	0	0	0.098	0.1	0	-0	0	0	0	0	0	-0	0	0.05595	0	0	0	-0	0	0	0	0	0	-0	0	573.517	569.181	309.818	218.732	0.436832	-5.49343	0.00499144	-0.0190834	18.8346
31	-0.167623	0.0194202	0.0181433	0.0474172	0.00222515	0.0335802	0.0252759	-0.0300074	0.0038097	0.0445853	0.123493	0.0256658	0.0522835	-0.00139348	0.0131324	-2.38891	0.0284142	-1.53439	0	0	0	0	-0	0	0	0	-0.1265	0	-0	0	0	0	0	0	-0	0	0.105	0.015	0	0	-0	0	0	0.098	0.1	0	-0	0	0	0	0	0	-0	0	0.05595	0	0	0	-0	0	0	0	0	0	-0	0	573.584	569.322	309.63	218.977	0.439674	-5.52728	0.00476186	-0.0191577	19.0075
32	-0.174905	0.0194235	0.0181363	0.0473985	0.00223425	0.0335932	0.0252731	-0.0300033	0.00380653	0.0503913	0.125364	0.0292086	0.0523768	-0.00139228	0.0127509	-2.39651	0.028873	-1.53445	0	0	0	0	-0	0	0	0	-0.1265	0	-0	0	0	0	0	0	-0	0	0.105	0.015	0	0	-0	0	0	0.098	0.1	0	-0	0	0	0	0	0	-0	0	0.05595	0	0	0	-0	0	0	0	0	0	-0	0	573.632	569.425	309.485	219.157	0.441417	-5.55162	0.00465145	-0.0192139	19.1333
33	-0.167504	0.0194522	0.0181252	0.0473928	0.00221083	0.0335828	0.0252726	-0.0300043	0.00380484	0.0383373	0.120577	0.0309015	0.052278	-0.00139199	0.0131409	-2.38957	0.028874	-1.53405	0	0	0	0	-0	0	0	0	-0.1265	0	-0	0	0	0	0	0	-0	0	0.105	0.015	0	0	-0	0	0	0.098	0.1	0	-0	0	0	0	0	0	-0	0	0.05595	0	0	0	-0	0	0	0	0	0	-0	0	573.715	569.563	309.271	219.418	0.442723	-5.58457	0.0046337	-0.0193232	19.3207
34	-0.169586	0.0194589	0.018116	0.0473925	0.00221159	0.0335837	0.0252737	-0.0300048	0.00380447	0.0266323	0.110918	0.0306553	0.0523022	-0.00139106	0.0130324	-2.39202	0.029182	-1.53395	0	0	0	0	-0	0	0	0	-0.1265	0	-0	0	0	0	0	0	-0	0	0.105	0.015	0	0	-0	0	0	0.098	0.1	0	-0	0	0	0	0	0	-0	0	0.05595	0	0	0	-0	0	0	0	0	0	-0	0	573.774	569.679	309.097	219.632	0.444709	-5.61394	0.00451918	-0.0193978	19.4746
35	-0.171748	0.0194452	0.0181093	0.0474067	0.00222648	0.0335933	0.0252727	-0.0300019	0.00380504	0.02535	0.100869	0.0352269	0.0523291	-0.00139067	0.012918	-2.39446	0.0294526	-1.53387	0	0	0	0	-0	0	0	0	-0.1265	0	-0	0	0	0	0	0	-0	0	0.105	0.015	0	0	-0	0	0	0.098	0.1	0	-0	0	0	0	0	0	-0	0	0.05595	0	0	0	-0	0	0	0	0	0	-0	0	573.813	569.761	308.968	219.79	0.446616	-5.63693	0.00438312	-0.019449	19.591
36	-0.167459	0.0194549	0.0181012	0.0474211	0.002218	0.0335914	0.0252723	-0.0300039	0.00380578	0.0362565	0.106972	0.0428459	0.0522716	-0.00139088	0.0131425	-2.39057	0.0295515	-1.53356	0	0	0	0	-0	0	0	0	-0.1265	0	-0	0	0	0	0	0	-0	0	0.105	0.015	0	0	-0	0	0	0.098	0.1	0	-0	0	0	0	0	0	-0	0	0.05595	0	0	0	-0	0	0	0	0	0	-0	0	573.877	569.876	308.777	220.019	0.448231	-5.66775	0.00431371	-0.0195418	19.7619
37	-0.162495	0.0194574	0.0180936	0.0474223	0.00222129	0.0335957	0.0252734	-0.0300009	0.00380536	0.0363467	0.090813	0.0465996	0.0522045	-0.00139035	0.0134024	-2.3859	0.0295576	-1.53327	0	0	0	0	-0	0	0	0	-0.1265	0	-0	0	0	0	0	0	-0	0	0.105	0.015	0	0	-0	0	0	0.098	0.1	0	-0	0	0	0	0	0	-0	0	0.05595	0	0	0	-0	0	0	0	0	0	-0	0	573.92	569.961	308.636	220.187	0.450052	-5.69343	0.00422451	-0.019605	19.8921
38	-0.167478	0.0194538	0.0180903	0.0474244	0.00222399	0.0335996	0.0252703	-0.0300004	0.00380553	0.0388302	0.0881394	0.0487513	0.0522705	-0.00139004	0.0131406	-2.39109	0.0298924	-1.53331	0	0	0	0	-0	0	0	0	-0.1265	0	-0	0	0	0	0	0	-0	0	0.105	0.015	0	0	-0	0	0	0.098	0.1	0	-0	0	0	0	0	0	-0	0	0.05595	0	0	0	-0	0	0	0	0	0	-0	0	573.946	570.022	308.53	220.311	0.451444	-5.7117	0.0041334	-0.0196455	19.9869
39	-0.160736	0.0194726	0.018081	0.0474391	0.00220684	0.0335922	0.0252705	-0.0300017	0.00380618	0.0303336	0.082748	0.0525747	0.0521791	-0.00139043	0.0134946	-2.38466	0.0298388	-1.53297	0	0	0	0	-0	0	0	0	-0.1265	0	-0	0	0	0	0	0	-0	0	0.105	0.015	0	0	-0	0	0	0.098	0.1	0	-0	0	0	0	0	0	-0	0	0.05595	0	0	0	-0	0	0	0	0	0	-0	0	573.996	570.106	308.375	220.491	0.452716	-5.73824	0.00411483	-0.0197291	20.1309
40	-0.148679	0.0194725	0.0180759	0.0474376	0.0022111	0.0335956	0.0252689	-0.0300004	0.00380594	0.0256656	0.0848585	0.0524858	0.0520145	-0.00139002	0.0141234	-2.37284	0.0295356	-1.53249	0	0	0	0	-0	0	0	0	-0.1265	0	-0	0	0	0	0	0	-0	0	0.105	0.015	0	0	-0	0	0	0.098	0.1	0	-0	0	0	0	0	0	-0	0	0.05595	0	0	0	-0	0	0	0	0	0	-0	0	574.026	570.168	308.261	220.623	0.454314	-5.75973	0.00404002	-0.0197806	20.2374
41	-0.154062	0.0194981	0.0180676	0.0474204	0.00219483	0.033587	0.0252687	-0.0300017	0.00380417	0.0355731	0.0847344	0.0475442	0.0520861	-0.00138985	0.0138431	-2.37872	0.0300614	-1.53242	0	0	0	0	-0	0	0	0	-0.1265	0	-0	0	0	0	0	0	-0	0	0.105	0.015	0	0	-0	0	0	0.098	0.1	0	-0	0	0	0	0	0	-0	0	0.05595	0	0	0	-0	0	0	0	0	0	-0	0	574.105	570.295	308.009	220.909	0.456065	-5.8018	0.00403849	-0.0199064	20.47
42	-0.157904	0.0194862	0.0180585	0.0474447	0.00220489	0.0335936	0.0252678	-0.0300015	0.00380602	0.0461504	0.0834238	0.0479837	0.052136	-0.00138938	0.0136437	-2.38269	0.0303094	-1.53245	0	0	0	0	-0	0	0	0	-0.1265	0	-0	0	0	0	0	0	-0	0	0.105	0.015	0	0	-0	0	0	0.098	0.1	0	-0	0	0	0	0	0	-0	0	0.05595	0	0	0	-0	0	0	0	0	0	-0	0	574.12	570.332	307.942	220.986	0.457894	-5.81696	0.00391496	-0.0199338	20.5342
43	-0.154724	0.0194846	0.0180523	0.0474636	0.00220513	0.0335952	0.0252684	-0.0300011	0.00380795	0.03944	0.0851437	0.055168	0.0520911	-0.00138978	0.0138089	-2.37969	0.030317	-1.53226	0	0	0	0	-0	0	0	0	-0.1265	0	-0	0	0	0	0	0	-0	0	0.105	0.015	0	0	-0	0	0	0.098	0.1	0	-0	0	0	0	0	0	-0	0	0.05595	0	0	0	-0	0	0	0	0	0	-0	0	574.142	570.381	307.851	221.088	0.459208	-5.83498	0.00384665	-0.0199794	20.6246
44	-0.156291	0.0194749	0.0180485	0.0474838	0.00221152	0.0336015	0.0252694	-0.0300006	0.00380882	0.0340936	0.079056	0.0602976	0.0521116	-0.00139027	0.0137264	-2.38142	0.0305072	-1.53221	0	0	0	0	-0	0	0	0	-0.1265	0	-0	0	0	0	0	0	-0	0	0.105	0.015	0	0	-0	0	0	0.098	0.1	0	-0	0	0	0	0	0	-0	0	0.05595	0	0	0	-0	0	0	0	0	0	-0	0	574.161	570.424	307.763	221.186	0.460646	-5.85277	0.00376626	-0.020021	20.7119
45	-0.155168	0.0194718	0.0180434	0.0474928	0.00221671	0.0336066	0.0252687	-0.0300046	0.00380589	0.0174904	0.0867373	0.0458309	0.0520958	-0.00139032	0.0137829	-2.38066	0.0307287	-1.53197	0	0	0	0	-0	0	0	0	-0.1265	0	-0	0	0	0	0	0	-0	0	0.105	0.015	0	0	-0	0	0	0.098	0.1	0	-0	0	0	0	0	0	-0	0	0.05595	0	0	0	-0	0	0	0	0	0	-0	0	574.205	570.507	307.572	221.399	0.462989	-5.89042	0.00369188	-0.0201146	20.9049
46	-0.161802	0.0194949	0.018037	0.0474372	0.00221405	0.0336043	0.025269	-0.0300008	0.00380444	0.0142408	0.0767149	0.0439645	0.052188	-0.00138743	0.0134373	-2.38748	0.0310895	-1.5321	0	0	0	0	-0	0	0	0	-0.1265	0	-0	0	0	0	0	0	-0	0	0.105	0.015	0	0	-0	0	0	0.098	0.1	0	-0	0	0	0	0	0	-0	0	0.05595	0	0	0	-0	0	0	0	0	0	-0	0	574.22	570.553	307.474	221.504	0.46432	-5.90996	0.00366805	-0.0201508	20.9967
47	-0.166246	0.0194862	0.0180311	0.0474611	0.00221607	0.033608	0.0252674	-0.0300002	0.00380614	0.0213918	0.0769301	0.0464758	0.0522464	-0.00138785	0.0132031	-2.39213	0.0314266	-1.53212	0	0	0	0	-0	0	0	0	-0.1265	0	-0	0	0	0	0	0	-0	0	0.105	0.015	0	0	-0	0	0	0.098	0.1	0	-0	0	0	0	0	0	-0	0	0.05595	0	0	0	-0	0	0	0	0	0	-0	0	574.241	570.6	307.361	221.624	0.465952	-5.93171	0.00358022	-0.0202031	21.1069
48	-0.161144	0.0194902	0.0180234	0.047486	0.00220984	0.0336065	0.0252675	-0.0300014	0.00380843	0.0328742	0.0783823	0.0431399	0.0521772	-0.00138855	0.0134691	-2.38732	0.0314546	-1.53179	0	0	0	0	-0	0	0	0	-0.1265	0	-0	0	0	0	0	0	-0	0	0.105	0.015	0	0	-0	0	0	0.098	0.1	0	-0	0	0	0	0	0	-0	0	0.05595	0	0	0	-0	0	0	0	0	0	-0	0	574.276	570.665	307.198	221.799	0.467967	-5.9641	0.00352643	-0.0202894	21.2715
49	-0.162228	0.0194835	0.0180187	0.0474995	0.00221546	0.0336124	0.0252668	-0.0300004	0.00380962	0.0426692	0.0763183	0.0416419	0.0521903	-0.00138868	0.0134122	-2.38853	0.0315952	-1.53175	0	0	0	0	-0	0	0	0	-0.1265	0	-0	0	0	0	0	0	-0	0	0.105	0.015	0	0	-0	0	0	0.098	0.1	0	-0	0	0	0	0	0	-0	0	0.05595	0	0	0	-0	0	0	0	0	0	-0	0	574.285	570.694	307.131	221.869	0.469458	-5.97926	0.00344501	-0.0203187	21.3389
50	-0.158572	0.019482	0.0180137	0.0475195	0.0022133	0.0336132	0.0252673	-0.0299996	0.00381048	0.0364615	0.0728898	0.0384239	0.0521404	-0.00138928	0.0136023	-2.38503	0.0315808	-1.53154	0	0	0	0	-0	0	0	0	-0.1265	0	-0	0	0	0	0	0	-0	0	0.105	0.015	0	0	-0	0	0	0.098	0.1	0	-0	0	0	0	0	0	-0	0	0.05595	0	0	0	-0	0	0	0	0	0	-0	0	574.301	570.729	307.041	221.963	0.470779	-5.99795	0.00339507	-0.0203664	21.4313
51	-0.157181	0.0194802	0.0180127	0.0475184	0.00221438	0.0336152	0.025267	-0.0299988	0.00381026	0.0380036	0.0747616	0.0419169	0.0521208	-0.00138917	0.0136747	-2.3837	0.0315774	-1.53145	0	0	0	0	-0	0	0	0	-0.1265	0	-0	0	0	0	0	0	-0	0	0.105	0.015	0	0	-0	0	0	0.098	0.1	0	-0	0	0	0	0	0	-0	0	0.05595	0	0	0	-0	0	0	0	0	0	-0	0	574.306	570.743	307.004	222	0.471527	-6.00609	0.00335942	-0.0203797	21.4684
52	-0.15659	0.0194811	0.0180099	0.047527	0.00221239	0.033615	0.0252683	-0.0299998	0.00381108	0.0327183	0.0681862	0.0345948	0.0521125	-0.00138934	0.0137045	-2.38325	0.0316626	-1.53136	0	0	0	0	-0	0	0	0	-0.1265	0	-0	0	0	0	0	0	-0	0	0.105	0.015	0	0	-0	0	0	0.098	0.1	0	-0	0	0	0	0	0	-0	0	0.05595	0	0	0	-0	0	0	0	0	0	-0	0	574.319	570.773	306.925	222.081	0.472584	-6.02216	0.00332501	-0.0204195	21.549
53	-0.155559	0.0194715	0.0180068	0.047536	0.00222283	0.0336224	0.0252676	-0.0299987	0.00381158	0.0315166	0.0638137	0.0378153	0.0520988	-0.00138928	0.013756	-2.38242	0.0317888	-1.53119	0	0	0	0	-0	0	0	0	-0.1265	0	-0	0	0	0	0	0	-0	0	0.105	0.015	0	0	-0	0	0	0.098	0.1	0	-0	0	0	0	0	0	-0	0	0.05595	0	0	0	-0	0	0	0	0	0	-0	0	574.334	570.812	306.809	222.2	0.474491	-6.04726	0.00324759	-0.0204741	21.6696
54	-0.161311	0.0194771	0.0180016	0.047541	0.00221774	0.0336216	0.0252673	-0.029999	0.00381203	0.0262213	0.063534	0.0435802	0.0521775	-0.00138922	0.0134558	-2.38835	0.0321589	-1.53127	0	0	0	0	-0	0	0	0	-0.1265	0	-0	0	0	0	0	0	-0	0	0.105	0.015	0	0	-0	0	0	0.098	0.1	0	-0	0	0	0	0	0	-0	0	0.05595	0	0	0	-0	0	0	0	0	0	-0	0	574.351	570.848	306.702	222.308	0.475995	-6.06997	0.00321357	-0.0205274	21.7811
55	-0.174403	0.0194825	0.0179901	0.0475583	0.0022171	0.033622	0.0252687	-0.0300045	0.00381853	0.0432812	0.0544132	0.0289586	0.0523526	-0.00138966	0.012769	-2.40221	0.0332711	-1.53125	0	0	0	0	-0	0	0	0	-0.1265	0	-0	0	0	0	0	0	-0	0	0.105	0.015	0	0	-0	0	0	0.098	0.1	0	-0	0	0	0	0	0	-0	0	0.05595	0	0	0	-0	0	0	0	0	0	-0	0	574.43	570.966	306.266	222.762	0.481328	-6.16423	0.00319346	-0.0207608	22.2563
56	-0.175869	0.0194619	0.0179784	0.0475726	0.00223838	0.0336434	0.0252676	-0.0299992	0.00381567	0.0466684	0.0471739	0.0278306	0.0523661	-0.00138932	0.0126912	-2.40377	0.0334333	-1.53121	0	0	0	0	-0	0	0	0	-0.1265	0	-0	0	0	0	0	0	-0	0	0.105	0.015	0	0	-0	0	0	0.098	0.1	0	-0	0	0	0	0	0	-0	0	0.05595	0	0	0	-0	0	0	0	0	0	-0	0	574.427	570.99	306.205	222.821	0.484038	-6.18287	0.00301243	-0.0207759	22.3215
57	-0.17041	0.0194676	0.0179725	0.0475814	0.00222865	0.0336381	0.0252665	-0.029998	0.00381455	0.043342	0.0464179	0.0253206	0.0522959	-0.00138916	0.0129755	-2.39844	0.0333296	-1.53096	0	0	0	0	-0	0	0	0	-0.1265	0	-0	0	0	0	0	0	-0	0	0.105	0.015	0	0	-0	0	0	0.098	0.1	0	-0	0	0	0	0	0	-0	0	0.05595	0	0	0	-0	0	0	0	0	0	-0	0	574.43	571.018	306.122	222.899	0.485526	-6.20215	0.00295151	-0.0208148	22.4133
58	-0.169855	0.0194775	0.017971	0.0475693	0.00222061	0.0336327	0.0252661	-0.0299977	0.00381304	0.0426388	0.0468618	0.0295297	0.0522881	-0.00138856	0.0130042	-2.39795	0.0333455	-1.53092	0	0	0	0	-0	0	0	0	-0.1265	0	-0	0	0	0	0	0	-0	0	0.105	0.015	0	0	-0	0	0	0.098	0.1	0	-0	0	0	0	0	0	-0	0	0.05595	0	0	0	-0	0	0	0	0	0	-0	0	574.43	571.031	306.087	222.931	0.486169	-6.21049	0.00293498	-0.0208265	22.4508
59	-0.165292	0.0194788	0.0179686	0.0475755	0.00221945	0.0336313	0.0252657	-0.0299982	0.00381243	0.0503771	0.042454	0.0361515	0.0522291	-0.00138836	0.0132412	-2.39349	0.0332587	-1.5307	0	0	0	0	-0	0	0	0	-0.1265	0	-0	0	0	0	0	0	-0	0	0.105	0.015	0	0	-0	0	0	0.098	0.1	0	-0	0	0	0	0	0	-0	0	0.05595	0	0	0	-0	0	0	0	0	0	-0	0	574.432	571.051	306.017	222.996	0.487435	-6.22689	0.00288633	-0.0208609	22.5273
60	-0.163582	0.0194876	0.0179658	0.0475617	0.0022167	0.033629	0.0252668	-0.0299981	0.00381022	0.0541674	0.032742	0.0452625	0.052207	-0.00138761	0.0133288	-2.39195	0.0333239	-1.53055	0	0	0	0	-0	0	0	0	-0.1265	0	-0	0	0	0	0	0	-0	0	0.105	0.015	0	0	-0	0	0	0.098	0.1	0	-0	0	0	0	0	0	-0	0	0.05595	0	0	0	-0	0	0	0	0	0	-0	0	574.438	571.076	305.912	223.091	0.489046	-6.25115	0.0028614	-0.0209103	22.6416
61	-0.165116	0.0194871	0.0179619	0.0475543	0.00222236	0.0336316	0.025267	-0.0299973	0.00381311	0.0600734	0.0177026	0.0400862	0.052229	-0.00138659	0.013245	-2.39372	0.0335922	-1.53044	0	0	0	0	-0	0	0	0	-0.1265	0	-0	0	0	0	0	0	-0	0	0.105	0.015	0	0	-0	0	0	0.098	0.1	0	-0	0	0	0	0	0	-0	0	0.05595	0	0	0	-0	0	0	0	0	0	-0	0	574.445	571.114	305.76	223.231	0.491687	-6.28636	0.00277576	-0.0209801	22.8063
62	-0.165374	0.0194661	0.0179559	0.0476052	0.00223236	0.0336421	0.0252661	-0.0299974	0.00381521	0.065006	0.0124043	0.0457922	0.0522314	-0.00138796	0.0132299	-2.39408	0.0337308	-1.53035	0	0	0	0	-0	0	0	0	-0.1265	0	-0	0	0	0	0	0	-0	0	0.105	0.015	0	0	-0	0	0	0.098	0.1	0	-0	0	0	0	0	0	-0	0	0.05595	0	0	0	-0	0	0	0	0	0	-0	0	574.446	571.131	305.686	223.298	0.493709	-6.30592	0.00265832	-0.0210169	22.8915
63	-0.162941	0.0194764	0.0179538	0.0475954	0.00222476	0.0336398	0.0252655	-0.029997	0.00381443	0.0659262	0.0133412	0.0490802	0.052199	-0.00138766	0.0133574	-2.3917	0.0336662	-1.53025	0	0	0	0	-0	0	0	0	-0.1265	0	-0	0	0	0	0	0	-0	0	0.105	0.015	0	0	-0	0	0	0.098	0.1	0	-0	0	0	0	0	0	-0	0	0.05595	0	0	0	-0	0	0	0	0	0	-0	0	574.446	571.139	305.654	223.325	0.494284	-6.31372	0.00265507	-0.0210315	22.9256
64	-0.162825	0.0194794	0.0179521	0.0475958	0.00222117	0.0336381	0.0252654	-0.029997	0.00381428	0.0652582	0.0132794	0.0443775	0.0521972	-0.00138762	0.0133635	-2.39161	0.0336886	-1.53023	0	0	0	0	-0	0	0	0	-0.1265	0	-0	0	0	0	0	0	-0	0	0.105	0.015	0	0	-0	0	0	0.098	0.1	0	-0	0	0	0	0	0	-0	0	0.05595	0	0	0	-0	0	0	0	0	0	-0	0	574.446	571.144	305.632	223.344	0.494713	-6.31907	0.00264464	-0.0210427	22.9493
65	-0.162397	0.0194794	0.0179504	0.0475991	0.00222101	0.033638	0.0252656	-0.0299972	0.00381451	0.0622226	0.0102102	0.0488392	0.0521918	-0.00138763	0.0133849	-2.39125	0.0337374	-1.53016	0	0	0	0	-0	0	0	0	-0.1265	0	-0	0	0	0	0	0	-0	0	0.105	0.015	0	0	-0	0	0	0.098	0.1	0	-0	0	0	0	0	0	-0	0	0.05595	0	0	0	-0	0	0	0	0	0	-0	0	574.447	571.154	305.584	223.385	0.495578	-6.33054	0.00261806	-0.0210672	23.0021
66	-0.16529	0.0194779	0.0179483	0.0476029	0.0022229	0.0336396	0.0252651	-0.0299974	0.00381433	0.0690255	0.00718355	0.0534662	0.0522309	-0.00138758	0.0132326	-2.39424	0.0339537	-1.53019	0	0	0	0	-0	0	0	0	-0.1265	0	-0	0	0	0	0	0	-0	0	0.105	0.015	0	0	-0	0	0	0.098	0.1	0	-0	0	0	0	0	0	-0	0	0.05595	0	0	0	-0	0	0	0	0	0	-0	0	574.45	571.168	305.514	223.446	0.496867	-6.34771	0.00258215	-0.0211024	23.0813
67	-0.165091	0.0194844	0.0179444	0.0475986	0.0022196	0.0336382	0.0252658	-0.0299975	0.00381451	0.0667977	0.00222298	0.0468274	0.0522288	-0.00138717	0.0132414	-2.3942	0.034083	-1.53008	0	0	0	0	-0	0	0	0	-0.1265	0	-0	0	0	0	0	0	-0	0	0.105	0.015	0	0	-0	0	0	0.098	0.1	0	-0	0	0	0	0	0	-0	0	0.05595	0	0	0	-0	0	0	0	0	0	-0	0	574.454	571.186	305.409	223.534	0.498544	-6.37213	0.00255544	-0.0211555	23.1953
68	-0.167194	0.0194753	0.0179414	0.0476096	0.00222693	0.0336434	0.0252653	-0.0299968	0.00381527	0.0677948	0.00462675	0.04318	0.0522567	-0.00138717	0.0131303	-2.39637	0.0342486	-1.53009	0	0	0	0	-0	0	0	0	-0.1265	0	-0	0	0	0	0	0	-0	0	0.105	0.015	0	0	-0	0	0	0.098	0.1	0	-0	0	0	0	0	0	-0	0	0.05595	0	0	0	-0	0	0	0	0	0	-0	0	574.452	571.197	305.357	223.578	0.499908	-6.38568	0.00248604	-0.0211774	23.2527
69	-0.164922	0.0194789	0.0179386	0.0476129	0.00222313	0.0336431	0.0252653	-0.029997	0.0038154	0.0727525	0.00775392	0.040743	0.0522268	-0.00138715	0.0132484	-2.39417	0.034231	-1.52996	0	0	0	0	-0	0	0	0	-0.1265	0	-0	0	0	0	0	0	-0	0	0.105	0.015	0	0	-0	0	0	0.098	0.1	0	-0	0	0	0	0	0	-0	0	0.05595	0	0	0	-0	0	0	0	0	0	-0	0	574.453	571.207	305.301	223.624	0.500949	-6.39951	0.00246161	-0.0212056	23.3158
70	-0.170386	0.0194793	0.0179348	0.0476193	0.00222315	0.0336442	0.0252664	-0.0299995	0.00381615	0.0852883	0.0134019	0.0394416	0.0522995	-0.00138711	0.0129612	-2.39981	0.034622	-1.53002	0	0	0	0	-0	0	0	0	-0.1265	0	-0	0	0	0	0	0	-0	0	0.105	0.015	0	0	-0	0	0	0.098	0.1	0	-0	0	0	0	0	0	-0	0	0.05595	0	0	0	-0	0	0	0	0	0	-0	0	574.457	571.222	305.179	223.726	0.503037	-6.42889	0.00242592	-0.0212693	23.4519
71	-0.172005	0.0194747	0.0179293	0.0476167	0.00223308	0.0336516	0.0252655	-0.0299984	0.00381652	0.0763704	0.0140639	0.0442328	0.0523216	-0.0013864	0.0128723	-2.40167	0.034936	-1.52989	0	0	0	0	-0	0	0	0	-0.1265	0	-0	0	0	0	0	0	-0	0	0.105	0.015	0	0	-0	0	0	0.098	0.1	0	-0	0	0	0	0	0	-0	0	0.05595	0	0	0	-0	0	0	0	0	0	-0	0	574.456	571.245	305.001	223.873	0.506477	-6.47387	0.00234044	-0.0213563	23.655
72	-0.172361	0.0194765	0.017922	0.0476317	0.00222908	0.0336533	0.0252647	-0.0299969	0.00381649	0.0811132	0.0111686	0.0486222	0.0523246	-0.0013863	0.0128546	-2.40208	0.0350066	-1.52986	0	0	0	0	-0	0	0	0	-0.1265	0	-0	0	0	0	0	0	-0	0	0.105	0.015	0	0	-0	0	0	0.098	0.1	0	-0	0	0	0	0	0	-0	0	0.05595	0	0	0	-0	0	0	0	0	0	-0	0	574.454	571.252	304.961	223.904	0.507791	-6.48552	0.00228311	-0.0213747	23.7
73	-0.17187	0.0194871	0.017918	0.0476326	0.00221923	0.0336503	0.0252641	-0.029996	0.00381637	0.0837056	0.00830149	0.0486012	0.0523182	-0.00138593	0.0128798	-2.40169	0.0350984	-1.52977	0	0	0	0	-0	0	0	0	-0.1265	0	-0	0	0	0	0	0	-0	0	0.105	0.015	0	0	-0	0	0	0.098	0.1	0	-0	0	0	0	0	0	-0	0	0.05595	0	0	0	-0	0	0	0	0	0	-0	0	574.453	571.261	304.874	223.971	0.50938	-6.50668	0.00225841	-0.0214198	23.7951
74	-0.168662	0.0194917	0.017915	0.0476393	0.00221376	0.0336494	0.0252641	-0.0299958	0.00381679	0.0855751	0.0122069	0.0505206	0.0522763	-0.0013858	0.013048	-2.39854	0.0350303	-1.52962	0	0	0	0	-0	0	0	0	-0.1265	0	-0	0	0	0	0	0	-0	0	0.105	0.015	0	0	-0	0	0	0.098	0.1	0	-0	0	0	0	0	0	-0	0	0.05595	0	0	0	-0	0	0	0	0	0	-0	0	574.451	571.267	304.826	224.007	0.510543	-6.51939	0.00222336	-0.0214432	23.8486
75	-0.170492	0.0194934	0.0179138	0.0476408	0.0022125	0.0336506	0.0252637	-0.0299958	0.00381662	0.0903602	0.00944265	0.0527372	0.0523	-0.00138566	0.012952	-2.40041	0.0351549	-1.52965	0	0	0	0	-0	0	0	0	-0.1265	0	-0	0	0	0	0	0	-0	0	0.105	0.015	0	0	-0	0	0	0.098	0.1	0	-0	0	0	0	0	0	-0	0	0.05595	0	0	0	-0	0	0	0	0	0	-0	0	574.449	571.271	304.79	224.034	0.511436	-6.52903	0.00219177	-0.0214595	23.8891
76	-0.167725	0.0194982	0.0179119	0.0476405	0.0022089	0.0336501	0.0252638	-0.0299958	0.00381649	0.0905592	0.00822147	0.0574538	0.0522638	-0.00138542	0.013097	-2.39768	0.0350748	-1.52953	0	0	0	0	-0	0	0	0	-0.1265	0	-0	0	0	0	0	0	-0	0	0.105	0.015	0	0	-0	0	0	0.098	0.1	0	-0	0	0	0	0	0	-0	0	0.05595	0	0	0	-0	0	0	0	0	0	-0	0	574.448	571.275	304.763	224.054	0.51204	-6.53603	0.00217871	-0.0214732	23.9187
77	-0.167728	0.0194986	0.0179112	0.0476395	0.00220916	0.0336509	0.0252637	-0.0299956	0.0038165	0.0892769	0.00534177	0.0591331	0.0522637	-0.00138526	0.0130967	-2.39771	0.0351029	-1.52951	0	0	0	0	-0	0	0	0	-0.1265	0	-0	0	0	0	0	0	-0	0	0.105	0.015	0	0	-0	0	0	0.098	0.1	0	-0	0	0	0	0	0	-0	0	0.05595	0	0	0	-0	0	0	0	0	0	-0	0	574.448	571.278	304.742	224.068	0.512517	-6.54138	0.00216304	-0.0214822	23.9415
78	-0.169067	0.0194982	0.0179097	0.047645	0.00220898	0.0336514	0.0252635	-0.0299954	0.00381686	0.0869554	0.00859843	0.0578249	0.0522815	-0.00138532	0.0130257	-2.3991	0.0352221	-1.52951	0	0	0	0	-0	0	0	0	-0.1265	0	-0	0	0	0	0	0	-0	0	0.105	0.015	0	0	-0	0	0	0.098	0.1	0	-0	0	0	0	0	0	-0	0	0.05595	0	0	0	-0	0	0	0	0	0	-0	0	574.446	571.282	304.697	224.101	0.513386	-6.55261	0.0021402	-0.0215058	23.9921
79	-0.171395	0.0195008	0.0179071	0.0476497	0.00220659	0.0336514	0.0252641	-0.0299955	0.00381667	0.0878256	0.00169424	0.0626771	0.0523119	-0.00138525	0.0129032	-2.40151	0.0354097	-1.52953	0	0	0	0	-0	0	0	0	-0.1265	0	-0	0	0	0	0	0	-0	0	0.105	0.015	0	0	-0	0	0	0.098	0.1	0	-0	0	0	0	0	0	-0	0	0.05595	0	0	0	-0	0	0	0	0	0	-0	0	574.445	571.289	304.629	224.15	0.514691	-6.56962	0.00211153	-0.0215409	24.0681
80	-0.177623	0.0195012	0.0179046	0.0476472	0.0022084	0.0336532	0.0252639	-0.0299965	0.00381698	0.0957614	0.00463652	0.0631345	0.0523929	-0.00138481	0.0125757	-2.40785	0.0358025	-1.52965	0	0	0	0	-0	0	0	0	-0.1265	0	-0	0	0	0	0	0	-0	0	0.105	0.015	0	0	-0	0	0	0.098	0.1	0	-0	0	0	0	0	0	-0	0	0.05595	0	0	0	-0	0	0	0	0	0	-0	0	574.444	571.298	304.53	224.222	0.51661	-6.59458	0.00206845	-0.0215892	24.1799
81	-0.180282	0.0195068	0.0179008	0.0476403	0.00220675	0.0336555	0.0252631	-0.029996	0.00381599	0.102092	0.00107556	0.066671	0.0524254	-0.00138412	0.0124363	-2.41057	0.0359765	-1.5297	0	0	0	0	-0	0	0	0	-0.1265	0	-0	0	0	0	0	0	-0	0	0.105	0.015	0	0	-0	0	0	0.098	0.1	0	-0	0	0	0	0	0	-0	0	0.05595	0	0	0	-0	0	0	0	0	0	-0	0	574.441	571.301	304.479	224.258	0.51781	-6.60786	0.00204067	-0.0216126	24.2342
82	-0.180093	0.0195119	0.0178971	0.0476433	0.00220237	0.0336542	0.0252637	-0.0299965	0.00381666	0.0962546	-0.000809637	0.0732852	0.0524224	-0.00138384	0.0124463	-2.41042	0.0360179	-1.52966	0	0	0	0	-0	0	0	0	-0.1265	0	-0	0	0	0	0	0	-0	0	0.105	0.015	0	0	-0	0	0	0.098	0.1	0	-0	0	0	0	0	0	-0	0	0.05595	0	0	0	-0	0	0	0	0	0	-0	0	574.439	571.305	304.441	224.284	0.518666	-6.61761	0.00201819	-0.0216324	24.2753
83	-0.18077	0.0195011	0.0178953	0.0476571	0.00221058	0.0336585	0.0252632	-0.0299956	0.00381808	0.0919426	0.00230593	0.0757371	0.0524317	-0.0013842	0.0124081	-2.41119	0.0361717	-1.52959	0	0	0	0	-0	0	0	0	-0.1265	0	-0	0	0	0	0	0	-0	0	0.105	0.015	0	0	-0	0	0	0.098	0.1	0	-0	0	0	0	0	0	-0	0	0.05595	0	0	0	-0	0	0	0	0	0	-0	0	574.435	571.308	304.358	224.342	0.520332	-6.63814	0.0019642	-0.0216747	24.3669
84	-0.180425	0.0195035	0.0178917	0.0476691	0.00220602	0.0336588	0.0252631	-0.0299954	0.00381859	0.0870392	0.000700161	0.0757403	0.0524269	-0.00138439	0.0124262	-2.4109	0.0362272	-1.52953	0	0	0	0	-0	0	0	0	-0.1265	0	-0	0	0	0	0	0	-0	0	0.105	0.015	0	0	-0	0	0	0.098	0.1	0	-0	0	0	0	0	0	-0	0	0.05595	0	0	0	-0	0	0	0	0	0	-0	0	574.433	571.311	304.308	224.376	0.52146	-6.65108	0.00193298	-0.0217016	24.4224
85	-0.180314	0.0195053	0.0178899	0.0476715	0.00220421	0.0336595	0.0252636	-0.0299953	0.00381845	0.0893146	0.00639997	0.0717378	0.0524253	-0.00138428	0.0124319	-2.41083	0.036274	-1.52949	0	0	0	0	-0	0	0	0	-0.1265	0	-0	0	0	0	0	0	-0	0	0.105	0.015	0	0	-0	0	0	0.098	0.1	0	-0	0	0	0	0	0	-0	0	0.05595	0	0	0	-0	0	0	0	0	0	-0	0	574.43	571.313	304.27	224.401	0.522362	-6.66105	0.0019068	-0.0217202	24.4641
86	-0.17996	0.0195039	0.0178884	0.0476718	0.00220621	0.0336615	0.0252638	-0.0299972	0.0038192	0.0782934	0.00421755	0.0751414	0.0524218	-0.00138405	0.0124485	-2.41057	0.0363758	-1.52939	0	0	0	0	-0	0	0	0	-0.1265	0	-0	0	0	0	0	0	-0	0	0.105	0.015	0	0	-0	0	0	0.098	0.1	0	-0	0	0	0	0	0	-0	0	0.05595	0	0	0	-0	0	0	0	0	0	-0	0	574.424	571.315	304.187	224.456	0.524041	-6.68235	0.0018695	-0.0217611	24.5577
87	-0.181101	0.0194989	0.0178853	0.0476772	0.00221233	0.0336665	0.0252637	-0.029996	0.00381959	0.0759826	0.00416487	0.0815602	0.0524362	-0.00138393	0.012388	-2.41175	0.0364854	-1.52939	0	0	0	0	-0	0	0	0	-0.1265	0	-0	0	0	0	0	0	-0	0	0.105	0.015	0	0	-0	0	0	0.098	0.1	0	-0	0	0	0	0	0	-0	0	0.05595	0	0	0	-0	0	0	0	0	0	-0	0	574.42	571.318	304.145	224.484	0.525201	-6.69388	0.00182189	-0.0217808	24.6038
88	-0.181315	0.0195019	0.0178818	0.0476828	0.00220837	0.0336664	0.0252647	-0.0299946	0.00381929	0.0743363	0.0177746	0.078857	0.0524393	-0.00138387	0.0123751	-2.41206	0.0366209	-1.52931	0	0	0	0	-0	0	0	0	-0.1265	0	-0	0	0	0	0	0	-0	0	0.105	0.015	0	0	-0	0	0	0.098	0.1	0	-0	0	0	0	0	0	-0	0	0.05595	0	0	0	-0	0	0	0	0	0	-0	0	574.414	571.319	304.053	224.544	0.526981	-6.71731	0.00179035	-0.0218295	24.7077
89	-0.188756	0.0194979	0.0178796	0.0476861	0.0022114	0.0336691	0.0252642	-0.0299959	0.00382009	0.0708365	0.0178677	0.0877646	0.0525328	-0.00138356	0.0119815	-2.41964	0.0371176	-1.52944	0	0	0	0	-0	0	0	0	-0.1265	0	-0	0	0	0	0	0	-0	0	0.105	0.015	0	0	-0	0	0	0.098	0.1	0	-0	0	0	0	0	0	-0	0	0.05595	0	0	0	-0	0	0	0	0	0	-0	0	574.402	571.319	303.92	224.632	0.529762	-6.75186	0.00172429	-0.0218941	24.8589
90	-0.188855	0.0195102	0.0178743	0.0476753	0.00220481	0.0336708	0.0252628	-0.0299956	0.00381847	0.0644162	0.0188333	0.0840669	0.0525327	-0.00138252	0.0119764	-2.41981	0.0372067	-1.52939	0	0	0	0	-0	0	0	0	-0.1265	0	-0	0	0	0	0	0	-0	0	0.105	0.015	0	0	-0	0	0	0.098	0.1	0	-0	0	0	0	0	0	-0	0	0.05595	0	0	0	-0	0	0	0	0	0	-0	0	574.394	571.32	303.851	224.675	0.531489	-6.77079	0.00168835	-0.0219269	24.9345
91	-0.186141	0.0195183	0.0178681	0.0476831	0.00219745	0.033668	0.0252634	-0.0299965	0.00381935	0.0728848	0.0223905	0.0777564	0.0525	-0.00138217	0.0121182	-2.4172	0.0372299	-1.5292	0	0	0	0	-0	0	0	0	-0.1265	0	-0	0	0	0	0	0	-0	0	0.105	0.015	0	0	-0	0	0	0.098	0.1	0	-0	0	0	0	0	0	-0	0	0.05595	0	0	0	-0	0	0	0	0	0	-0	0	574.388	571.32	303.749	224.737	0.533495	-6.79608	0.00165469	-0.0219823	25.0439
92	-0.18535	0.01951	0.0178653	0.0476915	0.0022055	0.0336733	0.0252644	-0.0299954	0.00381924	0.0746182	0.0320839	0.0707909	0.0524909	-0.00138212	0.0121578	-2.41648	0.0373098	-1.52909	0	0	0	0	-0	0	0	0	-0.1265	0	-0	0	0	0	0	0	-0	0	0.105	0.015	0	0	-0	0	0	0.098	0.1	0	-0	0	0	0	0	0	-0	0	0.05595	0	0	0	-0	0	0	0	0	0	-0	0	574.378	571.32	303.674	224.783	0.535491	-6.81687	0.00157774	-0.0220178	25.1287
93	-0.179914	0.0195082	0.017864	0.0476873	0.00220798	0.0336762	0.0252628	-0.0299951	0.00382044	0.0689985	0.0375455	0.0761656	0.0524256	-0.00138161	0.0124413	-2.4111	0.037163	-1.52883	0	0	0	0	-0	0	0	0	-0.1265	0	-0	0	0	0	0	0	-0	0	0.105	0.015	0	0	-0	0	0	0.098	0.1	0	-0	0	0	0	0	0	-0	0	0.05595	0	0	0	-0	0	0	0	0	0	-0	0	574.369	571.32	303.617	224.817	0.536941	-6.8323	0.00152628	-0.0220416	25.1922
94	-0.179211	0.0195169	0.0178584	0.0477032	0.00219739	0.0336751	0.0252622	-0.0299945	0.00381994	0.0736912	0.0310908	0.0812178	0.052416	-0.00138183	0.0124775	-2.41047	0.037247	-1.52873	0	0	0	0	-0	0	0	0	-0.1265	0	-0	0	0	0	0	0	-0	0	0.105	0.015	0	0	-0	0	0	0.098	0.1	0	-0	0	0	0	0	0	-0	0	0.05595	0	0	0	-0	0	0	0	0	0	-0	0	574.36	571.318	303.532	224.865	0.538696	-6.85406	0.00149544	-0.0220909	25.2851
95	-0.18649	0.019526	0.0178552	0.0477006	0.00218989	0.0336724	0.0252618	-0.0299939	0.00381993	0.0747433	0.0356842	0.081223	0.0525065	-0.00138128	0.0120961	-2.4178	0.0376328	-1.52895	0	0	0	0	-0	0	0	0	-0.1265	0	-0	0	0	0	0	0	-0	0	0.105	0.015	0	0	-0	0	0	0.098	0.1	0	-0	0	0	0	0	0	-0	0	0.05595	0	0	0	-0	0	0	0	0	0	-0	0	574.353	571.316	303.468	224.901	0.540186	-6.87114	0.00146889	-0.0221236	25.3548
96	-0.180403	0.019538	0.017851	0.0476963	0.00218056	0.0336704	0.0252627	-0.0299955	0.00381943	0.0815066	0.0397848	0.0736259	0.0524323	-0.00138069	0.0124145	-2.41184	0.037562	-1.52859	0	0	0	0	-0	0	0	0	-0.1265	0	-0	0	0	0	0	0	-0	0	0.105	0.015	0	0	-0	0	0	0.098	0.1	0	-0	0	0	0	0	0	-0	0	0.05595	0	0	0	-0	0	0	0	0	0	-0	0	574.343	571.311	303.328	224.979	0.542912	-6.90701	0.00144162	-0.0221976	25.51
97	-0.182564	0.0195311	0.017848	0.0476954	0.00218999	0.0336768	0.0252627	-0.0299949	0.00382025	0.0796326	0.0323159	0.0675193	0.0524589	-0.0013801	0.0122993	-2.41407	0.0377551	-1.5286	0	0	0	0	-0	0	0	0	-0.1265	0	-0	0	0	0	0	0	-0	0	0.105	0.015	0	0	-0	0	0	0.098	0.1	0	-0	0	0	0	0	0	-0	0	0.05595	0	0	0	-0	0	0	0	0	0	-0	0	574.331	571.309	303.258	225.018	0.54494	-6.92645	0.00136071	-0.0222275	25.5853
98	-0.186243	0.0195211	0.0178447	0.0477178	0.00219504	0.0336811	0.0252625	-0.0299943	0.00382196	0.0774921	0.0260575	0.0630831	0.0525041	-0.00138067	0.0121045	-2.41779	0.0379948	-1.52867	0	0	0	0	-0	0	0	0	-0.1265	0	-0	0	0	0	0	0	-0	0	0.105	0.015	0	0	-0	0	0	0.098	0.1	0	-0	0	0	0	0	0	-0	0	0.05595	0	0	0	-0	0	0	0	0	0	-0	0	574.323	571.308	303.206	225.046	0.546376	-6.94059	0.0012928	-0.0222543	25.643
99	-0.185078	0.0195231	0.0178424	0.0477255	0.00219135	0.033682	0.025262	-0.029994	0.00382199	0.0807856	0.0300447	0.0606045	0.0524895	-0.00138079	0.0121653	-2.41665	0.0380011	-1.52859	0	0	0	0	-0	0	0	0	-0.1265	0	-0	0	0	0	0	0	-0	0	0.105	0.015	0	0	-0	0	0	0.098	0.1	0	-0	0	0	0	0	0	-0	0	0.05595	0	0	0	-0	0	0	0	0	0	-0	0	574.317	571.307	303.166	225.066	0.547359	-6.95108	0.00126221	-0.0222758	25.6857
100	-0.181489	0.0195279	0.0178404	0.0477279	0.00218642	0.033681	0.0252612	-0.0299936	0.00382205	0.0789794	0.030972	0.0630676	0.0524455	-0.00138065	0.0123538	-2.41308	0.0378876	-1.52843	0	0	0	0	-0	0	0	0	-0.1265	0	-0	0	0	0	0	0	-0	0	0.105	0.015	0	0	-0	0	0	0.098	0.1	0	-0	0	0	0	0	0	-0	0	0.05595	0	0	0	-0	0	0	0	0	0	-0	0	574.312	571.306	303.136	225.081	0.548118	-6.95927	0.0012446	-0.0222921	25.7183
