Stefan210/kinematic_calibration/src/kinematic_calibration/validation/experiments/experiments/anzahl_messungen/AB_C/larm_71/optimization_intermediate_results.csv
iteration	HeadPitch_offset	HeadYaw_offset	LElbowRoll_offset	LElbowYaw_offset	LShoulderPitch_offset	LShoulderRoll_offset	marker_transform_larm_tx	marker_transform_larm_ty	marker_transform_larm_tz	marker_transform_larm_rr	marker_transform_larm_rp	marker_transform_larm_ry	camera_transform_tx	camera_transform_ty	camera_transform_tz	camera_transform_rr	camera_transform_rp	camera_transform_ry	HeadPitch_transform_tx	HeadPitch_transform_ty	HeadPitch_transform_tz	HeadPitch_transform_rr	HeadPitch_transform_rp	HeadPitch_transform_ry	HeadYaw_transform_tx	HeadYaw_transform_ty	HeadYaw_transform_tz	HeadYaw_transform_rr	HeadYaw_transform_rp	HeadYaw_transform_ry	LElbowRoll_transform_tx	LElbowRoll_transform_ty	LElbowRoll_transform_tz	LElbowRoll_transform_rr	LElbowRoll_transform_rp	LElbowRoll_transform_ry	LElbowYaw_transform_tx	LElbowYaw_transform_ty	LElbowYaw_transform_tz	LElbowYaw_transform_rr	LElbowYaw_transform_rp	LElbowYaw_transform_ry	LShoulderPitch_transform_tx	LShoulderPitch_transform_ty	LShoulderPitch_transform_tz	LShoulderPitch_transform_rr	LShoulderPitch_transform_rp	LShoulderPitch_transform_ry	LShoulderRoll_transform_tx	LShoulderRoll_transform_ty	LShoulderRoll_transform_tz	LShoulderRoll_transform_rr	LShoulderRoll_transform_rp	LShoulderRoll_transform_ry	LWristYaw_transform_tx	LWristYaw_transform_ty	LWristYaw_transform_tz	LWristYaw_transform_rr	LWristYaw_transform_rp	LWristYaw_transform_ry	l_wrist_joint_transform_tx	l_wrist_joint_transform_ty	l_wrist_joint_transform_tz	l_wrist_joint_transform_rr	l_wrist_joint_transform_rp	l_wrist_joint_transform_ry	camera_fx	camera_fy	camera_cx	camera_cy	camera_D0	camera_D1	camera_D2	camera_D3	camera_D4	
0	0.0249164	-0.0307543	0.000853157	4.65819e-06	-0.000318322	-0.00310766	0.05071	0	0.01774	-2.26369	1.66533e-16	-1.5708	545.901	551.038	324.928	201.58	0.0255298	2.61142	-0.0636736	-0.0350419	0.213964
1	-0.0164281	0.00352455	0.0217712	0.0288746	0.00524989	0.0331592	0.025072	-0.0302352	0.00252151	-0.000200757	-0.000483663	-0.00303706	0.0562628	0.000266048	0.0148098	-2.197	-0.00186394	-1.53711	0	0	0	0	-0	0	0	0	-0.1265	0	-0	0	0	0	0	0	-0	0	0.105	0.015	0	0	-0	0	0	0.098	0.1	0	-0	0	0	0	0	0	-0	0	0.05595	0	0	0	-0	0	0	0	0	0	-0	0	545.901	551.039	324.928	201.581	-0.0115759	2.5996	-0.0876359	0.0444632	0.21153
2	-0.0167196	0.0150248	0.0198469	0.0408869	-0.000656684	0.0377691	0.0253269	-0.0303674	0.00347952	-0.000313356	-0.000577571	-0.0030192	0.053604	-4.5161e-05	0.0179578	-2.19675	-0.00385497	-1.54822	0	0	0	0	-0	0	0	0	-0.1265	0	-0	0	0	0	0	0	-0	0	0.105	0.015	0	0	-0	0	0	0.098	0.1	0	-0	0	0	0	0	0	-0	0	0.05595	0	0	0	-0	0	0	0	0	0	-0	0	545.903	551.039	324.925	201.585	-0.15286	2.51115	-0.0498171	0.0128147	0.183731
3	-0.0172618	0.0166714	0.0181821	0.038168	-0.000643014	0.0377374	0.0251892	-0.0303152	0.00313442	-0.000273884	-0.000543278	-0.00302745	0.0551421	0.000274932	0.0154675	-2.19394	-0.00419849	-1.55116	0	0	0	0	-0	0	0	0	-0.1265	0	-0	0	0	0	0	0	-0	0	0.105	0.015	0	0	-0	0	0	0.098	0.1	0	-0	0	0	0	0	0	-0	0	0.05595	0	0	0	-0	0	0	0	0	0	-0	0	545.908	551.04	324.92	201.592	-0.41769	2.34216	-0.0234735	0.00544734	0.131983
4	-0.0171777	0.0241806	0.0174773	0.0350675	-0.00419612	0.0366976	0.025098	-0.0301773	0.00270778	-0.000225247	-0.000498582	-0.0030293	0.0565133	0.000208361	0.0139723	-2.19389	-0.00635883	-1.55948	0	0	0	0	-0	0	0	0	-0.1265	0	-0	0	0	0	0	0	-0	0	0.105	0.015	0	0	-0	0	0	0.098	0.1	0	-0	0	0	0	0	0	-0	0	0.05595	0	0	0	-0	0	0	0	0	0	-0	0	545.918	551.039	324.912	201.603	-0.649322	2.05116	0.0131037	-0.00647342	0.0282625
5	-0.0168423	0.0278653	0.0155613	0.0341546	-0.00593875	0.0356298	0.0249525	-0.0300706	0.00256627	-0.000218957	-0.000490445	-0.00303893	0.0566219	0.00016693	0.0140486	-2.19523	-0.00698012	-1.56388	0	0	0	0	-0	0	0	0	-0.1265	0	-0	0	0	0	0	0	-0	0	0.105	0.015	0	0	-0	0	0	0.098	0.1	0	-0	0	0	0	0	0	-0	0	0.05595	0	0	0	-0	0	0	0	0	0	-0	0	545.942	551.034	324.901	201.616	-0.591373	1.59368	0.0196213	-0.00937543	-0.16229
6	-0.0163533	0.028617	0.0136716	0.0340457	-0.00634629	0.0344709	0.0248217	-0.0299997	0.00256375	-0.000279644	-0.000506423	-0.00303524	0.0558687	0.000121312	0.0151293	-2.19753	-0.00626673	-1.56494	0	0	0	0	-0	0	0	0	-0.1265	0	-0	0	0	0	0	0	-0	0	0.105	0.015	0	0	-0	0	0	0.098	0.1	0	-0	0	0	0	0	0	-0	0	0.05595	0	0	0	-0	0	0	0	0	0	-0	0	545.987	551.018	324.887	201.627	-0.356576	0.947359	0.0105512	-0.00819648	-0.446508
7	-0.0159241	0.0290473	0.0124864	0.0341229	-0.00668314	0.033615	0.0247406	-0.0299504	0.00258221	-0.000348504	-0.000466073	-0.00303931	0.0551283	6.68681e-05	0.0161682	-2.19936	-0.00574258	-1.56546	0	0	0	0	-0	0	0	0	-0.1265	0	-0	0	0	0	0	0	-0	0	0.105	0.015	0	0	-0	0	0	0.098	0.1	0	-0	0	0	0	0	0	-0	0	0.05595	0	0	0	-0	0	0	0	0	0	-0	0	546.073	550.968	324.88	201.623	-0.145421	0.371836	0.00241179	-0.00705156	-0.711028
8	-0.0157925	0.0293715	0.012038	0.0342852	-0.00694398	0.0332152	0.0247095	-0.0299279	0.00259932	0.000226324	-0.000427608	-0.00333539	0.0547477	3.37866e-05	0.0167019	-2.20026	-0.00562985	-1.56579	0	0	0	0	-0	0	0	0	-0.1265	0	-0	0	0	0	0	0	-0	0	0.105	0.015	0	0	-0	0	0	0.098	0.1	0	-0	0	0	0	0	0	-0	0	0.05595	0	0	0	-0	0	0	0	0	0	-0	0	546.287	550.819	324.882	201.597	-0.0518326	0.107559	-0.000247369	-0.00667846	-0.869162
9	-0.0157271	0.0294901	0.0118948	0.0344669	-0.00704152	0.0329708	0.0246958	-0.0299209	0.00261112	0.00106881	0.000646656	-0.00367854	0.0545919	2.20121e-05	0.0169085	-2.20044	-0.00571107	-1.56591	0	0	0	0	-0	0	0	0	-0.1265	0	-0	0	0	0	0	0	-0	0	0.105	0.015	0	0	-0	0	0	0.098	0.1	0	-0	0	0	0	0	0	-0	0	0.05595	0	0	0	-0	0	0	0	0	0	-0	0	546.873	550.401	324.907	201.525	-0.0443819	0.0975369	0.00117077	-0.00667978	-0.99787
10	-0.0154695	0.0295695	0.011729	0.0348166	-0.00711151	0.032532	0.024674	-0.0299138	0.00263027	-0.000218312	-0.00289748	-0.00222422	0.0543787	1.08398e-05	0.0171748	-2.20026	-0.00600905	-1.56608	0	0	0	0	-0	0	0	0	-0.1265	0	-0	0	0	0	0	0	-0	0	0.105	0.015	0	0	-0	0	0	0.098	0.1	0	-0	0	0	0	0	0	-0	0	0.05595	0	0	0	-0	0	0	0	0	0	-0	0	548.343	549.372	325.022	201.34	-0.0751254	0.223588	0.00620826	-0.00682578	-1.27592
11	-0.0130942	0.0297001	0.0114268	0.0354755	-0.00722894	0.031734	0.0246342	-0.0299021	0.00266689	-0.00524238	-0.00687678	0.00057927	0.0539523	-9.48541e-06	0.0177669	-2.19785	-0.00690185	-1.56674	0	0	0	0	-0	0	0	0	-0.1265	0	-0	0	0	0	0	0	-0	0	0.105	0.015	0	0	-0	0	0	0.098	0.1	0	-0	0	0	0	0	0	-0	0	0.05595	0	0	0	-0	0	0	0	0	0	-0	0	551.185	547.543	325.518	200.91	-0.140641	0.509147	0.0157443	-0.00701465	-1.88885
12	-0.0122429	0.0298756	0.0110744	0.036265	-0.00738707	0.0309037	0.0245983	-0.0299054	0.00271519	0.020591	0.00577267	-0.00420917	0.0534847	-3.48722e-05	0.0183563	-2.19618	-0.00946924	-1.56926	0	0	0	0	-0	0	0	0	-0.1265	0	-0	0	0	0	0	0	-0	0	0.105	0.015	0	0	-0	0	0	0.098	0.1	0	-0	0	0	0	0	0	-0	0	0.05595	0	0	0	-0	0	0	0	0	0	-0	0	554.635	546.014	327.412	199.974	-0.225739	0.923872	0.025953	-0.006756	-2.77082
13	-0.0226918	0.0300423	0.0109238	0.0366281	-0.0075186	0.030609	0.0245837	-0.0298963	0.00273329	0.0103981	-0.00952084	0.0158215	0.0534796	-4.88144e-05	0.0180443	-2.20567	-0.0121452	-1.572	0	0	0	0	-0	0	0	0	-0.1265	0	-0	0	0	0	0	0	-0	0	0.105	0.015	0	0	-0	0	0	0.098	0.1	0	-0	0	0	0	0	0	-0	0	0.05595	0	0	0	-0	0	0	0	0	0	-0	0	556.211	545.811	329.542	199.226	-0.265205	1.13519	0.0295009	-0.00624247	-3.19994
14	-0.0206061	0.0301343	0.0108776	0.0367367	-0.00758509	0.0305288	0.0245716	-0.0298892	0.00274473	0.015276	-0.0179593	0.00191298	0.0533881	-5.40323e-05	0.01823	-2.20321	-0.013276	-1.57321	0	0	0	0	-0	0	0	0	-0.1265	0	-0	0	0	0	0	0	-0	0	0.105	0.015	0	0	-0	0	0	0.098	0.1	0	-0	0	0	0	0	0	-0	0	0.05595	0	0	0	-0	0	0	0	0	0	-0	0	556.676	545.831	330.428	198.954	-0.277582	1.2064	0.0303998	-0.00604309	-3.34712
15	-0.0281945	0.0302648	0.0107798	0.0369314	-0.007702	0.0304576	0.0245747	-0.0299242	0.00275612	0.0592161	-0.00350525	0.00362574	0.0534151	-6.07525e-05	0.0179701	-2.20947	-0.0174828	-1.57759	0	0	0	0	-0	0	0	0	-0.1265	0	-0	0	0	0	0	0	-0	0	0.105	0.015	0	0	-0	0	0	0.098	0.1	0	-0	0	0	0	0	0	-0	0	0.05595	0	0	0	-0	0	0	0	0	0	-0	0	557.549	546.341	333.825	198.105	-0.292822	1.27853	0.0308214	-0.00491771	-3.40659
16	-0.035959	0.0304675	0.0106944	0.037067	-0.0078635	0.0304185	0.0245663	-0.0299353	0.00278338	0.109224	-0.00392224	-0.0222491	0.0534663	-6.74737e-05	0.017681	-2.21596	-0.023111	-1.58332	0	0	0	0	-0	0	0	0	-0.1265	0	-0	0	0	0	0	0	-0	0	0.105	0.015	0	0	-0	0	0	0.098	0.1	0	-0	0	0	0	0	0	-0	0	0.05595	0	0	0	-0	0	0	0	0	0	-0	0	558.161	546.839	338.291	197.335	-0.297834	1.28401	0.0306865	-0.00345244	-3.31207
17	-0.0311101	0.0305802	0.0106691	0.0371052	-0.00793817	0.0303882	0.0245557	-0.029889	0.00276248	0.096336	0.00436052	-0.0330629	0.0533634	-7.07527e-05	0.0179699	-2.21099	-0.0238088	-1.58423	0	0	0	0	-0	0	0	0	-0.1265	0	-0	0	0	0	0	0	-0	0	0.105	0.015	0	0	-0	0	0	0.098	0.1	0	-0	0	0	0	0	0	-0	0	0.05595	0	0	0	-0	0	0	0	0	0	-0	0	558.269	546.849	338.857	197.252	-0.300012	1.29778	0.0309881	-0.00337126	-3.35262
18	-0.0380282	0.0306113	0.0106573	0.0371164	-0.0079622	0.0303699	0.0245611	-0.0298937	0.00276607	0.0845274	-0.0100104	-0.0188569	0.0534752	-7.19008e-05	0.0176175	-2.21773	-0.0248608	-1.58507	0	0	0	0	-0	0	0	0	-0.1265	0	-0	0	0	0	0	0	-0	0	0.105	0.015	0	0	-0	0	0	0.098	0.1	0	-0	0	0	0	0	0	-0	0	0.05595	0	0	0	-0	0	0	0	0	0	-0	0	558.375	546.882	339.627	197.153	-0.301716	1.3048	0.0310259	-0.00310916	-3.35027
19	-0.031024	0.0306404	0.0106463	0.0371297	-0.00798389	0.0303584	0.0245549	-0.0298866	0.00276714	0.0830894	0.0044897	-0.0202151	0.0533413	-7.27157e-05	0.0180058	-2.21061	-0.0254722	-1.58599	0	0	0	0	-0	0	0	0	-0.1265	0	-0	0	0	0	0	0	-0	0	0.105	0.015	0	0	-0	0	0	0.098	0.1	0	-0	0	0	0	0	0	-0	0	0.05595	0	0	0	-0	0	0	0	0	0	-0	0	558.442	546.903	340.191	197.086	-0.30229	1.30524	0.031065	-0.00292816	-3.34032
20	-0.0234518	0.0306749	0.0106329	0.0371437	-0.0080108	0.0303469	0.0245535	-0.0298892	0.00276757	0.0850304	0.00798714	-0.0323806	0.0531916	-7.366e-05	0.0184268	-2.20288	-0.0263778	-1.58727	0	0	0	0	-0	0	0	0	-0.1265	0	-0	0	0	0	0	0	-0	0	0.105	0.015	0	0	-0	0	0	0.098	0.1	0	-0	0	0	0	0	0	-0	0	0.05595	0	0	0	-0	0	0	0	0	0	-0	0	558.515	546.938	341.016	197.001	-0.30195	1.29831	0.0310412	-0.00264659	-3.30737
21	-0.0313286	0.0307232	0.0106165	0.0371567	-0.00804757	0.0303341	0.0245622	-0.0298998	0.00277018	0.0641107	-0.0136281	-0.0354822	0.0533196	-7.48429e-05	0.0180298	-2.21056	-0.027982	-1.58864	0	0	0	0	-0	0	0	0	-0.1265	0	-0	0	0	0	0	0	-0	0	0.105	0.015	0	0	-0	0	0	0.098	0.1	0	-0	0	0	0	0	0	-0	0	0.05595	0	0	0	-0	0	0	0	0	0	-0	0	558.592	546.977	342.207	196.899	-0.300318	1.28119	0.0309691	-0.00223631	-3.24555
22	-0.0255405	0.0307665	0.0106046	0.0371639	-0.00807855	0.0303213	0.0245545	-0.0298995	0.00276909	0.0878873	-0.00204669	-0.0302121	0.0532033	-7.58618e-05	0.0183542	-2.20465	-0.028959	-1.58993	0	0	0	0	-0	0	0	0	-0.1265	0	-0	0	0	0	0	0	-0	0	0.105	0.015	0	0	-0	0	0	0.098	0.1	0	-0	0	0	0	0	0	-0	0	0.05595	0	0	0	-0	0	0	0	0	0	-0	0	558.636	546.981	343.067	196.838	-0.299008	1.26849	0.0309585	-0.00195116	-3.20382
23	-0.0198997	0.03083	0.0105861	0.0371661	-0.00812639	0.0303028	0.0245547	-0.0298997	0.00276627	0.101668	0.00254641	-0.00652293	0.0530839	-7.72352e-05	0.018677	-2.19878	-0.0311213	-1.59253	0	0	0	0	-0	0	0	0	-0.1265	0	-0	0	0	0	0	0	-0	0	0.105	0.015	0	0	-0	0	0	0.098	0.1	0	-0	0	0	0	0	0	-0	0	0.05595	0	0	0	-0	0	0	0	0	0	-0	0	558.674	546.968	344.906	196.747	-0.294604	1.23168	0.0307874	-0.00129784	-3.0892
24	-0.0087204	0.0308855	0.0105754	0.037169	-0.00816384	0.0302845	0.024548	-0.0298929	0.00276916	0.118477	0.00818973	-0.00944267	0.0528646	-7.8612e-05	0.0192857	-2.18752	-0.0319536	-1.59407	0	0	0	0	-0	0	0	0	-0.1265	0	-0	0	0	0	0	0	-0	0	0.105	0.015	0	0	-0	0	0	0.098	0.1	0	-0	0	0	0	0	0	-0	0	0.05595	0	0	0	-0	0	0	0	0	0	-0	0	558.692	546.926	345.782	196.718	-0.292415	1.21427	0.0308139	-0.00101292	-3.0424
25	-0.00895272	0.0309117	0.01057	0.0371727	-0.00818167	0.0302744	0.0245469	-0.0298879	0.00276803	0.115331	-0.000665733	-0.00620886	0.052861	-7.93642e-05	0.0192794	-2.18773	-0.0323869	-1.59455	0	0	0	0	-0	0	0	0	-0.1265	0	-0	0	0	0	0	0	-0	0	0.105	0.015	0	0	-0	0	0	0.098	0.1	0	-0	0	0	0	0	0	-0	0	0.05595	0	0	0	-0	0	0	0	0	0	-0	0	558.7	546.905	346.133	196.708	-0.291533	1.20717	0.0308411	-0.000901366	-3.02377
26	-0.0125681	0.0309494	0.0105602	0.0371603	-0.0082098	0.0302574	0.0245485	-0.0298949	0.00276964	0.126191	-0.000483399	-0.0249676	0.052925	-8.00131e-05	0.0190975	-2.19123	-0.0341845	-1.59629	0	0	0	0	-0	0	0	0	-0.1265	0	-0	0	0	0	0	0	-0	0	0.105	0.015	0	0	-0	0	0	0.098	0.1	0	-0	0	0	0	0	0	-0	0	0.05595	0	0	0	-0	0	0	0	0	0	-0	0	558.684	546.83	347.535	196.685	-0.287247	1.17488	0.0306953	-0.000383545	-2.93044
27	0.0156913	0.0310168	0.0105476	0.0371406	-0.00825644	0.0302309	0.0245386	-0.0298962	0.00277942	0.166976	-0.0362732	-0.0359118	0.0523792	-8.12763e-05	0.0206044	-2.16286	-0.035827	-1.59989	0	0	0	0	-0	0	0	0	-0.1265	0	-0	0	0	0	0	0	-0	0	0.105	0.015	0	0	-0	0	0	0.098	0.1	0	-0	0	0	0	0	0	-0	0	0.05595	0	0	0	-0	0	0	0	0	0	-0	0	558.632	546.69	349.496	196.692	-0.280614	1.12718	0.0305311	0.000329019	-2.80122
28	0.0302902	0.0310737	0.0105381	0.0371395	-0.00829343	0.0302079	0.0245456	-0.0298973	0.00276789	0.183573	-0.0332731	-0.0541214	0.0520502	-8.27594e-05	0.0213726	-2.14823	-0.0364708	-1.60174	0	0	0	0	-0	0	0	0	-0.1265	0	-0	0	0	0	0	0	-0	0	0.105	0.015	0	0	-0	0	0	0.098	0.1	0	-0	0	0	0	0	0	-0	0	0.05595	0	0	0	-0	0	0	0	0	0	-0	0	558.611	546.586	350.426	196.707	-0.277087	1.10248	0.0305575	0.000646538	-2.74173
29	0.0341425	0.0311047	0.0105347	0.0371246	-0.00831337	0.0301909	0.024544	-0.0298927	0.00276294	0.190439	-0.0253177	-0.0682778	0.0519592	-8.34321e-05	0.0215755	-2.14435	-0.0373917	-1.60313	0	0	0	0	-0	0	0	0	-0.1265	0	-0	0	0	0	0	0	-0	0	0.105	0.015	0	0	-0	0	0	0.098	0.1	0	-0	0	0	0	0	0	-0	0	0.05595	0	0	0	-0	0	0	0	0	0	-0	0	558.577	546.484	351.323	196.725	-0.273474	1.07769	0.0305081	0.000980106	-2.67898
30	0.0370594	0.0311443	0.0105305	0.037102	-0.00833928	0.0301703	0.0245442	-0.0298915	0.00276091	0.196656	-0.00793628	-0.0721631	0.0518954	-8.4243e-05	0.0217296	-2.1414	-0.0387939	-1.60503	0	0	0	0	-0	0	0	0	-0.1265	0	-0	0	0	0	0	0	-0	0	0.105	0.015	0	0	-0	0	0	0.098	0.1	0	-0	0	0	0	0	0	-0	0	0.05595	0	0	0	-0	0	0	0	0	0	-0	0	558.508	546.335	352.609	196.761	-0.26812	1.04189	0.0303915	0.00146688	-2.58842
31	0.0360107	0.0311754	0.0105276	0.0370971	-0.00835867	0.030158	0.0245406	-0.0298942	0.0027576	0.208168	-0.0100673	-0.056296	0.0519145	-8.50639e-05	0.0216807	-2.14245	-0.0394031	-1.60568	0	0	0	0	-0	0	0	0	-0.1265	0	-0	0	0	0	0	0	-0	0	0.105	0.015	0	0	-0	0	0	0.098	0.1	0	-0	0	0	0	0	0	-0	0	0.05595	0	0	0	-0	0	0	0	0	0	-0	0	558.486	546.269	353.098	196.777	-0.265736	1.02593	0.0304002	0.00163748	-2.5522
32	0.015483	0.0312008	0.0105255	0.0370789	-0.00837484	0.0301426	0.024546	-0.0298901	0.00276187	0.209317	-0.0361948	-0.0616814	0.0523606	-8.56239e-05	0.0206152	-2.16295	-0.0412665	-1.60621	0	0	0	0	-0	0	0	0	-0.1265	0	-0	0	0	0	0	0	-0	0	0.105	0.015	0	0	-0	0	0	0.098	0.1	0	-0	0	0	0	0	0	-0	0	0.05595	0	0	0	-0	0	0	0	0	0	-0	0	558.426	546.14	354.078	196.812	-0.261479	0.998351	0.0303013	0.00201795	-2.48344
33	-0.00169828	0.0312249	0.0105232	0.0370702	-0.00838987	0.0301304	0.0245404	-0.0298958	0.00275871	0.193097	-0.0464373	-0.0562275	0.0527022	-8.61946e-05	0.0197142	-2.18014	-0.0424615	-1.60614	0	0	0	0	-0	0	0	0	-0.1265	0	-0	0	0	0	0	0	-0	0	0.105	0.015	0	0	-0	0	0	0.098	0.1	0	-0	0	0	0	0	0	-0	0	0.05595	0	0	0	-0	0	0	0	0	0	-0	0	558.398	546.067	354.554	196.831	-0.259173	0.983149	0.030296	0.00219186	-2.44836
34	-0.00901791	0.0312506	0.0105217	0.0370503	-0.00840574	0.0301155	0.0245393	-0.0299038	0.00275098	0.169265	-0.0468095	-0.0748234	0.0528407	-8.67854e-05	0.0193246	-2.18744	-0.0439911	-1.6072	0	0	0	0	-0	0	0	0	-0.1265	0	-0	0	0	0	0	0	-0	0	0.105	0.015	0	0	-0	0	0	0.098	0.1	0	-0	0	0	0	0	0	-0	0	0.05595	0	0	0	-0	0	0	0	0	0	-0	0	558.328	545.925	355.592	196.874	-0.254455	0.953297	0.0301785	0.00260025	-2.37523
35	0.000800923	0.031275	0.0105209	0.0370436	-0.0084202	0.0301046	0.0245364	-0.0298934	0.00275319	0.157008	-0.0443861	-0.0859879	0.0526477	-8.7474e-05	0.0198466	-2.17761	-0.0442551	-1.60831	0	0	0	0	-0	0	0	0	-0.1265	0	-0	0	0	0	0	0	-0	0	0.105	0.015	0	0	-0	0	0	0.098	0.1	0	-0	0	0	0	0	0	-0	0	0.05595	0	0	0	-0	0	0	0	0	0	-0	0	558.295	545.843	356.094	196.896	-0.251735	0.935873	0.0301674	0.0027874	-2.33608
36	0.00456726	0.0313053	0.0105198	0.0370121	-0.0084387	0.0300855	0.024538	-0.0298967	0.00276387	0.135787	-0.025551	-0.0671724	0.0525746	-8.81273e-05	0.0200402	-2.17382	-0.045717	-1.61026	0	0	0	0	-0	0	0	0	-0.1265	0	-0	0	0	0	0	0	-0	0	0.105	0.015	0	0	-0	0	0	0.098	0.1	0	-0	0	0	0	0	0	-0	0	0.05595	0	0	0	-0	0	0	0	0	0	-0	0	558.199	545.657	357.423	196.955	-0.24558	0.897824	0.0299931	0.00332102	-2.24369
37	0.000701204	0.0313294	0.0105166	0.0370163	-0.00845402	0.0300772	0.0245349	-0.0298906	0.0027526	0.134401	-0.0328016	-0.0635312	0.0526482	-8.87928e-05	0.0198423	-2.1777	-0.0460865	-1.61034	0	0	0	0	-0	0	0	0	-0.1265	0	-0	0	0	0	0	0	-0	0	0.105	0.015	0	0	-0	0	0	0.098	0.1	0	-0	0	0	0	0	0	-0	0	0.05595	0	0	0	-0	0	0	0	0	0	-0	0	558.191	545.623	357.598	196.964	-0.244344	0.889496	0.0300373	0.00336957	-2.22765
38	-0.00377161	0.0313428	0.0105178	0.0369969	-0.0084613	0.0300663	0.0245332	-0.0298941	0.00275556	0.152713	-0.043755	-0.0734822	0.0527382	-8.91805e-05	0.0196053	-2.18215	-0.0471274	-1.61108	0	0	0	0	-0	0	0	0	-0.1265	0	-0	0	0	0	0	0	-0	0	0.105	0.015	0	0	-0	0	0	0.098	0.1	0	-0	0	0	0	0	0	-0	0	0.05595	0	0	0	-0	0	0	0	0	0	-0	0	558.14	545.511	358.31	196.996	-0.24078	0.867857	0.0299451	0.00366469	-2.17629
39	-0.00963959	0.0313597	0.0105163	0.0369936	-0.00847171	0.0300582	0.0245345	-0.0298912	0.00275148	0.154161	-0.0342739	-0.0694378	0.0528514	-8.96583e-05	0.0192982	-2.18802	-0.047794	-1.61127	0	0	0	0	-0	0	0	0	-0.1265	0	-0	0	0	0	0	0	-0	0	0.105	0.015	0	0	-0	0	0	0.098	0.1	0	-0	0	0	0	0	0	-0	0	0.05595	0	0	0	-0	0	0	0	0	0	-0	0	558.118	545.453	358.657	197.013	-0.238837	0.855636	0.0299358	0.00379663	-2.14925
40	-0.00812146	0.0313665	0.0105168	0.0369899	-0.00847549	0.0300546	0.0245339	-0.0298918	0.00275045	0.155521	-0.0321858	-0.0782949	0.0528206	-8.98814e-05	0.0193793	-2.1865	-0.0479083	-1.61153	0	0	0	0	-0	0	0	0	-0.1265	0	-0	0	0	0	0	0	-0	0	0.105	0.015	0	0	-0	0	0	0.098	0.1	0	-0	0	0	0	0	0	-0	0	0.05595	0	0	0	-0	0	0	0	0	0	-0	0	558.109	545.427	358.799	197.019	-0.237992	0.850314	0.0299327	0.00385109	-2.13759
41	-0.0172003	0.0313765	0.0105169	0.0369758	-0.00848108	0.0300459	0.0245339	-0.0298927	0.00274922	0.157753	-0.0286129	-0.088573	0.0529984	-9.01325e-05	0.0188977	-2.19557	-0.0489786	-1.61185	0	0	0	0	-0	0	0	0	-0.1265	0	-0	0	0	0	0	0	-0	0	0.105	0.015	0	0	-0	0	0	0.098	0.1	0	-0	0	0	0	0	0	-0	0	0.05595	0	0	0	-0	0	0	0	0	0	-0	0	558.065	545.333	359.37	197.044	-0.235191	0.8336	0.0298579	0.00408908	-2.09809
42	-0.0103969	0.0313894	0.0105168	0.0369711	-0.00848868	0.03004	0.0245322	-0.0298911	0.00274892	0.159704	-0.027157	-0.0886741	0.0528668	-9.05177e-05	0.0192592	-2.18876	-0.04905	-1.61256	0	0	0	0	-0	0	0	0	-0.1265	0	-0	0	0	0	0	0	-0	0	0.105	0.015	0	0	-0	0	0	0.098	0.1	0	-0	0	0	0	0	0	-0	0	0.05595	0	0	0	-0	0	0	0	0	0	-0	0	558.045	545.285	359.651	197.057	-0.233539	0.823336	0.0298439	0.00419742	-2.07555
43	-0.000553947	0.0314113	0.0105179	0.0369404	-0.0085007	0.030026	0.0245327	-0.0298929	0.00274387	0.149987	-0.0152693	-0.0984234	0.0526819	-9.10492e-05	0.0197726	-2.17887	-0.0501093	-1.61465	0	0	0	0	-0	0	0	0	-0.1265	0	-0	0	0	0	0	0	-0	0	0.105	0.015	0	0	-0	0	0	0.098	0.1	0	-0	0	0	0	0	0	-0	0	0.05595	0	0	0	-0	0	0	0	0	0	-0	0	557.952	545.105	360.86	197.111	-0.227892	0.790271	0.0296562	0.00470055	-1.9968
44	0.00725844	0.0314315	0.0105178	0.0369411	-0.00851263	0.0300199	0.0245318	-0.0298924	0.00274666	0.146684	-0.0149255	-0.0913401	0.0525215	-9.16962e-05	0.0201887	-2.17106	-0.0499573	-1.61527	0	0	0	0	-0	0	0	0	-0.1265	0	-0	0	0	0	0	0	-0	0	0.105	0.015	0	0	-0	0	0	0.098	0.1	0	-0	0	0	0	0	0	-0	0	0.05595	0	0	0	-0	0	0	0	0	0	-0	0	557.945	545.074	361.02	197.119	-0.226554	0.781488	0.0296884	0.00474932	-1.97981
45	0.00191741	0.0314372	0.0105169	0.0369376	-0.00851609	0.0300146	0.0245302	-0.0298931	0.0027457	0.132858	-0.00925431	-0.0933293	0.0526267	-9.189e-05	0.0199088	-2.1764	-0.0504579	-1.6153	0	0	0	0	-0	0	0	0	-0.1265	0	-0	0	0	0	0	0	-0	0	0.105	0.015	0	0	-0	0	0	0.098	0.1	0	-0	0	0	0	0	0	-0	0	0.05595	0	0	0	-0	0	0	0	0	0	-0	0	557.932	545.033	361.239	197.128	-0.225203	0.77333	0.0296711	0.00484202	-1.96177
46	-0.00977487	0.0314454	0.0105167	0.0369313	-0.00852076	0.0300091	0.0245306	-0.0298922	0.0027455	0.139768	-0.0101408	-0.0936406	0.0528584	-9.21515e-05	0.0192939	-2.18808	-0.0513707	-1.61514	0	0	0	0	-0	0	0	0	-0.1265	0	-0	0	0	0	0	0	-0	0	0.105	0.015	0	0	-0	0	0	0.098	0.1	0	-0	0	0	0	0	0	-0	0	0.05595	0	0	0	-0	0	0	0	0	0	-0	0	557.911	544.979	361.563	197.142	-0.223385	0.762528	0.029635	0.00497788	-1.93747
47	-0.00441045	0.0314534	0.0105167	0.0369263	-0.00852535	0.0300044	0.0245315	-0.0298919	0.00274495	0.140536	-0.00191849	-0.0944497	0.052751	-9.2402e-05	0.0195768	-2.18271	-0.0514292	-1.61573	0	0	0	0	-0	0	0	0	-0.1265	0	-0	0	0	0	0	0	-0	0	0.105	0.015	0	0	-0	0	0	0.098	0.1	0	-0	0	0	0	0	0	-0	0	0.05595	0	0	0	-0	0	0	0	0	0	-0	0	557.896	544.938	361.803	197.152	-0.222044	0.754478	0.0296148	0.00507582	-1.91959
48	-0.00175087	0.0314578	0.0105167	0.0369247	-0.00852789	0.0300021	0.0245309	-0.0298924	0.00274484	0.142219	-0.00108246	-0.100687	0.0526977	-9.25406e-05	0.0197176	-2.18005	-0.0514283	-1.616	0	0	0	0	-0	0	0	0	-0.1265	0	-0	0	0	0	0	0	-0	0	0.105	0.015	0	0	-0	0	0	0.098	0.1	0	-0	0	0	0	0	0	-0	0	0.05595	0	0	0	-0	0	0	0	0	0	-0	0	557.889	544.92	361.9	197.156	-0.221446	0.75079	0.0296114	0.0051142	-1.91163
49	-0.00884957	0.0314646	0.0105169	0.0369152	-0.0085315	0.0299968	0.0245306	-0.029899	0.00274132	0.162528	-0.00210533	-0.0898974	0.0528387	-9.27404e-05	0.0193421	-2.18713	-0.0522304	-1.61616	0	0	0	0	-0	0	0	0	-0.1265	0	-0	0	0	0	0	0	-0	0	0.105	0.015	0	0	-0	0	0	0.098	0.1	0	-0	0	0	0	0	0	-0	0	0.05595	0	0	0	-0	0	0	0	0	0	-0	0	557.861	544.856	362.297	197.171	-0.21946	0.739372	0.0295532	0.00528335	-1.88526
50	-0.010877	0.0314779	0.0105179	0.0369026	-0.00853841	0.0299895	0.0245324	-0.0298974	0.00274107	0.173082	-0.00158076	-0.0746547	0.0528779	-9.31546e-05	0.0192334	-2.18913	-0.053033	-1.61682	0	0	0	0	-0	0	0	0	-0.1265	0	-0	0	0	0	0	0	-0	0	0.105	0.015	0	0	-0	0	0	0.098	0.1	0	-0	0	0	0	0	0	-0	0	0.05595	0	0	0	-0	0	0	0	0	0	-0	0	557.821	544.763	362.874	197.194	-0.216523	0.72239	0.0294776	0.00552551	-1.84662
