Stefan210/kinematic_calibration/src/kinematic_calibration/validation/experiments/experiments/single_point_vs_pose/marker_single_point/rarm_40/optimization_intermediate_results.csv
iteration	HeadPitch_offset	HeadYaw_offset	RElbowRoll_offset	RElbowYaw_offset	RShoulderPitch_offset	RShoulderRoll_offset	marker_transform_rarm_tx	marker_transform_rarm_ty	marker_transform_rarm_tz	marker_transform_rarm_rr	marker_transform_rarm_rp	marker_transform_rarm_ry	camera_transform_tx	camera_transform_ty	camera_transform_tz	camera_transform_rr	camera_transform_rp	camera_transform_ry	HeadPitch_transform_tx	HeadPitch_transform_ty	HeadPitch_transform_tz	HeadPitch_transform_rr	HeadPitch_transform_rp	HeadPitch_transform_ry	HeadYaw_transform_tx	HeadYaw_transform_ty	HeadYaw_transform_tz	HeadYaw_transform_rr	HeadYaw_transform_rp	HeadYaw_transform_ry	RElbowRoll_transform_tx	RElbowRoll_transform_ty	RElbowRoll_transform_tz	RElbowRoll_transform_rr	RElbowRoll_transform_rp	RElbowRoll_transform_ry	RElbowYaw_transform_tx	RElbowYaw_transform_ty	RElbowYaw_transform_tz	RElbowYaw_transform_rr	RElbowYaw_transform_rp	RElbowYaw_transform_ry	RShoulderPitch_transform_tx	RShoulderPitch_transform_ty	RShoulderPitch_transform_tz	RShoulderPitch_transform_rr	RShoulderPitch_transform_rp	RShoulderPitch_transform_ry	RShoulderRoll_transform_tx	RShoulderRoll_transform_ty	RShoulderRoll_transform_tz	RShoulderRoll_transform_rr	RShoulderRoll_transform_rp	RShoulderRoll_transform_ry	RWristYaw_transform_tx	RWristYaw_transform_ty	RWristYaw_transform_tz	RWristYaw_transform_rr	RWristYaw_transform_rp	RWristYaw_transform_ry	r_wrist_joint_transform_tx	r_wrist_joint_transform_ty	r_wrist_joint_transform_tz	r_wrist_joint_transform_rr	r_wrist_joint_transform_rp	r_wrist_joint_transform_ry	camera_fx	camera_fy	camera_cx	camera_cy	camera_D0	camera_D1	camera_D2	camera_D3	camera_D4	
0	0.0230449	0.0294606	-0.0013508	-0.00116347	0.000678263	0.00258603	0.05071	0	0.01774	-2.26369	1.66533e-16	-1.5708	545.901	551.038	324.928	201.58	0.0255298	2.61142	-0.0636736	-0.0350419	0.213964
1	-0.0165664	-0.0251049	0.00675881	0.0194253	-0.0135611	-0.0221254	0.0206485	0.0279613	-0.00101506	-0.00113197	0.0006603	0.00272951	0.052137	-0.0021157	0.0183291	-2.19709	0.0149665	-1.528	0	0	0	0	-0	0	0	0	-0.1265	0	-0	0	0	0	0	0	-0	0	0.105	-0.015	0	0	-0	0	0	-0.098	0.1	0	-0	0	0	0	0	0	-0	0	0.05595	0	0	0	-0	0	0	0	0	0	-0	0	545.901	551.039	324.929	201.58	-0.00631718	2.601	-0.0735314	-0.0761006	0.211776
2	-0.0161686	-0.0415659	-5.02523e-06	0.0223407	-0.0273295	-0.0187534	0.0207329	0.0279834	-0.00123982	-0.00115589	0.000679857	0.00272139	0.0516823	-0.000820013	0.0206162	-2.19886	0.021867	-1.51567	0	0	0	0	-0	0	0	0	-0.1265	0	-0	0	0	0	0	0	-0	0	0.105	-0.015	0	0	-0	0	0	-0.098	0.1	0	-0	0	0	0	0	0	-0	0	0.05595	0	0	0	-0	0	0	0	0	0	-0	0	545.902	551.039	324.932	201.584	-0.117945	2.52584	-0.0447859	-0.0599137	0.187259
3	-0.0166265	-0.036559	0.0019605	0.0246319	-0.023124	-0.022851	0.0207383	0.0281908	-0.00166475	-0.00120312	0.000716287	0.00273528	0.0527885	-0.001907	0.0181469	-2.19637	0.0228411	-1.51873	0	0	0	0	-0	0	0	0	-0.1265	0	-0	0	0	0	0	0	-0	0	0.105	-0.015	0	0	-0	0	0	-0.098	0.1	0	-0	0	0	0	0	0	-0	0	0.05595	0	0	0	-0	0	0	0	0	0	-0	0	545.904	551.041	324.94	201.589	-0.347108	2.36652	-0.0245812	-0.0422161	0.136058
4	-0.0167908	-0.029299	0.00359394	0.0273195	-0.0178559	-0.0288175	0.0208099	0.0285914	-0.00225751	-0.00125838	0.000756078	0.00277114	0.0538621	-0.00322488	0.0154627	-2.19502	0.0236855	-1.52568	0	0	0	0	-0	0	0	0	-0.1265	0	-0	0	0	0	0	0	-0	0	0.105	-0.015	0	0	-0	0	0	-0.098	0.1	0	-0	0	0	0	0	0	-0	0	0.05595	0	0	0	-0	0	0	0	0	0	-0	0	545.911	551.042	324.952	201.598	-0.603146	2.07794	0.00760858	-0.0137823	0.034081
5	-0.0167988	-0.0236932	0.00552437	0.0289414	-0.0140436	-0.0330633	0.0208356	0.0288446	-0.0025513	-0.00128403	0.000785845	0.0027638	0.0538511	-0.00409398	0.0145904	-2.19478	0.0230722	-1.53084	0	0	0	0	-0	0	0	0	-0.1265	0	-0	0	0	0	0	0	-0	0	0.105	-0.015	0	0	-0	0	0	-0.098	0.1	0	-0	0	0	0	0	0	-0	0	0.05595	0	0	0	-0	0	0	0	0	0	-0	0	545.928	551.041	324.97	201.609	-0.588744	1.63305	0.0164039	-0.001968	-0.143699
6	-0.0165677	-0.0199801	0.00700631	0.0291821	-0.012164	-0.035148	0.0208514	0.0289477	-0.00250396	-0.00129085	0.000776269	0.00273929	0.0526498	-0.004401	0.0157368	-2.19607	0.0209652	-1.53446	0	0	0	0	-0	0	0	0	-0.1265	0	-0	0	0	0	0	0	-0	0	0.105	-0.015	0	0	-0	0	0	-0.098	0.1	0	-0	0	0	0	0	0	-0	0	0.05595	0	0	0	-0	0	0	0	0	0	-0	0	545.96	551.038	324.993	201.621	-0.315993	0.935748	0.00568943	-0.00238735	-0.429975
7	-0.0163902	-0.0174652	0.00797637	0.0288127	-0.0112175	-0.0363722	0.0208718	0.0290085	-0.00237861	-0.00131446	0.000721605	0.00264426	0.0513061	-0.00449333	0.017221	-2.19764	0.0189679	-1.53723	0	0	0	0	-0	0	0	0	-0.1265	0	-0	0	0	0	0	0	-0	0	0.105	-0.015	0	0	-0	0	0	-0.098	0.1	0	-0	0	0	0	0	0	-0	0	0.05595	0	0	0	-0	0	0	0	0	0	-0	0	546.004	551.041	325.011	201.621	0.00253267	0.13663	-0.00764214	-0.00463151	-0.728895
8	-0.0165408	-0.01635	0.00834931	0.0283016	-0.0109811	-0.0368745	0.0208882	0.0290386	-0.00228141	-0.00168304	0.00122269	0.00224876	0.0504654	-0.00447611	0.0181959	-2.199	0.017833	-1.53874	0	0	0	0	-0	0	0	0	-0.1265	0	-0	0	0	0	0	0	-0	0	0.105	-0.015	0	0	-0	0	0	-0.098	0.1	0	-0	0	0	0	0	0	-0	0	0.05595	0	0	0	-0	0	0	0	0	0	-0	0	546.063	551.076	325.021	201.608	0.212849	-0.449635	-0.0156118	-0.00588561	-0.849431
9	-0.0164681	-0.016057	0.00839631	0.0280523	-0.0109986	-0.0369381	0.0208937	0.0290474	-0.00224285	-0.00170833	0.00167225	0.00383006	0.0501552	-0.00444334	0.0185797	-2.19947	0.0173902	-1.53925	0	0	0	0	-0	0	0	0	-0.1265	0	-0	0	0	0	0	0	-0	0	0.105	-0.015	0	0	-0	0	0	-0.098	0.1	0	-0	0	0	0	0	0	-0	0	0.05595	0	0	0	-0	0	0	0	0	0	-0	0	546.172	551.208	325.028	201.587	0.295181	-0.76193	-0.0181376	-0.00617604	-0.630185
10	-0.0151852	-0.0160038	0.00826511	0.0280475	-0.0110499	-0.0368376	0.0208953	0.0290527	-0.002239	-0.000523974	0.00539382	0.00325504	0.0500035	-0.00440454	0.0188121	-2.19859	0.017096	-1.53942	0	0	0	0	-0	0	0	0	-0.1265	0	-0	0	0	0	0	0	-0	0	0.105	-0.015	0	0	-0	0	0	-0.098	0.1	0	-0	0	0	0	0	0	-0	0	0.05595	0	0	0	-0	0	0	0	0	0	-0	0	546.41	551.612	325.029	201.55	0.338299	-1.09293	-0.0187069	-0.00601849	0.107459
11	-0.01581	-0.0159892	0.00798681	0.0281988	-0.0110991	-0.036633	0.0208979	0.0290614	-0.00224569	0.00326451	0.0137272	0.00268708	0.0498302	-0.00433428	0.0190254	-2.19987	0.016729	-1.53961	0	0	0	0	-0	0	0	0	-0.1265	0	-0	0	0	0	0	0	-0	0	0.105	-0.015	0	0	-0	0	0	-0.098	0.1	0	-0	0	0	0	0	0	-0	0	0.05595	0	0	0	-0	0	0	0	0	0	-0	0	546.881	552.712	324.999	201.456	0.406701	-1.69093	-0.0197979	-0.00567275	1.57559
12	0.00375669	-0.0159885	0.00769222	0.028439	-0.0111095	-0.0363987	0.020913	0.0290872	-0.00226261	-0.0113821	0.00149158	-0.0308631	0.0491887	-0.00424086	0.0203551	-2.18117	0.0154469	-1.53961	0	0	0	0	-0	0	0	0	-0.1265	0	-0	0	0	0	0	0	-0	0	0.105	-0.015	0	0	-0	0	0	-0.098	0.1	0	-0	0	0	0	0	0	-0	0	0.05595	0	0	0	-0	0	0	0	0	0	-0	0	547.9	555.089	325.04	201.239	0.487634	-2.37809	-0.0223171	-0.00530737	3.28471
13	-0.0297937	-0.0159847	0.00756831	0.0285658	-0.0111062	-0.0363029	0.0209062	0.02908	-0.0022537	-0.0205537	-0.0027238	-0.0508289	0.0496544	-0.00418481	0.0189496	-2.21527	0.0155829	-1.54086	0	0	0	0	-0	0	0	0	-0.1265	0	-0	0	0	0	0	0	-0	0	0.105	-0.015	0	0	-0	0	0	-0.098	0.1	0	-0	0	0	0	0	0	-0	0	0.05595	0	0	0	-0	0	0	0	0	0	-0	0	549.248	557.612	325.441	201.027	0.515066	-2.61631	-0.0244286	-0.0049569	3.91723
14	-0.0347909	-0.0159849	0.00754234	0.0285904	-0.0111121	-0.0362811	0.0209049	0.0290805	-0.00224377	-0.0352226	-0.0127215	-0.0316361	0.049661	-0.00416704	0.0187914	-2.22048	0.015241	-1.54134	0	0	0	0	-0	0	0	0	-0.1265	0	-0	0	0	0	0	0	-0	0	0.105	-0.015	0	0	-0	0	0	-0.098	0.1	0	-0	0	0	0	0	0	-0	0	0.05595	0	0	0	-0	0	0	0	0	0	-0	0	549.892	558.706	325.718	200.951	0.516981	-2.63681	-0.0252114	-0.00479747	3.99189
15	-0.0330632	-0.0159839	0.00753576	0.0285957	-0.0111141	-0.0362751	0.0209045	0.0290741	-0.00224878	-0.0380561	-0.000956596	-0.0280658	0.0496035	-0.00416078	0.0189119	-2.21883	0.0149867	-1.54149	0	0	0	0	-0	0	0	0	-0.1265	0	-0	0	0	0	0	0	-0	0	0.105	-0.015	0	0	-0	0	0	-0.098	0.1	0	-0	0	0	0	0	0	-0	0	0.05595	0	0	0	-0	0	0	0	0	0	-0	0	550.15	559.13	325.841	200.925	0.516579	-2.63422	-0.0255057	-0.00473646	3.99341
16	-0.0361442	-0.015984	0.00753032	0.028603	-0.011118	-0.0362732	0.020906	0.0290769	-0.00225026	-0.0395805	-0.0125528	-0.0432411	0.0496323	-0.00415428	0.0187999	-2.22201	0.014799	-1.54179	0	0	0	0	-0	0	0	0	-0.1265	0	-0	0	0	0	0	0	-0	0	0.105	-0.015	0	0	-0	0	0	-0.098	0.1	0	-0	0	0	0	0	0	-0	0	0.05595	0	0	0	-0	0	0	0	0	0	-0	0	550.493	559.68	326.02	200.891	0.514203	-2.61616	-0.0258529	-0.0046432	3.95855
17	-0.0460288	-0.0159797	0.00753413	0.0286019	-0.0111278	-0.0362853	0.0209056	0.0290906	-0.00225597	-0.0677177	-0.0248868	-0.066472	0.0497463	-0.00414118	0.0184099	-2.2321	0.0141956	-1.54278	0	0	0	0	-0	0	0	0	-0.1265	0	-0	0	0	0	0	0	-0	0	0.105	-0.015	0	0	-0	0	0	-0.098	0.1	0	-0	0	0	0	0	0	-0	0	0.05595	0	0	0	-0	0	0	0	0	0	-0	0	551.469	561.194	326.629	200.789	0.50139	-2.50973	-0.0267688	-0.0043476	3.71655
18	-0.0501062	-0.0159822	0.00753669	0.0286019	-0.0111344	-0.036287	0.020912	0.0290849	-0.00224852	-0.0682423	-0.0106436	-0.0386662	0.0497915	-0.0041356	0.0182484	-2.23627	0.0138667	-1.54325	0	0	0	0	-0	0	0	0	-0.1265	0	-0	0	0	0	0	0	-0	0	0.105	-0.015	0	0	-0	0	0	-0.098	0.1	0	-0	0	0	0	0	0	-0	0	0.05595	0	0	0	-0	0	0	0	0	0	-0	0	551.926	561.9	326.938	200.743	0.494269	-2.45424	-0.027166	-0.00419887	3.59364
19	-0.0437185	-0.0159836	0.00753951	0.0285997	-0.0111393	-0.0362895	0.0209027	0.0290759	-0.00224098	-0.0600306	-0.0135296	-0.0496082	0.0496541	-0.00413175	0.0185967	-2.22994	0.0133598	-1.54347	0	0	0	0	-0	0	0	0	-0.1265	0	-0	0	0	0	0	0	-0	0	0.105	-0.015	0	0	-0	0	0	-0.098	0.1	0	-0	0	0	0	0	0	-0	0	0.05595	0	0	0	-0	0	0	0	0	0	-0	0	552.249	562.402	327.172	200.709	0.489161	-2.41195	-0.027469	-0.00409237	3.49648
20	-0.0393991	-0.0159857	0.00754119	0.0285966	-0.0111433	-0.0362898	0.0209016	0.0290738	-0.00224027	-0.056864	-0.0135408	-0.0573096	0.0495643	-0.00413008	0.0188231	-2.22565	0.0131086	-1.54354	0	0	0	0	-0	0	0	0	-0.1265	0	-0	0	0	0	0	0	-0	0	0.105	-0.015	0	0	-0	0	0	-0.098	0.1	0	-0	0	0	0	0	0	-0	0	0.05595	0	0	0	-0	0	0	0	0	0	-0	0	552.381	562.606	327.268	200.695	0.487044	-2.39395	-0.0275942	-0.0040525	3.45474
21	-0.0280169	-0.0159867	0.00754272	0.0285942	-0.011147	-0.0362919	0.0209013	0.0290729	-0.00223976	-0.0593633	-0.0086106	-0.0583122	0.0493381	-0.0041281	0.0194035	-2.2143	0.0126156	-1.54357	0	0	0	0	-0	0	0	0	-0.1265	0	-0	0	0	0	0	0	-0	0	0.105	-0.015	0	0	-0	0	0	-0.098	0.1	0	-0	0	0	0	0	0	-0	0	0.05595	0	0	0	-0	0	0	0	0	0	-0	0	552.557	562.877	327.401	200.676	0.484177	-2.36978	-0.0277555	-0.00398998	3.39791
22	-0.0315544	-0.0159893	0.00754827	0.0285884	-0.0111551	-0.0362982	0.0209038	0.0290799	-0.00223984	-0.0768467	-0.0051315	-0.0706399	0.0493755	-0.00412372	0.0192665	-2.21791	0.0122454	-1.54407	0	0	0	0	-0	0	0	0	-0.1265	0	-0	0	0	0	0	0	-0	0	0.105	-0.015	0	0	-0	0	0	-0.098	0.1	0	-0	0	0	0	0	0	-0	0	0.05595	0	0	0	-0	0	0	0	0	0	-0	0	552.986	563.546	327.745	200.624	0.476902	-2.30673	-0.0281706	-0.00382726	3.24694
23	-0.0348535	-0.0159919	0.00755106	0.0285861	-0.011159	-0.0362991	0.020902	0.029074	-0.002238	-0.0795288	0.00171737	-0.0611951	0.0494274	-0.00412164	0.0191202	-2.22123	0.0121028	-1.54434	0	0	0	0	-0	0	0	0	-0.1265	0	-0	0	0	0	0	0	-0	0	0.105	-0.015	0	0	-0	0	0	-0.098	0.1	0	-0	0	0	0	0	0	-0	0	0.05595	0	0	0	-0	0	0	0	0	0	-0	0	553.192	563.867	327.916	200.599	0.473088	-2.2759	-0.0283593	-0.00374763	3.17609
24	-0.0489207	-0.0159958	0.00755419	0.0285809	-0.011167	-0.0363023	0.020903	0.0290726	-0.00223698	-0.0779053	-0.0146543	-0.064289	0.0496777	-0.00411861	0.0184513	-2.23534	0.0121276	-1.54484	0	0	0	0	-0	0	0	0	-0.1265	0	-0	0	0	0	0	0	-0	0	0.105	-0.015	0	0	-0	0	0	-0.098	0.1	0	-0	0	0	0	0	0	-0	0	0.05595	0	0	0	-0	0	0	0	0	0	-0	0	553.489	564.329	328.171	200.56	0.467878	-2.23072	-0.0286471	-0.00362779	3.06735
25	-0.0624188	-0.0160055	0.00756088	0.0285705	-0.0111839	-0.0363077	0.0208961	0.0290804	-0.00223947	-0.105898	-0.0344411	-0.0716787	0.0498864	-0.00411275	0.0178324	-2.24888	0.0117094	-1.54572	0	0	0	0	-0	0	0	0	-0.1265	0	-0	0	0	0	0	0	-0	0	0.105	-0.015	0	0	-0	0	0	-0.098	0.1	0	-0	0	0	0	0	0	-0	0	0.05595	0	0	0	-0	0	0	0	0	0	-0	0	554.083	565.273	328.734	200.466	0.457449	-2.13829	-0.0292682	-0.00335892	2.8419
26	-0.056158	-0.0160104	0.00756184	0.0285703	-0.0111871	-0.0363052	0.0208991	0.0290721	-0.00223319	-0.103051	-0.0316919	-0.0720049	0.0497691	-0.00411195	0.0181473	-2.24263	0.0114478	-1.54574	0	0	0	0	-0	0	0	0	-0.1265	0	-0	0	0	0	0	0	-0	0	0.105	-0.015	0	0	-0	0	0	-0.098	0.1	0	-0	0	0	0	0	0	-0	0	0.05595	0	0	0	-0	0	0	0	0	0	-0	0	554.163	565.401	328.809	200.455	0.455486	-2.12514	-0.0293292	-0.00332543	2.81578
27	-0.037454	-0.0160163	0.00756336	0.028564	-0.0111978	-0.0363065	0.0209042	0.0290789	-0.0022252	-0.0948587	-0.017004	-0.0947335	0.0494089	-0.00410842	0.0191076	-2.22396	0.0105601	-1.54592	0	0	0	0	-0	0	0	0	-0.1265	0	-0	0	0	0	0	0	-0	0	0.105	-0.015	0	0	-0	0	0	-0.098	0.1	0	-0	0	0	0	0	0	-0	0	0.05595	0	0	0	-0	0	0	0	0	0	-0	0	554.474	565.9	329.119	200.403	0.450544	-2.07936	-0.0296761	-0.00317753	2.70154
28	-0.0357937	-0.0160196	0.00756557	0.0285616	-0.0112012	-0.0363057	0.0208999	0.0290729	-0.00223202	-0.0945328	-0.0249778	-0.102523	0.0493601	-0.0041069	0.0191977	-2.22231	0.0103208	-1.54611	0	0	0	0	-0	0	0	0	-0.1265	0	-0	0	0	0	0	0	-0	0	0.105	-0.015	0	0	-0	0	0	-0.098	0.1	0	-0	0	0	0	0	0	-0	0	0.05595	0	0	0	-0	0	0	0	0	0	-0	0	554.622	566.142	329.272	200.378	0.447793	-2.05604	-0.0298391	-0.00310668	2.64648
29	-0.0470757	-0.0160267	0.00756649	0.0285576	-0.0112108	-0.036306	0.0208991	0.0290732	-0.00223049	-0.098343	-0.025889	-0.110595	0.0495638	-0.0041047	0.0186596	-2.2336	0.0103001	-1.54651	0	0	0	0	-0	0	0	0	-0.1265	0	-0	0	0	0	0	0	-0	0	0.105	-0.015	0	0	-0	0	0	-0.098	0.1	0	-0	0	0	0	0	0	-0	0	0.05595	0	0	0	-0	0	0	0	0	0	-0	0	554.839	566.489	329.499	200.34	0.44392	-2.02169	-0.0300705	-0.00299703	2.56199
30	-0.0478461	-0.0160322	0.00756752	0.0285546	-0.0112174	-0.0363051	0.0208995	0.0290821	-0.00223041	-0.072915	-0.0262615	-0.108838	0.0495658	-0.00410288	0.0186348	-2.23438	0.010075	-1.54675	0	0	0	0	-0	0	0	0	-0.1265	0	-0	0	0	0	0	0	-0	0	0.105	-0.015	0	0	-0	0	0	-0.098	0.1	0	-0	0	0	0	0	0	-0	0	0.05595	0	0	0	-0	0	0	0	0	0	-0	0	555.007	566.765	329.681	200.309	0.440987	-1.99578	-0.0302617	-0.00290978	2.4989
31	-0.050734	-0.0160426	0.00757053	0.0285473	-0.0112303	-0.0363046	0.0208998	0.0290712	-0.00222778	-0.0777976	-0.0469425	-0.108161	0.0495985	-0.0040992	0.0185232	-2.23727	0.00961224	-1.54728	0	0	0	0	-0	0	0	0	-0.1265	0	-0	0	0	0	0	0	-0	0	0.105	-0.015	0	0	-0	0	0	-0.098	0.1	0	-0	0	0	0	0	0	-0	0	0.05595	0	0	0	-0	0	0	0	0	0	-0	0	555.356	567.347	330.082	200.237	0.43515	-1.94069	-0.0306954	-0.00271551	2.35976
32	-0.0518963	-0.016049	0.00757066	0.0285467	-0.0112362	-0.036302	0.0208979	0.0290727	-0.00222689	-0.0736954	-0.0456411	-0.115099	0.0496163	-0.00409817	0.0184718	-2.23843	0.00949857	-1.54742	0	0	0	0	-0	0	0	0	-0.1265	0	-0	0	0	0	0	0	-0	0	0.105	-0.015	0	0	-0	0	0	-0.098	0.1	0	-0	0	0	0	0	0	-0	0	0.05595	0	0	0	-0	0	0	0	0	0	-0	0	555.45	567.502	330.19	200.219	0.433188	-1.92549	-0.0307942	-0.00266804	2.32598
33	-0.0415222	-0.0160534	0.00757028	0.0285435	-0.0112423	-0.0363009	0.0208988	0.0290725	-0.00222703	-0.0692796	-0.0547008	-0.117953	0.0494171	-0.00409668	0.0189981	-2.22806	0.00906219	-1.54751	0	0	0	0	-0	0	0	0	-0.1265	0	-0	0	0	0	0	0	-0	0	0.105	-0.015	0	0	-0	0	0	-0.098	0.1	0	-0	0	0	0	0	0	-0	0	0.05595	0	0	0	-0	0	0	0	0	0	-0	0	555.576	567.708	330.337	200.193	0.431175	-1.90691	-0.030942	-0.00259553	2.27929
34	-0.0434078	-0.0160573	0.00757004	0.0285423	-0.0112468	-0.0362997	0.0209	0.0290737	-0.00222578	-0.062091	-0.0651285	-0.111492	0.0494452	-0.00409566	0.0189114	-2.22994	0.00896521	-1.54766	0	0	0	0	-0	0	0	0	-0.1265	0	-0	0	0	0	0	0	-0	0	0.105	-0.015	0	0	-0	0	0	-0.098	0.1	0	-0	0	0	0	0	0	-0	0	0.05595	0	0	0	-0	0	0	0	0	0	-0	0	555.667	567.859	330.445	200.173	0.429573	-1.89307	-0.0310475	-0.00254243	2.24584
35	-0.0314323	-0.0160646	0.00757058	0.0285377	-0.0112559	-0.0362981	0.020899	0.0290735	-0.00222478	-0.0675049	-0.0575191	-0.119181	0.0492067	-0.00409347	0.0195213	-2.21797	0.00837458	-1.54786	0	0	0	0	-0	0	0	0	-0.1265	0	-0	0	0	0	0	0	-0	0	0.105	-0.015	0	0	-0	0	0	-0.098	0.1	0	-0	0	0	0	0	0	-0	0	0.05595	0	0	0	-0	0	0	0	0	0	-0	0	555.862	568.187	330.686	200.13	0.426473	-1.86304	-0.0313007	-0.00242524	2.16875
36	-0.0218905	-0.016077	0.00757084	0.0285317	-0.0112703	-0.0362945	0.0208986	0.0290731	-0.00222638	-0.0704842	-0.0714193	-0.128186	0.0490006	-0.00409044	0.0200132	-2.20842	0.00771115	-1.54823	0	0	0	0	-0	0	0	0	-0.1265	0	-0	0	0	0	0	0	-0	0	0.105	-0.015	0	0	-0	0	0	-0.098	0.1	0	-0	0	0	0	0	0	-0	0	0.05595	0	0	0	-0	0	0	0	0	0	-0	0	556.133	568.648	331.034	200.065	0.42203	-1.82073	-0.0316576	-0.00225549	2.06103
37	-0.0221656	-0.0160851	0.00757084	0.0285298	-0.011278	-0.0362916	0.0208954	0.0290741	-0.00222391	-0.0567132	-0.0624963	-0.128224	0.0489974	-0.00408905	0.0200082	-2.20869	0.007505	-1.54844	0	0	0	0	-0	0	0	0	-0.1265	0	-0	0	0	0	0	0	-0	0	0.105	-0.015	0	0	-0	0	0	-0.098	0.1	0	-0	0	0	0	0	0	-0	0	0.05595	0	0	0	-0	0	0	0	0	0	-0	0	556.263	568.87	331.204	200.034	0.41953	-1.79944	-0.0318172	-0.00217404	2.01014
38	-0.025701	-0.0160883	0.00757094	0.0285279	-0.0112811	-0.0362901	0.0208966	0.0290744	-0.00222286	-0.0686131	-0.0626384	-0.123665	0.0490655	-0.00408839	0.019839	-2.21222	0.00749634	-1.54856	0	0	0	0	-0	0	0	0	-0.1265	0	-0	0	0	0	0	0	-0	0	0.105	-0.015	0	0	-0	0	0	-0.098	0.1	0	-0	0	0	0	0	0	-0	0	0.05595	0	0	0	-0	0	0	0	0	0	-0	0	556.315	568.959	331.273	200.021	0.41857	-1.79103	-0.0318836	-0.0021417	1.98989
39	-0.0270171	-0.0160939	0.00757084	0.0285249	-0.0112878	-0.0362884	0.0208999	0.0290738	-0.00222336	-0.0609487	-0.0768896	-0.128242	0.0490838	-0.004087	0.0197853	-2.21352	0.00731677	-1.54877	0	0	0	0	-0	0	0	0	-0.1265	0	-0	0	0	0	0	0	-0	0	0.105	-0.015	0	0	-0	0	0	-0.098	0.1	0	-0	0	0	0	0	0	-0	0	0.05595	0	0	0	-0	0	0	0	0	0	-0	0	556.437	569.168	331.437	199.99	0.416649	-1.77191	-0.0320521	-0.00206147	1.93998
40	-0.0182468	-0.016103	0.00757051	0.0285211	-0.0112981	-0.0362854	0.020897	0.029075	-0.00222153	-0.0487983	-0.0796673	-0.133649	0.0489002	-0.00408511	0.0202307	-2.20474	0.00682213	-1.54901	0	0	0	0	-0	0	0	0	-0.1265	0	-0	0	0	0	0	0	-0	0	0.105	-0.015	0	0	-0	0	0	-0.098	0.1	0	-0	0	0	0	0	0	-0	0	0.05595	0	0	0	-0	0	0	0	0	0	-0	0	556.611	569.466	331.675	199.945	0.413729	-1.74389	-0.0322884	-0.00194483	1.86798
41	-0.0244427	-0.0161087	0.00757044	0.0285193	-0.0113034	-0.0362827	0.0208982	0.0290748	-0.00222166	-0.05879	-0.0712942	-0.126858	0.0490192	-0.00408407	0.0199334	-2.21093	0.00681095	-1.5492	0	0	0	0	-0	0	0	0	-0.1265	0	-0	0	0	0	0	0	-0	0	0.105	-0.015	0	0	-0	0	0	-0.098	0.1	0	-0	0	0	0	0	0	-0	0	0.05595	0	0	0	-0	0	0	0	0	0	-0	0	556.695	569.613	331.792	199.922	0.412301	-1.73109	-0.0324045	-0.0018891	1.83685
42	-0.0301374	-0.0161126	0.00756977	0.0285184	-0.0113074	-0.036281	0.0208956	0.0290722	-0.00222094	-0.0588647	-0.0709432	-0.126107	0.0491285	-0.00408331	0.019659	-2.21662	0.00682337	-1.54935	0	0	0	0	-0	0	0	0	-0.1265	0	-0	0	0	0	0	0	-0	0	0.105	-0.015	0	0	-0	0	0	-0.098	0.1	0	-0	0	0	0	0	0	-0	0	0.05595	0	0	0	-0	0	0	0	0	0	-0	0	556.756	569.72	331.879	199.906	0.411303	-1.722	-0.0324883	-0.00184655	1.81431
43	-0.0375507	-0.0161183	0.00756913	0.028516	-0.0113137	-0.0362786	0.0208957	0.0290722	-0.00222005	-0.0552442	-0.0617864	-0.129119	0.049268	-0.00408217	0.0193028	-2.22402	0.00681786	-1.54956	0	0	0	0	-0	0	0	0	-0.1265	0	-0	0	0	0	0	0	-0	0	0.105	-0.015	0	0	-0	0	0	-0.098	0.1	0	-0	0	0	0	0	0	-0	0	0.05595	0	0	0	-0	0	0	0	0	0	-0	0	556.844	569.876	332.007	199.881	0.410023	-1.70885	-0.0326203	-0.00178392	1.77967
44	-0.0337201	-0.0161209	0.00756914	0.0285151	-0.0113161	-0.0362775	0.0208953	0.0290727	-0.00222026	-0.0493332	-0.0595871	-0.130079	0.0491913	-0.0040818	0.0194933	-2.22019	0.0066703	-1.5496	0	0	0	0	-0	0	0	0	-0.1265	0	-0	0	0	0	0	0	-0	0	0.105	-0.015	0	0	-0	0	0	-0.098	0.1	0	-0	0	0	0	0	0	-0	0	0.05595	0	0	0	-0	0	0	0	0	0	-0	0	556.881	569.939	332.059	199.871	0.409263	-1.70253	-0.0326657	-0.00175939	1.7648
45	-0.0372581	-0.0161233	0.0075687	0.028514	-0.0113189	-0.0362765	0.0208959	0.0290726	-0.00221943	-0.0511721	-0.066595	-0.124373	0.0492577	-0.00408131	0.0193226	-2.22372	0.00667289	-1.54969	0	0	0	0	-0	0	0	0	-0.1265	0	-0	0	0	0	0	0	-0	0	0.105	-0.015	0	0	-0	0	0	-0.098	0.1	0	-0	0	0	0	0	0	-0	0	0.05595	0	0	0	-0	0	0	0	0	0	-0	0	556.92	570.006	332.116	199.86	0.408632	-1.69648	-0.0327196	-0.001731	1.74919
46	-0.0374743	-0.0161244	0.00756873	0.0285137	-0.0113198	-0.036276	0.0208955	0.0290725	-0.00222004	-0.0509445	-0.0664386	-0.120034	0.049261	-0.00408116	0.0193127	-2.22393	0.00665194	-1.54972	0	0	0	0	-0	0	0	0	-0.1265	0	-0	0	0	0	0	0	-0	0	0.105	-0.015	0	0	-0	0	0	-0.098	0.1	0	-0	0	0	0	0	0	-0	0	0.05595	0	0	0	-0	0	0	0	0	0	-0	0	556.934	570.031	332.136	199.857	0.408347	-1.69412	-0.0327377	-0.00172174	1.74372
47	-0.0381581	-0.0161261	0.00756842	0.0285131	-0.0113218	-0.0362753	0.0208955	0.0290726	-0.00221991	-0.0510008	-0.0660199	-0.115617	0.0492726	-0.00408082	0.0192815	-2.22461	0.00661389	-1.54977	0	0	0	0	-0	0	0	0	-0.1265	0	-0	0	0	0	0	0	-0	0	0.105	-0.015	0	0	-0	0	0	-0.098	0.1	0	-0	0	0	0	0	0	-0	0	0.05595	0	0	0	-0	0	0	0	0	0	-0	0	556.962	570.08	332.177	199.849	0.407916	-1.68983	-0.0327779	-0.00170119	1.73248
48	-0.0366196	-0.0161287	0.00756827	0.0285121	-0.0113245	-0.0362743	0.0208958	0.0290724	-0.00221966	-0.0489668	-0.0721629	-0.115329	0.0492404	-0.00408032	0.0193611	-2.22307	0.00650324	-1.54984	0	0	0	0	-0	0	0	0	-0.1265	0	-0	0	0	0	0	0	-0	0	0.105	-0.015	0	0	-0	0	0	-0.098	0.1	0	-0	0	0	0	0	0	-0	0	0.05595	0	0	0	-0	0	0	0	0	0	-0	0	557.004	570.154	332.238	199.837	0.407301	-1.68351	-0.0328414	-0.00167119	1.71579
49	-0.0336618	-0.0161302	0.00756815	0.0285117	-0.011326	-0.0362735	0.0208954	0.0290729	-0.00221952	-0.0433004	-0.0732267	-0.118096	0.0491822	-0.00408008	0.0195082	-2.22011	0.00640288	-1.54986	0	0	0	0	-0	0	0	0	-0.1265	0	-0	0	0	0	0	0	-0	0	0.105	-0.015	0	0	-0	0	0	-0.098	0.1	0	-0	0	0	0	0	0	-0	0	0.05595	0	0	0	-0	0	0	0	0	0	-0	0	557.024	570.189	332.268	199.831	0.406924	-1.68023	-0.032869	-0.00165674	1.70789
50	-0.0322427	-0.0161329	0.00756779	0.0285104	-0.0113291	-0.0362724	0.0208954	0.0290727	-0.00221959	-0.0441563	-0.076456	-0.122782	0.0491515	-0.00407952	0.0195821	-2.21869	0.00628695	-1.54993	0	0	0	0	-0	0	0	0	-0.1265	0	-0	0	0	0	0	0	-0	0	0.105	-0.015	0	0	-0	0	0	-0.098	0.1	0	-0	0	0	0	0	0	-0	0	0.05595	0	0	0	-0	0	0	0	0	0	-0	0	557.07	570.27	332.336	199.818	0.406248	-1.67324	-0.0329374	-0.00162299	1.6893
51	-0.0379711	-0.0161373	0.0075674	0.0285087	-0.0113338	-0.0362706	0.0208951	0.0290726	-0.00221909	-0.042835	-0.0745661	-0.119578	0.0492598	-0.00407875	0.0193063	-2.22441	0.00627925	-1.55009	0	0	0	0	-0	0	0	0	-0.1265	0	-0	0	0	0	0	0	-0	0	0.105	-0.015	0	0	-0	0	0	-0.098	0.1	0	-0	0	0	0	0	0	-0	0	0.05595	0	0	0	-0	0	0	0	0	0	-0	0	557.136	570.387	332.436	199.798	0.405192	-1.66268	-0.0330365	-0.0015738	1.66161
52	-0.0470608	-0.0161437	0.00756721	0.028506	-0.0113405	-0.036268	0.0208955	0.0290727	-0.00221923	-0.0408367	-0.0657197	-0.114987	0.0494291	-0.00407767	0.0188666	-2.23348	0.00627924	-1.55033	0	0	0	0	-0	0	0	0	-0.1265	0	-0	0	0	0	0	0	-0	0	0.105	-0.015	0	0	-0	0	0	-0.098	0.1	0	-0	0	0	0	0	0	-0	0	0.05595	0	0	0	-0	0	0	0	0	0	-0	0	557.232	570.558	332.583	199.769	0.403641	-1.64685	-0.0331844	-0.00150216	1.61984
53	-0.0384687	-0.0161531	0.0075664	0.0285023	-0.0113506	-0.0362642	0.020894	0.0290747	-0.00221757	-0.053551	-0.0709685	-0.112457	0.0492574	-0.0040761	0.0193026	-2.22486	0.00583123	-1.55054	0	0	0	0	-0	0	0	0	-0.1265	0	-0	0	0	0	0	0	-0	0	0.105	-0.015	0	0	-0	0	0	-0.098	0.1	0	-0	0	0	0	0	0	-0	0	0.05595	0	0	0	-0	0	0	0	0	0	-0	0	557.369	570.802	332.795	199.726	0.401444	-1.6246	-0.0333938	-0.0013975	1.56109
54	-0.0493782	-0.0161585	0.0075666	0.0285004	-0.0113553	-0.0362617	0.0208943	0.0290728	-0.00221732	-0.0487948	-0.0667018	-0.112938	0.0494633	-0.00407535	0.0187692	-2.23576	0.00592105	-1.55073	0	0	0	0	-0	0	0	0	-0.1265	0	-0	0	0	0	0	0	-0	0	0.105	-0.015	0	0	-0	0	0	-0.098	0.1	0	-0	0	0	0	0	0	-0	0	0.05595	0	0	0	-0	0	0	0	0	0	-0	0	557.435	570.922	332.899	199.706	0.400195	-1.61313	-0.0334946	-0.00134829	1.53274
55	-0.0465251	-0.016169	0.00756566	0.028497	-0.0113661	-0.0362572	0.0208951	0.029075	-0.00221697	-0.0377834	-0.0682083	-0.108645	0.0493988	-0.0040737	0.0189218	-2.23288	0.00557421	-1.55098	0	0	0	0	-0	0	0	0	-0.1265	0	-0	0	0	0	0	0	-0	0	0.105	-0.015	0	0	-0	0	0	-0.098	0.1	0	-0	0	0	0	0	0	-0	0	0.05595	0	0	0	-0	0	0	0	0	0	-0	0	557.573	571.176	333.124	199.659	0.398135	-1.59087	-0.0337269	-0.00123781	1.47263
56	-0.0461056	-0.0161749	0.00756469	0.0284952	-0.0113719	-0.0362541	0.0208945	0.0290729	-0.00221563	-0.0356464	-0.0607804	-0.113252	0.0493875	-0.00407278	0.0189478	-2.23245	0.00542197	-1.55112	0	0	0	0	-0	0	0	0	-0.1265	0	-0	0	0	0	0	0	-0	0	0.105	-0.015	0	0	-0	0	0	-0.098	0.1	0	-0	0	0	0	0	0	-0	0	0.05595	0	0	0	-0	0	0	0	0	0	-0	0	557.645	571.304	333.237	199.636	0.396893	-1.58001	-0.0338288	-0.00118238	1.44631
57	-0.0409333	-0.0161778	0.00756412	0.0284945	-0.0113746	-0.0362526	0.0208944	0.0290726	-0.00221607	-0.0373292	-0.0690748	-0.11281	0.0492882	-0.00407238	0.0192054	-2.22727	0.00526193	-1.55115	0	0	0	0	-0	0	0	0	-0.1265	0	-0	0	0	0	0	0	-0	0	0.105	-0.015	0	0	-0	0	0	-0.098	0.1	0	-0	0	0	0	0	0	-0	0	0.05595	0	0	0	-0	0	0	0	0	0	-0	0	557.674	571.355	333.283	199.626	0.396375	-1.5755	-0.0338696	-0.00116042	1.43544
58	-0.0418061	-0.0161823	0.00756344	0.0284935	-0.0113791	-0.0362504	0.0208945	0.0290742	-0.00221591	-0.0285249	-0.071407	-0.111091	0.0493009	-0.00407164	0.0191674	-2.22813	0.00516024	-1.55126	0	0	0	0	-0	0	0	0	-0.1265	0	-0	0	0	0	0	0	-0	0	0.105	-0.015	0	0	-0	0	0	-0.098	0.1	0	-0	0	0	0	0	0	-0	0	0.05595	0	0	0	-0	0	0	0	0	0	-0	0	557.73	571.46	333.377	199.607	0.395635	-1.56721	-0.0339689	-0.00111455	1.41292
59	-0.0434786	-0.0161885	0.00756234	0.0284909	-0.0113859	-0.0362473	0.0208938	0.0290732	-0.00221602	-0.0345065	-0.0803214	-0.114015	0.0493281	-0.00407055	0.0190926	-2.22979	0.00501925	-1.55144	0	0	0	0	-0	0	0	0	-0.1265	0	-0	0	0	0	0	0	-0	0	0.105	-0.015	0	0	-0	0	0	-0.098	0.1	0	-0	0	0	0	0	0	-0	0	0.05595	0	0	0	-0	0	0	0	0	0	-0	0	557.814	571.612	333.513	199.579	0.39444	-1.55466	-0.0341039	-0.00104667	1.37931
60	-0.0449093	-0.0161923	0.00756152	0.0284898	-0.0113899	-0.0362453	0.0208949	0.0290737	-0.00221449	-0.0362495	-0.0734352	-0.120972	0.0493535	-0.00407002	0.0190251	-2.23121	0.00496155	-1.55153	0	0	0	0	-0	0	0	0	-0.1265	0	-0	0	0	0	0	0	-0	0	0.105	-0.015	0	0	-0	0	0	-0.098	0.1	0	-0	0	0	0	0	0	-0	0	0.05595	0	0	0	-0	0	0	0	0	0	-0	0	557.856	571.686	333.58	199.565	0.393704	-1.54828	-0.0341614	-0.00101345	1.36377
61	-0.0402897	-0.0161991	0.00756066	0.0284871	-0.011397	-0.0362421	0.0208953	0.0290756	-0.00221444	-0.0308696	-0.0756218	-0.133263	0.0492606	-0.00406895	0.019261	-2.22657	0.0046851	-1.55169	0	0	0	0	-0	0	0	0	-0.1265	0	-0	0	0	0	0	0	-0	0	0.105	-0.015	0	0	-0	0	0	-0.098	0.1	0	-0	0	0	0	0	0	-0	0	0.05595	0	0	0	-0	0	0	0	0	0	-0	0	557.942	571.846	333.728	199.534	0.392447	-1.53433	-0.0343112	-0.000940707	1.32556
62	-0.0349104	-0.0162032	0.0075604	0.0284864	-0.0114004	-0.0362399	0.0208941	0.029073	-0.00221451	-0.0300285	-0.0837884	-0.133982	0.0491546	-0.00406842	0.0195288	-2.22118	0.00449193	-1.55175	0	0	0	0	-0	0	0	0	-0.1265	0	-0	0	0	0	0	0	-0	0	0.105	-0.015	0	0	-0	0	0	-0.098	0.1	0	-0	0	0	0	0	0	-0	0	0.05595	0	0	0	-0	0	0	0	0	0	-0	0	557.985	571.926	333.8	199.519	0.391712	-1.52767	-0.0343813	-0.000905985	1.30935
63	-0.03273	-0.0162067	0.00755928	0.0284854	-0.0114043	-0.0362381	0.020894	0.0290734	-0.00221462	-0.029153	-0.0897358	-0.13863	0.0491093	-0.00406791	0.0196389	-2.21899	0.00437373	-1.55181	0	0	0	0	-0	0	0	0	-0.1265	0	-0	0	0	0	0	0	-0	0	0.105	-0.015	0	0	-0	0	0	-0.098	0.1	0	-0	0	0	0	0	0	-0	0	0.05595	0	0	0	-0	0	0	0	0	0	-0	0	558.022	571.991	333.861	199.506	0.391158	-1.5223	-0.0344356	-0.000875404	1.29538
64	-0.0291903	-0.0162092	0.00755885	0.0284847	-0.0114067	-0.0362369	0.0208932	0.0290734	-0.00221409	-0.0243929	-0.0872754	-0.139065	0.0490385	-0.00406758	0.0198146	-2.21545	0.00424993	-1.55185	0	0	0	0	-0	0	0	0	-0.1265	0	-0	0	0	0	0	0	-0	0	0.105	-0.015	0	0	-0	0	0	-0.098	0.1	0	-0	0	0	0	0	0	-0	0	0.05595	0	0	0	-0	0	0	0	0	0	-0	0	558.048	572.039	333.907	199.497	0.390724	-1.51822	-0.0344775	-0.000853045	1.28508
65	-0.032751	-0.0162139	0.00755831	0.0284825	-0.0114118	-0.0362347	0.0208934	0.0290735	-0.00221347	-0.0219385	-0.0855679	-0.143812	0.0491052	-0.00406687	0.0196452	-2.21899	0.00419206	-1.55199	0	0	0	0	-0	0	0	0	-0.1265	0	-0	0	0	0	0	0	-0	0	0.105	-0.015	0	0	-0	0	0	-0.098	0.1	0	-0	0	0	0	0	0	-0	0	0.05595	0	0	0	-0	0	0	0	0	0	-0	0	558.106	572.147	334.007	199.476	0.389859	-1.50851	-0.0345786	-0.000803512	1.25821
66	-0.04059	-0.0162211	0.00755744	0.02848	-0.0114191	-0.0362311	0.0208925	0.0290745	-0.00221373	-0.0111077	-0.0773557	-0.142999	0.0492542	-0.00406581	0.0192676	-2.22681	0.00415702	-1.5522	0	0	0	0	-0	0	0	0	-0.1265	0	-0	0	0	0	0	0	-0	0	0.105	-0.015	0	0	-0	0	0	-0.098	0.1	0	-0	0	0	0	0	0	-0	0	0.05595	0	0	0	-0	0	0	0	0	0	-0	0	558.19	572.303	334.151	199.445	0.388653	-1.4953	-0.0347258	-0.000732479	1.22235
67	-0.0425034	-0.0162251	0.00755695	0.0284785	-0.0114231	-0.0362292	0.0208934	0.0290734	-0.00221233	-0.0146569	-0.0871788	-0.138657	0.0492879	-0.00406533	0.0191757	-2.22871	0.00410368	-1.55229	0	0	0	0	-0	0	0	0	-0.1265	0	-0	0	0	0	0	0	-0	0	0.105	-0.015	0	0	-0	0	0	-0.098	0.1	0	-0	0	0	0	0	0	-0	0	0.05595	0	0	0	-0	0	0	0	0	0	-0	0	558.233	572.379	334.221	199.43	0.387815	-1.48791	-0.0347859	-0.000697999	1.20412
68	-0.0403385	-0.0162291	0.0075563	0.0284769	-0.0114273	-0.0362272	0.0208924	0.0290743	-0.00221284	-0.0240504	-0.09356	-0.137667	0.0492439	-0.00406475	0.0192862	-2.22654	0.00396355	-1.55238	0	0	0	0	-0	0	0	0	-0.1265	0	-0	0	0	0	0	0	-0	0	0.105	-0.015	0	0	-0	0	0	-0.098	0.1	0	-0	0	0	0	0	0	-0	0	0.05595	0	0	0	-0	0	0	0	0	0	-0	0	558.279	572.463	334.301	199.413	0.387089	-1.48038	-0.0348626	-0.000659262	1.18406
69	-0.035381	-0.0162328	0.00755612	0.0284756	-0.0114308	-0.0362256	0.0208928	0.0290734	-0.0022125	-0.0249545	-0.0932004	-0.137924	0.0491466	-0.00406436	0.0195331	-2.22157	0.00378957	-1.55244	0	0	0	0	-0	0	0	0	-0.1265	0	-0	0	0	0	0	0	-0	0	0.105	-0.015	0	0	-0	0	0	-0.098	0.1	0	-0	0	0	0	0	0	-0	0	0.05595	0	0	0	-0	0	0	0	0	0	-0	0	558.316	572.532	334.367	199.399	0.386387	-1.47344	-0.0349248	-0.000626757	1.1659
70	-0.0393352	-0.0162355	0.00755555	0.028475	-0.0114335	-0.0362242	0.0208933	0.029074	-0.00221265	-0.0246507	-0.0960604	-0.144427	0.0492218	-0.004064	0.0193408	-2.22551	0.00380088	-1.55252	0	0	0	0	-0	0	0	0	-0.1265	0	-0	0	0	0	0	0	-0	0	0.105	-0.015	0	0	-0	0	0	-0.098	0.1	0	-0	0	0	0	0	0	-0	0	0.05595	0	0	0	-0	0	0	0	0	0	-0	0	558.344	572.584	334.416	199.389	0.385963	-1.46915	-0.0349713	-0.000602699	1.15463
71	-0.0450187	-0.0162374	0.00755501	0.0284744	-0.0114355	-0.0362231	0.0208928	0.0290735	-0.00221221	-0.0237777	-0.0943975	-0.146436	0.0493303	-0.0040637	0.0190626	-2.23119	0.00385882	-1.55258	0	0	0	0	-0	0	0	0	-0.1265	0	-0	0	0	0	0	0	-0	0	0.105	-0.015	0	0	-0	0	0	-0.098	0.1	0	-0	0	0	0	0	0	-0	0	0.05595	0	0	0	-0	0	0	0	0	0	-0	0	558.365	572.623	334.452	199.381	0.38563	-1.46607	-0.0350037	-0.00058451	1.14685
72	-0.048749	-0.0162415	0.00755416	0.0284728	-0.01144	-0.036221	0.0208934	0.0290744	-0.00221206	-0.0168877	-0.0983963	-0.147465	0.049398	-0.00406311	0.0188824	-2.23491	0.00382547	-1.55269	0	0	0	0	-0	0	0	0	-0.1265	0	-0	0	0	0	0	0	-0	0	0.105	-0.015	0	0	-0	0	0	-0.098	0.1	0	-0	0	0	0	0	0	-0	0	0.05595	0	0	0	-0	0	0	0	0	0	-0	0	558.41	572.705	334.532	199.364	0.385036	-1.45928	-0.0350827	-0.000544779	1.12794
73	-0.0550622	-0.0162475	0.00755359	0.028471	-0.0114457	-0.0362179	0.0208931	0.0290743	-0.00221194	-0.0173867	-0.101059	-0.154504	0.0495135	-0.00406233	0.018576	-2.2412	0.00379258	-1.55286	0	0	0	0	-0	0	0	0	-0.1265	0	-0	0	0	0	0	0	-0	0	0.105	-0.015	0	0	-0	0	0	-0.098	0.1	0	-0	0	0	0	0	0	-0	0	0.05595	0	0	0	-0	0	0	0	0	0	-0	0	558.472	572.826	334.647	199.339	0.384143	-1.44912	-0.0352026	-0.000488238	1.10003
74	-0.0533512	-0.0162509	0.00755287	0.0284701	-0.0114491	-0.0362161	0.0208932	0.0290736	-0.00221165	-0.0185431	-0.0928014	-0.153516	0.0494795	-0.00406192	0.0186626	-2.23948	0.0036902	-1.55292	0	0	0	0	-0	0	0	0	-0.1265	0	-0	0	0	0	0	0	-0	0	0.105	-0.015	0	0	-0	0	0	-0.098	0.1	0	-0	0	0	0	0	0	-0	0	0.05595	0	0	0	-0	0	0	0	0	0	-0	0	558.505	572.885	334.703	199.327	0.383554	-1.444	-0.0352502	-0.000460583	1.08758
75	-0.0558069	-0.0162533	0.00755238	0.0284695	-0.0114514	-0.0362149	0.0208926	0.0290742	-0.00221135	-0.0243673	-0.0921744	-0.151978	0.0495241	-0.00406158	0.0185431	-2.24193	0.00368097	-1.55297	0	0	0	0	-0	0	0	0	-0.1265	0	-0	0	0	0	0	0	-0	0	0.105	-0.015	0	0	-0	0	0	-0.098	0.1	0	-0	0	0	0	0	0	-0	0	0.05595	0	0	0	-0	0	0	0	0	0	-0	0	558.529	572.93	334.745	199.318	0.383163	-1.44015	-0.0352906	-0.000440226	1.07764
76	-0.0585104	-0.0162549	0.00755211	0.0284688	-0.0114531	-0.036214	0.0208926	0.0290742	-0.00221154	-0.0280005	-0.0939374	-0.156748	0.0495731	-0.00406133	0.0184108	-2.24463	0.00368934	-1.55302	0	0	0	0	-0	0	0	0	-0.1265	0	-0	0	0	0	0	0	-0	0	0.105	-0.015	0	0	-0	0	0	-0.098	0.1	0	-0	0	0	0	0	0	-0	0	0.05595	0	0	0	-0	0	0	0	0	0	-0	0	558.548	572.964	334.776	199.311	0.382907	-1.43742	-0.0353216	-0.000424928	1.0703
77	-0.0607428	-0.0162563	0.00755199	0.0284685	-0.0114543	-0.0362134	0.0208925	0.0290736	-0.00221136	-0.0292522	-0.099134	-0.158277	0.0496135	-0.00406118	0.018301	-2.24686	0.00369974	-1.55306	0	0	0	0	-0	0	0	0	-0.1265	0	-0	0	0	0	0	0	-0	0	0.105	-0.015	0	0	-0	0	0	-0.098	0.1	0	-0	0	0	0	0	0	-0	0	0.05595	0	0	0	-0	0	0	0	0	0	-0	0	558.561	572.988	334.799	199.306	0.382671	-1.43515	-0.0353435	-0.000413882	1.06454
78	-0.062896	-0.0162589	0.00755129	0.0284677	-0.0114571	-0.0362118	0.0208929	0.0290745	-0.00221111	-0.0302795	-0.0977129	-0.150885	0.0496511	-0.00406076	0.0181969	-2.249	0.00367225	-1.55312	0	0	0	0	-0	0	0	0	-0.1265	0	-0	0	0	0	0	0	-0	0	0.105	-0.015	0	0	-0	0	0	-0.098	0.1	0	-0	0	0	0	0	0	-0	0	0.05595	0	0	0	-0	0	0	0	0	0	-0	0	558.589	573.042	334.85	199.295	0.382356	-1.43132	-0.0353964	-0.000388541	1.05374
79	-0.0593011	-0.0162603	0.00755109	0.0284672	-0.0114585	-0.0362111	0.0208924	0.0290738	-0.00221091	-0.0294913	-0.0989027	-0.148445	0.0495851	-0.00406059	0.0183763	-2.2454	0.00357664	-1.55314	0	0	0	0	-0	0	0	0	-0.1265	0	-0	0	0	0	0	0	-0	0	0.105	-0.015	0	0	-0	0	0	-0.098	0.1	0	-0	0	0	0	0	0	-0	0	0.05595	0	0	0	-0	0	0	0	0	0	-0	0	558.603	573.068	334.875	199.289	0.38208	-1.42893	-0.0354176	-0.000376128	1.04791
80	-0.0563766	-0.0162632	0.00755061	0.028466	-0.0114616	-0.0362097	0.0208927	0.0290737	-0.00221045	-0.0303858	-0.107428	-0.145806	0.0495292	-0.00406019	0.0185242	-2.24247	0.00345389	-1.5532	0	0	0	0	-0	0	0	0	-0.1265	0	-0	0	0	0	0	0	-0	0	0.105	-0.015	0	0	-0	0	0	-0.098	0.1	0	-0	0	0	0	0	0	-0	0	0.05595	0	0	0	-0	0	0	0	0	0	-0	0	558.635	573.127	334.93	199.277	0.381649	-1.42381	-0.0354748	-0.000348678	1.03344
81	-0.0559222	-0.0162649	0.00755052	0.0284656	-0.0114631	-0.0362088	0.0208924	0.0290737	-0.00221049	-0.0294294	-0.101993	-0.148035	0.0495201	-0.00406003	0.0185475	-2.24201	0.00341152	-1.55323	0	0	0	0	-0	0	0	0	-0.1265	0	-0	0	0	0	0	0	-0	0	0.105	-0.015	0	0	-0	0	0	-0.098	0.1	0	-0	0	0	0	0	0	-0	0	0.05595	0	0	0	-0	0	0	0	0	0	-0	0	558.649	573.154	334.958	199.271	0.381355	-1.42115	-0.0354994	-0.000335704	1.02691
82	-0.060497	-0.0162661	0.00755042	0.0284651	-0.0114642	-0.0362083	0.0208922	0.0290739	-0.00221057	-0.0292973	-0.102476	-0.145236	0.0496044	-0.00405989	0.0183218	-2.24658	0.00346591	-1.55327	0	0	0	0	-0	0	0	0	-0.1265	0	-0	0	0	0	0	0	-0	0	0.105	-0.015	0	0	-0	0	0	-0.098	0.1	0	-0	0	0	0	0	0	-0	0	0.05595	0	0	0	-0	0	0	0	0	0	-0	0	558.661	573.176	334.978	199.267	0.381145	-1.41905	-0.0355188	-0.000325706	1.02137
83	-0.0616441	-0.0162669	0.0075502	0.0284648	-0.0114651	-0.0362079	0.0208924	0.0290741	-0.00221055	-0.0321947	-0.100391	-0.14832	0.0496246	-0.0040598	0.0182653	-2.24773	0.00346671	-1.55329	0	0	0	0	-0	0	0	0	-0.1265	0	-0	0	0	0	0	0	-0	0	0.105	-0.015	0	0	-0	0	0	-0.098	0.1	0	-0	0	0	0	0	0	-0	0	0.05595	0	0	0	-0	0	0	0	0	0	-0	0	558.67	573.191	334.993	199.263	0.380961	-1.41748	-0.0355304	-0.000318034	1.01749
84	-0.0610823	-0.0162685	0.00754971	0.028464	-0.0114671	-0.036207	0.0208922	0.0290739	-0.00221037	-0.0321378	-0.0983931	-0.150886	0.0496132	-0.00405954	0.018295	-2.24716	0.00341364	-1.55333	0	0	0	0	-0	0	0	0	-0.1265	0	-0	0	0	0	0	0	-0	0	0.105	-0.015	0	0	-0	0	0	-0.098	0.1	0	-0	0	0	0	0	0	-0	0	0.05595	0	0	0	-0	0	0	0	0	0	-0	0	558.689	573.225	335.027	199.256	0.380705	-1.4146	-0.035562	-0.000300874	1.00943
85	-0.0609424	-0.0162711	0.00754907	0.0284628	-0.01147	-0.0362057	0.0208923	0.0290754	-0.00221015	-0.0225571	-0.0981896	-0.154587	0.0496092	-0.00405918	0.0183044	-2.24701	0.00334795	-1.55339	0	0	0	0	-0	0	0	0	-0.1265	0	-0	0	0	0	0	0	-0	0	0.105	-0.015	0	0	-0	0	0	-0.098	0.1	0	-0	0	0	0	0	0	-0	0	0.05595	0	0	0	-0	0	0	0	0	0	-0	0	558.716	573.276	335.076	199.245	0.38031	-1.41036	-0.0356079	-0.000276035	0.99778
86	-0.0575129	-0.0162748	0.00754898	0.0284615	-0.0114734	-0.0362038	0.0208912	0.0290745	-0.00221032	-0.00881437	-0.0756664	-0.156743	0.0495443	-0.00405869	0.018478	-2.24357	0.00319571	-1.55346	0	0	0	0	-0	0	0	0	-0.1265	0	-0	0	0	0	0	0	-0	0	0.105	-0.015	0	0	-0	0	0	-0.098	0.1	0	-0	0	0	0	0	0	-0	0	0.05595	0	0	0	-0	0	0	0	0	0	-0	0	558.756	573.353	335.148	199.229	0.37974	-1.40362	-0.0356865	-0.000240881	0.979027
87	-0.0549656	-0.0162772	0.00754858	0.028461	-0.0114757	-0.0362026	0.0208925	0.0290748	-0.00220991	-0.0121193	-0.074266	-0.149561	0.0494962	-0.00405845	0.0186055	-2.24101	0.00310701	-1.55349	0	0	0	0	-0	0	0	0	-0.1265	0	-0	0	0	0	0	0	-0	0	0.105	-0.015	0	0	-0	0	0	-0.098	0.1	0	-0	0	0	0	0	0	-0	0	0.05595	0	0	0	-0	0	0	0	0	0	-0	0	558.774	573.389	335.184	199.222	0.379416	-1.4006	-0.0357184	-0.000223702	0.971448
88	-0.0550062	-0.0162786	0.00754821	0.0284608	-0.011477	-0.0362017	0.0208925	0.0290745	-0.00220994	-0.0172863	-0.0697815	-0.148133	0.0494961	-0.00405824	0.0186046	-2.24105	0.00307431	-1.55352	0	0	0	0	-0	0	0	0	-0.1265	0	-0	0	0	0	0	0	-0	0	0.105	-0.015	0	0	-0	0	0	-0.098	0.1	0	-0	0	0	0	0	0	-0	0	0.05595	0	0	0	-0	0	0	0	0	0	-0	0	558.789	573.416	335.21	199.216	0.379211	-1.39858	-0.0357442	-0.000210942	0.966338
89	-0.0523066	-0.0162818	0.00754806	0.0284597	-0.0114801	-0.0362002	0.0208925	0.029074	-0.00220922	-0.0173463	-0.0779997	-0.144272	0.0494443	-0.00405789	0.0187409	-2.23834	0.00295444	-1.55358	0	0	0	0	-0	0	0	0	-0.1265	0	-0	0	0	0	0	0	-0	0	0.105	-0.015	0	0	-0	0	0	-0.098	0.1	0	-0	0	0	0	0	0	-0	0	0.05595	0	0	0	-0	0	0	0	0	0	-0	0	558.82	573.476	335.268	199.203	0.378726	-1.39298	-0.0358044	-0.000182729	0.950695
90	-0.0446863	-0.0162861	0.00754699	0.0284582	-0.0114848	-0.0361977	0.020892	0.0290742	-0.00220933	-0.0153132	-0.0802607	-0.141721	0.0492986	-0.00405722	0.019122	-2.23071	0.00271734	-1.55366	0	0	0	0	-0	0	0	0	-0.1265	0	-0	0	0	0	0	0	-0	0	0.105	-0.015	0	0	-0	0	0	-0.098	0.1	0	-0	0	0	0	0	0	-0	0	0.05595	0	0	0	-0	0	0	0	0	0	-0	0	558.866	573.563	335.351	199.184	0.378173	-1.38642	-0.03589	-0.000141348	0.932325
91	-0.0453238	-0.0162887	0.00754653	0.0284576	-0.0114873	-0.0361964	0.0208917	0.0290742	-0.00220965	-0.0192381	-0.0857488	-0.144087	0.0493085	-0.00405694	0.0190915	-2.23134	0.00267792	-1.55371	0	0	0	0	-0	0	0	0	-0.1265	0	-0	0	0	0	0	0	-0	0	0.105	-0.015	0	0	-0	0	0	-0.098	0.1	0	-0	0	0	0	0	0	-0	0	0.05595	0	0	0	-0	0	0	0	0	0	-0	0	558.889	573.605	335.391	199.175	0.377738	-1.38262	-0.035925	-0.000121503	0.923096
92	-0.0433916	-0.0162905	0.007546	0.0284568	-0.0114892	-0.0361955	0.0208923	0.029075	-0.00220928	-0.0249272	-0.0832198	-0.148607	0.0492709	-0.00405672	0.0191881	-2.2294	0.00260737	-1.55374	0	0	0	0	-0	0	0	0	-0.1265	0	-0	0	0	0	0	0	-0	0	0.105	-0.015	0	0	-0	0	0	-0.098	0.1	0	-0	0	0	0	0	0	-0	0	0.05595	0	0	0	-0	0	0	0	0	0	-0	0	558.906	573.635	335.421	199.168	0.377433	-1.37984	-0.0359488	-0.00010623	0.915954
93	-0.0431622	-0.0162937	0.00754556	0.0284555	-0.0114926	-0.0361938	0.0208915	0.0290758	-0.00220856	-0.0145487	-0.080154	-0.153421	0.0492643	-0.00405625	0.0192026	-2.22916	0.00252082	-1.55382	0	0	0	0	-0	0	0	0	-0.1265	0	-0	0	0	0	0	0	-0	0	0.105	-0.015	0	0	-0	0	0	-0.098	0.1	0	-0	0	0	0	0	0	-0	0	0.05595	0	0	0	-0	0	0	0	0	0	-0	0	558.943	573.705	335.487	199.153	0.376922	-1.37384	-0.0360176	-7.38925e-05	0.899103
94	-0.0422346	-0.0162945	0.00754564	0.0284552	-0.0114931	-0.0361933	0.0208917	0.0290741	-0.00220899	-0.0148515	-0.0770186	-0.152452	0.0492465	-0.00405619	0.0192484	-2.22823	0.0024942	-1.55383	0	0	0	0	-0	0	0	0	-0.1265	0	-0	0	0	0	0	0	-0	0	0.105	-0.015	0	0	-0	0	0	-0.098	0.1	0	-0	0	0	0	0	0	-0	0	0.05595	0	0	0	-0	0	0	0	0	0	-0	0	558.947	573.714	335.496	199.151	0.376783	-1.37293	-0.0360245	-7.0124e-05	0.897531
95	-0.0440314	-0.0162958	0.00754543	0.0284554	-0.0114941	-0.0361927	0.0208918	0.0290746	-0.00220896	-0.0199547	-0.0752237	-0.153468	0.0492806	-0.00405606	0.0191607	-2.23002	0.00250192	-1.55386	0	0	0	0	-0	0	0	0	-0.1265	0	-0	0	0	0	0	0	-0	0	0.105	-0.015	0	0	-0	0	0	-0.098	0.1	0	-0	0	0	0	0	0	-0	0	0.05595	0	0	0	-0	0	0	0	0	0	-0	0	558.957	573.734	335.514	199.147	0.376655	-1.37146	-0.036045	-6.16081e-05	0.89358
96	-0.0438409	-0.016297	0.00754466	0.0284545	-0.011496	-0.036192	0.0208918	0.0290746	-0.00220889	-0.0242903	-0.0738307	-0.155554	0.049276	-0.00405582	0.0191716	-2.22983	0.00246494	-1.55389	0	0	0	0	-0	0	0	0	-0.1265	0	-0	0	0	0	0	0	-0	0	0.105	-0.015	0	0	-0	0	0	-0.098	0.1	0	-0	0	0	0	0	0	-0	0	0.05595	0	0	0	-0	0	0	0	0	0	-0	0	558.973	573.76	335.54	199.141	0.37644	-1.3694	-0.0360651	-4.72314e-05	0.887982
97	-0.0408028	-0.0162979	0.00754461	0.0284543	-0.0114967	-0.0361915	0.0208916	0.0290742	-0.00220877	-0.0230516	-0.0756846	-0.15393	0.0492175	-0.00405574	0.0193217	-2.22679	0.00239708	-1.5539	0	0	0	0	-0	0	0	0	-0.1265	0	-0	0	0	0	0	0	-0	0	0.105	-0.015	0	0	-0	0	0	-0.098	0.1	0	-0	0	0	0	0	0	-0	0	0.05595	0	0	0	-0	0	0	0	0	0	-0	0	558.98	573.774	335.554	199.138	0.376294	-1.36807	-0.0360775	-4.09524e-05	0.884691
98	-0.0439187	-0.0162995	0.00754457	0.0284536	-0.0114983	-0.0361908	0.020892	0.0290753	-0.00220872	-0.0309656	-0.0735076	-0.151608	0.0492766	-0.00405557	0.0191696	-2.2299	0.00241291	-1.55394	0	0	0	0	-0	0	0	0	-0.1265	0	-0	0	0	0	0	0	-0	0	0.105	-0.015	0	0	-0	0	0	-0.098	0.1	0	-0	0	0	0	0	0	-0	0	0.05595	0	0	0	-0	0	0	0	0	0	-0	0	558.996	573.804	335.583	199.132	0.37604	-1.36507	-0.0361086	-2.66705e-05	0.876239
99	-0.0476209	-0.0163003	0.00754458	0.0284536	-0.0114989	-0.0361903	0.0208916	0.0290742	-0.00220866	-0.0322906	-0.0699342	-0.151558	0.049347	-0.00405547	0.0189876	-2.2336	0.0024569	-1.55397	0	0	0	0	-0	0	0	0	-0.1265	0	-0	0	0	0	0	0	-0	0	0.105	-0.015	0	0	-0	0	0	-0.098	0.1	0	-0	0	0	0	0	0	-0	0	0.05595	0	0	0	-0	0	0	0	0	0	-0	0	559.004	573.821	335.598	199.128	0.375896	-1.36371	-0.0361238	-1.97336e-05	0.872895
100	-0.0416654	-0.0163023	0.00754419	0.028453	-0.0115009	-0.0361893	0.0208915	0.0290742	-0.00220851	-0.0318795	-0.0668878	-0.152439	0.0492327	-0.00405524	0.0192829	-2.22763	0.00231611	-1.55399	0	0	0	0	-0	0	0	0	-0.1265	0	-0	0	0	0	0	0	-0	0	0.105	-0.015	0	0	-0	0	0	-0.098	0.1	0	-0	0	0	0	0	0	-0	0	0.05595	0	0	0	-0	0	0	0	0	0	-0	0	559.02	573.853	335.63	199.121	0.375696	-1.36121	-0.0361571	-3.94431e-06	0.865793
