Stefan210/kinematic_calibration/src/kinematic_calibration/validation/experiments/experiments/impact_noise/bad_precision/larm_noise_10_pixel_rk_false/optimization_intermediate_results.csv
iteration	HeadPitch_offset	HeadYaw_offset	LElbowRoll_offset	LElbowYaw_offset	LShoulderPitch_offset	LShoulderRoll_offset	marker_transform_larm_tx	marker_transform_larm_ty	marker_transform_larm_tz	marker_transform_larm_rr	marker_transform_larm_rp	marker_transform_larm_ry	camera_transform_tx	camera_transform_ty	camera_transform_tz	camera_transform_rr	camera_transform_rp	camera_transform_ry	HeadPitch_transform_tx	HeadPitch_transform_ty	HeadPitch_transform_tz	HeadPitch_transform_rr	HeadPitch_transform_rp	HeadPitch_transform_ry	HeadYaw_transform_tx	HeadYaw_transform_ty	HeadYaw_transform_tz	HeadYaw_transform_rr	HeadYaw_transform_rp	HeadYaw_transform_ry	LElbowRoll_transform_tx	LElbowRoll_transform_ty	LElbowRoll_transform_tz	LElbowRoll_transform_rr	LElbowRoll_transform_rp	LElbowRoll_transform_ry	LElbowYaw_transform_tx	LElbowYaw_transform_ty	LElbowYaw_transform_tz	LElbowYaw_transform_rr	LElbowYaw_transform_rp	LElbowYaw_transform_ry	LShoulderPitch_transform_tx	LShoulderPitch_transform_ty	LShoulderPitch_transform_tz	LShoulderPitch_transform_rr	LShoulderPitch_transform_rp	LShoulderPitch_transform_ry	LShoulderRoll_transform_tx	LShoulderRoll_transform_ty	LShoulderRoll_transform_tz	LShoulderRoll_transform_rr	LShoulderRoll_transform_rp	LShoulderRoll_transform_ry	LWristYaw_transform_tx	LWristYaw_transform_ty	LWristYaw_transform_tz	LWristYaw_transform_rr	LWristYaw_transform_rp	LWristYaw_transform_ry	l_wrist_joint_transform_tx	l_wrist_joint_transform_ty	l_wrist_joint_transform_tz	l_wrist_joint_transform_rr	l_wrist_joint_transform_rp	l_wrist_joint_transform_ry	camera_fx	camera_fy	camera_cx	camera_cy	camera_D0	camera_D1	camera_D2	camera_D3	camera_D4	
0	0.0249164	-0.0307543	0.000853157	4.65819e-06	-0.000318322	-0.00310766	0.05071	0	0.01774	-2.26369	1.66533e-16	-1.5708	545.901	551.038	324.928	201.58	0.0255298	2.61142	-0.0636736	-0.0350419	0.213964
1	-0.0155789	-0.00399121	0.050202	0.0125062	0.0229462	0.0192268	0.0272201	-0.0310209	0.000815216	9.94493e-06	-0.000307101	-0.00285211	0.0558014	-0.00360838	0.0134123	-2.19991	0.0109105	-1.53395	0	0	0	0	-0	0	0	0	-0.1265	0	-0	0	0	0	0	0	-0	0	0.105	0.015	0	0	-0	0	0	0.098	0.1	0	-0	0	0	0	0	0	-0	0	0.05595	0	0	0	-0	0	0	0	0	0	-0	0	545.901	551.039	324.928	201.581	-0.006657	2.602	-0.0903594	0.0163223	0.212094
2	-0.0153187	0.00942729	0.053791	0.00646332	0.0155213	0.0213202	0.0275967	-0.0312884	0.000608266	3.68427e-05	-0.000281729	-0.0028329	0.0543466	-0.00397237	0.0165984	-2.20188	0.00675499	-1.54728	0	0	0	0	-0	0	0	0	-0.1265	0	-0	0	0	0	0	0	-0	0	0.105	0.015	0	0	-0	0	0	0.098	0.1	0	-0	0	0	0	0	0	-0	0	0.05595	0	0	0	-0	0	0	0	0	0	-0	0	545.903	551.039	324.926	201.585	-0.145281	2.52049	-0.0578826	-0.00791109	0.187729
3	-0.015499	0.00883154	0.0517745	0.00790012	0.0140808	0.0187093	0.0274071	-0.0311978	0.000622695	3.51146e-05	-0.000278807	-0.00285109	0.0558756	-0.00385702	0.0144445	-2.20055	0.00788734	-1.54823	0	0	0	0	-0	0	0	0	-0.1265	0	-0	0	0	0	0	0	-0	0	0.105	0.015	0	0	-0	0	0	0.098	0.1	0	-0	0	0	0	0	0	-0	0	0.05595	0	0	0	-0	0	0	0	0	0	-0	0	545.907	551.04	324.924	201.593	-0.424952	2.35523	-0.0277493	-0.014063	0.139741
4	-0.0151946	0.0119254	0.0482644	0.00966234	0.00935515	0.0147794	0.0270542	-0.0310157	0.00067329	3.22088e-05	-0.000276651	-0.00286867	0.0573502	-0.0037597	0.0128025	-2.20134	0.00678157	-1.55205	0	0	0	0	-0	0	0	0	-0.1265	0	-0	0	0	0	0	0	-0	0	0.105	0.015	0	0	-0	0	0	0.098	0.1	0	-0	0	0	0	0	0	-0	0	0.05595	0	0	0	-0	0	0	0	0	0	-0	0	545.917	551.041	324.92	201.605	-0.746802	2.06076	0.0216988	-0.0269838	0.0441663
5	-0.0148977	0.0148747	0.0453465	0.010458	0.00630748	0.013175	0.0267731	-0.0309165	0.000666426	-1.64698e-05	-0.000236958	-0.00288522	0.0577746	-0.00373092	0.012482	-2.20246	0.00626903	-1.55507	0	0	0	0	-0	0	0	0	-0.1265	0	-0	0	0	0	0	0	-0	0	0.105	0.015	0	0	-0	0	0	0.098	0.1	0	-0	0	0	0	0	0	-0	0	0.05595	0	0	0	-0	0	0	0	0	0	-0	0	545.938	551.038	324.917	201.621	-0.791846	1.62732	0.0403328	-0.0331525	-0.118112
6	-0.0146554	0.0155147	0.0435773	0.0106347	0.00567482	0.0134934	0.0266235	-0.0308913	0.000646315	5.88716e-05	-0.000179884	-0.00297848	0.0571663	-0.00372684	0.0132939	-2.20405	0.00711695	-1.55529	0	0	0	0	-0	0	0	0	-0.1265	0	-0	0	0	0	0	0	-0	0	0.105	0.015	0	0	-0	0	0	0.098	0.1	0	-0	0	0	0	0	0	-0	0	0.05595	0	0	0	-0	0	0	0	0	0	-0	0	545.975	551.031	324.918	201.639	-0.592861	1.01016	0.0337379	-0.0336171	-0.358605
7	-0.0144273	0.0154608	0.0424985	0.0107047	0.0055621	0.0140509	0.0265447	-0.0308808	0.000646846	8.60641e-05	-8.58295e-06	-0.00280584	0.0564642	-0.00372938	0.0142067	-2.20544	0.00793418	-1.55477	0	0	0	0	-0	0	0	0	-0.1265	0	-0	0	0	0	0	0	-0	0	0.105	0.015	0	0	-0	0	0	0.098	0.1	0	-0	0	0	0	0	0	-0	0	0.05595	0	0	0	-0	0	0	0	0	0	-0	0	546.033	551.015	324.931	201.657	-0.380119	0.414155	0.0245598	-0.0331882	-0.566825
8	-0.0135588	0.0155315	0.0420388	0.0107527	0.00544378	0.0143659	0.0265147	-0.0308753	0.000657388	0.00052192	0.00128659	-0.00319222	0.0560763	-0.00373659	0.0147608	-2.20548	0.00816756	-1.55456	0	0	0	0	-0	0	0	0	-0.1265	0	-0	0	0	0	0	0	-0	0	0.105	0.015	0	0	-0	0	0	0.098	0.1	0	-0	0	0	0	0	0	-0	0	0.05595	0	0	0	-0	0	0	0	0	0	-0	0	546.152	550.974	324.964	201.69	-0.273019	0.0787215	0.020772	-0.0330999	-0.597106
9	-0.0147135	0.0155978	0.0419276	0.0107883	0.00537027	0.0144444	0.0265078	-0.0308737	0.000666485	-0.00153791	0.00216746	-0.000493764	0.0559414	-0.00374291	0.0149012	-2.20715	0.00812834	-1.5546	0	0	0	0	-0	0	0	0	-0.1265	0	-0	0	0	0	0	0	-0	0	0.105	0.015	0	0	-0	0	0	0.098	0.1	0	-0	0	0	0	0	0	-0	0	0.05595	0	0	0	-0	0	0	0	0	0	-0	0	546.466	550.86	325.038	201.791	-0.243717	-0.0862831	0.0210457	-0.0331847	-0.36616
10	-0.0103001	0.0156843	0.0419082	0.0107913	0.0053103	0.0144198	0.0265067	-0.0308764	0.000674757	0.0061153	0.00754765	-0.0105763	0.0556778	-0.00375298	0.0153952	-2.20363	0.00777796	-1.55481	0	0	0	0	-0	0	0	0	-0.1265	0	-0	0	0	0	0	0	-0	0	0.105	0.015	0	0	-0	0	0	0.098	0.1	0	-0	0	0	0	0	0	-0	0	0.05595	0	0	0	-0	0	0	0	0	0	-0	0	547.293	550.569	325.216	202.083	-0.227303	-0.333284	0.023877	-0.0333882	0.289076
11	0.0039025	0.0158512	0.0418946	0.0107766	0.00521251	0.0143466	0.0265147	-0.030885	0.000686647	0.0220652	0.033249	-0.0188803	0.0550589	-0.00377256	0.01667	-2.19155	0.00700194	-1.55515	0	0	0	0	-0	0	0	0	-0.1265	0	-0	0	0	0	0	0	-0	0	0.105	0.015	0	0	-0	0	0	0.098	0.1	0	-0	0	0	0	0	0	-0	0	0.05595	0	0	0	-0	0	0	0	0	0	-0	0	549.105	550.029	325.551	202.856	-0.202168	-0.806201	0.0300292	-0.0338502	1.61059
12	0.00463708	0.0158869	0.0418861	0.0107798	0.00518419	0.0143092	0.0265002	-0.0308756	0.000694831	0.017772	0.0501096	-0.00964999	0.0548791	-0.00378001	0.0168824	-2.19164	0.00688294	-1.55518	0	0	0	0	-0	0	0	0	-0.1265	0	-0	0	0	0	0	0	-0	0	0.105	0.015	0	0	-0	0	0	0.098	0.1	0	-0	0	0	0	0	0	-0	0	0.05595	0	0	0	-0	0	0	0	0	0	-0	0	549.87	549.83	325.601	203.177	-0.195813	-0.974963	0.0324746	-0.0340591	2.12812
13	-0.000378895	0.0159453	0.0418848	0.0107687	0.00515175	0.0142771	0.026501	-0.030884	0.000701111	0.0243519	0.043327	-0.0325393	0.0547827	-0.00378874	0.0168202	-2.19778	0.00691943	-1.55518	0	0	0	0	-0	0	0	0	-0.1265	0	-0	0	0	0	0	0	-0	0	0.105	0.015	0	0	-0	0	0	0.098	0.1	0	-0	0	0	0	0	0	-0	0	0.05595	0	0	0	-0	0	0	0	0	0	-0	0	550.794	549.646	325.586	203.623	-0.188543	-1.16981	0.0353858	-0.0343129	2.71254
14	0.0206389	0.0160064	0.0418784	0.0107692	0.00512365	0.014253	0.0264916	-0.0308779	0.000708975	-0.00637643	0.0752785	-0.0284174	0.0542432	-0.00379738	0.0181936	-2.17819	0.0067361	-1.55479	0	0	0	0	-0	0	0	0	-0.1265	0	-0	0	0	0	0	0	-0	0	0.105	0.015	0	0	-0	0	0	0.098	0.1	0	-0	0	0	0	0	0	-0	0	0.05595	0	0	0	-0	0	0	0	0	0	-0	0	551.835	549.552	325.415	204.232	-0.181996	-1.37089	0.0383943	-0.0345957	3.33384
15	0.0428712	0.0160407	0.0418685	0.0107862	0.00511416	0.0142371	0.0264905	-0.0308808	0.00070876	-0.0193398	0.0720432	-0.0280985	0.053674	-0.00380423	0.019558	-2.1574	0.00676445	-1.55412	0	0	0	0	-0	0	0	0	-0.1265	0	-0	0	0	0	0	0	-0	0	0.105	0.015	0	0	-0	0	0	0.098	0.1	0	-0	0	0	0	0	0	-0	0	0.05595	0	0	0	-0	0	0	0	0	0	-0	0	552.754	549.595	325.049	204.885	-0.178212	-1.52827	0.0407526	-0.0348587	3.84413
16	0.03542	0.0160555	0.0418604	0.0107979	0.00511439	0.0142307	0.0264919	-0.0308808	0.000706375	-0.0306006	0.0870023	-0.0430599	0.053719	-0.00380812	0.0192384	-2.16582	0.00727807	-1.55368	0	0	0	0	-0	0	0	0	-0.1265	0	-0	0	0	0	0	0	-0	0	0.105	0.015	0	0	-0	0	0	0.098	0.1	0	-0	0	0	0	0	0	-0	0	0.05595	0	0	0	-0	0	0	0	0	0	-0	0	553.318	549.689	324.694	205.34	-0.175954	-1.62355	0.0420344	-0.0350166	4.16384
17	0.0537882	0.0160634	0.0418504	0.010819	0.0051263	0.0142298	0.0264876	-0.0308848	0.000715396	-0.0105308	0.0867423	-0.0395214	0.0532812	-0.00381223	0.0203131	-2.14877	0.00766068	-1.5527	0	0	0	0	-0	0	0	0	-0.1265	0	-0	0	0	0	0	0	-0	0	0.105	0.015	0	0	-0	0	0	0.098	0.1	0	-0	0	0	0	0	0	-0	0	0.05595	0	0	0	-0	0	0	0	0	0	-0	0	553.983	549.909	324.083	205.983	-0.173281	-1.73269	0.0432796	-0.0351956	4.53945
18	0.0693243	0.0160584	0.0418416	0.0108393	0.00514162	0.0142333	0.026489	-0.0308892	0.000711469	0.0130274	0.0796008	-0.0205557	0.0529064	-0.00381455	0.0211835	-2.13415	0.00794915	-1.55187	0	0	0	0	-0	0	0	0	-0.1265	0	-0	0	0	0	0	0	-0	0	0.105	0.015	0	0	-0	0	0	0.098	0.1	0	-0	0	0	0	0	0	-0	0	0.05595	0	0	0	-0	0	0	0	0	0	-0	0	554.402	550.09	323.575	206.439	-0.170716	-1.80753	0.0439357	-0.0353081	4.79778
19	0.0871171	0.016056	0.0418337	0.0108539	0.0051517	0.0142365	0.0264829	-0.0308851	0.000727528	0.0487844	0.0502412	-0.0248863	0.0524917	-0.00381604	0.02215	-2.11702	0.00805666	-1.55116	0	0	0	0	-0	0	0	0	-0.1265	0	-0	0	0	0	0	0	-0	0	0.105	0.015	0	0	-0	0	0	0.098	0.1	0	-0	0	0	0	0	0	-0	0	0.05595	0	0	0	-0	0	0	0	0	0	-0	0	554.683	550.234	323.171	206.769	-0.168312	-1.86486	0.0443272	-0.0353825	4.99414
20	0.0959879	0.0160467	0.0418321	0.0108587	0.00516099	0.0142385	0.0264868	-0.0308811	0.000721668	0.0608921	0.0495981	-0.0268874	0.0522734	-0.00381678	0.0226229	-2.10841	0.0080699	-1.55083	0	0	0	0	-0	0	0	0	-0.1265	0	-0	0	0	0	0	0	-0	0	0.105	0.015	0	0	-0	0	0	0.098	0.1	0	-0	0	0	0	0	0	-0	0	0.05595	0	0	0	-0	0	0	0	0	0	-0	0	554.793	550.296	322.999	206.901	-0.166748	-1.89004	0.0444341	-0.0354107	5.07653
21	0.0814415	0.0160436	0.0418272	0.0108696	0.00516756	0.0142402	0.0264867	-0.0308811	0.000722367	0.0728327	0.0498496	-0.025646	0.052586	-0.00381748	0.0218737	-2.1233	0.00862434	-1.5506	0	0	0	0	-0	0	0	0	-0.1265	0	-0	0	0	0	0	0	-0	0	0.105	0.015	0	0	-0	0	0	0.098	0.1	0	-0	0	0	0	0	0	-0	0	0.05595	0	0	0	-0	0	0	0	0	0	-0	0	554.936	550.378	322.759	207.079	-0.165282	-1.92195	0.0446053	-0.0354471	5.18689
22	0.0757022	0.0160402	0.0418235	0.0108776	0.0051731	0.0142421	0.0264882	-0.0308805	0.0007233	0.0799615	0.0572337	-0.0283057	0.0526956	-0.00381797	0.0215788	-2.1293	0.00894931	-1.5504	0	0	0	0	-0	0	0	0	-0.1265	0	-0	0	0	0	0	0	-0	0	0.105	0.015	0	0	-0	0	0	0.098	0.1	0	-0	0	0	0	0	0	-0	0	0.05595	0	0	0	-0	0	0	0	0	0	-0	0	555.039	550.44	322.575	207.211	-0.16394	-1.9468	0.0447166	-0.0354733	5.27064
23	0.0693158	0.0160335	0.0418196	0.0108889	0.00518307	0.0142452	0.0264883	-0.0308819	0.000724184	0.0703779	0.0521994	-0.0367733	0.0528197	-0.00381869	0.021253	-2.13606	0.00939794	-1.55006	0	0	0	0	-0	0	0	0	-0.1265	0	-0	0	0	0	0	0	-0	0	0.105	0.015	0	0	-0	0	0	0.098	0.1	0	-0	0	0	0	0	0	-0	0	0.05595	0	0	0	-0	0	0	0	0	0	-0	0	555.184	550.533	322.296	207.405	-0.162126	-1.98136	0.0448509	-0.0355062	5.39008
24	0.0858113	0.0159972	0.0418043	0.0109439	0.00523142	0.0142621	0.0264973	-0.0308842	0.000751886	0.0974825	0.0143797	-0.0579761	0.0524316	-0.00382093	0.0221518	-2.12113	0.0104911	-1.54814	0	0	0	0	-0	0	0	0	-0.1265	0	-0	0	0	0	0	0	-0	0	0.105	0.015	0	0	-0	0	0	0.098	0.1	0	-0	0	0	0	0	0	-0	0	0.05595	0	0	0	-0	0	0	0	0	0	-0	0	555.751	550.925	321.033	208.237	-0.156388	-2.10489	0.0452783	-0.0356302	5.83473
25	0.092937	0.0159837	0.0417996	0.0109474	0.00524329	0.0142702	0.0264863	-0.0308805	0.000729595	0.0873948	0.0165933	-0.0626633	0.0522563	-0.0038212	0.0225299	-2.11422	0.0105248	-1.54778	0	0	0	0	-0	0	0	0	-0.1265	0	-0	0	0	0	0	0	-0	0	0.105	0.015	0	0	-0	0	0	0.098	0.1	0	-0	0	0	0	0	0	-0	0	0.05595	0	0	0	-0	0	0	0	0	0	-0	0	555.819	550.979	320.85	208.345	-0.15333	-2.13359	0.0452331	-0.0356421	5.9198
26	0.0860027	0.0159826	0.0417932	0.0109574	0.00524523	0.0142696	0.0264891	-0.0308787	0.000732053	0.0877078	0.00226632	-0.0651486	0.0524049	-0.0038217	0.0221716	-2.12143	0.0109643	-1.5475	0	0	0	0	-0	0	0	0	-0.1265	0	-0	0	0	0	0	0	-0	0	0.105	0.015	0	0	-0	0	0	0.098	0.1	0	-0	0	0	0	0	0	-0	0	0.05595	0	0	0	-0	0	0	0	0	0	-0	0	555.914	551.049	320.598	208.492	-0.151442	-2.16854	0.0453448	-0.0356741	6.03881
27	0.10978	0.0159429	0.0417811	0.0110069	0.00528981	0.014285	0.0264984	-0.0308955	0.000738448	0.104756	0.0124237	-0.0905697	0.0518553	-0.00382326	0.0234293	-2.09883	0.0116775	-1.54563	0	0	0	0	-0	0	0	0	-0.1265	0	-0	0	0	0	0	0	-0	0	0.105	0.015	0	0	-0	0	0	0.098	0.1	0	-0	0	0	0	0	0	-0	0	0.05595	0	0	0	-0	0	0	0	0	0	-0	0	556.292	551.329	319.459	209.123	-0.142956	-2.29856	0.0454887	-0.0357387	6.48953
28	0.0910799	0.0159236	0.041769	0.0110306	0.00531044	0.014298	0.0264947	-0.0308878	0.000737811	0.0986518	0.00534281	-0.0669062	0.0522626	-0.0038238	0.0224632	-2.11808	0.0127899	-1.54499	0	0	0	0	-0	0	0	0	-0.1265	0	-0	0	0	0	0	0	-0	0	0.105	0.015	0	0	-0	0	0	0.098	0.1	0	-0	0	0	0	0	0	-0	0	0.05595	0	0	0	-0	0	0	0	0	0	-0	0	556.462	551.463	318.864	209.42	-0.135547	-2.38735	0.0454821	-0.0357613	6.77594
29	0.0900008	0.0159053	0.0417615	0.0110483	0.00532582	0.0143033	0.0264899	-0.0308775	0.000740703	0.0976731	0.0216925	-0.0643676	0.0522677	-0.00382453	0.0224099	-2.11956	0.0133445	-1.54435	0	0	0	0	-0	0	0	0	-0.1265	0	-0	0	0	0	0	0	-0	0	0.105	0.015	0	0	-0	0	0	0.098	0.1	0	-0	0	0	0	0	0	-0	0	0.05595	0	0	0	-0	0	0	0	0	0	-0	0	556.583	551.55	318.405	209.634	-0.129914	-2.45802	0.0455017	-0.0357837	7.00693
30	0.0984893	0.0158943	0.0417579	0.011055	0.00533356	0.0143047	0.0264879	-0.0308821	0.000740378	0.0824965	0.0152542	-0.0663811	0.0520731	-0.00382493	0.0228563	-2.11123	0.0133379	-1.54396	0	0	0	0	-0	0	0	0	-0.1265	0	-0	0	0	0	0	0	-0	0	0.105	0.015	0	0	-0	0	0	0.098	0.1	0	-0	0	0	0	0	0	-0	0	0.05595	0	0	0	-0	0	0	0	0	0	-0	0	556.631	551.584	318.213	209.719	-0.127313	-2.48868	0.0454981	-0.0357963	7.10489
31	0.102659	0.0158656	0.0417499	0.0110867	0.00536202	0.0143159	0.0264922	-0.0308847	0.000741241	0.0906932	0.016067	-0.045158	0.0519642	-0.0038258	0.0230782	-2.10768	0.0141111	-1.54277	0	0	0	0	-0	0	0	0	-0.1265	0	-0	0	0	0	0	0	-0	0	0.105	0.015	0	0	-0	0	0	0.098	0.1	0	-0	0	0	0	0	0	-0	0	0.05595	0	0	0	-0	0	0	0	0	0	-0	0	556.818	551.711	317.417	210.059	-0.118593	-2.60188	0.0455228	-0.0358107	7.4853
32	0.106866	0.0158488	0.0417418	0.0111021	0.00537593	0.0143232	0.0264897	-0.0308797	0.000749575	0.100375	0.00399751	-0.0601531	0.051859	-0.0038262	0.0233009	-2.10377	0.0144482	-1.54212	0	0	0	0	-0	0	0	0	-0.1265	0	-0	0	0	0	0	0	-0	0	0.105	0.015	0	0	-0	0	0	0.098	0.1	0	-0	0	0	0	0	0	-0	0	0.05595	0	0	0	-0	0	0	0	0	0	-0	0	556.902	551.771	317.006	210.221	-0.11279	-2.66768	0.0454811	-0.0358178	7.69641
33	0.104985	0.0158371	0.0417388	0.0111088	0.00538411	0.0143263	0.0264876	-0.0308778	0.000745398	0.106567	0.00976192	-0.0656444	0.0518985	-0.00382645	0.0232053	-2.10577	0.0146934	-1.5419	0	0	0	0	-0	0	0	0	-0.1265	0	-0	0	0	0	0	0	-0	0	0.105	0.015	0	0	-0	0	0	0.098	0.1	0	-0	0	0	0	0	0	-0	0	0.05595	0	0	0	-0	0	0	0	0	0	-0	0	556.934	551.794	316.835	210.285	-0.10998	-2.69723	0.0454468	-0.0358221	7.78857
34	0.100371	0.0158111	0.0417308	0.0111378	0.00540801	0.0143353	0.0264907	-0.0308866	0.000746206	0.0858785	0.00180195	-0.0771777	0.0519977	-0.00382711	0.0229684	-2.11085	0.0156145	-1.54096	0	0	0	0	-0	0	0	0	-0.1265	0	-0	0	0	0	0	0	-0	0	0.105	0.015	0	0	-0	0	0	0.098	0.1	0	-0	0	0	0	0	0	-0	0	0.05595	0	0	0	-0	0	0	0	0	0	-0	0	557.066	551.878	316.126	210.543	-0.101281	-2.80519	0.0454265	-0.0358246	8.14973
35	0.0998789	0.0157963	0.041724	0.0111498	0.00541975	0.0143428	0.0264907	-0.0308799	0.000751244	0.0891295	-0.00393847	-0.0944808	0.0520026	-0.0038274	0.0229457	-2.11156	0.0160402	-1.54045	0	0	0	0	-0	0	0	0	-0.1265	0	-0	0	0	0	0	0	-0	0	0.105	0.015	0	0	-0	0	0	0.098	0.1	0	-0	0	0	0	0	0	-0	0	0.05595	0	0	0	-0	0	0	0	0	0	-0	0	557.123	551.917	315.762	210.665	-0.0956052	-2.867	0.0453688	-0.0358233	8.34605
36	0.103299	0.0157859	0.0417207	0.011157	0.0054267	0.0143454	0.0264875	-0.0308766	0.00074966	0.0836312	-0.00859504	-0.0887069	0.0519213	-0.0038276	0.0231251	-2.10823	0.0161073	-1.54017	0	0	0	0	-0	0	0	0	-0.1265	0	-0	0	0	0	0	0	-0	0	0.105	0.015	0	0	-0	0	0	0.098	0.1	0	-0	0	0	0	0	0	-0	0	0.05595	0	0	0	-0	0	0	0	0	0	-0	0	557.146	551.932	315.611	210.714	-0.0929897	-2.89412	0.0453318	-0.0358256	8.43091
37	0.0952751	0.0157617	0.0417137	0.0111824	0.00544784	0.0143535	0.0264954	-0.0308831	0.000742224	0.0719535	0.00769764	-0.112943	0.0521006	-0.00382812	0.0227097	-2.1166	0.0170515	-1.53941	0	0	0	0	-0	0	0	0	-0.1265	0	-0	0	0	0	0	0	-0	0	0.105	0.015	0	0	-0	0	0	0.098	0.1	0	-0	0	0	0	0	0	-0	0	0.05595	0	0	0	-0	0	0	0	0	0	-0	0	557.238	551.986	314.985	210.91	-0.0843729	-2.99625	0.0452758	-0.0358191	8.76988
38	0.113206	0.015751	0.0417059	0.0111953	0.00545594	0.0143597	0.0264887	-0.0308788	0.000752779	0.0584928	-0.00116794	-0.114713	0.0516872	-0.00382828	0.0236455	-2.09884	0.0168459	-1.53866	0	0	0	0	-0	0	0	0	-0.1265	0	-0	0	0	0	0	0	-0	0	0.105	0.015	0	0	-0	0	0	0.098	0.1	0	-0	0	0	0	0	0	-0	0	0.05595	0	0	0	-0	0	0	0	0	0	-0	0	557.278	552.011	314.666	211.003	-0.079014	-3.05438	0.0452177	-0.035815	8.95497
39	0.131633	0.0157174	0.0416985	0.0112245	0.00548342	0.0143706	0.0264792	-0.0308919	0.000761032	0.0130635	0.0133962	-0.110181	0.0512376	-0.00382883	0.0245943	-2.08077	0.0170372	-1.5373	0	0	0	0	-0	0	0	0	-0.1265	0	-0	0	0	0	0	0	-0	0	0.105	0.015	0	0	-0	0	0	0.098	0.1	0	-0	0	0	0	0	0	-0	0	0.05595	0	0	0	-0	0	0	0	0	0	-0	0	557.359	552.055	313.94	211.204	-0.0680913	-3.17663	0.045088	-0.0357997	9.3556
40	0.141718	0.0156694	0.0416879	0.0112601	0.00552187	0.0143897	0.0265004	-0.0308896	0.000754519	0.0067343	0.0154266	-0.141929	0.0509737	-0.00382957	0.0251067	-2.07117	0.0178721	-1.5355	0	0	0	0	-0	0	0	0	-0.1265	0	-0	0	0	0	0	0	-0	0	0.105	0.015	0	0	-0	0	0	0.098	0.1	0	-0	0	0	0	0	0	-0	0	0.05595	0	0	0	-0	0	0	0	0	0	-0	0	557.473	552.082	312.832	211.482	-0.051766	-3.36098	0.0449523	-0.0357717	9.96037
41	0.142043	0.0156585	0.0416781	0.0112693	0.00552689	0.0143956	0.0264882	-0.0308743	0.000759029	0.00243404	0.0100366	-0.134504	0.0509591	-0.00382969	0.0251242	-2.07091	0.0180219	-1.53525	0	0	0	0	-0	0	0	0	-0.1265	0	-0	0	0	0	0	0	-0	0	0.105	0.015	0	0	-0	0	0	0.098	0.1	0	-0	0	0	0	0	0	-0	0	0.05595	0	0	0	-0	0	0	0	0	0	-0	0	557.48	552.089	312.675	211.517	-0.0477629	-3.39515	0.0448397	-0.0357716	10.0592
42	0.146909	0.015629	0.0416711	0.0112949	0.00554931	0.0144034	0.0264943	-0.0308767	0.000762213	-0.00556565	-0.00878312	-0.13934	0.0508348	-0.00383016	0.0253698	-2.06628	0.0185339	-1.5342	0	0	0	0	-0	0	0	0	-0.1265	0	-0	0	0	0	0	0	-0	0	0.105	0.015	0	0	-0	0	0	0.098	0.1	0	-0	0	0	0	0	0	-0	0	0.05595	0	0	0	-0	0	0	0	0	0	-0	0	557.516	552.1	312.026	211.656	-0.0367777	-3.5157	0.0446835	-0.0357522	10.4539
43	0.131661	0.015587	0.0416577	0.0113326	0.00558231	0.014421	0.0264893	-0.0308734	0.000767782	0.00480602	-0.017997	-0.151275	0.0512171	-0.00383058	0.0245918	-2.08184	0.0201368	-1.53305	0	0	0	0	-0	0	0	0	-0.1265	0	-0	0	0	0	0	0	-0	0	0.105	0.015	0	0	-0	0	0	0.098	0.1	0	-0	0	0	0	0	0	-0	0	0.05595	0	0	0	-0	0	0	0	0	0	-0	0	557.559	552.104	311.04	211.848	-0.0194366	-3.69923	0.0443944	-0.0357098	11.0496
44	0.108151	0.0155405	0.041642	0.0113705	0.00561549	0.0144388	0.0264884	-0.0308708	0.000766967	0.00371622	-0.0140639	-0.15763	0.051786	-0.00383108	0.0233816	-2.10561	0.0221349	-1.53207	0	0	0	0	-0	0	0	0	-0.1265	0	-0	0	0	0	0	0	-0	0	0.105	0.015	0	0	-0	0	0	0.098	0.1	0	-0	0	0	0	0	0	-0	0	0.05595	0	0	0	-0	0	0	0	0	0	-0	0	557.582	552.098	310.03	212.019	-0.000558858	-3.8946	0.0440444	-0.0356697	11.6782
45	0.0924607	0.0155045	0.0416267	0.0114017	0.00563945	0.0144536	0.0264966	-0.0308772	0.00077022	-0.00962776	-0.0345633	-0.156827	0.0521361	-0.00383143	0.0225601	-2.12147	0.02363	-1.53133	0	0	0	0	-0	0	0	0	-0.1265	0	-0	0	0	0	0	0	-0	0	0.105	0.015	0	0	-0	0	0	0.098	0.1	0	-0	0	0	0	0	0	-0	0	0.05595	0	0	0	-0	0	0	0	0	0	-0	0	557.576	552.078	309.253	212.133	0.0153763	-4.05542	0.0437277	-0.0356388	12.1894
46	0.0663826	0.0154199	0.0415994	0.0114792	0.00570635	0.014494	0.0264904	-0.0308661	0.000779853	-0.0443797	-0.00209987	-0.15283	0.0527229	-0.00383162	0.0211808	-2.14793	0.02714	-1.52895	0	0	0	0	-0	0	0	0	-0.1265	0	-0	0	0	0	0	0	-0	0	0.105	0.015	0	0	-0	0	0	0.098	0.1	0	-0	0	0	0	0	0	-0	0	0.05595	0	0	0	-0	0	0	0	0	0	-0	0	557.532	551.958	307.092	212.417	0.0559726	-4.47547	0.0429484	-0.0355229	13.5553
47	0.0419472	0.0153588	0.0415731	0.0115218	0.00574321	0.0145202	0.0264832	-0.0309106	0.000796273	-0.103576	0.00200144	-0.138169	0.0532217	-0.00383243	0.0198787	-2.17249	0.0295752	-1.52805	0	0	0	0	-0	0	0	0	-0.1265	0	-0	0	0	0	0	0	-0	0	0.105	0.015	0	0	-0	0	0	0.098	0.1	0	-0	0	0	0	0	0	-0	0	0.05595	0	0	0	-0	0	0	0	0	0	-0	0	557.438	551.886	305.932	212.524	0.0840218	-4.73897	0.0422155	-0.0354848	14.3739
48	0.0504901	0.015318	0.0415607	0.0115405	0.00577146	0.014547	0.0265005	-0.0308751	0.000777837	-0.099113	0.0147416	-0.161919	0.0530379	-0.00383276	0.0203206	-2.16403	0.0302982	-1.5266	0	0	0	0	-0	0	0	0	-0.1265	0	-0	0	0	0	0	0	-0	0	0.105	0.015	0	0	-0	0	0	0.098	0.1	0	-0	0	0	0	0	0	-0	0	0.05595	0	0	0	-0	0	0	0	0	0	-0	0	557.339	551.818	305.043	212.595	0.106129	-4.94568	0.0416202	-0.0354303	15.0164
49	0.0680836	0.0152513	0.0415214	0.0116234	0.00582171	0.0145833	0.0265157	-0.0308769	0.000773278	-0.101052	0.0464779	-0.191219	0.0526921	-0.00383235	0.0212276	-2.14657	0.03181	-1.52338	0	0	0	0	-0	0	0	0	-0.1265	0	-0	0	0	0	0	0	-0	0	0.105	0.015	0	0	-0	0	0	0.098	0.1	0	-0	0	0	0	0	0	-0	0	0.05595	0	0	0	-0	0	0	0	0	0	-0	0	557.113	551.621	303.081	212.745	0.151671	-5.39157	0.0404857	-0.035345	16.4427
50	0.0428484	0.0151575	0.0414665	0.011724	0.00589211	0.0146504	0.0264978	-0.0308868	0.000786948	-0.0668675	0.0594978	-0.1727	0.053243	-0.00383186	0.0198579	-2.17191	0.0363156	-1.52029	0	0	0	0	-0	0	0	0	-0.1265	0	-0	0	0	0	0	0	-0	0	0.105	0.015	0	0	-0	0	0	0.098	0.1	0	-0	0	0	0	0	0	-0	0	0.05595	0	0	0	-0	0	0	0	0	0	-0	0	556.654	551.227	300.242	212.933	0.224749	-6.08679	0.0386139	-0.0352443	18.6324
51	0.0601971	0.0150966	0.0414341	0.0117592	0.00592577	0.0146981	0.0264994	-0.0308565	0.000792497	-0.0622499	0.0348498	-0.166768	0.0528908	-0.00383329	0.0207584	-2.15459	0.0371697	-1.51774	0	0	0	0	-0	0	0	0	-0.1265	0	-0	0	0	0	0	0	-0	0	0.105	0.015	0	0	-0	0	0	0.098	0.1	0	-0	0	0	0	0	0	-0	0	0.05595	0	0	0	-0	0	0	0	0	0	-0	0	556.292	551.018	298.829	213.007	0.271215	-6.48785	0.0371435	-0.0352622	19.8249
52	0.0757066	0.0150355	0.0413896	0.0118357	0.00597414	0.0147557	0.026494	-0.0308633	0.000798521	-0.0847856	0.0264282	-0.171084	0.0525918	-0.00383241	0.021535	-2.13917	0.0386614	-1.51435	0	0	0	0	-0	0	0	0	-0.1265	0	-0	0	0	0	0	0	-0	0	0.105	0.015	0	0	-0	0	0	0.098	0.1	0	-0	0	0	0	0	0	-0	0	0.05595	0	0	0	-0	0	0	0	0	0	-0	0	555.724	550.636	296.813	213.165	0.33444	-7.05921	0.0352688	-0.0352734	21.5803
53	0.0897949	0.0149618	0.0413411	0.0119152	0.00603653	0.0148458	0.0265159	-0.0308806	0.000794131	-0.0652102	0.032329	-0.130877	0.0523341	-0.00383132	0.0222127	-2.1254	0.0408726	-1.51005	0	0	0	0	-0	0	0	0	-0.1265	0	-0	0	0	0	0	0	-0	0	0.105	0.015	0	0	-0	0	0	0.098	0.1	0	-0	0	0	0	0	0	-0	0	0.05595	0	0	0	-0	0	0	0	0	0	-0	0	554.828	549.967	294.153	213.506	0.424329	-7.87182	0.0327625	-0.0353581	24.0648
54	0.086307	0.0149329	0.041334	0.0119228	0.00604979	0.0148912	0.0265055	-0.0308579	0.000805028	-0.0515253	0.0525285	-0.126262	0.0524025	-0.00383478	0.022035	-2.12899	0.0416536	-1.50941	0	0	0	0	-0	0	0	0	-0.1265	0	-0	0	0	0	0	0	-0	0	0.105	0.015	0	0	-0	0	0	0.098	0.1	0	-0	0	0	0	0	0	-0	0	0.05595	0	0	0	-0	0	0	0	0	0	-0	0	554.573	549.845	293.645	213.584	0.45259	-8.07678	0.031745	-0.0354715	24.5946
55	0.0903824	0.0149122	0.0413188	0.0119522	0.00606983	0.0149217	0.0265035	-0.0308587	0.000804905	-0.0696604	0.0382343	-0.135881	0.0523345	-0.00383388	0.022224	-2.12507	0.0421818	-1.50826	0	0	0	0	-0	0	0	0	-0.1265	0	-0	0	0	0	0	0	-0	0	0.105	0.015	0	0	-0	0	0	0.098	0.1	0	-0	0	0	0	0	0	-0	0	0.05595	0	0	0	-0	0	0	0	0	0	-0	0	554.235	549.658	292.96	213.722	0.480492	-8.31592	0.0308114	-0.0355364	25.3076
56	0.0766687	0.0148895	0.0413051	0.0119824	0.0060937	0.0149628	0.0265035	-0.0308592	0.000811612	-0.0498527	0.0421047	-0.153675	0.0526701	-0.00383318	0.0214727	-2.13906	0.0441098	-1.50751	0	0	0	0	-0	0	0	0	-0.1265	0	-0	0	0	0	0	0	-0	0	0.105	0.015	0	0	-0	0	0	0.098	0.1	0	-0	0	0	0	0	0	-0	0	0.05595	0	0	0	-0	0	0	0	0	0	-0	0	553.771	549.351	292.018	213.962	0.51881	-8.65519	0.0296707	-0.035626	26.3349
57	0.0633368	0.0148699	0.041304	0.0119936	0.00610757	0.0149897	0.0265044	-0.0308536	0.000801721	-0.0371333	0.0344841	-0.133277	0.052957	-0.00383431	0.0207616	-2.15252	0.0453956	-1.50758	0	0	0	0	-0	0	0	0	-0.1265	0	-0	0	0	0	0	0	-0	0	0.105	0.015	0	0	-0	0	0	0.098	0.1	0	-0	0	0	0	0	0	-0	0	0.05595	0	0	0	-0	0	0	0	0	0	-0	0	553.566	549.226	291.652	214.07	0.537327	-8.80332	0.0290809	-0.0356922	26.7506
58	0.0526068	0.0148628	0.0412991	0.0120052	0.00611406	0.0150044	0.026505	-0.0308491	0.000807861	-0.0424046	0.0187541	-0.130168	0.0531832	-0.00383433	0.0201826	-2.16335	0.0463668	-1.50772	0	0	0	0	-0	0	0	0	-0.1265	0	-0	0	0	0	0	0	-0	0	0.105	0.015	0	0	-0	0	0	0.098	0.1	0	-0	0	0	0	0	0	-0	0	0.05595	0	0	0	-0	0	0	0	0	0	-0	0	553.425	549.134	291.406	214.15	0.548622	-8.90024	0.0287491	-0.0357305	27.0352
59	0.0630453	0.0148504	0.0412956	0.0120188	0.00612753	0.0150227	0.0265084	-0.0308543	0.000809199	-0.0564872	0.00113922	-0.134987	0.0529828	-0.00383401	0.0207208	-2.15308	0.0461303	-1.50675	0	0	0	0	-0	0	0	0	-0.1265	0	-0	0	0	0	0	0	-0	0	0.105	0.015	0	0	-0	0	0	0.098	0.1	0	-0	0	0	0	0	0	-0	0	0.05595	0	0	0	-0	0	0	0	0	0	-0	0	553.219	548.994	291.051	214.276	0.564539	-9.04028	0.0282766	-0.0357809	27.459
60	0.0393328	0.0148241	0.0412916	0.012043	0.006156	0.0150593	0.0265133	-0.0308398	0.000809663	-0.0195929	-0.0454303	-0.134208	0.0535032	-0.00383314	0.0194276	-2.17718	0.0485034	-1.50685	0	0	0	0	-0	0	0	0	-0.1265	0	-0	0	0	0	0	0	-0	0	0.105	0.015	0	0	-0	0	0	0.098	0.1	0	-0	0	0	0	0	0	-0	0	0.05595	0	0	0	-0	0	0	0	0	0	-0	0	552.796	548.657	290.327	214.582	0.596238	-9.33292	0.027465	-0.0358831	28.367
61	0.0286578	0.0148018	0.0412915	0.0120609	0.00617291	0.0150854	0.0265004	-0.0308612	0.000799012	0.02095	-0.0606288	-0.122168	0.0537038	-0.003834	0.0188394	-2.18808	0.0496153	-1.5069	0	0	0	0	-0	0	0	0	-0.1265	0	-0	0	0	0	0	0	-0	0	0.105	0.015	0	0	-0	0	0	0.098	0.1	0	-0	0	0	0	0	0	-0	0	0.05595	0	0	0	-0	0	0	0	0	0	-0	0	552.574	548.491	289.993	214.743	0.614382	-9.4849	0.0269683	-0.0359655	28.8061
62	0.026869	0.0147925	0.0412936	0.012061	0.00618272	0.0151036	0.026507	-0.0308504	0.000808257	0.0093528	-0.0605309	-0.134369	0.0537453	-0.0038342	0.01873	-2.19005	0.0500378	-1.50666	0	0	0	0	-0	0	0	0	-0.1265	0	-0	0	0	0	0	0	-0	0	0.105	0.015	0	0	-0	0	0	0.098	0.1	0	-0	0	0	0	0	0	-0	0	0.05595	0	0	0	-0	0	0	0	0	0	-0	0	552.417	548.366	289.751	214.873	0.625961	-9.59153	0.0267149	-0.0360028	29.1289
63	0.0194181	0.0147696	0.0412944	0.0120783	0.00620541	0.0151256	0.0265097	-0.0308575	0.000817937	0.0305576	-0.0616191	-0.154582	0.0539015	-0.00383391	0.0183088	-2.19779	0.0509512	-1.50655	0	0	0	0	-0	0	0	0	-0.1265	0	-0	0	0	0	0	0	-0	0	0.105	0.015	0	0	-0	0	0	0.098	0.1	0	-0	0	0	0	0	0	-0	0	0.05595	0	0	0	-0	0	0	0	0	0	-0	0	552.18	548.171	289.405	215.075	0.643013	-9.74613	0.0262722	-0.0360787	29.6064
64	0.0111626	0.0147486	0.0412987	0.0120876	0.00622471	0.0151477	0.0265098	-0.0308511	0.000814336	0.0199432	-0.060861	-0.139398	0.0540624	-0.00383414	0.0178492	-2.20628	0.0518231	-1.50661	0	0	0	0	-0	0	0	0	-0.1265	0	-0	0	0	0	0	0	-0	0	0.105	0.015	0	0	-0	0	0	0.098	0.1	0	-0	0	0	0	0	0	-0	0	0.05595	0	0	0	-0	0	0	0	0	0	-0	0	551.991	548.017	289.142	215.243	0.657008	-9.86961	0.025913	-0.0361406	29.9795
65	0.010553	0.0147227	0.0413006	0.0121051	0.00624882	0.0151717	0.0265091	-0.0308517	0.000818213	-0.000924495	-0.0516612	-0.125995	0.0540924	-0.00383381	0.0177893	-2.20727	0.0523382	-1.50613	0	0	0	0	-0	0	0	0	-0.1265	0	-0	0	0	0	0	0	-0	0	0.105	0.015	0	0	-0	0	0	0.098	0.1	0	-0	0	0	0	0	0	-0	0	0.05595	0	0	0	-0	0	0	0	0	0	-0	0	551.722	547.78	288.776	215.503	0.675403	-10.0448	0.0255168	-0.0362261	30.531
66	0.0100667	0.0147066	0.0413049	0.0121112	0.00626241	0.0151883	0.0265113	-0.030849	0.000812327	-0.00428939	-0.0508812	-0.137226	0.0541056	-0.00383446	0.0177572	-2.20793	0.0525643	-1.50595	0	0	0	0	-0	0	0	0	-0.1265	0	-0	0	0	0	0	0	-0	0	0.105	0.015	0	0	-0	0	0	0.098	0.1	0	-0	0	0	0	0	0	-0	0	0.05595	0	0	0	-0	0	0	0	0	0	-0	0	551.607	547.685	288.632	215.614	0.684447	-10.1206	0.0252945	-0.0362724	30.7492
67	0.0126346	0.0146932	0.0413056	0.0121221	0.00627561	0.0152025	0.0265144	-0.0308466	0.000814417	-0.000134305	-0.0688692	-0.139636	0.0540723	-0.00383421	0.0178808	-2.20559	0.0526458	-1.50555	0	0	0	0	-0	0	0	0	-0.1265	0	-0	0	0	0	0	0	-0	0	0.105	0.015	0	0	-0	0	0	0.098	0.1	0	-0	0	0	0	0	0	-0	0	0.05595	0	0	0	-0	0	0	0	0	0	-0	0	551.456	547.558	288.442	215.769	0.694523	-10.2169	0.0250701	-0.0363217	31.0539
68	-0.00196765	0.0146697	0.0413099	0.0121354	0.00629758	0.0152224	0.0265131	-0.0308491	0.000822023	-0.0259865	-0.046534	-0.12752	0.054351	-0.00383403	0.017069	-2.22053	0.0539453	-1.50595	0	0	0	0	-0	0	0	0	-0.1265	0	-0	0	0	0	0	0	-0	0	0.105	0.015	0	0	-0	0	0	0.098	0.1	0	-0	0	0	0	0	0	-0	0	0.05595	0	0	0	-0	0	0	0	0	0	-0	0	551.239	547.37	288.175	216.004	0.709079	-10.3566	0.0247441	-0.0363946	31.4998
69	-0.0121359	0.0146304	0.0413191	0.0121529	0.00633251	0.0152515	0.0265141	-0.0308597	0.000818343	0.0012014	-0.0445888	-0.137989	0.0545447	-0.00383378	0.0164802	-2.23123	0.0551013	-1.50599	0	0	0	0	-0	0	0	0	-0.1265	0	-0	0	0	0	0	0	-0	0	0.105	0.015	0	0	-0	0	0	0.098	0.1	0	-0	0	0	0	0	0	-0	0	0.05595	0	0	0	-0	0	0	0	0	0	-0	0	550.921	547.083	287.81	216.363	0.729748	-10.5586	0.0243236	-0.0364999	32.1503
70	-0.00404723	0.0146125	0.0413257	0.0121589	0.00634796	0.0152713	0.0265173	-0.0308484	0.000817555	0.0089417	-0.0585749	-0.145737	0.0544146	-0.0038345	0.0169121	-2.22339	0.0547775	-1.50535	0	0	0	0	-0	0	0	0	-0.1265	0	-0	0	0	0	0	0	-0	0	0.105	0.015	0	0	-0	0	0	0.098	0.1	0	-0	0	0	0	0	0	-0	0	0.05595	0	0	0	-0	0	0	0	0	0	-0	0	550.79	546.969	287.669	216.515	0.739463	-10.6446	0.0241221	-0.0365504	32.4063
71	-0.0084416	0.0145895	0.0413289	0.0121738	0.00636875	0.0152873	0.0265202	-0.0308541	0.000816323	0.018767	-0.049665	-0.159801	0.0545027	-0.00383424	0.0166523	-2.2281	0.0553192	-1.50533	0	0	0	0	-0	0	0	0	-0.1265	0	-0	0	0	0	0	0	-0	0	0.105	0.015	0	0	-0	0	0	0.098	0.1	0	-0	0	0	0	0	0	-0	0	0.05595	0	0	0	-0	0	0	0	0	0	-0	0	550.614	546.813	287.483	216.727	0.750463	-10.7521	0.0238897	-0.0366167	32.7538
72	-0.0171427	0.0145209	0.0413474	0.0122009	0.00642918	0.0153289	0.0265321	-0.03086	0.000815114	0.0307684	-0.0266146	-0.1731	0.0546983	-0.0038334	0.0161106	-2.23785	0.0566132	-1.50508	0	0	0	0	-0	0	0	0	-0.1265	0	-0	0	0	0	0	0	-0	0	0.105	0.015	0	0	-0	0	0	0.098	0.1	0	-0	0	0	0	0	0	-0	0	0.05595	0	0	0	-0	0	0	0	0	0	-0	0	550.091	546.317	286.966	217.417	0.781866	-11.0854	0.0233621	-0.0367883	33.8801
73	-0.00570538	0.0145024	0.0413549	0.0122103	0.00644404	0.0153522	0.0265211	-0.0308515	0.00081788	0.0373383	-0.0221553	-0.177186	0.0545067	-0.003835	0.0167409	-2.22659	0.0559666	-1.50433	0	0	0	0	-0	0	0	0	-0.1265	0	-0	0	0	0	0	0	-0	0	0.105	0.015	0	0	-0	0	0	0.098	0.1	0	-0	0	0	0	0	0	-0	0	0.05595	0	0	0	-0	0	0	0	0	0	-0	0	550.013	546.249	286.902	217.516	0.790105	-11.145	0.023182	-0.036839	34.0282
74	-0.00570511	0.0144851	0.0413566	0.0122201	0.00645946	0.0153623	0.0265217	-0.0308549	0.00082074	0.0529844	-0.0224624	-0.187697	0.0545133	-0.00383466	0.0167263	-2.22681	0.056099	-1.50419	0	0	0	0	-0	0	0	0	-0.1265	0	-0	0	0	0	0	0	-0	0	0.105	0.015	0	0	-0	0	0	0.098	0.1	0	-0	0	0	0	0	0	-0	0	0.05595	0	0	0	-0	0	0	0	0	0	-0	0	549.907	546.157	286.809	217.655	0.796269	-11.2076	0.02307	-0.03688	34.2328
75	0.00318743	0.0144626	0.0413639	0.0122279	0.0064794	0.0153765	0.0265235	-0.0308591	0.00081698	0.0325681	-0.0291045	-0.193678	0.0543796	-0.00383454	0.0171915	-2.21824	0.0556966	-1.5035	0	0	0	0	-0	0	0	0	-0.1265	0	-0	0	0	0	0	0	-0	0	0.105	0.015	0	0	-0	0	0	0.098	0.1	0	-0	0	0	0	0	0	-0	0	0.05595	0	0	0	-0	0	0	0	0	0	-0	0	549.753	546.019	286.676	217.864	0.805206	-11.2991	0.0228949	-0.0369336	34.5385
76	-0.0112936	0.0144098	0.04138	0.0122474	0.00652368	0.0154045	0.0265333	-0.0308598	0.000814989	0.0349141	-0.0393305	-0.170169	0.0546643	-0.00383406	0.0163552	-2.2335	0.0570856	-1.50388	0	0	0	0	-0	0	0	0	-0.1265	0	-0	0	0	0	0	0	-0	0	0.105	0.015	0	0	-0	0	0	0.098	0.1	0	-0	0	0	0	0	0	-0	0	0.05595	0	0	0	-0	0	0	0	0	0	-0	0	549.399	545.68	286.384	218.371	0.825153	-11.5175	0.0225901	-0.0370535	35.2914
77	-0.0144156	0.0143779	0.0413899	0.0122634	0.00654999	0.0154282	0.0265246	-0.0308557	0.000816711	0.0589055	-0.0513091	-0.164813	0.0547203	-0.00383472	0.0161667	-2.23703	0.0574985	-1.50386	0	0	0	0	-0	0	0	0	-0.1265	0	-0	0	0	0	0	0	-0	0	0.105	0.015	0	0	-0	0	0	0.098	0.1	0	-0	0	0	0	0	0	-0	0	0.05595	0	0	0	-0	0	0	0	0	0	-0	0	549.22	545.512	286.255	218.626	0.837246	-11.6329	0.0223762	-0.0371296	35.6582
78	0.000103864	0.0143344	0.0414018	0.0122793	0.0065868	0.0154505	0.0265326	-0.030852	0.000822585	0.0481017	-0.0302788	-0.159616	0.0545115	-0.00383443	0.0169259	-2.22312	0.0568092	-1.50274	0	0	0	0	-0	0	0	0	-0.1265	0	-0	0	0	0	0	0	-0	0	0.105	0.015	0	0	-0	0	0	0.098	0.1	0	-0	0	0	0	0	0	-0	0	0.05595	0	0	0	-0	0	0	0	0	0	-0	0	548.966	545.276	286.064	219.011	0.851711	-11.7909	0.0221565	-0.0372236	36.2018
79	-0.00852817	0.0143121	0.0414077	0.0122923	0.00660623	0.0154673	0.0265281	-0.0308554	0.000822272	0.0643371	-0.036442	-0.162785	0.0546578	-0.00383485	0.0164462	-2.23201	0.0575102	-1.50311	0	0	0	0	-0	0	0	0	-0.1265	0	-0	0	0	0	0	0	-0	0	0.105	0.015	0	0	-0	0	0	0.098	0.1	0	-0	0	0	0	0	0	-0	0	0.05595	0	0	0	-0	0	0	0	0	0	-0	0	548.858	545.181	285.988	219.171	0.859512	-11.8616	0.0219914	-0.0372773	36.4212
80	0.00316098	0.014288	0.0414148	0.0123007	0.00662686	0.0154808	0.0265327	-0.0308573	0.000820522	0.0607769	-0.0347525	-0.177061	0.054479	-0.00383464	0.0170642	-2.22068	0.0568735	-1.50228	0	0	0	0	-0	0	0	0	-0.1265	0	-0	0	0	0	0	0	-0	0	0.105	0.015	0	0	-0	0	0	0.098	0.1	0	-0	0	0	0	0	0	-0	0	0.05595	0	0	0	-0	0	0	0	0	0	-0	0	548.716	545.052	285.885	219.393	0.867417	-11.9483	0.0218652	-0.0373288	36.7212
81	0.00506374	0.0142697	0.0414206	0.0123095	0.00664265	0.0154931	0.026532	-0.0308559	0.000820788	0.0542632	-0.0314499	-0.186135	0.0544522	-0.00383477	0.0171548	-2.21904	0.0568549	-1.50206	0	0	0	0	-0	0	0	0	-0.1265	0	-0	0	0	0	0	0	-0	0	0.105	0.015	0	0	-0	0	0	0.098	0.1	0	-0	0	0	0	0	0	-0	0	0.05595	0	0	0	-0	0	0	0	0	0	-0	0	548.612	544.957	285.811	219.559	0.873888	-12.0148	0.0217536	-0.0373718	36.9446
82	-0.00091205	0.0142605	0.0414229	0.012314	0.00665087	0.0154999	0.0265325	-0.0308558	0.000821889	0.0553484	-0.0350746	-0.177359	0.0545576	-0.00383489	0.0168255	-2.22512	0.0573123	-1.50235	0	0	0	0	-0	0	0	0	-0.1265	0	-0	0	0	0	0	0	-0	0	0.105	0.015	0	0	-0	0	0	0.098	0.1	0	-0	0	0	0	0	0	-0	0	0.05595	0	0	0	-0	0	0	0	0	0	-0	0	548.568	544.918	285.781	219.628	0.876881	-12.0432	0.021702	-0.0373925	37.0335
83	-0.00952649	0.0142308	0.0414319	0.0123249	0.00667563	0.0155129	0.0265326	-0.0308551	0.000822674	0.0425679	-0.0247172	-0.177395	0.0547225	-0.00383451	0.016328	-2.23417	0.0580825	-1.50266	0	0	0	0	-0	0	0	0	-0.1265	0	-0	0	0	0	0	0	-0	0	0.105	0.015	0	0	-0	0	0	0.098	0.1	0	-0	0	0	0	0	0	-0	0	0.05595	0	0	0	-0	0	0	0	0	0	-0	0	548.397	544.76	285.661	219.905	0.88568	-12.1442	0.0215552	-0.0374559	37.3959
84	-0.00984312	0.0141993	0.0414417	0.0123373	0.00670159	0.0155293	0.0265379	-0.0308702	0.000821496	0.0175792	-0.0354502	-0.185829	0.0547417	-0.00383459	0.0162879	-2.23492	0.0582805	-1.5025	0	0	0	0	-0	0	0	0	-0.1265	0	-0	0	0	0	0	0	-0	0	0.105	0.015	0	0	-0	0	0	0.098	0.1	0	-0	0	0	0	0	0	-0	0	0.05595	0	0	0	-0	0	0	0	0	0	-0	0	548.232	544.608	285.55	220.179	0.895493	-12.2505	0.0214	-0.0375229	37.7635
85	-0.00620536	0.0141775	0.0414503	0.0123445	0.00672114	0.0155453	0.0265381	-0.0308596	0.000828525	0.00491842	-0.0245675	-0.170882	0.0546934	-0.00383477	0.0164725	-2.23162	0.0581601	-1.50217	0	0	0	0	-0	0	0	0	-0.1265	0	-0	0	0	0	0	0	-0	0	0.105	0.015	0	0	-0	0	0	0.098	0.1	0	-0	0	0	0	0	0	-0	0	0.05595	0	0	0	-0	0	0	0	0	0	-0	0	548.112	544.498	285.47	220.385	0.903035	-12.3304	0.0212768	-0.0375697	38.0372
86	-0.0175741	0.0141559	0.0414548	0.0123562	0.00673972	0.0155562	0.0265364	-0.0308571	0.000823194	-0.0025739	-0.0172166	-0.175918	0.0548891	-0.00383476	0.0158385	-2.24324	0.0590394	-1.50273	0	0	0	0	-0	0	0	0	-0.1265	0	-0	0	0	0	0	0	-0	0	0.105	0.015	0	0	-0	0	0	0.098	0.1	0	-0	0	0	0	0	0	-0	0	0.05595	0	0	0	-0	0	0	0	0	0	-0	0	548.013	544.413	285.405	220.549	0.909284	-12.3941	0.0211509	-0.0376185	38.2521
87	-0.00706366	0.0141415	0.0414581	0.0123641	0.00675139	0.0155647	0.0265376	-0.0308589	0.000824301	-0.00943981	-0.0209692	-0.182812	0.054727	-0.00383473	0.0164034	-2.23296	0.0584045	-1.50203	0	0	0	0	-0	0	0	0	-0.1265	0	-0	0	0	0	0	0	-0	0	0.105	0.015	0	0	-0	0	0	0.098	0.1	0	-0	0	0	0	0	0	-0	0	0.05595	0	0	0	-0	0	0	0	0	0	-0	0	547.934	544.34	285.354	220.684	0.913943	-12.4455	0.0210892	-0.0376513	38.4294
88	-0.00505512	0.0141346	0.0414604	0.0123673	0.00675786	0.0155703	0.0265376	-0.0308578	0.000825147	-0.0104233	-0.0257223	-0.187772	0.0546932	-0.00383483	0.0165096	-2.23104	0.0583007	-1.50188	0	0	0	0	-0	0	0	0	-0.1265	0	-0	0	0	0	0	0	-0	0	0.105	0.015	0	0	-0	0	0	0.098	0.1	0	-0	0	0	0	0	0	-0	0	0.05595	0	0	0	-0	0	0	0	0	0	-0	0	547.901	544.311	285.333	220.741	0.916254	-12.4679	0.0210479	-0.0376666	38.5017
89	-0.0119324	0.0141258	0.0414627	0.0123711	0.00676574	0.015575	0.0265379	-0.0308576	0.000825318	-0.0096128	-0.0321787	-0.189971	0.0548113	-0.00383479	0.0161272	-2.23804	0.0588197	-1.50223	0	0	0	0	-0	0	0	0	-0.1265	0	-0	0	0	0	0	0	-0	0	0.105	0.015	0	0	-0	0	0	0.098	0.1	0	-0	0	0	0	0	0	-0	0	0.05595	0	0	0	-0	0	0	0	0	0	-0	0	547.857	544.272	285.304	220.818	0.918864	-12.4963	0.0210017	-0.0376865	38.6009
90	-0.0186304	0.014113	0.0414665	0.0123763	0.00677636	0.0155811	0.0265409	-0.0308593	0.000826415	-0.00879279	-0.0202374	-0.182104	0.0549254	-0.00383473	0.0157496	-2.24492	0.0593466	-1.50256	0	0	0	0	-0	0	0	0	-0.1265	0	-0	0	0	0	0	0	-0	0	0.105	0.015	0	0	-0	0	0	0.098	0.1	0	-0	0	0	0	0	0	-0	0	0.05595	0	0	0	-0	0	0	0	0	0	-0	0	547.791	544.211	285.261	220.933	0.922547	-12.5379	0.0209427	-0.0377137	38.7491
91	0.000847035	0.014076	0.0414783	0.012389	0.00680683	0.0155966	0.0265429	-0.0308667	0.000830552	-0.0260136	-0.0200745	-0.164421	0.054641	-0.00383442	0.016787	-2.226	0.0582057	-1.50122	0	0	0	0	-0	0	0	0	-0.1265	0	-0	0	0	0	0	0	-0	0	0.105	0.015	0	0	-0	0	0	0.098	0.1	0	-0	0	0	0	0	0	-0	0	0.05595	0	0	0	-0	0	0	0	0	0	-0	0	547.596	544.03	285.137	221.278	0.932943	-12.6616	0.0207838	-0.0377898	39.2032
92	-0.0133214	0.0140216	0.0414956	0.0124082	0.00685177	0.0156221	0.0265377	-0.0308691	0.000835105	-0.0646853	-0.0020639	-0.154509	0.0548984	-0.0038344	0.0159713	-2.24095	0.0594481	-1.50179	0	0	0	0	-0	0	0	0	-0.1265	0	-0	0	0	0	0	0	-0	0	0.105	0.015	0	0	-0	0	0	0.098	0.1	0	-0	0	0	0	0	0	-0	0	0.05595	0	0	0	-0	0	0	0	0	0	-0	0	547.331	543.783	284.975	221.773	0.949012	-12.8502	0.0205592	-0.0378997	39.8879
93	-0.00948518	0.0139867	0.041506	0.0124222	0.0068814	0.0156431	0.0265439	-0.030868	0.000821696	-0.0862195	0.00253867	-0.168318	0.0548437	-0.00383475	0.0161622	-2.23758	0.0593419	-1.50141	0	0	0	0	-0	0	0	0	-0.1265	0	-0	0	0	0	0	0	-0	0	0.105	0.015	0	0	-0	0	0	0.098	0.1	0	-0	0	0	0	0	0	-0	0	0.05595	0	0	0	-0	0	0	0	0	0	-0	0	547.174	543.646	284.883	222.055	0.959548	-12.9606	0.0203911	-0.0379713	40.2619
94	-0.0204186	0.0139672	0.0415104	0.0124349	0.00689904	0.0156572	0.0265519	-0.030864	0.000830144	-0.0881201	-0.018078	-0.176837	0.0550311	-0.00383478	0.0155477	-2.24886	0.0602036	-1.50196	0	0	0	0	-0	0	0	0	-0.1265	0	-0	0	0	0	0	0	-0	0	0.105	0.015	0	0	-0	0	0	0.098	0.1	0	-0	0	0	0	0	0	-0	0	0.05595	0	0	0	-0	0	0	0	0	0	-0	0	547.061	543.549	284.82	222.268	0.966698	-13.04	0.0202835	-0.0380223	40.5403
95	-0.0167024	0.0139485	0.0415149	0.0124469	0.00691636	0.0156688	0.0265492	-0.0308665	0.000828234	-0.0911445	-0.0203042	-0.194743	0.054977	-0.00383478	0.0157407	-2.24541	0.0600318	-1.50165	0	0	0	0	-0	0	0	0	-0.1265	0	-0	0	0	0	0	0	-0	0	0.105	0.015	0	0	-0	0	0	0.098	0.1	0	-0	0	0	0	0	0	-0	0	0.05595	0	0	0	-0	0	0	0	0	0	-0	0	546.974	543.482	284.771	222.429	0.972613	-13.1001	0.0201389	-0.0380691	40.7482
96	-0.0178757	0.0139359	0.0415185	0.012452	0.00692749	0.0156768	0.026547	-0.030862	0.00082835	-0.0901232	-0.0300212	-0.191078	0.0550015	-0.0038348	0.0156674	-2.24678	0.0601763	-1.50166	0	0	0	0	-0	0	0	0	-0.1265	0	-0	0	0	0	0	0	-0	0	0.105	0.015	0	0	-0	0	0	0.098	0.1	0	-0	0	0	0	0	0	-0	0	0.05595	0	0	0	-0	0	0	0	0	0	-0	0	546.91	543.43	284.733	222.55	0.976624	-13.1448	0.0200757	-0.0380965	40.905
97	-0.0207119	0.0139157	0.0415236	0.0124606	0.00694436	0.0156854	0.026545	-0.0308655	0.00083112	-0.110068	-0.0250711	-0.186137	0.0550567	-0.00383468	0.0154964	-2.24991	0.0604658	-1.50174	0	0	0	0	-0	0	0	0	-0.1265	0	-0	0	0	0	0	0	-0	0	0.105	0.015	0	0	-0	0	0	0.098	0.1	0	-0	0	0	0	0	0	-0	0	0.05595	0	0	0	-0	0	0	0	0	0	-0	0	546.818	543.346	284.678	222.731	0.981946	-13.2085	0.0200027	-0.0381388	41.1388
98	-0.00836517	0.0138872	0.0415328	0.0124704	0.00696832	0.0156985	0.0265478	-0.0308634	0.000829103	-0.105603	-0.0249344	-0.180216	0.0548812	-0.00383458	0.016154	-2.238	0.0597458	-1.50087	0	0	0	0	-0	0	0	0	-0.1265	0	-0	0	0	0	0	0	-0	0	0.105	0.015	0	0	-0	0	0	0.098	0.1	0	-0	0	0	0	0	0	-0	0	0.05595	0	0	0	-0	0	0	0	0	0	-0	0	546.682	543.227	284.597	222.997	0.989802	-13.302	0.0198758	-0.0381968	41.4837
99	-0.0140846	0.0138741	0.0415357	0.0124797	0.00697966	0.015708	0.0265489	-0.030864	0.000830215	-0.101737	-0.0195416	-0.175263	0.054973	-0.00383477	0.0158341	-2.2439	0.0601989	-1.50116	0	0	0	0	-0	0	0	0	-0.1265	0	-0	0	0	0	0	0	-0	0	0.105	0.015	0	0	-0	0	0	0.098	0.1	0	-0	0	0	0	0	0	-0	0	0.05595	0	0	0	-0	0	0	0	0	0	-0	0	546.626	543.179	284.566	223.106	0.994027	-13.3441	0.0198066	-0.0382279	41.6222
100	0.000766077	0.0138306	0.0415483	0.0124951	0.00701645	0.0157251	0.026557	-0.0308721	0.000830141	-0.0998158	-0.0185738	-0.152099	0.0547648	-0.00383434	0.0166125	-2.22975	0.0593659	-1.50007	0	0	0	0	-0	0	0	0	-0.1265	0	-0	0	0	0	0	0	-0	0	0.105	0.015	0	0	-0	0	0	0.098	0.1	0	-0	0	0	0	0	0	-0	0	0.05595	0	0	0	-0	0	0	0	0	0	-0	0	546.416	542.994	284.443	223.539	1.00589	-13.4953	0.0196268	-0.0383198	42.2008
