Stefan210/kinematic_calibration/src/kinematic_calibration/validation/experiments/experiments/impact_noise/outlier/larm_randomize_14_measurements_rk_true/optimization_intermediate_results.csv
iteration	HeadPitch_offset	HeadYaw_offset	LElbowRoll_offset	LElbowYaw_offset	LShoulderPitch_offset	LShoulderRoll_offset	marker_transform_larm_tx	marker_transform_larm_ty	marker_transform_larm_tz	marker_transform_larm_rr	marker_transform_larm_rp	marker_transform_larm_ry	camera_transform_tx	camera_transform_ty	camera_transform_tz	camera_transform_rr	camera_transform_rp	camera_transform_ry	HeadPitch_transform_tx	HeadPitch_transform_ty	HeadPitch_transform_tz	HeadPitch_transform_rr	HeadPitch_transform_rp	HeadPitch_transform_ry	HeadYaw_transform_tx	HeadYaw_transform_ty	HeadYaw_transform_tz	HeadYaw_transform_rr	HeadYaw_transform_rp	HeadYaw_transform_ry	LElbowRoll_transform_tx	LElbowRoll_transform_ty	LElbowRoll_transform_tz	LElbowRoll_transform_rr	LElbowRoll_transform_rp	LElbowRoll_transform_ry	LElbowYaw_transform_tx	LElbowYaw_transform_ty	LElbowYaw_transform_tz	LElbowYaw_transform_rr	LElbowYaw_transform_rp	LElbowYaw_transform_ry	LShoulderPitch_transform_tx	LShoulderPitch_transform_ty	LShoulderPitch_transform_tz	LShoulderPitch_transform_rr	LShoulderPitch_transform_rp	LShoulderPitch_transform_ry	LShoulderRoll_transform_tx	LShoulderRoll_transform_ty	LShoulderRoll_transform_tz	LShoulderRoll_transform_rr	LShoulderRoll_transform_rp	LShoulderRoll_transform_ry	LWristYaw_transform_tx	LWristYaw_transform_ty	LWristYaw_transform_tz	LWristYaw_transform_rr	LWristYaw_transform_rp	LWristYaw_transform_ry	l_wrist_joint_transform_tx	l_wrist_joint_transform_ty	l_wrist_joint_transform_tz	l_wrist_joint_transform_rr	l_wrist_joint_transform_rp	l_wrist_joint_transform_ry	camera_fx	camera_fy	camera_cx	camera_cy	camera_D0	camera_D1	camera_D2	camera_D3	camera_D4	
0	0.0249164	-0.0307543	0.000853157	4.65819e-06	-0.000318322	-0.00310766	0.05071	0	0.01774	-2.26369	1.66533e-16	-1.5708	545.901	551.038	324.928	201.58	0.0255298	2.61142	-0.0636736	-0.0350419	0.213964
1	-0.0173274	0.013916	0.0459285	0.0231344	0.0395273	-0.00793832	0.0277716	-0.0314781	0.00210051	-0.000145024	-0.000432433	-0.00283007	0.0486509	-0.00401756	0.0145197	-2.19385	-0.000788813	-1.58948	0	0	0	0	-0	0	0	0	-0.1265	0	-0	0	0	0	0	0	-0	0	0.105	0.015	0	0	-0	0	0	0.098	0.1	0	-0	0	0	0	0	0	-0	0	0.05595	0	0	0	-0	0	0	0	0	0	-0	0	545.902	551.038	324.928	201.58	0.0178004	2.60983	-0.0588076	0.0307587	0.213658
2	-0.0186388	0.0182325	0.0305511	0.0302831	0.00805834	0.0244789	0.0263637	-0.0307155	0.00242717	-0.000188979	-0.000478439	-0.00292629	0.0526633	-0.0014054	0.0150462	-2.18844	-0.00441055	-1.56333	0	0	0	0	-0	0	0	0	-0.1265	0	-0	0	0	0	0	0	-0	0	0.105	0.015	0	0	-0	0	0	0.098	0.1	0	-0	0	0	0	0	0	-0	0	0.05595	0	0	0	-0	0	0	0	0	0	-0	0	545.913	551.038	324.922	201.594	-0.306259	2.36375	-0.0319267	-0.00334971	0.141767
3	-0.0177389	0.0244604	0.0269236	0.037351	-5.86614e-05	0.0292188	0.0258969	-0.0303972	0.00289312	-0.000255773	-0.000534303	-0.00295642	0.0544626	-0.00132807	0.0149125	-2.19204	-0.00394096	-1.56278	0	0	0	0	-0	0	0	0	-0.1265	0	-0	0	0	0	0	0	-0	0	0.105	0.015	0	0	-0	0	0	0.098	0.1	0	-0	0	0	0	0	0	-0	0	0.05595	0	0	0	-0	0	0	0	0	0	-0	0	545.955	551.031	324.917	201.627	-0.364571	1.74192	-0.0106552	-0.0111211	-0.0703476
4	-0.0170351	0.0203081	0.0223717	0.0429565	0.000548014	0.0315562	0.0255518	-0.0301833	0.00332992	-0.000330392	-0.000552787	-0.00296815	0.0543677	-0.00122547	0.0151999	-2.19449	0.000991398	-1.55444	0	0	0	0	-0	0	0	0	-0.1265	0	-0	0	0	0	0	0	-0	0	0.105	0.015	0	0	-0	0	0	0.098	0.1	0	-0	0	0	0	0	0	-0	0	0.05595	0	0	0	-0	0	0	0	0	0	-0	0	546.047	551.009	324.92	201.666	-0.139541	0.751816	-0.0147774	-0.0108787	-0.417621
5	-0.0165447	0.017883	0.0199228	0.0449301	0.0017153	0.0329449	0.0253799	-0.0300582	0.00349483	-0.000413361	-0.000624625	-0.00294132	0.0538907	-0.00111797	0.0158561	-2.19686	0.00363601	-1.5503	0	0	0	0	-0	0	0	0	-0.1265	0	-0	0	0	0	0	0	-0	0	0.105	0.015	0	0	-0	0	0	0.098	0.1	0	-0	0	0	0	0	0	-0	0	0.05595	0	0	0	-0	0	0	0	0	0	-0	0	546.245	550.95	324.936	201.69	0.0753469	-0.052112	-0.0201163	-0.0105701	-0.623662
6	-0.0170884	0.0170991	0.0192346	0.0451796	0.0023267	0.033196	0.0253357	-0.030019	0.00352714	-8.05694e-05	-0.00107961	-0.0029491	0.053657	-0.00109278	0.0161849	-2.19898	0.00443499	-1.549	0	0	0	0	-0	0	0	0	-0.1265	0	-0	0	0	0	0	0	-0	0	0.105	0.015	0	0	-0	0	0	0.098	0.1	0	-0	0	0	0	0	0	-0	0	0.05595	0	0	0	-0	0	0	0	0	0	-0	0	546.794	550.781	324.917	201.734	0.159333	-0.473193	-0.0205293	-0.0109411	-0.382967
7	-0.0167688	0.017288	0.0188982	0.0452115	0.00243168	0.0331652	0.0253168	-0.0300042	0.00354469	0.00195795	-0.00011811	0.000344506	0.0533008	-0.00110122	0.0166716	-2.19994	0.00457066	-1.54876	0	0	0	0	-0	0	0	0	-0.1265	0	-0	0	0	0	0	0	-0	0	0.105	0.015	0	0	-0	0	0	0.098	0.1	0	-0	0	0	0	0	0	-0	0	0.05595	0	0	0	-0	0	0	0	0	0	-0	0	548.27	550.344	324.776	201.853	0.200747	-0.915262	-0.0164344	-0.0113551	0.579233
8	-0.0209591	0.0176609	0.0187241	0.045316	0.00236294	0.0331287	0.0253058	-0.0299973	0.00357897	0.0047949	0.00175809	0.00117276	0.0526437	-0.00114388	0.0173634	-2.20617	0.00505543	-1.54829	0	0	0	0	-0	0	0	0	-0.1265	0	-0	0	0	0	0	0	-0	0	0.105	0.015	0	0	-0	0	0	0.098	0.1	0	-0	0	0	0	0	0	-0	0	0.05595	0	0	0	-0	0	0	0	0	0	-0	0	551.571	549.619	324.355	202.129	0.252198	-1.70585	-0.00695501	-0.0119155	2.76672
9	-0.0438088	0.0180602	0.0186047	0.0456691	0.00226091	0.033057	0.0252976	-0.0299939	0.00364337	-0.00128669	0.00139161	0.00572704	0.0519922	-0.00122872	0.0174704	-2.23228	0.00686997	-1.54697	0	0	0	0	-0	0	0	0	-0.1265	0	-0	0	0	0	0	0	-0	0	0.105	0.015	0	0	-0	0	0	0.098	0.1	0	-0	0	0	0	0	0	-0	0	0.05595	0	0	0	-0	0	0	0	0	0	-0	0	556.796	549.751	323.287	202.732	0.316745	-2.826	0.0054867	-0.0128821	6.19292
10	-0.0307569	0.0180211	0.0186454	0.045894	0.00225255	0.0329551	0.025299	-0.0299972	0.0036781	-0.00221251	0.0131011	0.000460778	0.0514176	-0.00129464	0.018628	-2.22025	0.00726876	-1.54604	0	0	0	0	-0	0	0	0	-0.1265	0	-0	0	0	0	0	0	-0	0	0.105	0.015	0	0	-0	0	0	0.098	0.1	0	-0	0	0	0	0	0	-0	0	0.05595	0	0	0	-0	0	0	0	0	0	-0	0	558.884	550.145	322.886	202.916	0.334616	-3.24227	0.009427	-0.0134093	7.69429
11	-0.00823703	0.0184844	0.0185076	0.0458643	0.0019946	0.03288	0.0252837	-0.0300058	0.00368843	-0.00665329	0.0168591	0.0211272	0.0503521	-0.00133933	0.0205566	-2.20158	0.00867121	-1.54384	0	0	0	0	-0	0	0	0	-0.1265	0	-0	0	0	0	0	0	-0	0	0.105	0.015	0	0	-0	0	0	0.098	0.1	0	-0	0	0	0	0	0	-0	0	0.05595	0	0	0	-0	0	0	0	0	0	-0	0	563.147	553.195	321.118	204.25	0.360356	-3.88672	0.0141135	-0.0144967	10.106
12	-0.00168579	0.0187625	0.0184403	0.0455351	0.00183797	0.0328607	0.025269	-0.030036	0.00366244	0.0344486	0.0267524	0.022418	0.0499763	-0.00133902	0.0211063	-2.19663	0.00914877	-1.54308	0	0	0	0	-0	0	0	0	-0.1265	0	-0	0	0	0	0	0	-0	0	0.105	0.015	0	0	-0	0	0	0.098	0.1	0	-0	0	0	0	0	0	-0	0	0.05595	0	0	0	-0	0	0	0	0	0	-0	0	564.815	554.796	320.4	204.916	0.362274	-4.07869	0.015155	-0.0148535	11.0207
13	-0.0115049	0.0187848	0.0184088	0.0456663	0.00185548	0.0328515	0.0252585	-0.0300227	0.00367108	0.0132502	0.031338	0.00648454	0.05002	-0.00135452	0.0207756	-2.20821	0.0102218	-1.54228	0	0	0	0	-0	0	0	0	-0.1265	0	-0	0	0	0	0	0	-0	0	0.105	0.015	0	0	-0	0	0	0.098	0.1	0	-0	0	0	0	0	0	-0	0	0.05595	0	0	0	-0	0	0	0	0	0	-0	0	566.176	556.481	319.739	205.694	0.370491	-4.23777	0.0145721	-0.0151538	11.749
14	0.000550778	0.0189105	0.0183626	0.0458208	0.00182416	0.0328294	0.0252613	-0.0300157	0.00369801	-0.000708687	0.0579622	0.0254803	0.0496133	-0.00137483	0.0215389	-2.19882	0.0109614	-1.54104	0	0	0	0	-0	0	0	0	-0.1265	0	-0	0	0	0	0	0	-0	0	0.105	0.015	0	0	-0	0	0	0.098	0.1	0	-0	0	0	0	0	0	-0	0	0.05595	0	0	0	-0	0	0	0	0	0	-0	0	567.774	558.748	318.814	206.939	0.374354	-4.37182	0.0136022	-0.0156453	12.4872
15	-0.00427589	0.0187867	0.0183763	0.0459768	0.00188824	0.0328706	0.0252634	-0.030012	0.00370187	-0.00753638	0.0402962	0.0251085	0.0496648	-0.00139263	0.0213364	-2.20465	0.0116236	-1.54045	0	0	0	0	-0	0	0	0	-0.1265	0	-0	0	0	0	0	0	-0	0	0.105	0.015	0	0	-0	0	0	0.098	0.1	0	-0	0	0	0	0	0	-0	0	0.05595	0	0	0	-0	0	0	0	0	0	-0	0	568.307	559.724	318.477	207.435	0.382056	-4.44026	0.0122874	-0.0157681	12.8148
16	-0.00241802	0.0189093	0.0182945	0.0461317	0.00185597	0.0328812	0.0252652	-0.0300236	0.00372007	-0.0202137	0.0522625	0.0549759	0.0494885	-0.00140578	0.0215574	-2.20705	0.0132136	-1.53875	0	0	0	0	-0	0	0	0	-0.1265	0	-0	0	0	0	0	0	-0	0	0.105	0.015	0	0	-0	0	0	0.098	0.1	0	-0	0	0	0	0	0	-0	0	0.05595	0	0	0	-0	0	0	0	0	0	-0	0	570.184	562.567	317.071	209.6	0.379412	-4.55384	0.0111145	-0.0164255	13.6712
17	-0.0124532	0.0188626	0.0182375	0.046266	0.00191246	0.0329535	0.0252651	-0.0300244	0.00372376	-0.0051056	0.0629307	0.0324628	0.0496507	-0.00140994	0.0211	-2.21906	0.0143821	-1.53802	0	0	0	0	-0	0	0	0	-0.1265	0	-0	0	0	0	0	0	-0	0	0.105	0.015	0	0	-0	0	0	0.098	0.1	0	-0	0	0	0	0	0	-0	0	0.05595	0	0	0	-0	0	0	0	0	0	-0	0	570.926	563.892	316.422	210.667	0.385249	-4.628	0.00969904	-0.0166073	14.1439
18	0.00101604	0.0189805	0.0181619	0.04628	0.00189862	0.0329876	0.0252644	-0.0300368	0.00373596	0.0196611	0.0530794	-0.00124998	0.0492938	-0.00141069	0.0218282	-2.20985	0.0156197	-1.53613	0	0	0	0	-0	0	0	0	-0.1265	0	-0	0	0	0	0	0	-0	0	0.105	0.015	0	0	-0	0	0	0.098	0.1	0	-0	0	0	0	0	0	-0	0	0.05595	0	0	0	-0	0	0	0	0	0	-0	0	572.303	566.051	314.961	212.958	0.382007	-4.72381	0.00886789	-0.0172531	14.9659
19	0.00733327	0.0189486	0.0180938	0.0463912	0.00194644	0.0330671	0.0252648	-0.0300364	0.0037237	0.00439095	0.0530506	-0.0374906	0.0491185	-0.00140964	0.0221547	-2.20546	0.0162365	-1.53515	0	0	0	0	-0	0	0	0	-0.1265	0	-0	0	0	0	0	0	-0	0	0.105	0.015	0	0	-0	0	0	0.098	0.1	0	-0	0	0	0	0	0	-0	0	0.05595	0	0	0	-0	0	0	0	0	0	-0	0	572.828	567.057	314.284	214.033	0.38861	-4.80078	0.00766591	-0.0174475	15.4502
20	0.0161635	0.0190136	0.0180894	0.0461984	0.00193785	0.03308	0.0252481	-0.0300149	0.00370945	-0.000453063	0.0515558	-0.0389418	0.0489222	-0.00139859	0.022587	-2.19704	0.0160405	-1.53492	0	0	0	0	-0	0	0	0	-0.1265	0	-0	0	0	0	0	0	-0	0	0.105	0.015	0	0	-0	0	0	0.098	0.1	0	-0	0	0	0	0	0	-0	0	0.05595	0	0	0	-0	0	0	0	0	0	-0	0	572.897	567.29	314.12	214.251	0.390078	-4.81288	0.00738691	-0.0174003	15.5356
21	0.0162018	0.0191214	0.0180854	0.046219	0.00183372	0.0330196	0.0252444	-0.0300135	0.00370832	0.0142817	0.0544772	-0.0483569	0.0489078	-0.0014018	0.0225976	-2.19752	0.0162401	-1.53477	0	0	0	0	-0	0	0	0	-0.1265	0	-0	0	0	0	0	0	-0	0	0.105	0.015	0	0	-0	0	0	0.098	0.1	0	-0	0	0	0	0	0	-0	0	0.05595	0	0	0	-0	0	0	0	0	0	-0	0	573.055	567.568	313.896	214.538	0.387962	-4.82076	0.00744681	-0.0175562	15.6507
22	0.024736	0.0191392	0.0180732	0.046295	0.00181215	0.0330001	0.0252409	-0.0300079	0.00371162	0.0105493	0.0503316	-0.0498965	0.048699	-0.00140473	0.0230265	-2.18974	0.0162901	-1.53427	0	0	0	0	-0	0	0	0	-0.1265	0	-0	0	0	0	0	0	-0	0	0.105	0.015	0	0	-0	0	0	0.098	0.1	0	-0	0	0	0	0	0	-0	0	0.05595	0	0	0	-0	0	0	0	0	0	-0	0	573.293	567.949	313.589	214.954	0.388297	-4.84343	0.0072162	-0.0177083	15.8303
23	0.0074804	0.0191858	0.0180622	0.0463163	0.00178053	0.032981	0.0252447	-0.030012	0.00371208	-0.00131388	0.0348903	-0.0586385	0.0490763	-0.00140746	0.0222005	-2.20809	0.0174149	-1.53405	0	0	0	0	-0	0	0	0	-0.1265	0	-0	0	0	0	0	0	-0	0	0.105	0.015	0	0	-0	0	0	0.098	0.1	0	-0	0	0	0	0	0	-0	0	0.05595	0	0	0	-0	0	0	0	0	0	-0	0	573.632	568.466	313.146	215.556	0.387561	-4.87275	0.00704833	-0.017919	16.0848
24	0.00942716	0.0192008	0.0180586	0.0462423	0.00179152	0.0329978	0.0252398	-0.0300084	0.0037051	0.000238775	0.0357079	-0.0516876	0.0490256	-0.00140323	0.0222958	-2.20637	0.0174367	-1.53394	0	0	0	0	-0	0	0	0	-0.1265	0	-0	0	0	0	0	0	-0	0	0.105	0.015	0	0	-0	0	0	0.098	0.1	0	-0	0	0	0	0	0	-0	0	0.05595	0	0	0	-0	0	0	0	0	0	-0	0	573.68	568.584	313.055	215.678	0.389013	-4.88273	0.00686995	-0.0179067	16.1355
25	-0.00322902	0.0192189	0.0180382	0.0463136	0.00177662	0.0329865	0.0252369	-0.0300063	0.0037092	-0.00481842	0.0363898	-0.0541228	0.0492937	-0.00140538	0.0216832	-2.2199	0.0183297	-1.53373	0	0	0	0	-0	0	0	0	-0.1265	0	-0	0	0	0	0	0	-0	0	0.105	0.015	0	0	-0	0	0	0.098	0.1	0	-0	0	0	0	0	0	-0	0	0.05595	0	0	0	-0	0	0	0	0	0	-0	0	573.933	568.989	312.692	216.165	0.389025	-4.90941	0.00665573	-0.0180878	16.3539
26	-0.00183224	0.019244	0.0180321	0.0463066	0.00175998	0.0329767	0.0252358	-0.0300107	0.00370833	-0.0232712	0.0348387	-0.0538576	0.0492543	-0.00140596	0.0217553	-2.21893	0.0184846	-1.53352	0	0	0	0	-0	0	0	0	-0.1265	0	-0	0	0	0	0	0	-0	0	0.105	0.015	0	0	-0	0	0	0.098	0.1	0	-0	0	0	0	0	0	-0	0	0.05595	0	0	0	-0	0	0	0	0	0	-0	0	574.049	569.189	312.511	216.401	0.389398	-4.92351	0.00652992	-0.0181561	16.4603
27	-0.00096711	0.0192351	0.0180207	0.0463449	0.00176913	0.0329836	0.0252363	-0.0300065	0.00371135	-0.0250646	0.0266855	-0.0546822	0.0492306	-0.0014055	0.0218001	-2.21824	0.0185463	-1.53341	0	0	0	0	-0	0	0	0	-0.1265	0	-0	0	0	0	0	0	-0	0	0.105	0.015	0	0	-0	0	0	0.098	0.1	0	-0	0	0	0	0	0	-0	0	0.05595	0	0	0	-0	0	0	0	0	0	-0	0	574.092	569.273	312.438	216.496	0.390657	-4.9323	0.00636907	-0.0181789	16.5059
28	0.00518626	0.0192385	0.0180078	0.0463895	0.00176626	0.0329863	0.0252354	-0.0300054	0.0037141	-0.0276887	0.0227221	-0.0580734	0.0490877	-0.00140696	0.022108	-2.21277	0.0186662	-1.53294	0	0	0	0	-0	0	0	0	-0.1265	0	-0	0	0	0	0	0	-0	0	0.105	0.015	0	0	-0	0	0	0.098	0.1	0	-0	0	0	0	0	0	-0	0	0.05595	0	0	0	-0	0	0	0	0	0	-0	0	574.278	569.574	312.147	216.882	0.391332	-4.95875	0.00618517	-0.0183161	16.6963
29	0.0157076	0.0192527	0.0179957	0.0464045	0.00176037	0.0329876	0.025236	-0.0300057	0.00371217	-0.0213285	0.0124823	-0.047472	0.048846	-0.00140758	0.0226297	-2.20292	0.0185962	-1.5324	0	0	0	0	-0	0	0	0	-0.1265	0	-0	0	0	0	0	0	-0	0	0.105	0.015	0	0	-0	0	0	0.098	0.1	0	-0	0	0	0	0	0	-0	0	0.05595	0	0	0	-0	0	0	0	0	0	-0	0	574.45	569.858	311.862	217.254	0.392278	-4.98608	0.00601083	-0.0184399	16.8841
30	0.0146202	0.0192728	0.0179951	0.0463455	0.00175921	0.0329904	0.0252346	-0.0300053	0.00370932	-0.0202548	0.00735293	-0.052382	0.0488676	-0.00140506	0.0225769	-2.20415	0.0186889	-1.53238	0	0	0	0	-0	0	0	0	-0.1265	0	-0	0	0	0	0	0	-0	0	0.105	0.015	0	0	-0	0	0	0.098	0.1	0	-0	0	0	0	0	0	-0	0	0.05595	0	0	0	-0	0	0	0	0	0	-0	0	574.477	569.922	311.802	217.329	0.392922	-4.99276	0.00594783	-0.0184361	16.9205
31	0.0138771	0.0192713	0.0179788	0.0464025	0.00175915	0.0329927	0.0252356	-0.0300094	0.00371376	-0.00533179	0.0153165	-0.0507953	0.0488774	-0.00140593	0.0225432	-2.20543	0.0189998	-1.53209	0	0	0	0	-0	0	0	0	-0.1265	0	-0	0	0	0	0	0	-0	0	0.105	0.015	0	0	-0	0	0	0.098	0.1	0	-0	0	0	0	0	0	-0	0	0.05595	0	0	0	-0	0	0	0	0	0	-0	0	574.61	570.148	311.565	217.634	0.393995	-5.01668	0.00576408	-0.0185522	17.0808
32	0.0267916	0.019273	0.017958	0.0464334	0.00177065	0.0330072	0.0252388	-0.0300105	0.00371793	-0.0107852	0.0031016	-0.0662004	0.0485786	-0.00140535	0.0231781	-2.19331	0.018895	-1.53142	0	0	0	0	-0	0	0	0	-0.1265	0	-0	0	0	0	0	0	-0	0	0.105	0.015	0	0	-0	0	0	0.098	0.1	0	-0	0	0	0	0	0	-0	0	0.05595	0	0	0	-0	0	0	0	0	0	-0	0	574.787	570.454	311.223	218.074	0.396108	-5.05514	0.00551562	-0.0187063	17.3183
33	0.0237758	0.0192732	0.0179465	0.0464093	0.00178413	0.0330304	0.025236	-0.0300062	0.0037155	-0.0100204	-0.00788366	-0.0715276	0.048644	-0.00140296	0.0230291	-2.1967	0.0192093	-1.53126	0	0	0	0	-0	0	0	0	-0.1265	0	-0	0	0	0	0	0	-0	0	0.105	0.015	0	0	-0	0	0	0.098	0.1	0	-0	0	0	0	0	0	-0	0	0.05595	0	0	0	-0	0	0	0	0	0	-0	0	574.851	570.612	311.049	218.289	0.398264	-5.0773	0.00527934	-0.0187518	17.4373
34	0.031946	0.0192736	0.0179319	0.0464623	0.00177603	0.0330283	0.0252362	-0.0300032	0.00371787	-0.00347962	-0.0273418	-0.0701959	0.0484497	-0.00140455	0.0234273	-2.18907	0.0191888	-1.53078	0	0	0	0	-0	0	0	0	-0.1265	0	-0	0	0	0	0	0	-0	0	0.105	0.015	0	0	-0	0	0	0.098	0.1	0	-0	0	0	0	0	0	-0	0	0.05595	0	0	0	-0	0	0	0	0	0	-0	0	574.969	570.813	310.792	218.6	0.399541	-5.10479	0.00512232	-0.0188769	17.6148
35	0.0212796	0.0192887	0.0179145	0.0464892	0.00177077	0.0330289	0.0252286	-0.0300093	0.00371876	0.0261142	-0.0423616	-0.0688052	0.0486896	-0.0014055	0.0229133	-2.20089	0.02023	-1.53032	0	0	0	0	-0	0	0	0	-0.1265	0	-0	0	0	0	0	0	-0	0	0.105	0.015	0	0	-0	0	0	0.098	0.1	0	-0	0	0	0	0	0	-0	0	0.05595	0	0	0	-0	0	0	0	0	0	-0	0	575.212	571.193	310.253	219.256	0.402073	-5.16902	0.00495328	-0.0191369	18.0111
36	0.0173432	0.0193213	0.0179033	0.0464588	0.00175357	0.0330138	0.0252299	-0.0300049	0.00371476	0.0298674	-0.042169	-0.064179	0.048774	-0.00140521	0.0227241	-2.20498	0.02046	-1.53035	0	0	0	0	-0	0	0	0	-0.1265	0	-0	0	0	0	0	0	-0	0	0.105	0.015	0	0	-0	0	0	0.098	0.1	0	-0	0	0	0	0	0	-0	0	0.05595	0	0	0	-0	0	0	0	0	0	-0	0	575.24	571.254	310.177	219.341	0.403007	-5.17979	0.00490064	-0.0191605	18.0636
37	0.0228264	0.0193149	0.0178962	0.0464819	0.00175611	0.0330143	0.0252296	-0.0300032	0.00371655	0.0282321	-0.0408245	-0.0645682	0.0486468	-0.00140471	0.0229912	-2.1997	0.0203621	-1.53011	0	0	0	0	-0	0	0	0	-0.1265	0	-0	0	0	0	0	0	-0	0	0.105	0.015	0	0	-0	0	0	0.098	0.1	0	-0	0	0	0	0	0	-0	0	0.05595	0	0	0	-0	0	0	0	0	0	-0	0	575.275	571.333	310.075	219.455	0.404465	-5.19399	0.00475257	-0.0191973	18.1386
38	0.00446199	0.0193245	0.0178812	0.0465185	0.00175202	0.0330144	0.025234	-0.0300012	0.00372114	0.0373475	-0.0649487	-0.0674205	0.0490622	-0.00140577	0.0220998	-2.21892	0.0216103	-1.52995	0	0	0	0	-0	0	0	0	-0.1265	0	-0	0	0	0	0	0	-0	0	0.105	0.015	0	0	-0	0	0	0.098	0.1	0	-0	0	0	0	0	0	-0	0	0.05595	0	0	0	-0	0	0	0	0	0	-0	0	575.455	571.617	309.642	219.95	0.406833	-5.24902	0.00460932	-0.019413	18.4693
39	0.0109827	0.0193327	0.0178747	0.0464712	0.00175762	0.033032	0.0252301	-0.0300028	0.00371454	0.0314709	-0.0610232	-0.0698233	0.0489124	-0.00140338	0.0224142	-2.21282	0.0215944	-1.52956	0	0	0	0	-0	0	0	0	-0.1265	0	-0	0	0	0	0	0	-0	0	0.105	0.015	0	0	-0	0	0	0.098	0.1	0	-0	0	0	0	0	0	-0	0	0.05595	0	0	0	-0	0	0	0	0	0	-0	0	575.507	571.766	309.425	220.188	0.409618	-5.28017	0.00437828	-0.0194757	18.6296
40	0.00961766	0.0193421	0.0178557	0.0465105	0.00175375	0.033029	0.0252284	-0.0300032	0.00371564	0.0419169	-0.0680103	-0.0638739	0.0489372	-0.0014033	0.0223468	-2.21477	0.0220191	-1.52921	0	0	0	0	-0	0	0	0	-0.1265	0	-0	0	0	0	0	0	-0	0	0.105	0.015	0	0	-0	0	0	0.098	0.1	0	-0	0	0	0	0	0	-0	0	0.05595	0	0	0	-0	0	0	0	0	0	-0	0	575.608	571.956	309.109	220.526	0.412404	-5.32419	0.00419293	-0.01963	18.874
41	0.00375235	0.0193438	0.0178439	0.0465291	0.0017547	0.0330295	0.0252276	-0.0300022	0.00371831	0.0448284	-0.0709099	-0.0674976	0.0490656	-0.00140261	0.0220599	-2.22085	0.0224158	-1.52919	0	0	0	0	-0	0	0	0	-0.1265	0	-0	0	0	0	0	0	-0	0	0.105	0.015	0	0	-0	0	0	0.098	0.1	0	-0	0	0	0	0	0	-0	0	0.05595	0	0	0	-0	0	0	0	0	0	-0	0	575.638	572.038	308.979	220.658	0.414614	-5.34531	0.00401965	-0.0196779	18.9744
42	-0.0031462	0.0193423	0.0178347	0.0465596	0.00175319	0.0330323	0.0252302	-0.0300006	0.00372099	0.0520326	-0.0895125	-0.0677695	0.0492156	-0.00140325	0.0217203	-2.22805	0.0229178	-1.52912	0	0	0	0	-0	0	0	0	-0.1265	0	-0	0	0	0	0	0	-0	0	0.105	0.015	0	0	-0	0	0	0.098	0.1	0	-0	0	0	0	0	0	-0	0	0.05595	0	0	0	-0	0	0	0	0	0	-0	0	575.683	572.135	308.802	220.834	0.416634	-5.37203	0.00388017	-0.0197599	19.1144
43	-0.000954573	0.019331	0.017828	0.046581	0.00176113	0.0330449	0.0252278	-0.0300039	0.00372199	0.0659423	-0.0898522	-0.0660383	0.0491664	-0.00140284	0.0218261	-2.22608	0.0229924	-1.5289	0	0	0	0	-0	0	0	0	-0.1265	0	-0	0	0	0	0	0	-0	0	0.105	0.015	0	0	-0	0	0	0.098	0.1	0	-0	0	0	0	0	0	-0	0	0.05595	0	0	0	-0	0	0	0	0	0	-0	0	575.706	572.208	308.671	220.963	0.418934	-5.39439	0.00370171	-0.0198075	19.2208
44	0.00325909	0.0193367	0.0178224	0.0465838	0.00175987	0.0330458	0.0252275	-0.0300018	0.00372228	0.0680422	-0.0883416	-0.0676289	0.0490734	-0.00140278	0.0220334	-2.22195	0.0228788	-1.52874	0	0	0	0	-0	0	0	0	-0.1265	0	-0	0	0	0	0	0	-0	0	0.105	0.015	0	0	-0	0	0	0.098	0.1	0	-0	0	0	0	0	0	-0	0	0.05595	0	0	0	-0	0	0	0	0	0	-0	0	575.716	572.238	308.616	221.015	0.419805	-5.40374	0.00364772	-0.0198317	19.2638
45	0.00760057	0.0193377	0.0178193	0.0465935	0.00175609	0.0330444	0.0252274	-0.0300014	0.0037227	0.0682264	-0.0880503	-0.0721887	0.0489771	-0.00140323	0.0222455	-2.21773	0.0227872	-1.52855	0	0	0	0	-0	0	0	0	-0.1265	0	-0	0	0	0	0	0	-0	0	0.105	0.015	0	0	-0	0	0	0.098	0.1	0	-0	0	0	0	0	0	-0	0	0.05595	0	0	0	-0	0	0	0	0	0	-0	0	575.731	572.277	308.54	221.085	0.420665	-5.41526	0.0035906	-0.019868	19.3234
46	0.0133276	0.0193395	0.0178153	0.0466015	0.0017546	0.0330448	0.0252278	-0.0300007	0.00372279	0.0631874	-0.0779281	-0.0744657	0.0488489	-0.00140333	0.0225253	-2.21219	0.0226765	-1.52828	0	0	0	0	-0	0	0	0	-0.1265	0	-0	0	0	0	0	0	-0	0	0.105	0.015	0	0	-0	0	0	0.098	0.1	0	-0	0	0	0	0	0	-0	0	0.05595	0	0	0	-0	0	0	0	0	0	-0	0	575.756	572.331	308.427	221.188	0.421934	-5.43281	0.0035193	-0.0199208	19.4133
47	0.0172204	0.0193421	0.0178121	0.0465996	0.00175434	0.0330466	0.0252275	-0.0300011	0.00372281	0.0604097	-0.0827922	-0.075156	0.0487604	-0.00140297	0.0227145	-2.20845	0.0226213	-1.52808	0	0	0	0	-0	0	0	0	-0.1265	0	-0	0	0	0	0	0	-0	0	0.105	0.015	0	0	-0	0	0	0.098	0.1	0	-0	0	0	0	0	0	-0	0	0.05595	0	0	0	-0	0	0	0	0	0	-0	0	575.774	572.376	308.331	221.275	0.423157	-5.44811	0.00344888	-0.0199609	19.4892
48	0.0209482	0.0193428	0.0178055	0.0466132	0.00175459	0.0330486	0.0252276	-0.0300027	0.00372365	0.0700546	-0.0786514	-0.0725154	0.0486747	-0.00140295	0.0228954	-2.20494	0.022627	-1.52782	0	0	0	0	-0	0	0	0	-0.1265	0	-0	0	0	0	0	0	-0	0	0.105	0.015	0	0	-0	0	0	0.098	0.1	0	-0	0	0	0	0	0	-0	0	0.05595	0	0	0	-0	0	0	0	0	0	-0	0	575.802	572.437	308.189	221.402	0.424834	-5.47084	0.0033619	-0.0200286	19.604
49	0.0174765	0.0193415	0.0178012	0.0466124	0.00175909	0.0330536	0.0252269	-0.0300011	0.00372377	0.0699907	-0.0764675	-0.0737381	0.0487532	-0.00140232	0.0227266	-2.20846	0.0228142	-1.52785	0	0	0	0	-0	0	0	0	-0.1265	0	-0	0	0	0	0	0	-0	0	0.105	0.015	0	0	-0	0	0	0.098	0.1	0	-0	0	0	0	0	0	-0	0	0.05595	0	0	0	-0	0	0	0	0	0	-0	0	575.806	572.454	308.156	221.431	0.425751	-5.47766	0.00330012	-0.020037	19.6302
50	0.0160958	0.0193437	0.0177971	0.046623	0.00175492	0.0330518	0.0252266	-0.0300013	0.00372457	0.0770657	-0.0758382	-0.0765451	0.0487843	-0.00140278	0.0226581	-2.20999	0.0229923	-1.52776	0	0	0	0	-0	0	0	0	-0.1265	0	-0	0	0	0	0	0	-0	0	0.105	0.015	0	0	-0	0	0	0.098	0.1	0	-0	0	0	0	0	0	-0	0	0.05595	0	0	0	-0	0	0	0	0	0	-0	0	575.824	572.497	308.055	221.519	0.426807	-5.49342	0.00324454	-0.0200876	19.7119
51	0.0163247	0.0193416	0.0177932	0.0466348	0.00175546	0.0330534	0.0252271	-0.0300006	0.00372546	0.0775916	-0.069015	-0.0748936	0.0487783	-0.0014029	0.0226691	-2.20985	0.0230566	-1.52767	0	0	0	0	-0	0	0	0	-0.1265	0	-0	0	0	0	0	0	-0	0	0.105	0.015	0	0	-0	0	0	0.098	0.1	0	-0	0	0	0	0	0	-0	0	0.05595	0	0	0	-0	0	0	0	0	0	-0	0	575.834	572.524	307.993	221.571	0.427816	-5.50399	0.00318096	-0.0201154	19.7611
52	0.0196192	0.0193407	0.0177879	0.046648	0.00175582	0.0330561	0.0252269	-0.0300007	0.00372614	0.0770361	-0.069496	-0.0810767	0.0487034	-0.00140295	0.0228288	-2.20675	0.0230738	-1.52743	0	0	0	0	-0	0	0	0	-0.1265	0	-0	0	0	0	0	0	-0	0	0.105	0.015	0	0	-0	0	0	0.098	0.1	0	-0	0	0	0	0	0	-0	0	0.05595	0	0	0	-0	0	0	0	0	0	-0	0	575.858	572.58	307.858	221.686	0.429564	-5.52686	0.00308922	-0.0201796	19.8741
53	0.0125368	0.0193462	0.01778	0.0466546	0.00175419	0.0330573	0.0252294	-0.0300037	0.0037268	0.0658382	-0.0807486	-0.0788972	0.0488645	-0.00140286	0.0224827	-2.21416	0.0236468	-1.52731	0	0	0	0	-0	0	0	0	-0.1265	0	-0	0	0	0	0	0	-0	0	0.105	0.015	0	0	-0	0	0	0.098	0.1	0	-0	0	0	0	0	0	-0	0	0.05595	0	0	0	-0	0	0	0	0	0	-0	0	575.899	572.662	307.626	221.882	0.432215	-5.5657	0.00299546	-0.0202922	20.0678
54	0.0152418	0.0193427	0.0177716	0.0466422	0.00176749	0.0330724	0.0252297	-0.0300028	0.00372593	0.059162	-0.0921778	-0.0750605	0.0488034	-0.0014007	0.022613	-2.21162	0.0236624	-1.5271	0	0	0	0	-0	0	0	0	-0.1265	0	-0	0	0	0	0	0	-0	0	0.105	0.015	0	0	-0	0	0	0.098	0.1	0	-0	0	0	0	0	0	-0	0	0.05595	0	0	0	-0	0	0	0	0	0	-0	0	575.903	572.707	307.51	221.977	0.434809	-5.58873	0.00283504	-0.0203297	20.1635
55	0.0200523	0.0193388	0.0177648	0.0466506	0.00177139	0.0330793	0.0252271	-0.0300004	0.00372627	0.0624294	-0.0988006	-0.0736014	0.0486949	-0.00140006	0.0228458	-2.20693	0.0235575	-1.52687	0	0	0	0	-0	0	0	0	-0.1265	0	-0	0	0	0	0	0	-0	0	0.105	0.015	0	0	-0	0	0	0.098	0.1	0	-0	0	0	0	0	0	-0	0	0.05595	0	0	0	-0	0	0	0	0	0	-0	0	575.905	572.741	307.421	222.047	0.436532	-5.60522	0.00271942	-0.020364	20.2367
56	0.020912	0.0193458	0.0177639	0.0466539	0.00176054	0.0330716	0.0252262	-0.03	0.00372595	0.059866	-0.101999	-0.0740682	0.0486747	-0.00140108	0.0228869	-2.20612	0.0235626	-1.52681	0	0	0	0	-0	0	0	0	-0.1265	0	-0	0	0	0	0	0	-0	0	0.105	0.015	0	0	-0	0	0	0.098	0.1	0	-0	0	0	0	0	0	-0	0	0.05595	0	0	0	-0	0	0	0	0	0	-0	0	575.908	572.755	307.384	222.075	0.436821	-5.61082	0.00270951	-0.0203838	20.2665
57	0.0230263	0.0193465	0.0177626	0.0466653	0.00175664	0.0330677	0.0252258	-0.0299997	0.00372649	0.0612826	-0.104784	-0.0712965	0.0486259	-0.00140158	0.0229896	-2.20404	0.0235103	-1.52672	0	0	0	0	-0	0	0	0	-0.1265	0	-0	0	0	0	0	0	-0	0	0.105	0.015	0	0	-0	0	0	0.098	0.1	0	-0	0	0	0	0	0	-0	0	0.05595	0	0	0	-0	0	0	0	0	0	-0	0	575.912	572.767	307.35	222.1	0.437316	-5.6165	0.00268052	-0.0204026	20.2933
58	0.0240401	0.0193492	0.0177608	0.046671	0.00175342	0.0330652	0.0252257	-0.0299996	0.00372696	0.0612335	-0.102801	-0.0681264	0.0486027	-0.00140184	0.0230383	-2.20313	0.0235519	-1.5266	0	0	0	0	-0	0	0	0	-0.1265	0	-0	0	0	0	0	0	-0	0	0.105	0.015	0	0	-0	0	0	0.098	0.1	0	-0	0	0	0	0	0	-0	0	0.05595	0	0	0	-0	0	0	0	0	0	-0	0	575.922	572.79	307.275	222.156	0.438192	-5.62893	0.0026463	-0.0204406	20.3543
59	0.0219799	0.0193483	0.0177588	0.0466779	0.00175317	0.0330655	0.0252258	-0.0299999	0.00372731	0.0591961	-0.103553	-0.0734362	0.0486497	-0.00140195	0.0229381	-2.20523	0.0236877	-1.5266	0	0	0	0	-0	0	0	0	-0.1265	0	-0	0	0	0	0	0	-0	0	0.105	0.015	0	0	-0	0	0	0.098	0.1	0	-0	0	0	0	0	0	-0	0	0.05595	0	0	0	-0	0	0	0	0	0	-0	0	575.925	572.803	307.238	222.184	0.438906	-5.63594	0.00260472	-0.0204571	20.3849
60	0.0150203	0.0193502	0.0177559	0.0466802	0.00175299	0.0330664	0.0252252	-0.0299998	0.00372738	0.0526688	-0.10193	-0.0744029	0.0488095	-0.00140181	0.0225988	-2.21229	0.0240903	-1.52666	0	0	0	0	-0	0	0	0	-0.1265	0	-0	0	0	0	0	0	-0	0	0.105	0.015	0	0	-0	0	0	0.098	0.1	0	-0	0	0	0	0	0	-0	0	0.05595	0	0	0	-0	0	0	0	0	0	-0	0	575.935	572.83	307.154	222.246	0.43999	-5.65016	0.0025584	-0.020497	20.453
61	0.0145282	0.0193592	0.0177529	0.0466699	0.00174857	0.033064	0.025225	-0.0299993	0.00372641	0.0619192	-0.110944	-0.0746655	0.0488203	-0.00140166	0.0225736	-2.21294	0.0242512	-1.52653	0	0	0	0	-0	0	0	0	-0.1265	0	-0	0	0	0	0	0	-0	0	0.105	0.015	0	0	-0	0	0	0.098	0.1	0	-0	0	0	0	0	0	-0	0	0.05595	0	0	0	-0	0	0	0	0	0	-0	0	575.951	572.865	307.03	222.336	0.44132	-5.6707	0.00252538	-0.0205574	20.5539
62	0.0223684	0.0193609	0.0177406	0.0466965	0.0017469	0.0330636	0.0252263	-0.0300046	0.003733	0.0441197	-0.105761	-0.0593318	0.0486423	-0.00140188	0.0229549	-2.20554	0.0243028	-1.52591	0	0	0	0	-0	0	0	0	-0.1265	0	-0	0	0	0	0	0	-0	0	0.105	0.015	0	0	-0	0	0	0.098	0.1	0	-0	0	0	0	0	0	-0	0	0.05595	0	0	0	-0	0	0	0	0	0	-0	0	576.001	572.951	306.686	222.593	0.44552	-5.73204	0.00241561	-0.020734	20.8527
63	0.027064	0.0193409	0.0177239	0.0467413	0.00176424	0.0330857	0.0252263	-0.0300002	0.00373385	0.0446034	-0.113076	-0.0639518	0.048532	-0.00140154	0.0231814	-2.20104	0.0242986	-1.52555	0	0	0	0	-0	0	0	0	-0.1265	0	-0	0	0	0	0	0	-0	0	0.105	0.015	0	0	-0	0	0	0.098	0.1	0	-0	0	0	0	0	0	-0	0	0.05595	0	0	0	-0	0	0	0	0	0	-0	0	576	573	306.518	222.713	0.449973	-5.77066	0.00215019	-0.0208069	21.0071
64	0.0389418	0.0193462	0.0177164	0.0467431	0.001758	0.0330853	0.0252274	-0.0300016	0.00373232	0.0496506	-0.107791	-0.0526684	0.0482577	-0.00140158	0.0237542	-2.18945	0.0240494	-1.52495	0	0	0	0	-0	0	0	0	-0.1265	0	-0	0	0	0	0	0	-0	0	0.105	0.015	0	0	-0	0	0	0.098	0.1	0	-0	0	0	0	0	0	-0	0	0.05595	0	0	0	-0	0	0	0	0	0	-0	0	576.012	573.059	306.262	222.884	0.453748	-5.81911	0.00200858	-0.0209267	21.2323
65	0.0364598	0.0193637	0.0177115	0.0466935	0.00175747	0.0330892	0.0252255	-0.0300003	0.00372773	0.0423976	-0.111664	-0.0520857	0.0483172	-0.00139919	0.0236303	-2.19215	0.0243661	-1.52478	0	0	0	0	-0	0	0	0	-0.1265	0	-0	0	0	0	0	0	-0	0	0.105	0.015	0	0	-0	0	0	0.098	0.1	0	-0	0	0	0	0	0	-0	0	0.05595	0	0	0	-0	0	0	0	0	0	-0	0	576.008	573.105	306.067	223.008	0.457023	-5.85623	0.00187738	-0.0210039	21.393
66	0.0318559	0.0193617	0.0177032	0.0467118	0.00175605	0.0330876	0.0252241	-0.0299989	0.00372859	0.0367235	-0.110138	-0.0538217	0.0484249	-0.00139894	0.0234068	-2.19683	0.024672	-1.52479	0	0	0	0	-0	0	0	0	-0.1265	0	-0	0	0	0	0	0	-0	0	0.105	0.015	0	0	-0	0	0	0.098	0.1	0	-0	0	0	0	0	0	-0	0	0.05595	0	0	0	-0	0	0	0	0	0	-0	0	576.005	573.123	305.986	223.056	0.4589	-5.8728	0.0017663	-0.0210405	21.4605
67	0.0285399	0.0193649	0.0177001	0.0467213	0.00175009	0.0330831	0.0252239	-0.0299982	0.00372907	0.0391276	-0.106713	-0.0554359	0.0485023	-0.00139938	0.023245	-2.20021	0.0249141	-1.52478	0	0	0	0	-0	0	0	0	-0.1265	0	-0	0	0	0	0	0	-0	0	0.105	0.015	0	0	-0	0	0	0.098	0.1	0	-0	0	0	0	0	0	-0	0	0.05595	0	0	0	-0	0	0	0	0	0	-0	0	576.004	573.14	305.909	223.1	0.460187	-5.88746	0.00170604	-0.0210784	21.5255
68	0.0292599	0.0193624	0.0176985	0.0467321	0.00174951	0.0330833	0.0252239	-0.0299978	0.00373008	0.0380302	-0.102019	-0.0533558	0.0484849	-0.00139959	0.0232796	-2.19952	0.0249188	-1.52472	0	0	0	0	-0	0	0	0	-0.1265	0	-0	0	0	0	0	0	-0	0	0.105	0.015	0	0	-0	0	0	0.098	0.1	0	-0	0	0	0	0	0	-0	0	0.05595	0	0	0	-0	0	0	0	0	0	-0	0	576.003	573.146	305.879	223.117	0.460971	-5.89376	0.00165714	-0.0210913	21.55
69	0.0289374	0.0193599	0.0176962	0.0467468	0.00174871	0.0330841	0.0252236	-0.0299978	0.00373085	0.0351912	-0.100301	-0.0561335	0.0484927	-0.00139992	0.0232629	-2.19989	0.0250073	-1.52465	0	0	0	0	-0	0	0	0	-0.1265	0	-0	0	0	0	0	0	-0	0	0.105	0.015	0	0	-0	0	0	0.098	0.1	0	-0	0	0	0	0	0	-0	0	0.05595	0	0	0	-0	0	0	0	0	0	-0	0	576.001	573.157	305.818	223.151	0.462074	-5.90547	0.00159944	-0.0211216	21.6013
70	0.023992	0.0193638	0.017693	0.0467517	0.00174522	0.033084	0.0252234	-0.0299978	0.00373129	0.0403017	-0.100302	-0.0572147	0.0486083	-0.00139984	0.0230222	-2.20492	0.0253387	-1.52466	0	0	0	0	-0	0	0	0	-0.1265	0	-0	0	0	0	0	0	-0	0	0.105	0.015	0	0	-0	0	0	0.098	0.1	0	-0	0	0	0	0	0	-0	0	0.05595	0	0	0	-0	0	0	0	0	0	-0	0	576	573.173	305.727	223.201	0.463618	-5.92308	0.00153756	-0.0211663	21.6779
71	0.027022	0.0193713	0.0176883	0.0467524	0.00173999	0.0330841	0.0252237	-0.0299996	0.00373126	0.0292935	-0.10397	-0.0565686	0.0485385	-0.00139952	0.0231684	-2.20201	0.0253508	-1.52442	0	0	0	0	-0	0	0	0	-0.1265	0	-0	0	0	0	0	0	-0	0	0.105	0.015	0	0	-0	0	0	0.098	0.1	0	-0	0	0	0	0	0	-0	0	0.05595	0	0	0	-0	0	0	0	0	0	-0	0	576.002	573.192	305.592	223.275	0.465721	-5.94847	0.00147307	-0.0212336	21.7896
72	0.0266192	0.0193701	0.0176832	0.0467542	0.00174468	0.0330897	0.0252231	-0.029999	0.0037318	0.019445	-0.103271	-0.0542433	0.0485475	-0.00139879	0.0231485	-2.20247	0.0254468	-1.52435	0	0	0	0	-0	0	0	0	-0.1265	0	-0	0	0	0	0	0	-0	0	0.105	0.015	0	0	-0	0	0	0.098	0.1	0	-0	0	0	0	0	0	-0	0	0.05595	0	0	0	-0	0	0	0	0	0	-0	0	575.998	573.204	305.524	223.311	0.46742	-5.96324	0.00138544	-0.0212622	21.8461
73	0.0274936	0.0193715	0.0176785	0.046765	0.00174145	0.0330903	0.0252235	-0.0299984	0.00373246	0.0148788	-0.104562	-0.0476218	0.0485272	-0.00139892	0.0231903	-2.20166	0.025499	-1.52422	0	0	0	0	-0	0	0	0	-0.1265	0	-0	0	0	0	0	0	-0	0	0.105	0.015	0	0	-0	0	0	0.098	0.1	0	-0	0	0	0	0	0	-0	0	0.05595	0	0	0	-0	0	0	0	0	0	-0	0	575.996	573.215	305.444	223.351	0.468915	-5.97913	0.00132187	-0.0213028	21.9132
74	0.0251532	0.0193719	0.0176728	0.0467767	0.00173993	0.0330924	0.0252232	-0.0299974	0.00373321	0.0124986	-0.102885	-0.043085	0.0485825	-0.00139879	0.0230748	-2.20414	0.0258076	-1.52406	0	0	0	0	-0	0	0	0	-0.1265	0	-0	0	0	0	0	0	-0	0	0.105	0.015	0	0	-0	0	0	0.098	0.1	0	-0	0	0	0	0	0	-0	0	0.05595	0	0	0	-0	0	0	0	0	0	-0	0	575.995	573.235	305.27	223.441	0.471775	-6.01319	0.00122392	-0.021389	22.063
75	0.0253222	0.0193744	0.0176694	0.0467805	0.00173634	0.0330942	0.0252228	-0.029997	0.00373314	0.011366	-0.105616	-0.0448065	0.0485772	-0.0013986	0.0230839	-2.204	0.0258431	-1.52402	0	0	0	0	-0	0	0	0	-0.1265	0	-0	0	0	0	0	0	-0	0	0.105	0.015	0	0	-0	0	0	0.098	0.1	0	-0	0	0	0	0	0	-0	0	0.05595	0	0	0	-0	0	0	0	0	0	-0	0	575.992	573.241	305.233	223.459	0.472997	-6.02206	0.00115903	-0.0214036	22.0933
76	0.0241205	0.0193791	0.0176664	0.0467848	0.00173166	0.0330941	0.0252226	-0.0299968	0.00373318	0.00899051	-0.106494	-0.0473141	0.0486051	-0.00139846	0.023025	-2.20526	0.0259861	-1.52396	0	0	0	0	-0	0	0	0	-0.1265	0	-0	0	0	0	0	0	-0	0	0.105	0.015	0	0	-0	0	0	0.098	0.1	0	-0	0	0	0	0	0	-0	0	0.05595	0	0	0	-0	0	0	0	0	0	-0	0	575.989	573.25	305.157	223.495	0.474415	-6.03727	0.00110342	-0.0214413	22.1572
77	0.0207415	0.019385	0.0176623	0.046788	0.00172706	0.0330941	0.0252223	-0.0299965	0.00373311	0.0119661	-0.110552	-0.0457586	0.0486836	-0.00139813	0.0228597	-2.20872	0.0262723	-1.52391	0	0	0	0	-0	0	0	0	-0.1265	0	-0	0	0	0	0	0	-0	0	0.105	0.015	0	0	-0	0	0	0.098	0.1	0	-0	0	0	0	0	0	-0	0	0.05595	0	0	0	-0	0	0	0	0	0	-0	0	575.984	573.263	305.043	223.548	0.476399	-6.05914	0.001028	-0.0214973	22.2497
78	0.0163871	0.0193908	0.0176595	0.0467858	0.00172292	0.0330946	0.025222	-0.0299963	0.0037329	0.0128148	-0.110913	-0.0464917	0.0487825	-0.00139773	0.022648	-2.21311	0.0265405	-1.52396	0	0	0	0	-0	0	0	0	-0.1265	0	-0	0	0	0	0	0	-0	0	0.105	0.015	0	0	-0	0	0	0.098	0.1	0	-0	0	0	0	0	0	-0	0	0.05595	0	0	0	-0	0	0	0	0	0	-0	0	575.981	573.27	304.985	223.574	0.477671	-6.07108	0.000977159	-0.0215237	22.2961
79	0.00699282	0.0193976	0.0176551	0.0467882	0.00171766	0.0330942	0.0252223	-0.0299964	0.00373274	0.0118558	-0.116104	-0.0431563	0.0489953	-0.00139743	0.0221888	-2.22259	0.0271253	-1.52406	0	0	0	0	-0	0	0	0	-0.1265	0	-0	0	0	0	0	0	-0	0	0.105	0.015	0	0	-0	0	0	0.098	0.1	0	-0	0	0	0	0	0	-0	0	0.05595	0	0	0	-0	0	0	0	0	0	-0	0	575.978	573.279	304.857	223.631	0.479779	-6.0959	0.000916036	-0.0215886	22.4024
80	0.00667171	0.0194115	0.017653	0.0467642	0.00171158	0.0330953	0.0252219	-0.0299968	0.00373073	0.00845452	-0.11877	-0.0465489	0.0490006	-0.00139622	0.0221729	-2.22296	0.0272079	-1.52401	0	0	0	0	-0	0	0	0	-0.1265	0	-0	0	0	0	0	0	-0	0	0.105	0.015	0	0	-0	0	0	0.098	0.1	0	-0	0	0	0	0	0	-0	0	0.05595	0	0	0	-0	0	0	0	0	0	-0	0	575.973	573.286	304.791	223.659	0.481186	-6.10953	0.000873324	-0.0216156	22.4538
81	0.00906415	0.0194071	0.0176471	0.0467833	0.00171417	0.0330973	0.0252222	-0.0299966	0.00373275	0.00945825	-0.112466	-0.0423922	0.0489479	-0.00139609	0.0222885	-2.22063	0.027212	-1.52382	0	0	0	0	-0	0	0	0	-0.1265	0	-0	0	0	0	0	0	-0	0	0.105	0.015	0	0	-0	0	0	0.098	0.1	0	-0	0	0	0	0	0	-0	0	0.05595	0	0	0	-0	0	0	0	0	0	-0	0	575.967	573.296	304.695	223.7	0.48306	-6.12798	0.000776613	-0.0216638	22.5302
82	0.00593272	0.0194006	0.0176428	0.0468008	0.00171696	0.0331019	0.0252223	-0.0299969	0.0037341	0.0102425	-0.110036	-0.034921	0.0490177	-0.00139624	0.022134	-2.22381	0.027449	-1.5238	0	0	0	0	-0	0	0	0	-0.1265	0	-0	0	0	0	0	0	-0	0	0.105	0.015	0	0	-0	0	0	0.098	0.1	0	-0	0	0	0	0	0	-0	0	0.05595	0	0	0	-0	0	0	0	0	0	-0	0	575.96	573.304	304.623	223.73	0.484721	-6.14272	0.000685498	-0.0216983	22.588
83	-0.00358189	0.0194026	0.0176372	0.046809	0.00171491	0.0331043	0.0252227	-0.0299961	0.00373494	0.0101353	-0.100662	-0.0325228	0.0492293	-0.00139605	0.0216657	-2.23342	0.0280812	-1.52387	0	0	0	0	-0	0	0	0	-0.1265	0	-0	0	0	0	0	0	-0	0	0.105	0.015	0	0	-0	0	0	0.098	0.1	0	-0	0	0	0	0	0	-0	0	0.05595	0	0	0	-0	0	0	0	0	0	-0	0	575.952	573.313	304.464	223.796	0.487458	-6.1738	0.00059299	-0.0217785	22.7194
84	-0.00124047	0.0194139	0.0176342	0.0467924	0.00170779	0.0331066	0.0252219	-0.0299962	0.00373317	0.00991166	-0.104821	-0.0374344	0.0491767	-0.0013952	0.0217805	-2.23113	0.0280619	-1.52372	0	0	0	0	-0	0	0	0	-0.1265	0	-0	0	0	0	0	0	-0	0	0.105	0.015	0	0	-0	0	0	0.098	0.1	0	-0	0	0	0	0	0	-0	0	0.05595	0	0	0	-0	0	0	0	0	0	-0	0	575.944	573.319	304.382	223.827	0.489277	-6.19081	0.00052591	-0.0218148	22.7835
85	0.00435433	0.0194134	0.017628	0.0468104	0.00170604	0.0331071	0.0252213	-0.0299953	0.00373453	0.00272978	-0.0944327	-0.0365611	0.0490547	-0.00139516	0.0220542	-2.22561	0.0279417	-1.52341	0	0	0	0	-0	0	0	0	-0.1265	0	-0	0	0	0	0	0	-0	0	0.105	0.015	0	0	-0	0	0	0.098	0.1	0	-0	0	0	0	0	0	-0	0	0.05595	0	0	0	-0	0	0	0	0	0	-0	0	575.936	573.326	304.262	223.873	0.491569	-6.21433	0.000428531	-0.0218773	22.88
86	0.00646006	0.0194172	0.0176252	0.0468155	0.00170087	0.0331074	0.0252208	-0.0299956	0.00373445	-0.00075502	-0.0962962	-0.0354478	0.0490068	-0.00139517	0.0221577	-2.22353	0.0279009	-1.5233	0	0	0	0	-0	0	0	0	-0.1265	0	-0	0	0	0	0	0	-0	0	0.105	0.015	0	0	-0	0	0	0.098	0.1	0	-0	0	0	0	0	0	-0	0	0.05595	0	0	0	-0	0	0	0	0	0	-0	0	575.931	573.329	304.211	223.891	0.492837	-6.22505	0.000373543	-0.0219024	22.919
87	0.00815687	0.0194208	0.0176211	0.0468237	0.001697	0.033107	0.0252197	-0.0299968	0.00373508	0.0127564	-0.101644	-0.035982	0.0489695	-0.00139506	0.0222398	-2.22189	0.0279391	-1.52312	0	0	0	0	-0	0	0	0	-0.1265	0	-0	0	0	0	0	0	-0	0	0.105	0.015	0	0	-0	0	0	0.098	0.1	0	-0	0	0	0	0	0	-0	0	0.05595	0	0	0	-0	0	0	0	0	0	-0	0	575.923	573.333	304.109	223.928	0.494707	-6.24489	0.00030405	-0.0219556	23.0001
88	0.0150072	0.0194287	0.0176147	0.0468299	0.00169094	0.0331057	0.02522	-0.0299972	0.00373475	0.00191987	-0.10117	-0.0396929	0.0488174	-0.00139487	0.0225748	-2.21512	0.0277845	-1.52275	0	0	0	0	-0	0	0	0	-0.1265	0	-0	0	0	0	0	0	-0	0	0.105	0.015	0	0	-0	0	0	0.098	0.1	0	-0	0	0	0	0	0	-0	0	0.05595	0	0	0	-0	0	0	0	0	0	-0	0	575.915	573.335	303.957	223.981	0.497357	-6.27459	0.000229255	-0.0220361	23.1218
89	0.0163821	0.0194407	0.0176115	0.0468088	0.00168674	0.033107	0.0252206	-0.0299959	0.00373333	-0.00146875	-0.107665	-0.0371817	0.0487854	-0.00139361	0.0226422	-2.21379	0.0277988	-1.52263	0	0	0	0	-0	0	0	0	-0.1265	0	-0	0	0	0	0	0	-0	0	0.105	0.015	0	0	-0	0	0	0.098	0.1	0	-0	0	0	0	0	0	-0	0	0.05595	0	0	0	-0	0	0	0	0	0	-0	0	575.907	573.339	303.879	224.006	0.499142	-6.2909	0.000168734	-0.0220704	23.1808
90	0.0200876	0.0194336	0.0176077	0.046823	0.00169033	0.0331113	0.0252202	-0.0299954	0.00373464	-0.00447729	-0.110562	-0.0393205	0.0487017	-0.00139341	0.0228217	-2.21012	0.0276949	-1.52245	0	0	0	0	-0	0	0	0	-0.1265	0	-0	0	0	0	0	0	-0	0	0.105	0.015	0	0	-0	0	0	0.098	0.1	0	-0	0	0	0	0	0	-0	0	0.05595	0	0	0	-0	0	0	0	0	0	-0	0	575.898	573.342	303.819	224.026	0.500677	-6.30325	7.76813e-05	-0.0220978	23.2269
91	0.0127791	0.0194374	0.0176028	0.0468337	0.00168446	0.0331114	0.0252206	-0.0299948	0.00373523	-0.00524854	-0.118565	-0.0380608	0.0488692	-0.00139345	0.0224639	-2.21748	0.0282063	-1.52248	0	0	0	0	-0	0	0	0	-0.1265	0	-0	0	0	0	0	0	-0	0	0.105	0.015	0	0	-0	0	0	0.098	0.1	0	-0	0	0	0	0	0	-0	0	0.05595	0	0	0	-0	0	0	0	0	0	-0	0	575.885	573.343	303.681	224.07	0.503153	-6.33035	-8.46684e-06	-0.0221691	23.3382
92	0.0168777	0.0194462	0.0175971	0.0468306	0.00167777	0.0331127	0.0252212	-0.0299967	0.003736	-0.0102326	-0.115766	-0.0259122	0.0487774	-0.00139272	0.0226622	-2.21349	0.0282365	-1.52212	0	0	0	0	-0	0	0	0	-0.1265	0	-0	0	0	0	0	0	-0	0	0.105	0.015	0	0	-0	0	0	0.098	0.1	0	-0	0	0	0	0	0	-0	0	0.05595	0	0	0	-0	0	0	0	0	0	-0	0	575.868	573.34	303.48	224.134	0.506821	-6.37069	-0.000114161	-0.0222703	23.5017
93	0.0111569	0.0194355	0.0175892	0.046853	0.00168628	0.033123	0.0252209	-0.0299942	0.00373804	-0.0191732	-0.100237	-0.0239648	0.0489068	-0.00139239	0.0223817	-2.21924	0.0286374	-1.52214	0	0	0	0	-0	0	0	0	-0.1265	0	-0	0	0	0	0	0	-0	0	0.105	0.015	0	0	-0	0	0	0.098	0.1	0	-0	0	0	0	0	0	-0	0	0.05595	0	0	0	-0	0	0	0	0	0	-0	0	575.849	573.345	303.38	224.164	0.509768	-6.39361	-0.000280017	-0.0223179	23.5817
94	0.0193848	0.0194375	0.0175849	0.0468659	0.00167877	0.0331246	0.0252199	-0.0299945	0.00373728	-0.0156439	-0.103605	-0.018683	0.0487224	-0.00139269	0.0227824	-2.21106	0.0283677	-1.52177	0	0	0	0	-0	0	0	0	-0.1265	0	-0	0	0	0	0	0	-0	0	0.105	0.015	0	0	-0	0	0	0.098	0.1	0	-0	0	0	0	0	0	-0	0	0.05595	0	0	0	-0	0	0	0	0	0	-0	0	575.833	573.344	303.269	224.195	0.512106	-6.41585	-0.000380104	-0.0223753	23.6677
95	0.0145932	0.0194591	0.017583	0.0468395	0.00166517	0.0331209	0.0252199	-0.0299952	0.0037353	-0.0150255	-0.100531	-0.010497	0.0488303	-0.00139159	0.0225491	-2.21589	0.0286881	-1.52183	0	0	0	0	-0	0	0	0	-0.1265	0	-0	0	0	0	0	0	-0	0	0.105	0.015	0	0	-0	0	0	0.098	0.1	0	-0	0	0	0	0	0	-0	0	0.05595	0	0	0	-0	0	0	0	0	0	-0	0	575.822	573.344	303.182	224.217	0.513812	-6.43305	-0.000418178	-0.022418	23.7309
96	0.0123767	0.0194599	0.0175756	0.0468527	0.00166428	0.0331226	0.0252208	-0.0299962	0.00373647	-0.0235389	-0.10911	-0.0125965	0.0488813	-0.00139105	0.0224383	-2.21817	0.0290092	-1.52166	0	0	0	0	-0	0	0	0	-0.1265	0	-0	0	0	0	0	0	-0	0	0.105	0.015	0	0	-0	0	0	0.098	0.1	0	-0	0	0	0	0	0	-0	0	0.05595	0	0	0	-0	0	0	0	0	0	-0	0	575.8	573.336	302.998	224.267	0.517361	-6.47005	-0.000541749	-0.0225135	23.8773
97	0.00872326	0.019452	0.0175693	0.0468653	0.00167165	0.0331309	0.0252194	-0.0299944	0.00373726	-0.0244353	-0.105641	-0.0165707	0.0489637	-0.00139045	0.0222583	-2.22185	0.0293005	-1.52164	0	0	0	0	-0	0	0	0	-0.1265	0	-0	0	0	0	0	0	-0	0	0.105	0.015	0	0	-0	0	0	0.098	0.1	0	-0	0	0	0	0	0	-0	0	0.05595	0	0	0	-0	0	0	0	0	0	-0	0	575.78	573.337	302.906	224.29	0.519992	-6.49042	-0.000686152	-0.0225564	23.947
98	0.00901626	0.0194604	0.0175671	0.0468665	0.00166095	0.0331284	0.0252187	-0.0299939	0.00373729	-0.0265643	-0.103651	-0.0122682	0.0489561	-0.00139067	0.0222732	-2.22157	0.029331	-1.52159	0	0	0	0	-0	0	0	0	-0.1265	0	-0	0	0	0	0	0	-0	0	0.105	0.015	0	0	-0	0	0	0.098	0.1	0	-0	0	0	0	0	0	-0	0	0.05595	0	0	0	-0	0	0	0	0	0	-0	0	575.774	573.336	302.866	224.299	0.520992	-6.4989	-0.000722632	-0.0225792	23.9764
99	0.0146501	0.0194633	0.0175641	0.0468793	0.00165481	0.033127	0.0252184	-0.0299935	0.00373836	-0.0297979	-0.0995238	-0.00837582	0.0488307	-0.00139095	0.0225484	-2.21596	0.0291483	-1.52133	0	0	0	0	-0	0	0	0	-0.1265	0	-0	0	0	0	0	0	-0	0	0.105	0.015	0	0	-0	0	0	0.098	0.1	0	-0	0	0	0	0	0	-0	0	0.05595	0	0	0	-0	0	0	0	0	0	-0	0	575.763	573.333	302.785	224.316	0.522571	-6.51423	-0.000783088	-0.0226244	24.0351
100	0.0128998	0.0194707	0.0175609	0.0468815	0.00164715	0.0331263	0.0252184	-0.0299933	0.00373811	-0.0303051	-0.104836	-0.0102899	0.0488699	-0.00139083	0.0224623	-2.21775	0.0293704	-1.52124	0	0	0	0	-0	0	0	0	-0.1265	0	-0	0	0	0	0	0	-0	0	0.105	0.015	0	0	-0	0	0	0.098	0.1	0	-0	0	0	0	0	0	-0	0	0.05595	0	0	0	-0	0	0	0	0	0	-0	0	575.751	573.327	302.666	224.342	0.524781	-6.53732	-0.000848238	-0.0226879	24.1249
