Stefan210/kinematic_calibration/src/kinematic_calibration/validation/experiments/experiments/impact_noise/outlier/larm_randomize_14_measurements_rk_false/optimization_intermediate_results.csv
iteration	HeadPitch_offset	HeadYaw_offset	LElbowRoll_offset	LElbowYaw_offset	LShoulderPitch_offset	LShoulderRoll_offset	marker_transform_larm_tx	marker_transform_larm_ty	marker_transform_larm_tz	marker_transform_larm_rr	marker_transform_larm_rp	marker_transform_larm_ry	camera_transform_tx	camera_transform_ty	camera_transform_tz	camera_transform_rr	camera_transform_rp	camera_transform_ry	HeadPitch_transform_tx	HeadPitch_transform_ty	HeadPitch_transform_tz	HeadPitch_transform_rr	HeadPitch_transform_rp	HeadPitch_transform_ry	HeadYaw_transform_tx	HeadYaw_transform_ty	HeadYaw_transform_tz	HeadYaw_transform_rr	HeadYaw_transform_rp	HeadYaw_transform_ry	LElbowRoll_transform_tx	LElbowRoll_transform_ty	LElbowRoll_transform_tz	LElbowRoll_transform_rr	LElbowRoll_transform_rp	LElbowRoll_transform_ry	LElbowYaw_transform_tx	LElbowYaw_transform_ty	LElbowYaw_transform_tz	LElbowYaw_transform_rr	LElbowYaw_transform_rp	LElbowYaw_transform_ry	LShoulderPitch_transform_tx	LShoulderPitch_transform_ty	LShoulderPitch_transform_tz	LShoulderPitch_transform_rr	LShoulderPitch_transform_rp	LShoulderPitch_transform_ry	LShoulderRoll_transform_tx	LShoulderRoll_transform_ty	LShoulderRoll_transform_tz	LShoulderRoll_transform_rr	LShoulderRoll_transform_rp	LShoulderRoll_transform_ry	LWristYaw_transform_tx	LWristYaw_transform_ty	LWristYaw_transform_tz	LWristYaw_transform_rr	LWristYaw_transform_rp	LWristYaw_transform_ry	l_wrist_joint_transform_tx	l_wrist_joint_transform_ty	l_wrist_joint_transform_tz	l_wrist_joint_transform_rr	l_wrist_joint_transform_rp	l_wrist_joint_transform_ry	camera_fx	camera_fy	camera_cx	camera_cy	camera_D0	camera_D1	camera_D2	camera_D3	camera_D4	
0	0.0249164	-0.0307543	0.000853157	4.65819e-06	-0.000318322	-0.00310766	0.05071	0	0.01774	-2.26369	1.66533e-16	-1.5708	545.901	551.038	324.928	201.58	0.0255298	2.61142	-0.0636736	-0.0350419	0.213964
1	-0.015165	0.00846805	0.0947277	0.00895575	0.107866	-0.0866227	0.0328471	-0.0360491	0.00319763	-0.000264024	-0.000524394	-0.00266166	0.0302142	-0.00787857	0.0228225	-2.2039	-0.0290895	-1.67631	0	0	0	0	-0	0	0	0	-0.1265	0	-0	0	0	0	0	0	-0	0	0.105	0.015	0	0	-0	0	0	0.098	0.1	0	-0	0	0	0	0	0	-0	0	0.05595	0	0	0	-0	0	0	0	0	0	-0	0	545.902	551.037	324.928	201.579	0.0553466	2.62656	0.0674494	-0.0210061	0.21726
2	-0.0162988	0.123618	0.0614181	0.0415354	0.0532677	-0.0439715	0.0311135	-0.0358937	0.0081187	-0.000960499	-0.00118957	-0.00289402	0.0222412	0.00490642	0.0382215	-2.18926	-0.100852	-1.8144	0	0	0	0	-0	0	0	0	-0.1265	0	-0	0	0	0	0	0	-0	0	0.105	0.015	0	0	-0	0	0	0.098	0.1	0	-0	0	0	0	0	0	-0	0	0.05595	0	0	0	-0	0	0	0	0	0	-0	0	545.903	551.036	324.928	201.579	-0.011456	2.61461	0.177629	0.0236602	0.214598
3	-0.0148682	0.190351	0.0671796	0.10896	0.051906	-0.0380109	0.0317074	-0.0361086	0.0154735	-0.0019969	-0.00208566	-0.00284392	0.0247659	0.00970038	0.0397325	-2.1862	-0.130617	-1.89881	0	0	0	0	-0	0	0	0	-0.1265	0	-0	0	0	0	0	0	-0	0	0.105	0.015	0	0	-0	0	0	0.098	0.1	0	-0	0	0	0	0	0	-0	0	0.05595	0	0	0	-0	0	0	0	0	0	-0	0	545.905	551.034	324.928	201.582	-0.115413	2.59847	0.213065	0.0511606	0.211927
4	-0.0201772	0.300777	0.0191128	0.169358	0.018635	0.00175348	0.0285792	-0.0347841	0.0222098	-0.00302912	-0.0031284	-0.00316367	0.028343	0.0247835	0.038026	-2.13067	-0.202932	-2.05045	0	0	0	0	-0	0	0	0	-0.1265	0	-0	0	0	0	0	0	-0	0	0.105	0.015	0	0	-0	0	0	0.098	0.1	0	-0	0	0	0	0	0	-0	0	0.05595	0	0	0	-0	0	0	0	0	0	-0	0	545.912	551.026	324.928	201.592	-0.453943	2.54414	0.275074	0.0810072	0.203646
5	-0.0199254	0.36691	-0.00757192	0.272258	0.0231181	0.0259846	0.0262773	-0.033584	0.0330986	-0.00450405	-0.00432038	-0.00333808	0.0389546	0.0294893	0.0309362	-2.10314	-0.247135	-2.14487	0	0	0	0	-0	0	0	0	-0.1265	0	-0	0	0	0	0	0	-0	0	0.105	0.015	0	0	-0	0	0	0.098	0.1	0	-0	0	0	0	0	0	-0	0	0.05595	0	0	0	-0	0	0	0	0	0	-0	0	545.937	551	324.927	201.634	-1.36597	2.40797	0.337535	0.0296178	0.184326
6	-0.0239352	0.477177	-0.0625692	0.300312	0.0141283	0.0717657	0.0228407	-0.0317281	0.0364062	-0.00517355	-0.00511701	-0.00358649	0.0538969	0.036926	0.0185562	-2.02741	-0.308203	-2.32233	0	0	0	0	-0	0	0	0	-0.1265	0	-0	0	0	0	0	0	-0	0	0.105	0.015	0	0	-0	0	0	0.098	0.1	0	-0	0	0	0	0	0	-0	0	0.05595	0	0	0	-0	0	0	0	0	0	-0	0	545.941	550.995	324.928	201.645	-1.60722	2.37238	0.316342	0.0584446	0.179145
7	-0.0232558	0.49705	-0.07084	0.372843	0.021343	0.070621	0.020612	-0.0308661	0.0434648	-0.00620373	-0.00609498	-0.00377252	0.0601046	0.0296776	0.0129208	-2.01472	-0.322258	-2.35187	0	0	0	0	-0	0	0	0	-0.1265	0	-0	0	0	0	0	0	-0	0	0.105	0.015	0	0	-0	0	0	0.098	0.1	0	-0	0	0	0	0	0	-0	0	0.05595	0	0	0	-0	0	0	0	0	0	-0	0	545.949	550.98	324.93	201.674	-2.2487	2.27324	0.344121	0.00181625	0.163443
8	-0.023094	0.560236	-0.107635	0.33229	0.0171297	0.0880734	0.020073	-0.0303595	0.0397103	-0.00578735	-0.00577775	-0.003784	0.0699411	0.0299843	0.00385267	-1.96602	-0.361555	-2.45721	0	0	0	0	-0	0	0	0	-0.1265	0	-0	0	0	0	0	0	-0	0	0.105	0.015	0	0	-0	0	0	0.098	0.1	0	-0	0	0	0	0	0	-0	0	0.05595	0	0	0	-0	0	0	0	0	0	-0	0	545.981	550.931	324.923	201.772	-3.10014	2.15078	0.43223	-0.0692696	0.140194
9	-0.0197519	0.533531	-0.0950876	0.350661	0.0457319	0.0635416	0.0194016	-0.0301682	0.041762	-0.00625325	-0.00619863	-0.0038303	0.0705334	0.0253253	0.000332274	-1.98576	-0.364059	-2.4285	0	0	0	0	-0	0	0	0	-0.1265	0	-0	0	0	0	0	0	-0	0	0.105	0.015	0	0	-0	0	0	0.098	0.1	0	-0	0	0	0	0	0	-0	0	0.05595	0	0	0	-0	0	0	0	0	0	-0	0	546.043	550.828	324.906	202.03	-3.71638	2.31191	0.481912	-0.126317	0.189934
10	-0.0178752	0.577559	-0.128572	0.302765	0.0532433	0.0728303	0.019348	-0.0298085	0.0370787	-0.0055187	-0.00630597	-0.00466694	0.0762044	0.0262255	-0.00557666	-1.95392	-0.392058	-2.50595	0	0	0	0	-0	0	0	0	-0.1265	0	-0	0	0	0	0	0	-0	0	0.105	0.015	0	0	-0	0	0	0.098	0.1	0	-0	0	0	0	0	0	-0	0	0.05595	0	0	0	-0	0	0	0	0	0	-0	0	546.25	550.526	324.821	202.917	-3.94217	2.92063	0.497609	-0.137833	0.337216
11	-0.0173339	0.550232	-0.115404	0.33245	0.0588322	0.0578713	0.0186643	-0.0294415	0.0393738	-0.0051257	-0.00858547	-0.00600269	0.0744506	0.0206811	-0.00610519	-1.98136	-0.377148	-2.45097	0	0	0	0	-0	0	0	0	-0.1265	0	-0	0	0	0	0	0	-0	0	0.105	0.015	0	0	-0	0	0	0.098	0.1	0	-0	0	0	0	0	0	-0	0	0.05595	0	0	0	-0	0	0	0	0	0	-0	0	546.484	550.1	324.634	204.289	-4.3003	3.97147	0.498577	-0.14925	0.514463
12	-0.0173352	0.596698	-0.146859	0.28614	0.0565433	0.069257	0.0187066	-0.0291031	0.0348612	-0.00428643	-0.00852103	-0.00934004	0.0791371	0.0220984	-0.0102314	-1.94687	-0.405001	-2.53109	0	0	0	0	-0	0	0	0	-0.1265	0	-0	0	0	0	0	0	-0	0	0.105	0.015	0	0	-0	0	0	0.098	0.1	0	-0	0	0	0	0	0	-0	0	0.05595	0	0	0	-0	0	0	0	0	0	-0	0	546.881	549.456	324.24	206.398	-4.37028	4.53246	0.497017	-0.14367	0.398377
13	-0.0157491	0.56158	-0.126455	0.326275	0.0571359	0.0546615	0.0180988	-0.0289486	0.0381098	-0.00497164	-0.0117057	-0.00776096	0.076019	0.0176503	-0.00894127	-1.98139	-0.38142	-2.45923	0	0	0	0	-0	0	0	0	-0.1265	0	-0	0	0	0	0	0	-0	0	0.105	0.015	0	0	-0	0	0	0.098	0.1	0	-0	0	0	0	0	0	-0	0	0.05595	0	0	0	-0	0	0	0	0	0	-0	0	547.328	548.556	323.509	209.419	-4.5799	5.2823	0.489764	-0.146914	-0.0253133
14	-0.0158178	0.614529	-0.159726	0.277665	0.0528331	0.0713424	0.0182513	-0.0286263	0.033685	0.000497816	-0.0124158	-0.0126807	0.0805617	0.0199844	-0.0120847	-1.94646	-0.40851	-2.54964	0	0	0	0	-0	0	0	0	-0.1265	0	-0	0	0	0	0	0	-0	0	0.105	0.015	0	0	-0	0	0	0.098	0.1	0	-0	0	0	0	0	0	-0	0	0.05595	0	0	0	-0	0	0	0	0	0	-0	0	548.123	547.162	322.286	213.984	-4.55518	5.65173	0.48902	-0.138841	-0.825892
15	-0.0171673	0.572062	-0.133208	0.329552	0.0538279	0.056143	0.0176176	-0.0287182	0.0380355	0.00176128	-0.0137911	-0.0194723	0.0766559	0.0159837	-0.0104177	-1.99241	-0.381261	-2.46346	0	0	0	0	-0	0	0	0	-0.1265	0	-0	0	0	0	0	0	-0	0	0.105	0.015	0	0	-0	0	0	0.098	0.1	0	-0	0	0	0	0	0	-0	0	0.05595	0	0	0	-0	0	0	0	0	0	-0	0	548.973	545.234	320.493	220.354	-4.70678	6.45624	0.474655	-0.138018	-2.12981
16	-0.0187026	0.633759	-0.170115	0.281069	0.0485183	0.077925	0.0176738	-0.0284422	0.0337652	0.00291102	-0.0170843	-0.0138347	0.0816257	0.0178497	-0.0140292	-1.95908	-0.408129	-2.56408	0	0	0	0	-0	0	0	0	-0.1265	0	-0	0	0	0	0	0	-0	0	0.105	0.015	0	0	-0	0	0	0.098	0.1	0	-0	0	0	0	0	0	-0	0	0.05595	0	0	0	-0	0	0	0	0	0	-0	0	550.492	542.25	317.743	229.735	-4.64964	7.11523	0.463952	-0.121149	-3.71828
17	-0.00431421	0.595786	-0.144858	0.338862	0.0465813	0.0659707	0.0168008	-0.0286535	0.0386375	0.0239579	-0.0213432	-0.0124904	0.078111	0.0133859	-0.0110294	-2.00318	-0.364438	-2.4824	0	0	0	0	-0	0	0	0	-0.1265	0	-0	0	0	0	0	0	-0	0	0.105	0.015	0	0	-0	0	0	0.098	0.1	0	-0	0	0	0	0	0	-0	0	0.05595	0	0	0	-0	0	0	0	0	0	-0	0	551.859	538.266	314.164	241.98	-4.73233	8.14619	0.43603	-0.110753	-6.20357
18	0.0123634	0.661105	-0.182076	0.300235	0.0405601	0.0891001	0.0164014	-0.0285122	0.0353132	-0.00312086	0.0132714	-0.00560645	0.0831291	0.0141594	-0.0137581	-1.96755	-0.37184	-2.58574	0	0	0	0	-0	0	0	0	-0.1265	0	-0	0	0	0	0	0	-0	0	0.105	0.015	0	0	-0	0	0	0.098	0.1	0	-0	0	0	0	0	0	-0	0	0.05595	0	0	0	-0	0	0	0	0	0	-0	0	554.035	532.422	309.21	258.595	-4.58295	9.02877	0.408804	-0.0800008	-8.81453
19	0.0278415	0.632281	-0.163564	0.358387	0.034121	0.0854728	0.0155772	-0.0284716	0.0402589	-0.0319506	0.0372609	-0.00132486	0.0802922	0.00975347	-0.0105599	-2.01803	-0.32534	-2.5119	0	0	0	0	-0	0	0	0	-0.1265	0	-0	0	0	0	0	0	-0	0	0.105	0.015	0	0	-0	0	0	0.098	0.1	0	-0	0	0	0	0	0	-0	0	0.05595	0	0	0	-0	0	0	0	0	0	-0	0	554.338	525.837	303.98	276.956	-4.35109	9.52414	0.358774	-0.0563583	-13.4222
20	0.110641	0.677874	-0.186939	0.346739	0.0320028	0.103653	0.0147524	-0.0292707	0.0396928	-0.145507	0.0195174	-0.0307124	0.0858656	0.00733583	-0.00950667	-1.98057	-0.267766	-2.59552	0	0	0	0	-0	0	0	0	-0.1265	0	-0	0	0	0	0	0	-0	0	0.105	0.015	0	0	-0	0	0	0.098	0.1	0	-0	0	0	0	0	0	-0	0	0.05595	0	0	0	-0	0	0	0	0	0	-0	0	548.802	517.043	297.042	308.129	-3.84607	11.0454	0.253665	-0.00643716	-20.35
21	0.162667	0.625773	-0.162542	0.39779	0.0177713	0.11448	0.014776	-0.0297385	0.0443005	-0.209253	0.085646	-0.117928	0.081151	0.00824525	0.00102079	-2.04266	-0.184313	-2.49208	0	0	0	0	-0	0	0	0	-0.1265	0	-0	0	0	0	0	0	-0	0	0.105	0.015	0	0	-0	0	0	0.098	0.1	0	-0	0	0	0	0	0	-0	0	0.05595	0	0	0	-0	0	0	0	0	0	-0	0	520.871	519.667	293.875	335.19	-2.14392	4.7986	0.163585	0.011703	-23.2135
22	0.17531	0.654912	-0.164204	0.408958	0.0143356	0.122896	0.0140994	-0.0303868	0.0455313	-0.176938	0.0672492	-0.0497093	0.0853334	0.00382329	-0.00328291	-2.07032	-0.208225	-2.54924	0	0	0	0	-0	0	0	0	-0.1265	0	-0	0	0	0	0	0	-0	0	0.105	0.015	0	0	-0	0	0	0.098	0.1	0	-0	0	0	0	0	0	-0	0	0.05595	0	0	0	-0	0	0	0	0	0	-0	0	502.413	520.209	299.01	372.645	-1.81726	5.7322	0.0642945	-0.00207328	-18.702
23	0.132045	0.672232	-0.182589	0.439331	-0.00188004	0.138511	0.0132114	-0.0300611	0.0475593	-0.135212	0.128602	-0.0217194	0.0812422	0.00746154	-0.00281377	-2.1171	-0.239189	-2.52942	0	0	0	0	-0	0	0	0	-0.1265	0	-0	0	0	0	0	0	-0	0	0.105	0.015	0	0	-0	0	0	0.098	0.1	0	-0	0	0	0	0	0	-0	0	0.05595	0	0	0	-0	0	0	0	0	0	-0	0	490.014	520.745	293.202	384.984	-0.0304511	-3.30582	0.111742	0.0295856	-11.6529
24	0.127794	0.686111	-0.182785	0.427483	0.00331315	0.146594	0.0130086	-0.0303529	0.0468675	-0.13744	0.121792	-0.0267994	0.084591	0.0049148	-0.00664242	-2.10873	-0.254387	-2.55722	0	0	0	0	-0	0	0	0	-0.1265	0	-0	0	0	0	0	0	-0	0	0.105	0.015	0	0	-0	0	0	0.098	0.1	0	-0	0	0	0	0	0	-0	0	0.05595	0	0	0	-0	0	0	0	0	0	-0	0	487.521	520.827	293.863	387.647	-0.431576	-0.601985	0.13544	0.0237176	-9.66172
25	0.134513	0.67695	-0.183419	0.434755	0.00247418	0.147603	0.0128407	-0.0303003	0.0474091	-0.129598	0.092548	-0.0299517	0.0841205	0.0053977	-0.00527161	-2.12475	-0.246269	-2.54163	0	0	0	0	-0	0	0	0	-0.1265	0	-0	0	0	0	0	0	-0	0	0.105	0.015	0	0	-0	0	0	0.098	0.1	0	-0	0	0	0	0	0	-0	0	0.05595	0	0	0	-0	0	0	0	0	0	-0	0	482.079	521.065	292.851	394.149	-0.145443	-2.2482	0.126108	0.0299603	-7.23651
26	0.120917	0.677463	-0.185027	0.432412	0.00584812	0.147899	0.0127773	-0.0302797	0.04731	-0.0967781	0.127739	0.00751898	0.0850544	0.00478656	-0.0077258	-2.15902	-0.264499	-2.54398	0	0	0	0	-0	0	0	0	-0.1265	0	-0	0	0	0	0	0	-0	0	0.105	0.015	0	0	-0	0	0	0.098	0.1	0	-0	0	0	0	0	0	-0	0	0.05595	0	0	0	-0	0	0	0	0	0	-0	0	468.224	520.207	293.406	409.931	0.0661365	-3.52771	0.100799	0.0245225	-0.741413
27	0.153915	0.676191	-0.184199	0.429991	0.00676323	0.151094	0.0128835	-0.0301416	0.0475375	-0.0762336	0.222928	0.0107698	0.0854562	0.00472987	-0.0048829	-2.16643	-0.242257	-2.54761	0	0	0	0	-0	0	0	0	-0.1265	0	-0	0	0	0	0	0	-0	0	0.105	0.015	0	0	-0	0	0	0.098	0.1	0	-0	0	0	0	0	0	-0	0	0.05595	0	0	0	-0	0	0	0	0	0	-0	0	449.687	515.79	296.414	424.379	0.671697	-5.84122	0.104442	0.0155089	2.65865
28	0.186678	0.666179	-0.182657	0.429142	0.0125938	0.152119	0.0127928	-0.0301579	0.047696	-0.0919578	0.0857791	0.00429104	0.0857226	0.00545778	-0.00258824	-2.16949	-0.218169	-2.54328	0	0	0	0	-0	0	0	0	-0.1265	0	-0	0	0	0	0	0	-0	0	0.105	0.015	0	0	-0	0	0	0.098	0.1	0	-0	0	0	0	0	0	-0	0	0.05595	0	0	0	-0	0	0	0	0	0	-0	0	433.52	510.198	298.865	434.748	1.03584	-6.77955	0.108229	0.00606276	4.38566
29	0.261276	0.653869	-0.179834	0.425951	0.0171839	0.154004	0.0129427	-0.0301647	0.0473067	-0.124869	0.11007	0.0590829	0.0865341	0.00539423	0.00338312	-2.16277	-0.158816	-2.54128	0	0	0	0	-0	0	0	0	-0.1265	0	-0	0	0	0	0	0	-0	0	0.105	0.015	0	0	-0	0	0	0.098	0.1	0	-0	0	0	0	0	0	-0	0	0.05595	0	0	0	-0	0	0	0	0	0	-0	0	409.281	492.474	301.108	450.303	1.33913	-6.92285	0.098111	-0.000499238	4.81501
30	0.360236	0.644965	-0.176282	0.420811	0.0221836	0.154322	0.0129486	-0.0301459	0.0474718	-0.244676	0.18811	-0.000461828	0.0866434	0.00546849	0.0113047	-2.12506	-0.0797868	-2.5438	0	0	0	0	-0	0	0	0	-0.1265	0	-0	0	0	0	0	0	-0	0	0.105	0.015	0	0	-0	0	0	0.098	0.1	0	-0	0	0	0	0	0	-0	0	0.05595	0	0	0	-0	0	0	0	0	0	-0	0	393.895	478.534	303.265	458.08	1.50129	-6.73729	0.101872	-0.00619837	4.48813
31	0.297292	0.624401	-0.174046	0.42512	0.0256087	0.155251	0.0135257	-0.0303526	0.0477832	-0.16669	0.315291	0.0132706	0.0862603	0.00679239	0.0060941	-2.17748	-0.129195	-2.51261	0	0	0	0	-0	0	0	0	-0.1265	0	-0	0	0	0	0	0	-0	0	0.105	0.015	0	0	-0	0	0	0.098	0.1	0	-0	0	0	0	0	0	-0	0	0.05595	0	0	0	-0	0	0	0	0	0	-0	0	383.934	467.793	303.134	462.908	1.75324	-7.3137	0.104739	-0.00511741	4.96889
32	0.300196	0.604604	-0.169811	0.424225	0.0295196	0.15556	0.0144642	-0.0301468	0.0479122	-0.192332	0.552915	-0.233614	0.0870622	0.00632242	0.00551924	-2.20717	-0.122233	-2.49451	0	0	0	0	-0	0	0	0	-0.1265	0	-0	0	0	0	0	0	-0	0	0.105	0.015	0	0	-0	0	0	0.098	0.1	0	-0	0	0	0	0	0	-0	0	0.05595	0	0	0	-0	0	0	0	0	0	-0	0	367.799	444.326	302.532	473.209	1.49452	-5.27427	0.0822722	-0.00393754	2.82297
33	0.222917	0.589081	-0.167779	0.427619	0.032951	0.154286	0.0135387	-0.0310415	0.0487139	0.027531	0.510994	-0.104967	0.0876043	0.00649724	-0.00113944	-2.27786	-0.181802	-2.46813	0	0	0	0	-0	0	0	0	-0.1265	0	-0	0	0	0	0	0	-0	0	0.105	0.015	0	0	-0	0	0	0.098	0.1	0	-0	0	0	0	0	0	-0	0	0.05595	0	0	0	-0	0	0	0	0	0	-0	0	359.6	432.609	301.759	477.977	1.44368	-4.85199	0.0786913	-0.000879813	2.61448
34	0.162407	0.551382	-0.160232	0.431687	0.0404894	0.152521	0.0145496	-0.0313011	0.0489067	0.145922	0.589252	-0.0887131	0.0870838	0.0078455	-0.00729726	-2.35281	-0.218213	-2.41813	0	0	0	0	-0	0	0	0	-0.1265	0	-0	0	0	0	0	0	-0	0	0.105	0.015	0	0	-0	0	0	0.098	0.1	0	-0	0	0	0	0	0	-0	0	0.05595	0	0	0	-0	0	0	0	0	0	-0	0	345.124	406.73	299.24	487.007	1.46081	-4.43051	0.0612102	0.00366375	2.23125
35	0.195782	0.516785	-0.158542	0.435004	0.0455763	0.153401	0.0145719	-0.0316479	0.0490787	0.227429	0.54197	0.00867603	0.0868909	0.008863	-0.00471942	-2.35908	-0.182457	-2.38377	0	0	0	0	-0	0	0	0	-0.1265	0	-0	0	0	0	0	0	-0	0	0.105	0.015	0	0	-0	0	0	0.098	0.1	0	-0	0	0	0	0	0	-0	0	0.05595	0	0	0	-0	0	0	0	0	0	-0	0	336.535	394.892	298.2	491.239	1.30167	-3.50932	0.0591383	0.00527626	1.4792
36	0.243094	0.480039	-0.148727	0.436394	0.0578697	0.148535	0.015259	-0.0322653	0.0498809	0.108737	0.54886	-0.0129585	0.0872535	0.0102579	-0.00227256	-2.34187	-0.141807	-2.3524	0	0	0	0	-0	0	0	0	-0.1265	0	-0	0	0	0	0	0	-0	0	0.105	0.015	0	0	-0	0	0	0.098	0.1	0	-0	0	0	0	0	0	-0	0	0.05595	0	0	0	-0	0	0	0	0	0	-0	0	332.732	389.465	295.291	493.885	1.18214	-3.12388	0.0556994	0.0081682	1.30317
37	0.234229	0.438591	-0.152894	0.447218	0.0572605	0.153894	0.0152779	-0.0329276	0.0499007	0.103671	0.555394	-0.0729373	0.0854654	0.0119571	-0.00193387	-2.37435	-0.13447	-2.28745	0	0	0	0	-0	0	0	0	-0.1265	0	-0	0	0	0	0	0	-0	0	0.105	0.015	0	0	-0	0	0	0.098	0.1	0	-0	0	0	0	0	0	-0	0	0.05595	0	0	0	-0	0	0	0	0	0	-0	0	326.579	378.338	292.686	495.939	1.17206	-2.87271	0.0513566	0.0154994	1.04617
38	0.235722	0.3982	-0.128616	0.441729	0.0769353	0.141951	0.0159765	-0.0337979	0.0505902	0.101396	0.541117	-0.0615464	0.0874251	0.012307	-0.00627574	-2.3817	-0.12812	-2.26147	0	0	0	0	-0	0	0	0	-0.1265	0	-0	0	0	0	0	0	-0	0	0.105	0.015	0	0	-0	0	0	0.098	0.1	0	-0	0	0	0	0	0	-0	0	0.05595	0	0	0	-0	0	0	0	0	0	-0	0	325.54	376.908	290.7	497.023	0.590794	-1.19486	0.0481493	0.0118233	0.0803562
39	0.237392	0.399	-0.131467	0.442861	0.0771109	0.142986	0.0158011	-0.034298	0.0507364	0.101492	0.541078	-0.0615515	0.0865695	0.0119792	-0.0046071	-2.39274	-0.126182	-2.2531	0	0	0	0	-0	0	0	0	-0.1265	0	-0	0	0	0	0	0	-0	0	0.105	0.015	0	0	-0	0	0	0.098	0.1	0	-0	0	0	0	0	0	-0	0	0.05595	0	0	0	-0	0	0	0	0	0	-0	0	325.54	376.908	290.7	497.023	0.590055	-1.19538	0.0502331	0.0142052	0.0799964
40	0.237325	0.397636	-0.132472	0.443378	0.0769165	0.143584	0.0163642	-0.034005	0.0509246	0.101387	0.541173	-0.0615113	0.086772	0.0118082	-0.00478552	-2.39422	-0.123851	-2.25303	0	0	0	0	-0	0	0	0	-0.1265	0	-0	0	0	0	0	0	-0	0	0.105	0.015	0	0	-0	0	0	0.098	0.1	0	-0	0	0	0	0	0	-0	0	0.05595	0	0	0	-0	0	0	0	0	0	-0	0	325.54	376.908	290.7	497.023	0.58953	-1.19566	0.0521347	0.0140393	0.0798762
41	0.237692	0.396175	-0.134787	0.444519	0.0763283	0.144944	0.0163337	-0.0341943	0.0508531	0.101443	0.541174	-0.0614989	0.0865191	0.0117698	-0.00435152	-2.3982	-0.121535	-2.2491	0	0	0	0	-0	0	0	0	-0.1265	0	-0	0	0	0	0	0	-0	0	0.105	0.015	0	0	-0	0	0	0.098	0.1	0	-0	0	0	0	0	0	-0	0	0.05595	0	0	0	-0	0	0	0	0	0	-0	0	325.54	376.908	290.7	497.023	0.589365	-1.19579	0.0523847	0.0147341	0.0797872
42	0.237181	0.393433	-0.135825	0.445305	0.0755711	0.145977	0.0165142	-0.0340994	0.050915	0.101409	0.541205	-0.0614861	0.0866675	0.0120027	-0.00461208	-2.39676	-0.119912	-2.24876	0	0	0	0	-0	0	0	0	-0.1265	0	-0	0	0	0	0	0	-0	0	0.105	0.015	0	0	-0	0	0	0.098	0.1	0	-0	0	0	0	0	0	-0	0	0.05595	0	0	0	-0	0	0	0	0	0	-0	0	325.54	376.908	290.7	497.023	0.589227	-1.19582	0.0527903	0.0140798	0.0798017
43	0.237379	0.390473	-0.137727	0.446676	0.0744817	0.147508	0.0165003	-0.0341847	0.0508959	0.101432	0.541204	-0.0614818	0.0865224	0.0121295	-0.00432815	-2.39891	-0.11867	-2.24377	0	0	0	0	-0	0	0	0	-0.1265	0	-0	0	0	0	0	0	-0	0	0.105	0.015	0	0	-0	0	0	0.098	0.1	0	-0	0	0	0	0	0	-0	0	0.05595	0	0	0	-0	0	0	0	0	0	-0	0	325.54	376.908	290.7	497.023	0.589092	-1.19594	0.0526865	0.0144505	0.0796615
44	0.236903	0.386438	-0.137564	0.447611	0.0737055	0.148019	0.0165995	-0.0341529	0.0509652	0.101412	0.541219	-0.0614763	0.0866079	0.0124352	-0.00460198	-2.39689	-0.117979	-2.24161	0	0	0	0	-0	0	0	0	-0.1265	0	-0	0	0	0	0	0	-0	0	0.105	0.015	0	0	-0	0	0	0.098	0.1	0	-0	0	0	0	0	0	-0	0	0.05595	0	0	0	-0	0	0	0	0	0	-0	0	325.54	376.908	290.7	497.023	0.588939	-1.19599	0.0528242	0.0138084	0.0796107
45	0.237312	0.381822	-0.138149	0.449335	0.0730072	0.148717	0.0165825	-0.034235	0.0509936	0.101427	0.541215	-0.0614763	0.086387	0.0125585	-0.00431067	-2.39962	-0.117336	-2.23388	0	0	0	0	-0	0	0	0	-0.1265	0	-0	0	0	0	0	0	-0	0	0.105	0.015	0	0	-0	0	0	0.098	0.1	0	-0	0	0	0	0	0	-0	0	0.05595	0	0	0	-0	0	0	0	0	0	-0	0	325.54	376.908	290.7	497.023	0.588643	-1.19627	0.0526652	0.0144352	0.0792129
46	0.236857	0.376134	-0.135551	0.450268	0.0735791	0.147641	0.0166331	-0.0342686	0.0511193	0.101415	0.541216	-0.0614779	0.0864041	0.012903	-0.00474928	-2.39723	-0.117177	-2.23034	0	0	0	0	-0	0	0	0	-0.1265	0	-0	0	0	0	0	0	-0	0	0.105	0.015	0	0	-0	0	0	0.098	0.1	0	-0	0	0	0	0	0	-0	0	0.05595	0	0	0	-0	0	0	0	0	0	-0	0	325.54	376.908	290.7	497.023	0.588408	-1.1963	0.0527401	0.013822	0.0790774
47	0.237637	0.369542	-0.135145	0.452389	0.0739266	0.147584	0.0165841	-0.034379	0.0511826	0.101432	0.541202	-0.0614832	0.0860498	0.013021	-0.00437125	-2.40174	-0.116659	-2.21882	0	0	0	0	-0	0	0	0	-0.1265	0	-0	0	0	0	0	0	-0	0	0.105	0.015	0	0	-0	0	0	0.098	0.1	0	-0	0	0	0	0	0	-0	0	0.05595	0	0	0	-0	0	0	0	0	0	-0	0	325.54	376.908	290.7	497.023	0.587793	-1.19686	0.0523941	0.0149608	0.0781299
48	0.236968	0.362829	-0.130215	0.452644	0.0762695	0.145075	0.0166183	-0.0344578	0.0513564	0.101423	0.541197	-0.0614877	0.0860955	0.0134513	-0.00512993	-2.39786	-0.116907	-2.21598	0	0	0	0	-0	0	0	0	-0.1265	0	-0	0	0	0	0	0	-0	0	0.105	0.015	0	0	-0	0	0	0.098	0.1	0	-0	0	0	0	0	0	-0	0	0.05595	0	0	0	-0	0	0	0	0	0	-0	0	325.54	376.908	290.7	497.023	0.587479	-1.19639	0.052511	0.0140331	0.0782682
49	0.23792	0.362121	-0.131829	0.453476	0.0760732	0.145871	0.0165359	-0.0345714	0.0513025	0.101459	0.541186	-0.0614876	0.0858001	0.0132701	-0.00449813	-2.4031	-0.116659	-2.21001	0	0	0	0	-0	0	0	0	-0.1265	0	-0	0	0	0	0	0	-0	0	0.105	0.015	0	0	-0	0	0	0.098	0.1	0	-0	0	0	0	0	0	-0	0	0.05595	0	0	0	-0	0	0	0	0	0	-0	0	325.54	376.908	290.7	497.023	0.587329	-1.19655	0.052302	0.015282	0.0780082
50	0.237018	0.359804	-0.129665	0.453094	0.076557	0.144872	0.0166389	-0.0344793	0.0513939	0.101422	0.541199	-0.0614869	0.0860397	0.0135855	-0.00517421	-2.39817	-0.116807	-2.21251	0	0	0	0	-0	0	0	0	-0.1265	0	-0	0	0	0	0	0	-0	0	0.105	0.015	0	0	-0	0	0	0.098	0.1	0	-0	0	0	0	0	0	-0	0	0.05595	0	0	0	-0	0	0	0	0	0	-0	0	325.54	376.908	290.7	497.023	0.58723	-1.19637	0.0524744	0.014087	0.0781193
51	0.238004	0.359277	-0.131251	0.453956	0.0763791	0.145616	0.0165409	-0.0346065	0.0513283	0.101464	0.541186	-0.0614872	0.0857269	0.0133829	-0.00451761	-2.40359	-0.116536	-2.20656	0	0	0	0	-0	0	0	0	-0.1265	0	-0	0	0	0	0	0	-0	0	0.105	0.015	0	0	-0	0	0	0.098	0.1	0	-0	0	0	0	0	0	-0	0	0.05595	0	0	0	-0	0	0	0	0	0	-0	0	325.54	376.908	290.7	497.023	0.587069	-1.19653	0.0522322	0.0154036	0.0778478
52	0.237176	0.358025	-0.129855	0.453581	0.0765143	0.145009	0.016666	-0.0344704	0.0514106	0.101417	0.541203	-0.0614853	0.0859878	0.0136318	-0.00511209	-2.39911	-0.116643	-2.20974	0	0	0	0	-0	0	0	0	-0.1265	0	-0	0	0	0	0	0	-0	0	0.105	0.015	0	0	-0	0	0	0.098	0.1	0	-0	0	0	0	0	0	-0	0	0.05595	0	0	0	-0	0	0	0	0	0	-0	0	325.54	376.908	290.7	497.023	0.587018	-1.19645	0.0524372	0.0142912	0.077908
53	0.237814	0.357923	-0.130686	0.454056	0.0764647	0.145371	0.0165504	-0.0346254	0.0513457	0.101465	0.541187	-0.0614863	0.0857431	0.0134906	-0.00465875	-2.4026	-0.116504	-2.20613	0	0	0	0	-0	0	0	0	-0.1265	0	-0	0	0	0	0	0	-0	0	0.105	0.015	0	0	-0	0	0	0.098	0.1	0	-0	0	0	0	0	0	-0	0	0.05595	0	0	0	-0	0	0	0	0	0	-0	0	325.54	376.908	290.7	497.023	0.586959	-1.19651	0.0521902	0.0151686	0.0777785
54	0.237242	0.356582	-0.129314	0.453797	0.0767537	0.14474	0.0166442	-0.0345214	0.0514219	0.101428	0.541199	-0.061486	0.0859272	0.0136803	-0.00510066	-2.39946	-0.116637	-2.20792	0	0	0	0	-0	0	0	0	-0.1265	0	-0	0	0	0	0	0	-0	0	0.105	0.015	0	0	-0	0	0	0.098	0.1	0	-0	0	0	0	0	0	-0	0	0.05595	0	0	0	-0	0	0	0	0	0	-0	0	325.54	376.908	290.7	497.023	0.586868	-1.19643	0.0523441	0.0144074	0.0778133
55	0.237816	0.356416	-0.130077	0.454244	0.0767345	0.14507	0.0165617	-0.0346293	0.0513727	0.101462	0.541187	-0.0614866	0.0857257	0.0135532	-0.00471349	-2.40259	-0.116505	-2.2046	0	0	0	0	-0	0	0	0	-0.1265	0	-0	0	0	0	0	0	-0	0	0.105	0.015	0	0	-0	0	0	0.098	0.1	0	-0	0	0	0	0	0	-0	0	0.05595	0	0	0	-0	0	0	0	0	0	-0	0	325.54	376.908	290.7	497.023	0.586793	-1.19649	0.0521613	0.0151921	0.0776848
56	0.237316	0.355126	-0.128834	0.454044	0.0770425	0.144489	0.0166352	-0.0345486	0.0514375	0.101432	0.541196	-0.0614868	0.085877	0.0137264	-0.00510244	-2.39985	-0.116612	-2.20601	0	0	0	0	-0	0	0	0	-0.1265	0	-0	0	0	0	0	0	-0	0	0.105	0.015	0	0	-0	0	0	0.098	0.1	0	-0	0	0	0	0	0	-0	0	0.05595	0	0	0	-0	0	0	0	0	0	-0	0	325.54	376.908	290.7	497.023	0.586689	-1.1964	0.0522751	0.0145318	0.0777074
57	0.237839	0.354907	-0.129543	0.454469	0.0770272	0.144801	0.0165672	-0.0346377	0.0513968	0.10146	0.541186	-0.0614875	0.0856999	0.0136138	-0.00475528	-2.4027	-0.116483	-2.20293	0	0	0	0	-0	0	0	0	-0.1265	0	-0	0	0	0	0	0	-0	0	0.105	0.015	0	0	-0	0	0	0.098	0.1	0	-0	0	0	0	0	0	-0	0	0.05595	0	0	0	-0	0	0	0	0	0	-0	0	325.54	376.908	290.7	497.023	0.586601	-1.19646	0.0521173	0.0152374	0.0775777
58	0.23737	0.353665	-0.12833	0.454279	0.0773529	0.14423	0.0166287	-0.0345718	0.0514557	0.101435	0.541194	-0.0614879	0.085834	0.0137791	-0.00512006	-2.40012	-0.116588	-2.20422	0	0	0	0	-0	0	0	0	-0.1265	0	-0	0	0	0	0	0	-0	0	0.105	0.015	0	0	-0	0	0	0.098	0.1	0	-0	0	0	0	0	0	-0	0	0.05595	0	0	0	-0	0	0	0	0	0	-0	0	325.54	376.908	290.7	497.023	0.586483	-1.19636	0.0522068	0.0146202	0.0775967
59	0.237877	0.353427	-0.129038	0.454701	0.0773317	0.144545	0.0165686	-0.0346501	0.0514191	0.10146	0.541185	-0.0614883	0.0856679	0.0136708	-0.00478617	-2.40289	-0.116457	-2.20122	0	0	0	0	-0	0	0	0	-0.1265	0	-0	0	0	0	0	0	-0	0	0.105	0.015	0	0	-0	0	0	0.098	0.1	0	-0	0	0	0	0	0	-0	0	0.05595	0	0	0	-0	0	0	0	0	0	-0	0	325.54	376.908	290.699	497.023	0.58638	-1.19642	0.0520613	0.0152985	0.0774607
60	0.237492	0.352774	-0.128394	0.454543	0.077411	0.144267	0.0166376	-0.0345704	0.0514647	0.101433	0.541195	-0.0614875	0.085798	0.0137891	-0.00507058	-2.40082	-0.116507	-2.20262	0	0	0	0	-0	0	0	0	-0.1265	0	-0	0	0	0	0	0	-0	0	0.105	0.015	0	0	-0	0	0	0.098	0.1	0	-0	0	0	0	0	0	-0	0	0.05595	0	0	0	-0	0	0	0	0	0	-0	0	325.54	376.908	290.699	497.023	0.586325	-1.19638	0.0521658	0.0147832	0.0774708
61	0.237872	0.35217	-0.128851	0.454967	0.0773903	0.144475	0.0165832	-0.0346427	0.0514364	0.101455	0.541187	-0.0614881	0.0856577	0.0137294	-0.00482078	-2.40291	-0.116367	-2.19988	0	0	0	0	-0	0	0	0	-0.1265	0	-0	0	0	0	0	0	-0	0	0.105	0.015	0	0	-0	0	0	0.098	0.1	0	-0	0	0	0	0	0	-0	0	0.05595	0	0	0	-0	0	0	0	0	0	-0	0	325.54	376.908	290.699	497.023	0.586162	-1.19644	0.052002	0.0153086	0.0772891
62	0.237518	0.351576	-0.128163	0.454798	0.0774902	0.144168	0.0166328	-0.0345885	0.0514747	0.101436	0.541193	-0.0614877	0.0857642	0.0138397	-0.00507648	-2.40099	-0.116446	-2.20118	0	0	0	0	-0	0	0	0	-0.1265	0	-0	0	0	0	0	0	-0	0	0.105	0.015	0	0	-0	0	0	0.098	0.1	0	-0	0	0	0	0	0	-0	0	0.05595	0	0	0	-0	0	0	0	0	0	-0	0	325.539	376.908	290.699	497.023	0.586104	-1.19639	0.0520767	0.0148352	0.0772957
63	0.23778	0.351494	-0.12842	0.454982	0.0775111	0.144269	0.0165804	-0.034659	0.0514475	0.101457	0.541186	-0.0614883	0.0856599	0.013783	-0.0048937	-2.4024	-0.116404	-2.19967	0	0	0	0	-0	0	0	0	-0.1265	0	-0	0	0	0	0	0	-0	0	0.105	0.015	0	0	-0	0	0	0.098	0.1	0	-0	0	0	0	0	0	-0	0	0.05595	0	0	0	-0	0	0	0	0	0	-0	0	325.539	376.908	290.699	497.023	0.586054	-1.19641	0.051966	0.0151911	0.0772326
64	0.237564	0.350832	-0.127784	0.454889	0.0777	0.143965	0.0166187	-0.0346158	0.0514824	0.101441	0.54119	-0.0614886	0.0857293	0.0138607	-0.005073	-2.4012	-0.116473	-2.20019	0	0	0	0	-0	0	0	0	-0.1265	0	-0	0	0	0	0	0	-0	0	0.105	0.015	0	0	-0	0	0	0.098	0.1	0	-0	0	0	0	0	0	-0	0	0.05595	0	0	0	-0	0	0	0	0	0	-0	0	325.539	376.908	290.699	497.023	0.585954	-1.19636	0.0520151	0.0149031	0.0772144
65	0.237789	0.350706	-0.12802	0.455063	0.0777326	0.144058	0.0165836	-0.0346623	0.0514632	0.101456	0.541185	-0.061489	0.0856483	0.013813	-0.00492577	-2.40241	-0.116424	-2.19884	0	0	0	0	-0	0	0	0	-0.1265	0	-0	0	0	0	0	0	-0	0	0.105	0.015	0	0	-0	0	0	0.098	0.1	0	-0	0	0	0	0	0	-0	0	0.05595	0	0	0	-0	0	0	0	0	0	-0	0	325.539	376.908	290.699	497.023	0.585895	-1.19637	0.0519325	0.0152078	0.0771527
66	0.23761	0.350054	-0.127479	0.455006	0.0779165	0.143797	0.0166122	-0.0346307	0.0514916	0.101443	0.541188	-0.0614892	0.0857012	0.0138835	-0.00507594	-2.40143	-0.116468	-2.19916	0	0	0	0	-0	0	0	0	-0.1265	0	-0	0	0	0	0	0	-0	0	0.105	0.015	0	0	-0	0	0	0.098	0.1	0	-0	0	0	0	0	0	-0	0	0.05595	0	0	0	-0	0	0	0	0	0	-0	0	325.539	376.908	290.699	497.023	0.585782	-1.19632	0.051959	0.0149733	0.0771261
67	0.237864	0.34938	-0.1277	0.455323	0.0779838	0.143893	0.0165885	-0.0346628	0.0514826	0.101453	0.541185	-0.0614898	0.0856156	0.0138545	-0.00492852	-2.40283	-0.116369	-2.19706	0	0	0	0	-0	0	0	0	-0.1265	0	-0	0	0	0	0	0	-0	0	0.105	0.015	0	0	-0	0	0	0.098	0.1	0	-0	0	0	0	0	0	-0	0	0.05595	0	0	0	-0	0	0	0	0	0	-0	0	325.539	376.908	290.699	497.023	0.585569	-1.19633	0.0518479	0.0153187	0.0769511
68	0.237626	0.348894	-0.127153	0.455206	0.0781096	0.143636	0.0166132	-0.0346389	0.0515063	0.101443	0.541188	-0.0614898	0.0856777	0.0139328	-0.00510305	-2.40153	-0.116427	-2.19783	0	0	0	0	-0	0	0	0	-0.1265	0	-0	0	0	0	0	0	-0	0	0.105	0.015	0	0	-0	0	0	0.098	0.1	0	-0	0	0	0	0	0	-0	0	0.05595	0	0	0	-0	0	0	0	0	0	-0	0	325.539	376.908	290.699	497.023	0.58549	-1.19628	0.0518713	0.0150053	0.0769454
69	0.237842	0.348764	-0.127376	0.45537	0.0781394	0.143725	0.0165831	-0.03468	0.0514905	0.101456	0.541183	-0.0614901	0.0856031	0.0138874	-0.00496273	-2.40269	-0.116385	-2.19655	0	0	0	0	-0	0	0	0	-0.1265	0	-0	0	0	0	0	0	-0	0	0.105	0.015	0	0	-0	0	0	0.098	0.1	0	-0	0	0	0	0	0	-0	0	0.05595	0	0	0	-0	0	0	0	0	0	-0	0	325.539	376.908	290.699	497.023	0.585414	-1.19629	0.0517962	0.0152896	0.076878
70	0.237651	0.348168	-0.126778	0.455276	0.0783509	0.143431	0.0166071	-0.0346553	0.051517	0.101445	0.541186	-0.0614906	0.0856546	0.0139581	-0.00511893	-2.40163	-0.116445	-2.19699	0	0	0	0	-0	0	0	0	-0.1265	0	-0	0	0	0	0	0	-0	0	0.105	0.015	0	0	-0	0	0	0.098	0.1	0	-0	0	0	0	0	0	-0	0	0.05595	0	0	0	-0	0	0	0	0	0	-0	0	325.539	376.908	290.699	497.023	0.58528	-1.1962	0.0518135	0.015041	0.0768589
71	0.237869	0.348029	-0.127043	0.45545	0.0783729	0.143543	0.0165815	-0.0346886	0.0515022	0.101456	0.541182	-0.0614908	0.0855847	0.0139128	-0.00498022	-2.40281	-0.11639	-2.19568	0	0	0	0	-0	0	0	0	-0.1265	0	-0	0	0	0	0	0	-0	0	0.105	0.015	0	0	-0	0	0	0.098	0.1	0	-0	0	0	0	0	0	-0	0	0.05595	0	0	0	-0	0	0	0	0	0	-0	0	325.539	376.908	290.699	497.023	0.585194	-1.1962	0.0517432	0.015328	0.0767883
72	0.237706	0.347726	-0.126747	0.455379	0.0784287	0.143411	0.0166096	-0.0346554	0.0515218	0.101445	0.541186	-0.0614906	0.0856383	0.0139646	-0.00510219	-2.40193	-0.116416	-2.19624	0	0	0	0	-0	0	0	0	-0.1265	0	-0	0	0	0	0	0	-0	0	0.105	0.015	0	0	-0	0	0	0.098	0.1	0	-0	0	0	0	0	0	-0	0	0.05595	0	0	0	-0	0	0	0	0	0	-0	0	325.539	376.908	290.699	497.023	0.585139	-1.19617	0.0517785	0.0151123	0.0767835
73	0.237874	0.347413	-0.126908	0.455556	0.078459	0.143478	0.0165865	-0.0346869	0.0515104	0.101454	0.541183	-0.0614911	0.0855772	0.01394	-0.0049973	-2.40285	-0.116356	-2.195	0	0	0	0	-0	0	0	0	-0.1265	0	-0	0	0	0	0	0	-0	0	0.105	0.015	0	0	-0	0	0	0.098	0.1	0	-0	0	0	0	0	0	-0	0	0.05595	0	0	0	-0	0	0	0	0	0	-0	0	325.539	376.908	290.699	497.023	0.584999	-1.19616	0.0516949	0.0153397	0.0766856
74	0.237721	0.347131	-0.126596	0.45548	0.0785197	0.143336	0.0166072	-0.0346641	0.0515272	0.101446	0.541185	-0.0614911	0.085622	0.0139891	-0.00510885	-2.40202	-0.116393	-2.19553	0	0	0	0	-0	0	0	0	-0.1265	0	-0	0	0	0	0	0	-0	0	0.105	0.015	0	0	-0	0	0	0.098	0.1	0	-0	0	0	0	0	0	-0	0	0.05595	0	0	0	-0	0	0	0	0	0	-0	0	325.539	376.908	290.699	497.023	0.58494	-1.19612	0.0517179	0.0151376	0.0766795
75	0.237881	0.346824	-0.126716	0.455642	0.0785641	0.143381	0.0165874	-0.0346917	0.0515183	0.101454	0.541182	-0.0614914	0.0855658	0.013965	-0.00501229	-2.40289	-0.116346	-2.19435	0	0	0	0	-0	0	0	0	-0.1265	0	-0	0	0	0	0	0	-0	0	0.105	0.015	0	0	-0	0	0	0.098	0.1	0	-0	0	0	0	0	0	-0	0	0.05595	0	0	0	-0	0	0	0	0	0	-0	0	325.539	376.908	290.699	497.023	0.584785	-1.1961	0.0516397	0.015351	0.076579
76	0.237735	0.346559	-0.126397	0.455563	0.0786339	0.143232	0.016605	-0.0346723	0.0515336	0.101447	0.541184	-0.0614914	0.085607	0.0140115	-0.00511907	-2.40209	-0.116385	-2.19485	0	0	0	0	-0	0	0	0	-0.1265	0	-0	0	0	0	0	0	-0	0	0.105	0.015	0	0	-0	0	0	0.098	0.1	0	-0	0	0	0	0	0	-0	0	0.05595	0	0	0	-0	0	0	0	0	0	-0	0	325.539	376.908	290.699	497.023	0.584721	-1.19605	0.0516569	0.0151591	0.0765729
77	0.237854	0.346509	-0.126505	0.455643	0.0786574	0.143272	0.0165844	-0.0347001	0.0515228	0.101455	0.541181	-0.0614916	0.0855629	0.0139856	-0.00503974	-2.40273	-0.116366	-2.19417	0	0	0	0	-0	0	0	0	-0.1265	0	-0	0	0	0	0	0	-0	0	0.105	0.015	0	0	-0	0	0	0.098	0.1	0	-0	0	0	0	0	0	-0	0	0.05595	0	0	0	-0	0	0	0	0	0	-0	0	325.539	376.908	290.699	497.023	0.584667	-1.19604	0.0516069	0.0153174	0.0765365
78	0.237755	0.346195	-0.126192	0.455588	0.0787732	0.143117	0.0165997	-0.0346833	0.0515379	0.101449	0.541183	-0.0614918	0.0855923	0.0140222	-0.00512304	-2.40218	-0.1164	-2.19439	0	0	0	0	-0	0	0	0	-0.1265	0	-0	0	0	0	0	0	-0	0	0.105	0.015	0	0	-0	0	0	0.098	0.1	0	-0	0	0	0	0	0	-0	0	0.05595	0	0	0	-0	0	0	0	0	0	-0	0	325.539	376.908	290.699	497.023	0.584558	-1.19597	0.0516136	0.0151866	0.0765169
79	0.237864	0.346129	-0.126307	0.455668	0.0787961	0.143161	0.0165846	-0.0347033	0.0515294	0.101455	0.541181	-0.061492	0.0855555	0.0139992	-0.00505364	-2.40277	-0.116375	-2.19374	0	0	0	0	-0	0	0	0	-0.1265	0	-0	0	0	0	0	0	-0	0	0.105	0.015	0	0	-0	0	0	0.098	0.1	0	-0	0	0	0	0	0	-0	0	0.05595	0	0	0	-0	0	0	0	0	0	-0	0	325.539	376.908	290.699	497.023	0.584497	-1.19596	0.0515712	0.0153309	0.0764802
80	0.237774	0.345816	-0.12603	0.455625	0.0789034	0.143025	0.0165972	-0.0346898	0.0515423	0.10145	0.541182	-0.0614921	0.0855807	0.0140344	-0.00512888	-2.40227	-0.116399	-2.19392	0	0	0	0	-0	0	0	0	-0.1265	0	-0	0	0	0	0	0	-0	0	0.105	0.015	0	0	-0	0	0	0.098	0.1	0	-0	0	0	0	0	0	-0	0	0.05595	0	0	0	-0	0	0	0	0	0	-0	0	325.539	376.908	290.699	497.023	0.584376	-1.19588	0.0515697	0.0152134	0.0764583
81	0.237875	0.34574	-0.126145	0.455704	0.078921	0.143073	0.0165846	-0.0347067	0.051535	0.101455	0.541181	-0.0614923	0.0855476	0.0140139	-0.00506495	-2.40282	-0.116372	-2.1933	0	0	0	0	-0	0	0	0	-0.1265	0	-0	0	0	0	0	0	-0	0	0.105	0.015	0	0	-0	0	0	0.098	0.1	0	-0	0	0	0	0	0	-0	0	0.05595	0	0	0	-0	0	0	0	0	0	-0	0	325.539	376.908	290.699	497.023	0.584308	-1.19586	0.0515302	0.0153459	0.0764208
82	0.237788	0.345434	-0.125878	0.455663	0.0790219	0.142943	0.0165957	-0.0346953	0.0515468	0.101451	0.541182	-0.0614924	0.0855707	0.0140484	-0.00513685	-2.40234	-0.116395	-2.19346	0	0	0	0	-0	0	0	0	-0.1265	0	-0	0	0	0	0	0	-0	0	0.105	0.015	0	0	-0	0	0	0.098	0.1	0	-0	0	0	0	0	0	-0	0	0.05595	0	0	0	-0	0	0	0	0	0	-0	0	325.539	376.908	290.699	497.023	0.584174	-1.19577	0.0515237	0.0152327	0.0763982
83	0.237888	0.345354	-0.126001	0.455743	0.0790334	0.142995	0.0165845	-0.0347105	0.0515399	0.101455	0.54118	-0.0614924	0.0855391	0.0140284	-0.0050738	-2.40288	-0.116367	-2.19284	0	0	0	0	-0	0	0	0	-0.1265	0	-0	0	0	0	0	0	-0	0	0.105	0.015	0	0	-0	0	0	0.098	0.1	0	-0	0	0	0	0	0	-0	0	0.05595	0	0	0	-0	0	0	0	0	0	-0	0	325.539	376.908	290.699	497.023	0.584098	-1.19575	0.0514853	0.0153627	0.0763589
84	0.237798	0.345058	-0.125731	0.455696	0.0791319	0.142863	0.0165948	-0.0347003	0.0515511	0.101451	0.541181	-0.0614925	0.0855622	0.014063	-0.0051466	-2.40239	-0.116391	-2.19303	0	0	0	0	-0	0	0	0	-0.1265	0	-0	0	0	0	0	0	-0	0	0.105	0.015	0	0	-0	0	0	0.098	0.1	0	-0	0	0	0	0	0	-0	0	0.05595	0	0	0	-0	0	0	0	0	0	-0	0	325.539	376.908	290.699	497.023	0.58395	-1.19564	0.0514759	0.0152463	0.0763376
85	0.237903	0.344981	-0.12587	0.455781	0.0791365	0.142923	0.0165841	-0.0347146	0.0515441	0.101455	0.54118	-0.0614925	0.0855301	0.0140417	-0.00508025	-2.40296	-0.116361	-2.19239	0	0	0	0	-0	0	0	0	-0.1265	0	-0	0	0	0	0	0	-0	0	0.105	0.015	0	0	-0	0	0	0.098	0.1	0	-0	0	0	0	0	0	-0	0	0.05595	0	0	0	-0	0	0	0	0	0	-0	0	325.539	376.908	290.699	497.023	0.583865	-1.19561	0.051437	0.0153817	0.0762954
86	0.237819	0.344832	-0.125719	0.455741	0.0791634	0.142856	0.0165968	-0.0346997	0.0515531	0.10145	0.541182	-0.0614925	0.0855561	0.0140684	-0.00514154	-2.40251	-0.116375	-2.19268	0	0	0	0	-0	0	0	0	-0.1265	0	-0	0	0	0	0	0	-0	0	0.105	0.015	0	0	-0	0	0	0.098	0.1	0	-0	0	0	0	0	0	-0	0	0.05595	0	0	0	-0	0	0	0	0	0	-0	0	325.539	376.908	290.699	497.023	0.583809	-1.19557	0.0514475	0.0152718	0.0762898
87	0.237908	0.344678	-0.125818	0.455831	0.0791705	0.142898	0.0165862	-0.0347142	0.051547	0.101455	0.54118	-0.0614925	0.0855259	0.0140546	-0.00508613	-2.40299	-0.116343	-2.19204	0	0	0	0	-0	0	0	0	-0.1265	0	-0	0	0	0	0	0	-0	0	0.105	0.015	0	0	-0	0	0	0.098	0.1	0	-0	0	0	0	0	0	-0	0	0.05595	0	0	0	-0	0	0	0	0	0	-0	0	325.539	376.908	290.699	497.023	0.583669	-1.19551	0.0513959	0.0153893	0.0762283
88	0.237824	0.344538	-0.125648	0.455784	0.0792027	0.142819	0.0165965	-0.0347031	0.0515553	0.101451	0.541182	-0.0614925	0.0855497	0.014081	-0.0051465	-2.40253	-0.116365	-2.19234	0	0	0	0	-0	0	0	0	-0.1265	0	-0	0	0	0	0	0	-0	0	0.105	0.015	0	0	-0	0	0	0.098	0.1	0	-0	0	0	0	0	0	-0	0	0.05595	0	0	0	-0	0	0	0	0	0	-0	0	325.539	376.908	290.699	497.023	0.583608	-1.19546	0.051402	0.0152789	0.0762228
89	0.237892	0.344519	-0.125718	0.455829	0.0792106	0.142846	0.016585	-0.0347186	0.0515488	0.101456	0.54118	-0.0614926	0.085525	0.0140657	-0.00510064	-2.4029	-0.116352	-2.19196	0	0	0	0	-0	0	0	0	-0.1265	0	-0	0	0	0	0	0	-0	0	0.105	0.015	0	0	-0	0	0	0.098	0.1	0	-0	0	0	0	0	0	-0	0	0.05595	0	0	0	-0	0	0	0	0	0	-0	0	325.539	376.908	290.699	497.023	0.583558	-1.19544	0.0513713	0.0153686	0.0762002
90	0.237834	0.344358	-0.125551	0.455794	0.0792669	0.142764	0.0165939	-0.0347087	0.0515568	0.101452	0.541181	-0.0614928	0.0855427	0.0140862	-0.00514803	-2.40258	-0.116372	-2.19211	0	0	0	0	-0	0	0	0	-0.1265	0	-0	0	0	0	0	0	-0	0	0.105	0.015	0	0	-0	0	0	0.098	0.1	0	-0	0	0	0	0	0	-0	0	0.05595	0	0	0	-0	0	0	0	0	0	-0	0	325.539	376.908	290.699	497.023	0.583454	-1.19536	0.0513695	0.0152914	0.0761857
91	0.237897	0.344331	-0.125624	0.455838	0.0792752	0.142793	0.0165854	-0.0347199	0.0515516	0.101455	0.54118	-0.0614928	0.0855219	0.0140723	-0.00510756	-2.40292	-0.116356	-2.19175	0	0	0	0	-0	0	0	0	-0.1265	0	-0	0	0	0	0	0	-0	0	0.105	0.015	0	0	-0	0	0	0.098	0.1	0	-0	0	0	0	0	0	-0	0	0.05595	0	0	0	-0	0	0	0	0	0	-0	0	325.539	376.908	290.699	497.023	0.583399	-1.19533	0.0513427	0.0153738	0.0761627
92	0.237844	0.344172	-0.125475	0.455808	0.0793285	0.14272	0.0165929	-0.0347117	0.0515584	0.101453	0.541181	-0.0614928	0.0855373	0.014092	-0.00515073	-2.40263	-0.116371	-2.19188	0	0	0	0	-0	0	0	0	-0.1265	0	-0	0	0	0	0	0	-0	0	0.105	0.015	0	0	-0	0	0	0.098	0.1	0	-0	0	0	0	0	0	-0	0	0.05595	0	0	0	-0	0	0	0	0	0	-0	0	325.539	376.908	290.699	497.023	0.583284	-1.19524	0.051336	0.0153037	0.0761465
93	0.237919	0.344012	-0.125564	0.455888	0.0793387	0.142759	0.016587	-0.0347196	0.0515547	0.101455	0.54118	-0.0614928	0.0855148	0.0140816	-0.00510658	-2.40304	-0.11634	-2.19131	0	0	0	0	-0	0	0	0	-0.1265	0	-0	0	0	0	0	0	-0	0	0.105	0.015	0	0	-0	0	0	0.098	0.1	0	-0	0	0	0	0	0	-0	0	0.05595	0	0	0	-0	0	0	0	0	0	-0	0	325.539	376.908	290.699	497.023	0.583098	-1.19514	0.0512863	0.0154008	0.0760791
94	0.237845	0.343892	-0.1254	0.455841	0.0793773	0.142681	0.016594	-0.0347129	0.051561	0.101452	0.541181	-0.0614928	0.0855339	0.0141045	-0.00515974	-2.40264	-0.11636	-2.19158	0	0	0	0	-0	0	0	0	-0.1265	0	-0	0	0	0	0	0	-0	0	0.105	0.015	0	0	-0	0	0	0.098	0.1	0	-0	0	0	0	0	0	-0	0	0.05595	0	0	0	-0	0	0	0	0	0	-0	0	325.539	376.908	290.698	497.023	0.583016	-1.19507	0.0512839	0.0153042	0.0760729
95	0.237915	0.343871	-0.125486	0.455889	0.0793818	0.142716	0.0165854	-0.0347243	0.0515556	0.101456	0.541179	-0.0614929	0.0855116	0.0140885	-0.00511396	-2.40302	-0.116345	-2.19118	0	0	0	0	-0	0	0	0	-0.1265	0	-0	0	0	0	0	0	-0	0	0.105	0.015	0	0	-0	0	0	0.098	0.1	0	-0	0	0	0	0	0	-0	0	0.05595	0	0	0	-0	0	0	0	0	0	-0	0	325.539	376.908	290.698	497.023	0.582947	-1.19503	0.0512559	0.0153949	0.0760463
96	0.23786	0.34379	-0.125389	0.455859	0.0793996	0.142672	0.0165945	-0.0347133	0.0515618	0.101452	0.541181	-0.0614929	0.0855297	0.014105	-0.00515438	-2.40272	-0.116356	-2.19139	0	0	0	0	-0	0	0	0	-0.1265	0	-0	0	0	0	0	0	-0	0	0.105	0.015	0	0	-0	0	0	0.098	0.1	0	-0	0	0	0	0	0	-0	0	0.05595	0	0	0	-0	0	0	0	0	0	-0	0	325.539	376.907	290.698	497.023	0.5829	-1.19499	0.0512636	0.0153225	0.0760426
97	0.237917	0.343723	-0.125453	0.455907	0.0794059	0.142698	0.0165871	-0.0347234	0.0515572	0.101456	0.54118	-0.0614929	0.0855106	0.0140946	-0.00511851	-2.40303	-0.116337	-2.19102	0	0	0	0	-0	0	0	0	-0.1265	0	-0	0	0	0	0	0	-0	0	0.105	0.015	0	0	-0	0	0	0.098	0.1	0	-0	0	0	0	0	0	-0	0	0.05595	0	0	0	-0	0	0	0	0	0	-0	0	325.539	376.907	290.698	497.023	0.582787	-1.19492	0.0512282	0.0153967	0.0760046
98	0.237865	0.343647	-0.125352	0.455875	0.0794251	0.142651	0.016594	-0.0347155	0.0515624	0.101453	0.541181	-0.0614929	0.0855263	0.0141105	-0.00515615	-2.40274	-0.11635	-2.19122	0	0	0	0	-0	0	0	0	-0.1265	0	-0	0	0	0	0	0	-0	0	0.105	0.015	0	0	-0	0	0	0.098	0.1	0	-0	0	0	0	0	0	-0	0	0.05595	0	0	0	-0	0	0	0	0	0	-0	0	325.539	376.907	290.698	497.023	0.582736	-1.19487	0.0512317	0.0153276	0.0760004
99	0.237919	0.343581	-0.125408	0.45592	0.0794345	0.142673	0.0165876	-0.0347243	0.0515584	0.101456	0.54118	-0.0614928	0.0855086	0.0141004	-0.00512244	-2.40304	-0.116334	-2.19086	0	0	0	0	-0	0	0	0	-0.1265	0	-0	0	0	0	0	0	-0	0	0.105	0.015	0	0	-0	0	0	0.098	0.1	0	-0	0	0	0	0	0	-0	0	0.05595	0	0	0	-0	0	0	0	0	0	-0	0	325.539	376.907	290.698	497.023	0.582612	-1.19479	0.0511969	0.015398	0.0759608
100	0.237868	0.343509	-0.125305	0.455887	0.0794565	0.142624	0.0165937	-0.0347174	0.0515632	0.101453	0.541181	-0.0614929	0.0855233	0.0141157	-0.00515909	-2.40276	-0.116348	-2.19106	0	0	0	0	-0	0	0	0	-0.1265	0	-0	0	0	0	0	0	-0	0	0.105	0.015	0	0	-0	0	0	0.098	0.1	0	-0	0	0	0	0	0	-0	0	0.05595	0	0	0	-0	0	0	0	0	0	-0	0	325.539	376.907	290.698	497.023	0.582555	-1.19474	0.0511985	0.015331	0.0759566
