Stefan210/kinematic_calibration/src/kinematic_calibration/validation/experiments/experiments/anzahl_messungen/AB_C/larm_37/optimization_intermediate_results.csv
iteration	HeadPitch_offset	HeadYaw_offset	LElbowRoll_offset	LElbowYaw_offset	LShoulderPitch_offset	LShoulderRoll_offset	marker_transform_larm_tx	marker_transform_larm_ty	marker_transform_larm_tz	marker_transform_larm_rr	marker_transform_larm_rp	marker_transform_larm_ry	camera_transform_tx	camera_transform_ty	camera_transform_tz	camera_transform_rr	camera_transform_rp	camera_transform_ry	HeadPitch_transform_tx	HeadPitch_transform_ty	HeadPitch_transform_tz	HeadPitch_transform_rr	HeadPitch_transform_rp	HeadPitch_transform_ry	HeadYaw_transform_tx	HeadYaw_transform_ty	HeadYaw_transform_tz	HeadYaw_transform_rr	HeadYaw_transform_rp	HeadYaw_transform_ry	LElbowRoll_transform_tx	LElbowRoll_transform_ty	LElbowRoll_transform_tz	LElbowRoll_transform_rr	LElbowRoll_transform_rp	LElbowRoll_transform_ry	LElbowYaw_transform_tx	LElbowYaw_transform_ty	LElbowYaw_transform_tz	LElbowYaw_transform_rr	LElbowYaw_transform_rp	LElbowYaw_transform_ry	LShoulderPitch_transform_tx	LShoulderPitch_transform_ty	LShoulderPitch_transform_tz	LShoulderPitch_transform_rr	LShoulderPitch_transform_rp	LShoulderPitch_transform_ry	LShoulderRoll_transform_tx	LShoulderRoll_transform_ty	LShoulderRoll_transform_tz	LShoulderRoll_transform_rr	LShoulderRoll_transform_rp	LShoulderRoll_transform_ry	LWristYaw_transform_tx	LWristYaw_transform_ty	LWristYaw_transform_tz	LWristYaw_transform_rr	LWristYaw_transform_rp	LWristYaw_transform_ry	l_wrist_joint_transform_tx	l_wrist_joint_transform_ty	l_wrist_joint_transform_tz	l_wrist_joint_transform_rr	l_wrist_joint_transform_rp	l_wrist_joint_transform_ry	camera_fx	camera_fy	camera_cx	camera_cy	camera_D0	camera_D1	camera_D2	camera_D3	camera_D4	
0	0.0249164	-0.0307543	0.000853157	4.65819e-06	-0.000318322	-0.00310766	0.05071	0	0.01774	-2.26369	1.66533e-16	-1.5708	545.901	551.038	324.928	201.58	0.0255298	2.61142	-0.0636736	-0.0350419	0.213964
1	-0.0169366	0.0131409	0.0125985	0.031659	-0.00841915	0.0326678	0.0243044	-0.0298957	0.00333206	-0.000300531	-0.000567133	-0.00309702	0.056763	0.000700409	0.01589	-2.19517	-0.00357802	-1.54684	0	0	0	0	-0	0	0	0	-0.1265	0	-0	0	0	0	0	0	-0	0	0.105	0.015	0	0	-0	0	0	0.098	0.1	0	-0	0	0	0	0	0	-0	0	0.05595	0	0	0	-0	0	0	0	0	0	-0	0	545.901	551.039	324.928	201.58	-0.00504911	2.60233	-0.0712947	0.0458539	0.212188
2	-0.017474	0.0230963	0.00150566	0.0427032	-0.0126122	0.0378561	0.0239247	-0.0299777	0.00395859	-0.000375474	-0.000630724	-0.00315104	0.0535506	0.00152438	0.0185153	-2.19389	-0.00809029	-1.56271	0	0	0	0	-0	0	0	0	-0.1265	0	-0	0	0	0	0	0	-0	0	0.105	0.015	0	0	-0	0	0	0.098	0.1	0	-0	0	0	0	0	0	-0	0	0.05595	0	0	0	-0	0	0	0	0	0	-0	0	545.902	551.039	324.926	201.583	-0.104924	2.54756	-0.0465722	0.0279503	0.196858
3	-0.0177157	0.0244407	0.00211584	0.0434868	-0.0120309	0.0371438	0.0239864	-0.02999	0.00383797	-0.000363045	-0.000619924	-0.00314423	0.0544162	0.0015269	0.0168613	-2.19252	-0.00869381	-1.56318	0	0	0	0	-0	0	0	0	-0.1265	0	-0	0	0	0	0	0	-0	0	0.105	0.015	0	0	-0	0	0	0.098	0.1	0	-0	0	0	0	0	0	-0	0	0.05595	0	0	0	-0	0	0	0	0	0	-0	0	545.904	551.04	324.923	201.588	-0.325573	2.4311	-0.0226199	0.0131265	0.165494
4	-0.017628	0.0280961	0.00498641	0.0434936	-0.0121965	0.0355831	0.0241461	-0.0300111	0.00355062	-0.000333217	-0.000584878	-0.00312814	0.0559148	0.0013054	0.0147151	-2.19233	-0.0103311	-1.56549	0	0	0	0	-0	0	0	0	-0.1265	0	-0	0	0	0	0	0	-0	0	0.105	0.015	0	0	-0	0	0	0.098	0.1	0	-0	0	0	0	0	0	-0	0	0.05595	0	0	0	-0	0	0	0	0	0	-0	0	545.909	551.041	324.918	201.596	-0.63612	2.22494	0.0161015	-0.00849103	0.106719
5	-0.0174227	0.0310289	0.00653675	0.0438784	-0.0124622	0.0341448	0.0242376	-0.0299932	0.00336337	-0.000309409	-0.000576895	-0.00312304	0.0566596	0.00112144	0.0136425	-2.19281	-0.0115934	-1.5682	0	0	0	0	-0	0	0	0	-0.1265	0	-0	0	0	0	0	0	-0	0	0.105	0.015	0	0	-0	0	0	0.098	0.1	0	-0	0	0	0	0	0	-0	0	0.05595	0	0	0	-0	0	0	0	0	0	-0	0	545.92	551.037	324.911	201.607	-0.756181	1.94377	0.036419	-0.0194592	0.0157122
6	-0.0169787	0.0318645	0.00643584	0.0435618	-0.0122655	0.0329069	0.0242446	-0.0299422	0.00330437	-0.000341711	-0.000553203	-0.00312613	0.0561222	0.0010003	0.0143142	-2.19454	-0.0115052	-1.5697	0	0	0	0	-0	0	0	0	-0.1265	0	-0	0	0	0	0	0	-0	0	0.105	0.015	0	0	-0	0	0	0.098	0.1	0	-0	0	0	0	0	0	-0	0	0.05595	0	0	0	-0	0	0	0	0	0	-0	0	545.946	551.023	324.904	201.628	-0.620557	1.48638	0.0343557	-0.0187678	-0.142274
7	-0.0165374	0.0322256	0.00621904	0.0428794	-0.0119597	0.0316044	0.0242476	-0.0298921	0.00327152	-0.00022224	-0.000503016	-0.00303008	0.0551755	0.00085878	0.0155415	-2.19689	-0.0110378	-1.57073	0	0	0	0	-0	0	0	0	-0.1265	0	-0	0	0	0	0	0	-0	0	0.105	0.015	0	0	-0	0	0	0.098	0.1	0	-0	0	0	0	0	0	-0	0	0.05595	0	0	0	-0	0	0	0	0	0	-0	0	545.994	550.975	324.898	201.656	-0.395602	0.85857	0.0269365	-0.0156522	-0.34887
8	-0.0163223	0.0325929	0.00612106	0.0425007	-0.0118512	0.0306219	0.0242508	-0.0298578	0.00325836	-0.000525417	-0.000715198	-0.00350576	0.0544308	0.000747533	0.0165083	-2.19874	-0.010777	-1.57153	0	0	0	0	-0	0	0	0	-0.1265	0	-0	0	0	0	0	0	-0	0	0.105	0.015	0	0	-0	0	0	0.098	0.1	0	-0	0	0	0	0	0	-0	0	0.05595	0	0	0	-0	0	0	0	0	0	-0	0	546.088	550.826	324.892	201.683	-0.217122	0.325179	0.0216983	-0.0133403	-0.482199
9	-0.0172355	0.0328337	0.00607106	0.0424994	-0.0118783	0.0300825	0.0242468	-0.0298405	0.00325941	0.000776535	-0.000697281	-0.00263298	0.0541021	0.000697683	0.0169007	-2.20059	-0.0107317	-1.57187	0	0	0	0	-0	0	0	0	-0.1265	0	-0	0	0	0	0	0	-0	0	0.105	0.015	0	0	-0	0	0	0.098	0.1	0	-0	0	0	0	0	0	-0	0	0.05595	0	0	0	-0	0	0	0	0	0	-0	0	546.303	550.388	324.861	201.702	-0.142512	0.0515314	0.0208332	-0.0125555	-0.416988
10	-0.0171866	0.0330097	0.00593486	0.0427687	-0.0119397	0.0296087	0.0242279	-0.029824	0.00326587	0.00527698	-0.00390051	-0.0037234	0.0539344	0.000683116	0.0171064	-2.20099	-0.0107601	-1.57193	0	0	0	0	-0	0	0	0	-0.1265	0	-0	0	0	0	0	0	-0	0	0.105	0.015	0	0	-0	0	0	0.098	0.1	0	-0	0	0	0	0	0	-0	0	0.05595	0	0	0	-0	0	0	0	0	0	-0	0	546.756	549.234	324.761	201.712	-0.124568	-0.134729	0.0237313	-0.0126392	-0.0188486
11	-0.025478	0.0332661	0.00568067	0.0432618	-0.0120421	0.0288715	0.0241949	-0.0297986	0.00327585	0.0118785	0.00813263	-0.00342112	0.0538863	0.000674645	0.0168781	-2.20983	-0.0108043	-1.5718	0	0	0	0	-0	0	0	0	-0.1265	0	-0	0	0	0	0	0	-0	0	0.105	0.015	0	0	-0	0	0	0.098	0.1	0	-0	0	0	0	0	0	-0	0	0.05595	0	0	0	-0	0	0	0	0	0	-0	0	547.155	546.689	324.54	201.76	-0.0997321	-0.546158	0.0297798	-0.0130595	1.12464
12	-0.0535154	0.0335554	0.00554889	0.0436757	-0.0121939	0.0280231	0.024168	-0.0297688	0.00327367	0.0232794	-0.0279586	0.00388432	0.054254	0.000659465	0.0154876	-2.2383	-0.010937	-1.57154	0	0	0	0	-0	0	0	0	-0.1265	0	-0	0	0	0	0	0	-0	0	0.105	0.015	0	0	-0	0	0	0.098	0.1	0	-0	0	0	0	0	0	-0	0	0.05595	0	0	0	-0	0	0	0	0	0	-0	0	545.582	542.005	324.314	201.931	-0.00311646	-1.60072	0.0363129	-0.013538	3.97509
13	-0.0740569	0.0336617	0.00564569	0.0437013	-0.0122704	0.0276691	0.0241647	-0.0297693	0.00327165	0.0305747	0.00141773	0.00487451	0.0546006	0.000645784	0.0143079	-2.25862	-0.0114388	-1.5718	0	0	0	0	-0	0	0	0	-0.1265	0	-0	0	0	0	0	0	-0	0	0.105	0.015	0	0	-0	0	0	0.098	0.1	0	-0	0	0	0	0	0	-0	0	0.05595	0	0	0	-0	0	0	0	0	0	-0	0	543.299	538.639	324.558	201.974	0.0891928	-2.46654	0.0385874	-0.013615	6.25843
14	-0.0880753	0.0336967	0.0057038	0.0436931	-0.0123017	0.0275746	0.0241518	-0.0297723	0.00326415	0.0496129	0.000902989	0.0156123	0.0548208	0.000641099	0.0134961	-2.27243	-0.0117663	-1.57193	0	0	0	0	-0	0	0	0	-0.1265	0	-0	0	0	0	0	0	-0	0	0.105	0.015	0	0	-0	0	0	0.098	0.1	0	-0	0	0	0	0	0	-0	0	0.05595	0	0	0	-0	0	0	0	0	0	-0	0	542.295	537.37	324.748	201.938	0.126634	-2.804	0.0391688	-0.013613	7.13091
15	-0.0936391	0.0337926	0.00595195	0.0435703	-0.0124278	0.0272795	0.0241543	-0.0297676	0.00325439	0.0383277	0.00947654	0.0200368	0.0550156	0.000620046	0.013022	-2.27658	-0.0129491	-1.57305	0	0	0	0	-0	0	0	0	-0.1265	0	-0	0	0	0	0	0	-0	0	0.105	0.015	0	0	-0	0	0	0.098	0.1	0	-0	0	0	0	0	0	-0	0	0.05595	0	0	0	-0	0	0	0	0	0	-0	0	538.351	532.96	325.521	201.507	0.26796	-3.98283	0.0397976	-0.013428	10.083
16	-0.0809117	0.0338804	0.00619104	0.0434548	-0.0125495	0.0270694	0.0241691	-0.0297771	0.00325721	0.0195358	0.035163	0.0427233	0.0549557	0.000599277	0.0135873	-2.26173	-0.0142287	-1.57461	0	0	0	0	-0	0	0	0	-0.1265	0	-0	0	0	0	0	0	-0	0	0.105	0.015	0	0	-0	0	0	0.098	0.1	0	-0	0	0	0	0	0	-0	0	0.05595	0	0	0	-0	0	0	0	0	0	-0	0	534.698	529.032	326.44	200.636	0.396156	-4.97432	0.0397956	-0.0130931	12.411
17	-0.0700159	0.033928	0.00627749	0.0434278	-0.0126088	0.026995	0.0241718	-0.0297774	0.00323829	0.0125707	0.0297691	0.0646393	0.0548345	0.000590504	0.0141577	-2.2498	-0.0147718	-1.57544	0	0	0	0	-0	0	0	0	-0.1265	0	-0	0	0	0	0	0	-0	0	0.105	0.015	0	0	-0	0	0	0.098	0.1	0	-0	0	0	0	0	0	-0	0	0.05595	0	0	0	-0	0	0	0	0	0	-0	0	533.232	527.475	326.87	200.159	0.449811	-5.35708	0.0396757	-0.0129016	13.2408
18	-0.0683261	0.0339764	0.00640241	0.0433707	-0.0126773	0.0268874	0.0241789	-0.0297882	0.00324046	-0.009924	0.0296981	0.0896695	0.0548506	0.000576877	0.0142056	-2.24652	-0.0155037	-1.57634	0	0	0	0	-0	0	0	0	-0.1265	0	-0	0	0	0	0	0	-0	0	0.105	0.015	0	0	-0	0	0	0.098	0.1	0	-0	0	0	0	0	0	-0	0	0.05595	0	0	0	-0	0	0	0	0	0	-0	0	531.327	525.449	327.43	199.422	0.515385	-5.81058	0.0393763	-0.0126235	14.2044
19	-0.0903189	0.0339994	0.00644746	0.0433583	-0.0127079	0.0268456	0.0241738	-0.029773	0.00323382	-0.00824207	0.0213157	0.0772555	0.0551738	0.000571247	0.0129917	-2.26783	-0.0159411	-1.57637	0	0	0	0	-0	0	0	0	-0.1265	0	-0	0	0	0	0	0	-0	0	0.105	0.015	0	0	-0	0	0	0.098	0.1	0	-0	0	0	0	0	0	-0	0	0.05595	0	0	0	-0	0	0	0	0	0	-0	0	530.555	524.633	327.668	199.091	0.543084	-5.99079	0.0392132	-0.0124953	14.5625
20	-0.0983965	0.0340215	0.00650221	0.043332	-0.0127396	0.0267995	0.0241791	-0.0297845	0.00322826	0.0150709	0.0277885	0.0921558	0.0552812	0.000564635	0.0125277	-2.27511	-0.0163346	-1.57663	0	0	0	0	-0	0	0	0	-0.1265	0	-0	0	0	0	0	0	-0	0	0.105	0.015	0	0	-0	0	0	0.098	0.1	0	-0	0	0	0	0	0	-0	0	0.05595	0	0	0	-0	0	0	0	0	0	-0	0	529.712	523.744	327.926	198.706	0.571772	-6.17644	0.0390128	-0.012352	14.9305
21	-0.121823	0.0340501	0.00657612	0.0433073	-0.0127829	0.0267297	0.0241857	-0.0297823	0.0032269	0.00465217	0.0192841	0.114944	0.0555942	0.000555127	0.0112107	-2.2973	-0.0169652	-1.5768	0	0	0	0	-0	0	0	0	-0.1265	0	-0	0	0	0	0	0	-0	0	0.105	0.015	0	0	-0	0	0	0.098	0.1	0	-0	0	0	0	0	0	-0	0	0.05595	0	0	0	-0	0	0	0	0	0	-0	0	528.505	522.455	328.293	198.108	0.611563	-6.42616	0.038736	-0.0121474	15.4065
22	-0.137138	0.0340692	0.00663211	0.0432808	-0.0128137	0.0266804	0.0241809	-0.0297728	0.00322513	0.00543587	0.00538911	0.115672	0.0557634	0.000547743	0.0103437	-2.31166	-0.0174285	-1.57694	0	0	0	0	-0	0	0	0	-0.1265	0	-0	0	0	0	0	0	-0	0	0.105	0.015	0	0	-0	0	0	0.098	0.1	0	-0	0	0	0	0	0	-0	0	0.05595	0	0	0	-0	0	0	0	0	0	-0	0	527.615	521.513	328.562	197.644	0.641	-6.60096	0.0384686	-0.0119809	15.7193
23	-0.150199	0.0340943	0.00671221	0.04325	-0.0128572	0.0266067	0.0241865	-0.0297799	0.00322298	0.0209685	0.0126392	0.108095	0.0559132	0.000536727	0.00959144	-2.32324	-0.0180292	-1.57728	0	0	0	0	-0	0	0	0	-0.1265	0	-0	0	0	0	0	0	-0	0	0.105	0.015	0	0	-0	0	0	0.098	0.1	0	-0	0	0	0	0	0	-0	0	0.05595	0	0	0	-0	0	0	0	0	0	-0	0	526.343	520.16	328.942	196.922	0.680791	-6.82999	0.038085	-0.0117503	16.1097
24	-0.149459	0.0341204	0.00682441	0.0432058	-0.0129121	0.0265023	0.0242009	-0.0297849	0.00322676	0.0171929	-0.0104739	0.086364	0.0559284	0.000520465	0.00960218	-2.32023	-0.0187365	-1.57808	0	0	0	0	-0	0	0	0	-0.1265	0	-0	0	0	0	0	0	-0	0	0.105	0.015	0	0	-0	0	0	0.098	0.1	0	-0	0	0	0	0	0	-0	0	0.05595	0	0	0	-0	0	0	0	0	0	-0	0	524.56	518.257	329.468	195.81	0.734191	-7.11301	0.0374632	-0.0114056	16.5354
25	-0.180256	0.034138	0.00692155	0.043164	-0.0129572	0.0264081	0.0242061	-0.0297737	0.003223	0.00296237	0.0366478	0.0910933	0.0562429	0.000505313	0.00786278	-2.34891	-0.0195701	-1.57818	0	0	0	0	-0	0	0	0	-0.1265	0	-0	0	0	0	0	0	-0	0	0.105	0.015	0	0	-0	0	0	0.098	0.1	0	-0	0	0	0	0	0	-0	0	0.05595	0	0	0	-0	0	0	0	0	0	-0	0	523.012	516.608	329.929	194.758	0.77954	-7.32874	0.0368116	-0.0110756	16.802
26	-0.188856	0.0341469	0.00699642	0.0431213	-0.0129876	0.026342	0.0242155	-0.0297874	0.00323623	0.0168048	-0.00550132	0.0653258	0.0562949	0.000493484	0.00736579	-2.3559	-0.0200934	-1.5785	0	0	0	0	-0	0	0	0	-0.1265	0	-0	0	0	0	0	0	-0	0	0.105	0.015	0	0	-0	0	0	0.098	0.1	0	-0	0	0	0	0	0	-0	0	0.05595	0	0	0	-0	0	0	0	0	0	-0	0	521.885	515.422	330.266	193.951	0.811882	-7.46765	0.036237	-0.0108122	16.938
27	-0.180775	0.0341524	0.00704513	0.0431081	-0.0130108	0.0262866	0.0242108	-0.0297939	0.00321791	0.0100075	0.00485038	0.0946275	0.0562402	0.000484633	0.00781483	-2.34657	-0.0203695	-1.57903	0	0	0	0	-0	0	0	0	-0.1265	0	-0	0	0	0	0	0	-0	0	0.105	0.015	0	0	-0	0	0	0.098	0.1	0	-0	0	0	0	0	0	-0	0	0.05595	0	0	0	-0	0	0	0	0	0	-0	0	521.068	514.556	330.518	193.328	0.834347	-7.55701	0.0358242	-0.0106234	17.0037
28	-0.166947	0.0341554	0.00709872	0.0430836	-0.0130298	0.0262405	0.0242028	-0.0297823	0.00320896	0.00123797	0.0118618	0.0944424	0.056138	0.000475843	0.00858643	-2.33151	-0.0205723	-1.57968	0	0	0	0	-0	0	0	0	-0.1265	0	-0	0	0	0	0	0	-0	0	0.105	0.015	0	0	-0	0	0	0.098	0.1	0	-0	0	0	0	0	0	-0	0	0.05595	0	0	0	-0	0	0	0	0	0	-0	0	520.285	513.73	330.764	192.715	0.855214	-7.63339	0.0353908	-0.0104292	17.0407
29	-0.152114	0.0341566	0.00717372	0.043047	-0.0130564	0.0261736	0.0242084	-0.0297842	0.00320685	-0.000390706	0.0173617	0.101615	0.0560186	0.000463285	0.00940558	-2.31482	-0.0208885	-1.58052	0	0	0	0	-0	0	0	0	-0.1265	0	-0	0	0	0	0	0	-0	0	0.105	0.015	0	0	-0	0	0	0.098	0.1	0	-0	0	0	0	0	0	-0	0	0.05595	0	0	0	-0	0	0	0	0	0	-0	0	519.169	512.547	331.123	191.791	0.882974	-7.72442	0.0347684	-0.0101529	17.0471
30	-0.147551	0.0341553	0.0072039	0.0430281	-0.0130664	0.0261429	0.024212	-0.0297845	0.00320695	-0.00182689	0.0321554	0.108667	0.0559703	0.000457656	0.0096639	-2.3095	-0.0210235	-1.58085	0	0	0	0	-0	0	0	0	-0.1265	0	-0	0	0	0	0	0	-0	0	0.105	0.015	0	0	-0	0	0	0.098	0.1	0	-0	0	0	0	0	0	-0	0	0.05595	0	0	0	-0	0	0	0	0	0	-0	0	518.713	512.073	331.272	191.407	0.895378	-7.76099	0.0344438	-0.0100193	17.0401
31	-0.146091	0.0341538	0.00724427	0.0430097	-0.0130802	0.0261042	0.0242119	-0.0297922	0.00320137	0.0190902	0.0272263	0.118259	0.0559618	0.000450513	0.0097402	-2.30698	-0.0212575	-1.58119	0	0	0	0	-0	0	0	0	-0.1265	0	-0	0	0	0	0	0	-0	0	0.105	0.015	0	0	-0	0	0	0.098	0.1	0	-0	0	0	0	0	0	-0	0	0.05595	0	0	0	-0	0	0	0	0	0	-0	0	518.107	511.433	331.475	190.877	0.909816	-7.80052	0.034077	-0.00986034	17.0155
32	-0.163908	0.0341502	0.0073004	0.0429875	-0.013099	0.0260503	0.0242292	-0.0297966	0.00319959	0.0345886	0.0473265	0.101737	0.0561434	0.000440189	0.00873673	-2.32323	-0.0218127	-1.58126	0	0	0	0	-0	0	0	0	-0.1265	0	-0	0	0	0	0	0	-0	0	0.105	0.015	0	0	-0	0	0	0.098	0.1	0	-0	0	0	0	0	0	-0	0	0.05595	0	0	0	-0	0	0	0	0	0	-0	0	517.236	510.511	331.777	190.085	0.929856	-7.84781	0.033533	-0.00962236	16.9534
33	-0.172578	0.0341299	0.00741944	0.0429282	-0.0131301	0.0259395	0.0242289	-0.0297891	0.00320104	0.0401223	0.01934	0.0966408	0.0562276	0.000418314	0.0082322	-2.32839	-0.0227227	-1.58204	0	0	0	0	-0	0	0	0	-0.1265	0	-0	0	0	0	0	0	-0	0	0.105	0.015	0	0	-0	0	0	0.098	0.1	0	-0	0	0	0	0	0	-0	0	0.05595	0	0	0	-0	0	0	0	0	0	-0	0	515.454	508.616	332.44	188.327	0.966863	-7.89935	0.0323326	-0.00910099	16.7037
34	-0.162974	0.0341216	0.00745162	0.042903	-0.0131383	0.0258974	0.0242246	-0.0297909	0.0031956	0.0487228	0.0102953	0.0980057	0.0561415	0.000410856	0.00878522	-2.31783	-0.0228446	-1.58253	0	0	0	0	-0	0	0	0	-0.1265	0	-0	0	0	0	0	0	-0	0	0.105	0.015	0	0	-0	0	0	0.098	0.1	0	-0	0	0	0	0	0	-0	0	0.05595	0	0	0	-0	0	0	0	0	0	-0	0	514.959	508.109	332.631	187.834	0.979098	-7.91193	0.031851	-0.00891441	16.6205
35	-0.194612	0.0340948	0.00756848	0.0428604	-0.0131696	0.0257864	0.0242495	-0.029814	0.00319598	0.0387792	0.00991232	0.133318	0.0564303	0.00038719	0.00699971	-2.34553	-0.0241634	-1.58292	0	0	0	0	-0	0	0	0	-0.1265	0	-0	0	0	0	0	0	-0	0	0.105	0.015	0	0	-0	0	0	0.098	0.1	0	-0	0	0	0	0	0	-0	0	0.05595	0	0	0	-0	0	0	0	0	0	-0	0	513.159	506.198	333.406	185.84	1.01168	-7.90455	0.030496	-0.00832323	16.2129
36	-0.21717	0.0340683	0.00762652	0.0428196	-0.0131774	0.0257208	0.02425	-0.0298313	0.00320391	-0.000600532	0.0117873	0.159867	0.0565558	0.000374228	0.00573669	-2.36614	-0.0249565	-1.58293	0	0	0	0	-0	0	0	0	-0.1265	0	-0	0	0	0	0	0	-0	0	0.105	0.015	0	0	-0	0	0	0.098	0.1	0	-0	0	0	0	0	0	-0	0	0.05595	0	0	0	-0	0	0	0	0	0	-0	0	512.263	505.272	333.815	184.843	1.02905	-7.88931	0.0296264	-0.00796248	15.9788
37	-0.233528	0.0340525	0.00766605	0.0428097	-0.0131865	0.0256703	0.0242462	-0.029801	0.00318939	0.0122079	0.0265037	0.153215	0.0566346	0.000364592	0.00481712	-2.38101	-0.0255673	-1.58294	0	0	0	0	-0	0	0	0	-0.1265	0	-0	0	0	0	0	0	-0	0	0.105	0.015	0	0	-0	0	0	0.098	0.1	0	-0	0	0	0	0	0	-0	0	0.05595	0	0	0	-0	0	0	0	0	0	-0	0	511.616	504.591	334.133	184.083	1.04012	-7.86944	0.0290432	-0.00771186	15.7892
38	-0.241828	0.0340282	0.00773325	0.0427654	-0.0131977	0.0256116	0.0242461	-0.0297994	0.00318252	0.00012718	0.0527279	0.143898	0.0566699	0.000351061	0.00435044	-2.38707	-0.0262797	-1.58336	0	0	0	0	-0	0	0	0	-0.1265	0	-0	0	0	0	0	0	-0	0	0.105	0.015	0	0	-0	0	0	0.098	0.1	0	-0	0	0	0	0	0	-0	0	0.05595	0	0	0	-0	0	0	0	0	0	-0	0	510.69	503.62	334.604	182.945	1.05449	-7.83111	0.0281929	-0.00734418	15.4981
39	-0.232121	0.0340142	0.00775989	0.0427453	-0.0132005	0.025581	0.0242505	-0.0298042	0.00317771	0.0104356	0.0323182	0.162876	0.0566225	0.000344839	0.00491056	-2.37644	-0.0264094	-1.58387	0	0	0	0	-0	0	0	0	-0.1265	0	-0	0	0	0	0	0	-0	0	0.105	0.015	0	0	-0	0	0	0.098	0.1	0	-0	0	0	0	0	0	-0	0	0.05595	0	0	0	-0	0	0	0	0	0	-0	0	510.311	503.231	334.801	182.474	1.06117	-7.81399	0.0277674	-0.00717019	15.3729
40	-0.23191	0.0339905	0.0078091	0.0427234	-0.0132077	0.0255346	0.0242581	-0.0298033	0.00318202	0.0167565	0.0554307	0.1564	0.0566196	0.000333927	0.00492687	-2.37434	-0.026931	-1.58443	0	0	0	0	-0	0	0	0	-0.1265	0	-0	0	0	0	0	0	-0	0	0.105	0.015	0	0	-0	0	0	0.098	0.1	0	-0	0	0	0	0	0	-0	0	0.05595	0	0	0	-0	0	0	0	0	0	-0	0	509.57	502.454	335.21	181.512	1.07126	-7.76919	0.0270615	-0.00685994	15.1093
41	-0.220137	0.0339539	0.00787305	0.0426956	-0.0132175	0.0254626	0.0242728	-0.0298253	0.00318403	0.0302639	0.0673514	0.190721	0.0565588	0.000318047	0.00560776	-2.35976	-0.0275549	-1.58557	0	0	0	0	-0	0	0	0	-0.1265	0	-0	0	0	0	0	0	-0	0	0.105	0.015	0	0	-0	0	0	0.098	0.1	0	-0	0	0	0	0	0	-0	0	0.05595	0	0	0	-0	0	0	0	0	0	-0	0	508.529	501.352	335.827	180.083	1.08461	-7.69306	0.0260295	-0.00639208	14.7066
42	-0.21278	0.0339284	0.00790459	0.0426777	-0.0132184	0.0254189	0.0242599	-0.0298115	0.00318167	0.0490771	0.0719899	0.189657	0.0565068	0.000309411	0.00603955	-2.35101	-0.0278371	-1.58621	0	0	0	0	-0	0	0	0	-0.1265	0	-0	0	0	0	0	0	-0	0	0.105	0.015	0	0	-0	0	0	0.098	0.1	0	-0	0	0	0	0	0	-0	0	0.05595	0	0	0	-0	0	0	0	0	0	-0	0	508.009	500.81	336.146	179.366	1.09189	-7.65182	0.0254215	-0.00612629	14.4993
43	-0.207224	0.0339001	0.00795095	0.0426596	-0.0132253	0.0253685	0.0242667	-0.0298057	0.0031812	0.0502604	0.0443788	0.188528	0.0564683	0.000297561	0.00636623	-2.34336	-0.0283482	-1.58701	0	0	0	0	-0	0	0	0	-0.1265	0	-0	0	0	0	0	0	-0	0	0.105	0.015	0	0	-0	0	0	0.098	0.1	0	-0	0	0	0	0	0	-0	0	0.05595	0	0	0	-0	0	0	0	0	0	-0	0	507.268	500.025	336.625	178.293	1.10016	-7.58543	0.0246468	-0.00577151	14.1906
44	-0.20439	0.033883	0.0079723	0.0426396	-0.0132255	0.0253415	0.0242693	-0.0298114	0.00317863	0.0371605	0.0273345	0.189752	0.0564444	0.000292116	0.00653777	-2.33966	-0.0285382	-1.58736	0	0	0	0	-0	0	0	0	-0.1265	0	-0	0	0	0	0	0	-0	0	0.105	0.015	0	0	-0	0	0	0.098	0.1	0	-0	0	0	0	0	0	-0	0	0.05595	0	0	0	-0	0	0	0	0	0	-0	0	506.961	499.708	336.822	177.851	1.10437	-7.55867	0.0242552	-0.00560374	14.0641
45	-0.209601	0.0338728	0.00798637	0.0426326	-0.0132264	0.025326	0.0242656	-0.0298096	0.00317947	0.0352332	0.0162237	0.180544	0.056476	0.000288574	0.00624938	-2.34428	-0.0287905	-1.5874	0	0	0	0	-0	0	0	0	-0.1265	0	-0	0	0	0	0	0	-0	0	0.105	0.015	0	0	-0	0	0	0.098	0.1	0	-0	0	0	0	0	0	-0	0	0.05595	0	0	0	-0	0	0	0	0	0	-0	0	506.75	499.491	336.957	177.547	1.10692	-7.53967	0.0240069	-0.00549613	13.9771
46	-0.188939	0.0338349	0.0080369	0.0426197	-0.0132323	0.02527	0.02427	-0.0298149	0.00318467	0.0478297	-0.00433818	0.165233	0.0563417	0.000274834	0.00743138	-2.32099	-0.0291935	-1.58882	0	0	0	0	-0	0	0	0	-0.1265	0	-0	0	0	0	0	0	-0	0	0.105	0.015	0	0	-0	0	0	0.098	0.1	0	-0	0	0	0	0	0	-0	0	0.05595	0	0	0	-0	0	0	0	0	0	-0	0	505.871	498.551	337.567	176.206	1.1148	-7.44739	0.0230984	-0.0050609	13.5891
47	-0.194092	0.0337897	0.00808416	0.0426002	-0.013234	0.0252072	0.0242758	-0.0298126	0.00317446	0.0505521	0.0152887	0.160236	0.0563568	0.000260771	0.0071646	-2.32356	-0.0300237	-1.58951	0	0	0	0	-0	0	0	0	-0.1265	0	-0	0	0	0	0	0	-0	0	0.105	0.015	0	0	-0	0	0	0.098	0.1	0	-0	0	0	0	0	0	-0	0	0.05595	0	0	0	-0	0	0	0	0	0	-0	0	505.022	497.647	338.182	174.881	1.12274	-7.35307	0.0221237	-0.0045989	13.2067
48	-0.187411	0.0337659	0.00811105	0.0425765	-0.0132325	0.0251766	0.0242738	-0.029815	0.00317294	0.0448553	0.0202944	0.150468	0.0563015	0.000254157	0.00755607	-2.31582	-0.0301965	-1.59005	0	0	0	0	-0	0	0	0	-0.1265	0	-0	0	0	0	0	0	-0	0	0.105	0.015	0	0	-0	0	0	0.098	0.1	0	-0	0	0	0	0	0	-0	0	0.05595	0	0	0	-0	0	0	0	0	0	-0	0	504.67	497.284	338.432	174.335	1.12656	-7.31418	0.0216435	-0.00439068	13.0509
49	-0.183541	0.0337401	0.00813891	0.042567	-0.0132337	0.0251455	0.0242774	-0.0298254	0.0031715	0.0220982	0.0214609	0.137328	0.0562658	0.000246398	0.00778616	-2.31049	-0.0305337	-1.59064	0	0	0	0	-0	0	0	0	-0.1265	0	-0	0	0	0	0	0	-0	0	0.105	0.015	0	0	-0	0	0	0.098	0.1	0	-0	0	0	0	0	0	-0	0	0.05595	0	0	0	-0	0	0	0	0	0	-0	0	504.201	496.791	338.776	173.588	1.13032	-7.25948	0.0211013	-0.00413865	12.8399
50	-0.169272	0.0337014	0.0081756	0.0425571	-0.0132339	0.0250987	0.0242818	-0.0298182	0.00317433	0.0169545	0.00937088	0.129278	0.056145	0.000235274	0.00860941	-2.29407	-0.0308607	-1.59179	0	0	0	0	-0	0	0	0	-0.1265	0	-0	0	0	0	0	0	-0	0	0.105	0.015	0	0	-0	0	0	0.098	0.1	0	-0	0	0	0	0	0	-0	0	0.05595	0	0	0	-0	0	0	0	0	0	-0	0	503.532	496.072	339.293	172.488	1.13512	-7.17621	0.0203339	-0.00376351	12.5291
