Stefan210/kinematic_calibration/src/kinematic_calibration/validation/experiments/experiments/single_point_vs_pose/marker_pose/rarm_200/optimization_intermediate_results.csv
iteration	HeadPitch_offset	HeadYaw_offset	RElbowRoll_offset	RElbowYaw_offset	RShoulderPitch_offset	RShoulderRoll_offset	marker_transform_rarm_tx	marker_transform_rarm_ty	marker_transform_rarm_tz	marker_transform_rarm_rr	marker_transform_rarm_rp	marker_transform_rarm_ry	camera_transform_tx	camera_transform_ty	camera_transform_tz	camera_transform_rr	camera_transform_rp	camera_transform_ry	HeadPitch_transform_tx	HeadPitch_transform_ty	HeadPitch_transform_tz	HeadPitch_transform_rr	HeadPitch_transform_rp	HeadPitch_transform_ry	HeadYaw_transform_tx	HeadYaw_transform_ty	HeadYaw_transform_tz	HeadYaw_transform_rr	HeadYaw_transform_rp	HeadYaw_transform_ry	RElbowRoll_transform_tx	RElbowRoll_transform_ty	RElbowRoll_transform_tz	RElbowRoll_transform_rr	RElbowRoll_transform_rp	RElbowRoll_transform_ry	RElbowYaw_transform_tx	RElbowYaw_transform_ty	RElbowYaw_transform_tz	RElbowYaw_transform_rr	RElbowYaw_transform_rp	RElbowYaw_transform_ry	RShoulderPitch_transform_tx	RShoulderPitch_transform_ty	RShoulderPitch_transform_tz	RShoulderPitch_transform_rr	RShoulderPitch_transform_rp	RShoulderPitch_transform_ry	RShoulderRoll_transform_tx	RShoulderRoll_transform_ty	RShoulderRoll_transform_tz	RShoulderRoll_transform_rr	RShoulderRoll_transform_rp	RShoulderRoll_transform_ry	RWristYaw_transform_tx	RWristYaw_transform_ty	RWristYaw_transform_tz	RWristYaw_transform_rr	RWristYaw_transform_rp	RWristYaw_transform_ry	r_wrist_joint_transform_tx	r_wrist_joint_transform_ty	r_wrist_joint_transform_tz	r_wrist_joint_transform_rr	r_wrist_joint_transform_rp	r_wrist_joint_transform_ry	camera_fx	camera_fy	camera_cx	camera_cy	camera_D0	camera_D1	camera_D2	camera_D3	camera_D4	
0	0.0230449	0.0294606	-0.0013508	-0.00116347	0.000678263	0.00258603	0.05071	0	0.01774	-2.26369	1.66533e-16	-1.5708	545.901	551.038	324.928	201.58	0.0255298	2.61142	-0.0636736	-0.0350419	0.213964
1	-0.0132192	-0.0316451	-0.0132056	-0.0113599	-0.0122256	-0.0448809	0.025537	0.036466	-0.00202113	-0.602335	0.269049	0.179482	0.0521544	0.0011335	0.0235999	-2.21174	0.0106261	-1.54201	0	0	0	0	-0	0	0	0	-0.1265	0	-0	0	0	0	0	0	-0	0	0.105	-0.015	0	0	-0	0	0	-0.098	0.1	0	-0	0	0	0	0	0	-0	0	0.05595	0	0	0	-0	0	0	0	0	0	-0	0	545.902	551.039	324.931	201.582	-0.0801676	2.55485	-0.074936	-0.0673276	0.196796
2	-0.00859362	-0.0572715	-0.0373971	0.0202006	-0.0258033	-0.0400747	0.0227992	0.0297321	-0.000315934	-0.86882	0.279728	0.0606513	0.0502643	0.00226117	0.0297916	-2.23108	0.0294131	-1.53058	0	0	0	0	-0	0	0	0	-0.1265	0	-0	0	0	0	0	0	-0	0	0.105	-0.015	0	0	-0	0	0	-0.098	0.1	0	-0	0	0	0	0	0	-0	0	0.05595	0	0	0	-0	0	0	0	0	0	-0	0	545.905	551.039	324.937	201.588	-0.210379	2.40944	0.0372567	-0.0260762	0.133208
3	-0.0133466	-0.0346252	-0.0320295	0.0125602	-0.012039	-0.0487018	0.0234842	0.0276517	-0.000721116	-1.06544	0.244736	0.0223897	0.0531653	0.00129821	0.0225845	-2.21067	0.0162391	-1.54801	0	0	0	0	-0	0	0	0	-0.1265	0	-0	0	0	0	0	0	-0	0	0.105	-0.015	0	0	-0	0	0	-0.098	0.1	0	-0	0	0	0	0	0	-0	0	0.05595	0	0	0	-0	0	0	0	0	0	-0	0	545.912	551.039	324.948	201.597	-0.560488	2.11547	-0.0168284	0.000588858	0.0212146
4	-0.0136878	-0.0300486	-0.0264327	0.00322725	-0.00887911	-0.0537678	0.0235003	0.0282197	-0.000382808	-1.2272	0.179868	0.0832732	0.0552099	-0.000287178	0.0184936	-2.20829	0.0145835	-1.54808	0	0	0	0	-0	0	0	0	-0.1265	0	-0	0	0	0	0	0	-0	0	0.105	-0.015	0	0	-0	0	0	-0.098	0.1	0	-0	0	0	0	0	0	-0	0	0.05595	0	0	0	-0	0	0	0	0	0	-0	0	545.919	551.039	324.958	201.607	-0.803272	1.73157	0.0301032	0.0255017	-0.164556
5	-0.0144566	-0.0199741	-0.0127858	-0.00523584	-0.00491938	-0.0563919	0.0229234	0.0296068	0.000420754	-1.47576	0.126632	0.204106	0.0560429	-0.0022371	0.0156818	-2.20458	0.0120417	-1.54892	0	0	0	0	-0	0	0	0	-0.1265	0	-0	0	0	0	0	0	-0	0	0.105	-0.015	0	0	-0	0	0	-0.098	0.1	0	-0	0	0	0	0	0	-0	0	0.05595	0	0	0	-0	0	0	0	0	0	-0	0	545.934	551.035	324.968	201.616	-0.689734	1.24709	0.0201904	0.0202767	-0.460591
6	-0.0141697	-0.0206148	0.00258791	-0.00389508	-0.0124134	-0.0464432	0.0220119	0.0292542	0.000156842	-1.69542	0.139114	0.252678	0.0543918	-0.00313875	0.0172124	-2.20609	0.0152023	-1.53989	0	0	0	0	-0	0	0	0	-0.1265	0	-0	0	0	0	0	0	-0	0	0.105	-0.015	0	0	-0	0	0	-0.098	0.1	0	-0	0	0	0	0	0	-0	0	0.05595	0	0	0	-0	0	0	0	0	0	-0	0	545.952	551.027	324.972	201.619	-0.362411	0.882705	0.00806879	0.00139259	-0.723678
7	-0.014184	-0.0206522	0.0059533	0.0007029	-0.0142724	-0.0433316	0.0217464	0.0285925	-0.000484956	-1.70464	0.15112	0.229281	0.0535365	-0.00339344	0.0179807	-2.20625	0.0164793	-1.5375	0	0	0	0	-0	0	0	0	-0.1265	0	-0	0	0	0	0	0	-0	0	0.105	-0.015	0	0	-0	0	0	-0.098	0.1	0	-0	0	0	0	0	0	-0	0	0.05595	0	0	0	-0	0	0	0	0	0	-0	0	545.982	551.01	324.975	201.619	-0.16971	0.622704	-0.000231431	-0.00918293	-0.864652
8	-0.0141667	-0.0204713	0.00625822	0.00129603	-0.0142327	-0.0433124	0.0217451	0.0285622	-0.000517743	-1.70551	0.152201	0.225903	0.053204	-0.00338432	0.0183417	-2.20638	0.0161874	-1.53772	0	0	0	0	-0	0	0	0	-0.1265	0	-0	0	0	0	0	0	-0	0	0.105	-0.015	0	0	-0	0	0	-0.098	0.1	0	-0	0	0	0	0	0	-0	0	0.05595	0	0	0	-0	0	0	0	0	0	-0	0	546.063	550.963	324.988	201.619	-0.0929972	0.469549	-0.00446259	-0.0119028	-0.815637
9	-0.0142288	-0.0203857	0.0063353	0.00133081	-0.0142309	-0.0433314	0.0217412	0.0285553	-0.000518458	-1.70518	0.152311	0.22501	0.0530223	-0.00336966	0.0185351	-2.20667	0.0159529	-1.53804	0	0	0	0	-0	0	0	0	-0.1265	0	-0	0	0	0	0	0	-0	0	0.105	-0.015	0	0	-0	0	0	-0.098	0.1	0	-0	0	0	0	0	0	-0	0	0.05595	0	0	0	-0	0	0	0	0	0	-0	0	546.287	550.833	325.024	201.62	-0.0517738	0.292988	-0.00513504	-0.0124905	-0.580274
10	-0.0145176	-0.0202672	0.00642886	0.00129846	-0.0142267	-0.0433527	0.0217335	0.0285499	-0.000517956	-1.70434	0.152285	0.224389	0.0527892	-0.00335049	0.0187649	-2.20724	0.0155856	-1.53858	0	0	0	0	-0	0	0	0	-0.1265	0	-0	0	0	0	0	0	-0	0	0.105	-0.015	0	0	-0	0	0	-0.098	0.1	0	-0	0	0	0	0	0	-0	0	0.05595	0	0	0	-0	0	0	0	0	0	-0	0	546.863	550.493	325.113	201.621	-0.00502695	0.0505219	-0.00490461	-0.0129535	-0.218527
11	-0.0137221	-0.0201601	0.00652109	0.00128764	-0.0142295	-0.0432551	0.0217177	0.0285467	-0.000523261	-1.70294	0.152184	0.224382	0.0525243	-0.00332601	0.019043	-2.20658	0.015055	-1.5393	0	0	0	0	-0	0	0	0	-0.1265	0	-0	0	0	0	0	0	-0	0	0.105	-0.015	0	0	-0	0	0	-0.098	0.1	0	-0	0	0	0	0	0	-0	0	0.05595	0	0	0	-0	0	0	0	0	0	-0	0	548.117	549.801	325.305	201.641	0.0210677	-0.111273	-0.00321165	-0.0134277	0.0368409
12	-0.0146926	-0.0200874	0.00659411	0.00131388	-0.0142282	-0.0430267	0.0216957	0.0285468	-0.00053513	-1.70122	0.152029	0.22515	0.0523351	-0.00330092	0.0191612	-2.20774	0.0144539	-1.54021	0	0	0	0	-0	0	0	0	-0.1265	0	-0	0	0	0	0	0	-0	0	0.105	-0.015	0	0	-0	0	0	-0.098	0.1	0	-0	0	0	0	0	0	-0	0	0.05595	0	0	0	-0	0	0	0	0	0	-0	0	550.082	549.07	325.654	201.794	0.00957343	-0.101568	-7.39423e-05	-0.0137523	0.0448743
13	-0.00963795	-0.0200423	0.00663701	0.00133336	-0.0142174	-0.0428394	0.0216801	0.028547	-0.000543273	-1.70004	0.151925	0.22576	0.0520513	-0.00327389	0.0195952	-2.20397	0.0133802	-1.54134	0	0	0	0	-0	0	0	0	-0.1265	0	-0	0	0	0	0	0	-0	0	0.105	-0.015	0	0	-0	0	0	-0.098	0.1	0	-0	0	0	0	0	0	-0	0	0.05595	0	0	0	-0	0	0	0	0	0	-0	0	552.246	549.566	326.267	202.393	-0.0128674	-0.0247058	0.00230277	-0.0137082	-0.0518318
14	-0.0217648	-0.0200479	0.00664923	0.00132033	-0.0142287	-0.0427398	0.0216746	0.028544	-0.000542969	-1.69981	0.15191	0.225571	0.0520485	-0.00323586	0.0192305	-2.22004	0.0117299	-1.54395	0	0	0	0	-0	0	0	0	-0.1265	0	-0	0	0	0	0	0	-0	0	0.105	-0.015	0	0	-0	0	0	-0.098	0.1	0	-0	0	0	0	0	0	-0	0	0.05595	0	0	0	-0	0	0	0	0	0	-0	0	554.905	552.398	327.776	204.076	-0.0336169	0.0677004	0.00309689	-0.0130064	-0.180122
15	0.00712257	-0.0200825	0.00664608	0.00129142	-0.0142573	-0.0426842	0.021673	0.0285408	-0.000540254	-1.69991	0.151888	0.225233	0.0513352	-0.00320924	0.0209256	-2.19457	0.0091686	-1.54574	0	0	0	0	-0	0	0	0	-0.1265	0	-0	0	0	0	0	0	-0	0	0.105	-0.015	0	0	-0	0	0	-0.098	0.1	0	-0	0	0	0	0	0	-0	0	0.05595	0	0	0	-0	0	0	0	0	0	-0	0	556.669	554.668	329.186	205.588	-0.0470422	0.137766	0.00336666	-0.0122999	-0.287127
16	0.0247116	-0.0201762	0.00663489	0.00123989	-0.0143309	-0.0426038	0.0216707	0.0285371	-0.000535626	-1.7001	0.151842	0.224825	0.0507387	-0.00317773	0.0220503	-2.18246	0.00555175	-1.54958	0	0	0	0	-0	0	0	0	-0.1265	0	-0	0	0	0	0	0	-0	0	0.105	-0.015	0	0	-0	0	0	-0.098	0.1	0	-0	0	0	0	0	0	-0	0	0.05595	0	0	0	-0	0	0	0	0	0	-0	0	558.884	557.699	331.911	208.134	-0.0636272	0.232655	0.00377897	-0.0110247	-0.440626
17	0.0374312	-0.020202	0.00662522	0.00121123	-0.014352	-0.0425815	0.0216705	0.028536	-0.000533774	-1.70015	0.151786	0.224743	0.050407	-0.0031696	0.0227327	-2.17083	0.0046808	-1.55037	0	0	0	0	-0	0	0	0	-0.1265	0	-0	0	0	0	0	0	-0	0	0.105	-0.015	0	0	-0	0	0	-0.098	0.1	0	-0	0	0	0	0	0	-0	0	0.05595	0	0	0	-0	0	0	0	0	0	-0	0	559.304	558.242	332.476	208.664	-0.0681446	0.258692	0.0040172	-0.0106682	-0.48825
18	0.0335744	-0.0202827	0.006613	0.00116724	-0.0144125	-0.0425339	0.0216691	0.0285348	-0.000530344	-1.7002	0.151735	0.22463	0.0503964	-0.00315602	0.0226407	-2.178	0.00249722	-1.55325	0	0	0	0	-0	0	0	0	-0.1265	0	-0	0	0	0	0	0	-0	0	0.105	-0.015	0	0	-0	0	0	-0.098	0.1	0	-0	0	0	0	0	0	-0	0	0.05595	0	0	0	-0	0	0	0	0	0	-0	0	560.331	559.715	334.496	210.285	-0.0768043	0.315478	0.00434243	-0.00974218	-0.589899
19	0.0489632	-0.020358	0.0065968	0.0011206	-0.0144698	-0.0424946	0.021668	0.0285343	-0.000527161	-1.70023	0.151662	0.224608	0.0499906	-0.00314681	0.0234825	-2.16504	0.000301283	-1.55563	0	0	0	0	-0	0	0	0	-0.1265	0	-0	0	0	0	0	0	-0	0	0.105	-0.015	0	0	-0	0	0	-0.098	0.1	0	-0	0	0	0	0	0	-0	0	0.05595	0	0	0	-0	0	0	0	0	0	-0	0	560.973	560.656	336.232	211.502	-0.0833248	0.358721	0.00471303	-0.0088799	-0.67231
20	0.0561913	-0.0203763	0.00658946	0.00110621	-0.0144849	-0.0424842	0.0216678	0.0285343	-0.000526379	-1.70024	0.151629	0.224629	0.0498031	-0.0031442	0.0238526	-2.1583	-0.000164593	-1.55614	0	0	0	0	-0	0	0	0	-0.1265	0	-0	0	0	0	0	0	-0	0	0.105	-0.015	0	0	-0	0	0	-0.098	0.1	0	-0	0	0	0	0	0	-0	0	0.05595	0	0	0	-0	0	0	0	0	0	-0	0	561.095	560.815	336.579	211.749	-0.0849392	0.36655	0.00488741	-0.00865585	-0.68756
21	0.041875	-0.0204288	0.00658014	0.00107865	-0.0145241	-0.0424614	0.0216671	0.0285343	-0.000524461	-1.70024	0.15159	0.224646	0.0501154	-0.00314071	0.0231704	-2.17411	-0.00133225	-1.55787	0	0	0	0	-0	0	0	0	-0.1265	0	-0	0	0	0	0	0	-0	0	0.105	-0.015	0	0	-0	0	0	-0.098	0.1	0	-0	0	0	0	0	0	-0	0	0.05595	0	0	0	-0	0	0	0	0	0	-0	0	561.414	561.325	337.84	212.516	-0.0884302	0.393139	0.00508046	-0.00806554	-0.740869
22	0.025063	-0.0204955	0.00656618	0.00104317	-0.0145752	-0.0424353	0.0216663	0.0285346	-0.000522176	-1.70023	0.151534	0.224703	0.0504757	-0.00313737	0.0223559	-2.19246	-0.002868	-1.55992	0	0	0	0	-0	0	0	0	-0.1265	0	-0	0	0	0	0	0	-0	0	0.105	-0.015	0	0	-0	0	0	-0.098	0.1	0	-0	0	0	0	0	0	-0	0	0.05595	0	0	0	-0	0	0	0	0	0	-0	0	561.707	561.821	339.398	213.31	-0.0922991	0.421665	0.00533661	-0.00729597	-0.799756
23	0.0356821	-0.0205093	0.00656045	0.00103224	-0.0145868	-0.0424295	0.0216661	0.0285349	-0.000521667	-1.70023	0.151508	0.224745	0.0502282	-0.003136	0.0228939	-2.18207	-0.00323293	-1.56023	0	0	0	0	-0	0	0	0	-0.1265	0	-0	0	0	0	0	0	-0	0	0.105	-0.015	0	0	-0	0	0	-0.098	0.1	0	-0	0	0	0	0	0	-0	0	0.05595	0	0	0	-0	0	0	0	0	0	-0	0	561.75	561.869	339.607	213.426	-0.0931157	0.42366	0.00548148	-0.0071419	-0.8034
24	0.0308753	-0.0205262	0.00655686	0.00102278	-0.0145997	-0.042423	0.0216659	0.0285351	-0.000521071	-1.70022	0.151492	0.22477	0.0503309	-0.0031355	0.0226568	-2.18728	-0.00363866	-1.56076	0	0	0	0	-0	0	0	0	-0.1265	0	-0	0	0	0	0	0	-0	0	0.105	-0.015	0	0	-0	0	0	-0.098	0.1	0	-0	0	0	0	0	0	-0	0	0.05595	0	0	0	-0	0	0	0	0	0	-0	0	561.811	561.972	340.018	213.637	-0.0939854	0.430556	0.00555578	-0.00694209	-0.81825
25	0.0353533	-0.0205324	0.00655482	0.0010183	-0.0146046	-0.0424209	0.0216658	0.0285352	-0.000520826	-1.70022	0.151483	0.224785	0.0502276	-0.0031351	0.0228838	-2.18291	-0.00380808	-1.56093	0	0	0	0	-0	0	0	0	-0.1265	0	-0	0	0	0	0	0	-0	0	0.105	-0.015	0	0	-0	0	0	-0.098	0.1	0	-0	0	0	0	0	0	-0	0	0.05595	0	0	0	-0	0	0	0	0	0	-0	0	561.828	561.998	340.129	213.695	-0.0942933	0.431908	0.0056003	-0.00687522	-0.820972
26	0.0382267	-0.0205344	0.00655418	0.00101704	-0.0146062	-0.0424201	0.0216658	0.0285352	-0.000520761	-1.70022	0.151481	0.224791	0.0501608	-0.00313499	0.0230285	-2.18008	-0.00388206	-1.561	0	0	0	0	-0	0	0	0	-0.1265	0	-0	0	0	0	0	0	-0	0	0.105	-0.015	0	0	-0	0	0	-0.098	0.1	0	-0	0	0	0	0	0	-0	0	0.05595	0	0	0	-0	0	0	0	0	0	-0	0	561.834	562.007	340.171	213.717	-0.0943988	0.432434	0.00561542	-0.00685175	-0.822053
27	0.0404121	-0.0205413	0.00655295	0.0010135	-0.0146114	-0.0424174	0.0216657	0.0285352	-0.000520534	-1.70022	0.151475	0.224799	0.0501087	-0.00313487	0.02314	-2.17805	-0.00408779	-1.56123	0	0	0	0	-0	0	0	0	-0.1265	0	-0	0	0	0	0	0	-0	0	0.105	-0.015	0	0	-0	0	0	-0.098	0.1	0	-0	0	0	0	0	0	-0	0	0.05595	0	0	0	-0	0	0	0	0	0	-0	0	561.856	562.046	340.338	213.8	-0.0947245	0.435222	0.005642	-0.00677236	-0.828168
28	0.0370785	-0.0205606	0.00654923	0.00100392	-0.0146261	-0.042411	0.0216655	0.0285354	-0.000519914	-1.70021	0.15146	0.224821	0.0501822	-0.00313464	0.0229779	-2.18178	-0.00456993	-1.56183	0	0	0	0	-0	0	0	0	-0.1265	0	-0	0	0	0	0	0	-0	0	0.105	-0.015	0	0	-0	0	0	-0.098	0.1	0	-0	0	0	0	0	0	-0	0	0.05595	0	0	0	-0	0	0	0	0	0	-0	0	561.907	562.15	340.802	214.012	-0.095589	0.442681	0.00570395	-0.00654858	-0.84459
29	0.0271012	-0.020606	0.00654041	0.000981726	-0.0146611	-0.0423968	0.021665	0.0285358	-0.000518512	-1.70019	0.151426	0.224879	0.0504029	-0.00313407	0.0224888	-2.19254	-0.00574938	-1.56327	0	0	0	0	-0	0	0	0	-0.1265	0	-0	0	0	0	0	0	-0	0	0.105	-0.015	0	0	-0	0	0	-0.098	0.1	0	-0	0	0	0	0	0	-0	0	0.05595	0	0	0	-0	0	0	0	0	0	-0	0	562.02	562.387	341.928	214.425	-0.0977002	0.460245	0.00582097	-0.00599634	-0.883034
30	0.0214895	-0.0206171	0.00653621	0.000974162	-0.0146706	-0.0423932	0.0216649	0.0285361	-0.000518191	-1.70019	0.151409	0.224917	0.0505252	-0.00313334	0.0222074	-2.19829	-0.00590034	-1.56345	0	0	0	0	-0	0	0	0	-0.1265	0	-0	0	0	0	0	0	-0	0	0.105	-0.015	0	0	-0	0	0	-0.098	0.1	0	-0	0	0	0	0	0	-0	0	0.05595	0	0	0	-0	0	0	0	0	0	-0	0	562.042	562.409	342.094	214.497	-0.098214	0.460901	0.00592691	-0.00587969	-0.883855
31	0.0167681	-0.0206261	0.00653421	0.000969115	-0.0146776	-0.0423901	0.0216647	0.0285362	-0.000517897	-1.70018	0.1514	0.224936	0.0506282	-0.00313325	0.0219702	-2.20318	-0.00611673	-1.56371	0	0	0	0	-0	0	0	0	-0.1265	0	-0	0	0	0	0	0	-0	0	0.105	-0.015	0	0	-0	0	0	-0.098	0.1	0	-0	0	0	0	0	0	-0	0	0.05595	0	0	0	-0	0	0	0	0	0	-0	0	562.06	562.444	342.315	214.587	-0.0985953	0.463839	0.00596852	-0.00576877	-0.890491
32	0.02407	-0.0206306	0.00653294	0.000966448	-0.0146811	-0.0423887	0.0216647	0.0285363	-0.000517757	-1.70018	0.151394	0.224948	0.0504667	-0.00313312	0.0223404	-2.19595	-0.00626951	-1.56387	0	0	0	0	-0	0	0	0	-0.1265	0	-0	0	0	0	0	0	-0	0	0.105	-0.015	0	0	-0	0	0	-0.098	0.1	0	-0	0	0	0	0	0	-0	0	0.05595	0	0	0	-0	0	0	0	0	0	-0	0	562.068	562.457	342.403	214.624	-0.0987627	0.464666	0.00599577	-0.005719	-0.892306
33	0.0303577	-0.0206378	0.00653151	0.00096293	-0.0146867	-0.0423864	0.0216646	0.0285364	-0.000517541	-1.70018	0.151389	0.224959	0.0503241	-0.00313311	0.0226585	-2.18979	-0.00651116	-1.56414	0	0	0	0	-0	0	0	0	-0.1265	0	-0	0	0	0	0	0	-0	0	0.105	-0.015	0	0	-0	0	0	-0.098	0.1	0	-0	0	0	0	0	0	-0	0	0.05595	0	0	0	-0	0	0	0	0	0	-0	0	562.081	562.487	342.58	214.693	-0.0990352	0.467043	0.00602032	-0.00563209	-0.897764
34	0.0234498	-0.0206483	0.00652932	0.000957546	-0.0146949	-0.0423832	0.0216645	0.0285365	-0.000517221	-1.70017	0.15138	0.224977	0.0504787	-0.0031331	0.022312	-2.19687	-0.006745	-1.56442	0	0	0	0	-0	0	0	0	-0.1265	0	-0	0	0	0	0	0	-0	0	0.105	-0.015	0	0	-0	0	0	-0.098	0.1	0	-0	0	0	0	0	0	-0	0	0.05595	0	0	0	-0	0	0	0	0	0	-0	0	562.099	562.526	342.829	214.786	-0.0994539	0.470443	0.0060577	-0.00550726	-0.90548
35	0.0191972	-0.0206541	0.00652778	0.000954327	-0.0146995	-0.0423814	0.0216644	0.0285366	-0.000517052	-1.70017	0.151374	0.224991	0.0505719	-0.00313298	0.0220977	-2.20121	-0.00685622	-1.56455	0	0	0	0	-0	0	0	0	-0.1265	0	-0	0	0	0	0	0	-0	0	0.105	-0.015	0	0	-0	0	0	-0.098	0.1	0	-0	0	0	0	0	0	-0	0	0.05595	0	0	0	-0	0	0	0	0	0	-0	0	562.108	562.543	342.95	214.832	-0.0996943	0.471794	0.00608958	-0.00544098	-0.908425
36	0.0241821	-0.0206565	0.00652709	0.00095277	-0.0147014	-0.0423808	0.0216644	0.0285367	-0.000516969	-1.70017	0.151371	0.224998	0.050461	-0.00313291	0.0223501	-2.19626	-0.00694343	-1.56465	0	0	0	0	-0	0	0	0	-0.1265	0	-0	0	0	0	0	0	-0	0	0.105	-0.015	0	0	-0	0	0	-0.098	0.1	0	-0	0	0	0	0	0	-0	0	0.05595	0	0	0	-0	0	0	0	0	0	-0	0	562.112	562.55	342.999	214.851	-0.0997874	0.472242	0.00610397	-0.00541317	-0.909399
37	0.0268026	-0.0206605	0.00652628	0.000950826	-0.0147046	-0.0423795	0.0216644	0.0285367	-0.000516854	-1.70016	0.151367	0.225005	0.0504015	-0.00313292	0.0224826	-2.19371	-0.00707131	-1.5648	0	0	0	0	-0	0	0	0	-0.1265	0	-0	0	0	0	0	0	-0	0	0.105	-0.015	0	0	-0	0	0	-0.098	0.1	0	-0	0	0	0	0	0	-0	0	0.05595	0	0	0	-0	0	0	0	0	0	-0	0	562.119	562.565	343.098	214.888	-0.0999588	0.473672	0.00611822	-0.00536408	-0.912644
38	0.0227043	-0.020662	0.00652578	0.000949855	-0.0147058	-0.0423791	0.0216643	0.0285367	-0.000516804	-1.70016	0.151365	0.225009	0.0504934	-0.00313287	0.0222762	-2.19782	-0.00707681	-1.5648	0	0	0	0	-0	0	0	0	-0.1265	0	-0	0	0	0	0	0	-0	0	0.105	-0.015	0	0	-0	0	0	-0.098	0.1	0	-0	0	0	0	0	0	-0	0	0.05595	0	0	0	-0	0	0	0	0	0	-0	0	562.121	562.569	343.125	214.898	-0.10002	0.473893	0.00612794	-0.00534781	-0.913092
39	0.0223693	-0.0206642	0.00652537	0.000948759	-0.0147075	-0.0423784	0.0216643	0.0285368	-0.000516737	-1.70016	0.151364	0.225013	0.0505002	-0.00313287	0.0222595	-2.1982	-0.00713697	-1.56487	0	0	0	0	-0	0	0	0	-0.1265	0	-0	0	0	0	0	0	-0	0	0.105	-0.015	0	0	-0	0	0	-0.098	0.1	0	-0	0	0	0	0	0	-0	0	0.05595	0	0	0	-0	0	0	0	0	0	-0	0	562.124	562.577	343.18	214.918	-0.100085	0.4745	0.00613515	-0.00532076	-0.914543
40	0.0270756	-0.0206666	0.00652482	0.000947488	-0.0147093	-0.0423777	0.0216643	0.0285368	-0.000516664	-1.70016	0.151361	0.225017	0.0503953	-0.00313287	0.0224974	-2.19353	-0.0072258	-1.56498	0	0	0	0	-0	0	0	0	-0.1265	0	-0	0	0	0	0	0	-0	0	0.105	-0.015	0	0	-0	0	0	-0.098	0.1	0	-0	0	0	0	0	0	-0	0	0.05595	0	0	0	-0	0	0	0	0	0	-0	0	562.128	562.585	343.234	214.938	-0.100199	0.475341	0.00614452	-0.00529295	-0.916397
41	0.0241468	-0.0206684	0.00652441	0.000946634	-0.0147108	-0.0423772	0.0216643	0.0285368	-0.000516619	-1.70016	0.15136	0.225021	0.0504605	-0.00313285	0.0223499	-2.19648	-0.00725379	-1.56501	0	0	0	0	-0	0	0	0	-0.1265	0	-0	0	0	0	0	0	-0	0	0.105	-0.015	0	0	-0	0	0	-0.098	0.1	0	-0	0	0	0	0	0	-0	0	0.05595	0	0	0	-0	0	0	0	0	0	-0	0	562.13	562.591	343.274	214.952	-0.100258	0.475735	0.00615315	-0.00527206	-0.917309
42	0.0217909	-0.0206752	0.00652317	0.000943315	-0.014716	-0.0423752	0.0216642	0.0285369	-0.000516412	-1.70016	0.151355	0.225031	0.0505125	-0.00313292	0.0222318	-2.19895	-0.00743502	-1.56521	0	0	0	0	-0	0	0	0	-0.1265	0	-0	0	0	0	0	0	-0	0	0.105	-0.015	0	0	-0	0	0	-0.098	0.1	0	-0	0	0	0	0	0	-0	0	0.05595	0	0	0	-0	0	0	0	0	0	-0	0	562.14	562.616	343.445	215.011	-0.100519	0.478161	0.00617054	-0.00518834	-0.922922
43	0.0263151	-0.0206777	0.00652234	0.000941785	-0.0147181	-0.0423745	0.0216642	0.028537	-0.00051634	-1.70016	0.151351	0.225039	0.0504116	-0.00313283	0.0224607	-2.19445	-0.00751269	-1.56531	0	0	0	0	-0	0	0	0	-0.1265	0	-0	0	0	0	0	0	-0	0	0.105	-0.015	0	0	-0	0	0	-0.098	0.1	0	-0	0	0	0	0	0	-0	0	0.05595	0	0	0	-0	0	0	0	0	0	-0	0	562.144	562.622	343.491	215.027	-0.100633	0.478561	0.00618798	-0.00516042	-0.9237
44	0.0272602	-0.0206814	0.00652162	0.000939975	-0.014721	-0.0423733	0.0216641	0.028537	-0.000516233	-1.70015	0.151348	0.225045	0.0503894	-0.00313283	0.0225087	-2.19357	-0.00762299	-1.56544	0	0	0	0	-0	0	0	0	-0.1265	0	-0	0	0	0	0	0	-0	0	0.105	-0.015	0	0	-0	0	0	-0.098	0.1	0	-0	0	0	0	0	0	-0	0	0.05595	0	0	0	-0	0	0	0	0	0	-0	0	562.151	562.636	343.584	215.059	-0.100775	0.479772	0.00620015	-0.00511417	-0.926491
45	0.024054	-0.0206854	0.00652076	0.000937859	-0.0147241	-0.0423723	0.0216641	0.0285371	-0.00051611	-1.70015	0.151345	0.225053	0.0504614	-0.00313283	0.0223476	-2.19683	-0.00770809	-1.56553	0	0	0	0	-0	0	0	0	-0.1265	0	-0	0	0	0	0	0	-0	0	0.105	-0.015	0	0	-0	0	0	-0.098	0.1	0	-0	0	0	0	0	0	-0	0	0.05595	0	0	0	-0	0	0	0	0	0	-0	0	562.155	562.648	343.675	215.089	-0.100904	0.480773	0.00621443	-0.00506758	-0.928834
46	0.0304929	-0.0206994	0.00651814	0.000931314	-0.014735	-0.0423685	0.021664	0.0285372	-0.000515704	-1.70014	0.151335	0.225074	0.0503163	-0.00313297	0.0226744	-2.19058	-0.00815271	-1.56605	0	0	0	0	-0	0	0	0	-0.1265	0	-0	0	0	0	0	0	-0	0	0.105	-0.015	0	0	-0	0	0	-0.098	0.1	0	-0	0	0	0	0	0	-0	0	0.05595	0	0	0	-0	0	0	0	0	0	-0	0	562.175	562.702	344.036	215.194	-0.101474	0.485953	0.00624183	-0.00488962	-0.940708
47	0.0370697	-0.0207178	0.00651423	0.00092234	-0.0147497	-0.0423637	0.0216638	0.0285375	-0.000515188	-1.70013	0.15132	0.225108	0.0501643	-0.00313292	0.023008	-2.18423	-0.00869607	-1.5667	0	0	0	0	-0	0	0	0	-0.1265	0	-0	0	0	0	0	0	-0	0	0.105	-0.015	0	0	-0	0	0	-0.098	0.1	0	-0	0	0	0	0	0	-0	0	0.05595	0	0	0	-0	0	0	0	0	0	-0	0	562.204	562.771	344.491	215.315	-0.102229	0.491792	0.00629203	-0.00465707	-0.953882
48	0.0358845	-0.0207204	0.00651269	0.000920587	-0.014752	-0.0423633	0.0216638	0.0285376	-0.000515141	-1.70014	0.151315	0.225122	0.0501906	-0.00313268	0.0229483	-2.18543	-0.00869871	-1.5667	0	0	0	0	-0	0	0	0	-0.1265	0	-0	0	0	0	0	0	-0	0	0.105	-0.015	0	0	-0	0	0	-0.098	0.1	0	-0	0	0	0	0	0	-0	0	0.05595	0	0	0	-0	0	0	0	0	0	-0	0	562.206	562.77	344.501	215.318	-0.102401	0.491485	0.00632583	-0.00463782	-0.952599
49	0.0360867	-0.0207213	0.00651268	0.000919632	-0.0147529	-0.0423628	0.0216638	0.0285376	-0.00051509	-1.70013	0.151313	0.225126	0.0501854	-0.00313263	0.0229589	-2.18524	-0.00873609	-1.56675	0	0	0	0	-0	0	0	0	-0.1265	0	-0	0	0	0	0	0	-0	0	0.105	-0.015	0	0	-0	0	0	-0.098	0.1	0	-0	0	0	0	0	0	-0	0	0.05595	0	0	0	-0	0	0	0	0	0	-0	0	562.21	562.772	344.533	215.329	-0.10238	0.491317	0.00633484	-0.00462179	-0.952406
50	0.0340033	-0.0207232	0.00651233	0.000918515	-0.0147544	-0.0423621	0.0216637	0.0285377	-0.000515028	-1.70013	0.151311	0.22513	0.0502329	-0.00313262	0.0228548	-2.18736	-0.00878269	-1.56679	0	0	0	0	-0	0	0	0	-0.1265	0	-0	0	0	0	0	0	-0	0	0.105	-0.015	0	0	-0	0	0	-0.098	0.1	0	-0	0	0	0	0	0	-0	0	0.05595	0	0	0	-0	0	0	0	0	0	-0	0	562.213	562.778	344.582	215.345	-0.102436	0.491765	0.00634362	-0.00459712	-0.953507
51	0.0362049	-0.0207246	0.00651197	0.000917835	-0.0147555	-0.0423617	0.0216637	0.0285377	-0.000514992	-1.70013	0.15131	0.225133	0.0501825	-0.00313261	0.0229654	-2.18517	-0.00882328	-1.56685	0	0	0	0	-0	0	0	0	-0.1265	0	-0	0	0	0	0	0	-0	0	0.105	-0.015	0	0	-0	0	0	-0.098	0.1	0	-0	0	0	0	0	0	-0	0	0.05595	0	0	0	-0	0	0	0	0	0	-0	0	562.215	562.781	344.61	215.354	-0.102483	0.492045	0.00635015	-0.0045818	-0.954145
52	0.0309334	-0.0207284	0.00651123	0.000916044	-0.0147584	-0.0423606	0.0216637	0.0285377	-0.000514887	-1.70013	0.151307	0.22514	0.0503034	-0.00313268	0.0227011	-2.1905	-0.00891079	-1.56693	0	0	0	0	-0	0	0	0	-0.1265	0	-0	0	0	0	0	0	-0	0	0.105	-0.015	0	0	-0	0	0	-0.098	0.1	0	-0	0	0	0	0	0	-0	0	0.05595	0	0	0	-0	0	0	0	0	0	-0	0	562.219	562.792	344.707	215.385	-0.102651	0.493508	0.00636136	-0.00453408	-0.957511
53	0.0368277	-0.0207307	0.00651063	0.000914906	-0.0147603	-0.04236	0.0216636	0.0285378	-0.000514831	-1.70013	0.151305	0.225146	0.0501689	-0.00313267	0.0229974	-2.18463	-0.0089867	-1.56704	0	0	0	0	-0	0	0	0	-0.1265	0	-0	0	0	0	0	0	-0	0	0.105	-0.015	0	0	-0	0	0	-0.098	0.1	0	-0	0	0	0	0	0	-0	0	0.05595	0	0	0	-0	0	0	0	0	0	-0	0	562.22	562.797	344.754	215.4	-0.102734	0.493963	0.00637312	-0.00450811	-0.958527
54	0.039921	-0.0207347	0.00650984	0.000912979	-0.0147634	-0.0423588	0.0216636	0.0285378	-0.000514717	-1.70012	0.151302	0.225153	0.0500966	-0.0031327	0.0231527	-2.1816	-0.00911213	-1.56721	0	0	0	0	-0	0	0	0	-0.1265	0	-0	0	0	0	0	0	-0	0	0.105	-0.015	0	0	-0	0	0	-0.098	0.1	0	-0	0	0	0	0	0	-0	0	0.05595	0	0	0	-0	0	0	0	0	0	-0	0	562.226	562.811	344.856	215.431	-0.102898	0.495364	0.00638451	-0.00445713	-0.961759
55	0.0418043	-0.0207361	0.00650938	0.000911992	-0.0147646	-0.0423585	0.0216636	0.0285379	-0.000514667	-1.70012	0.1513	0.225157	0.0500526	-0.00313263	0.0232473	-2.17973	-0.00914782	-1.56726	0	0	0	0	-0	0	0	0	-0.1265	0	-0	0	0	0	0	0	-0	0	0.105	-0.015	0	0	-0	0	0	-0.098	0.1	0	-0	0	0	0	0	0	-0	0	0.05595	0	0	0	-0	0	0	0	0	0	-0	0	562.228	562.815	344.882	215.439	-0.102929	0.495351	0.00639398	-0.00444111	-0.961732
56	0.0438455	-0.020737	0.00650919	0.000911412	-0.0147654	-0.0423583	0.0216636	0.0285379	-0.000514634	-1.70012	0.151299	0.225159	0.0500049	-0.00313262	0.0233496	-2.1777	-0.00917982	-1.56731	0	0	0	0	-0	0	0	0	-0.1265	0	-0	0	0	0	0	0	-0	0	0.105	-0.015	0	0	-0	0	0	-0.098	0.1	0	-0	0	0	0	0	0	-0	0	0.05595	0	0	0	-0	0	0	0	0	0	-0	0	562.23	562.818	344.905	215.446	-0.102953	0.495512	0.00639811	-0.0044294	-0.962126
57	0.0415695	-0.0207378	0.00650902	0.000911017	-0.014766	-0.042358	0.0216636	0.0285379	-0.000514614	-1.70012	0.151298	0.225161	0.0500579	-0.00313261	0.0232358	-2.17999	-0.00919023	-1.56731	0	0	0	0	-0	0	0	0	-0.1265	0	-0	0	0	0	0	0	-0	0	0.105	-0.015	0	0	-0	0	0	-0.098	0.1	0	-0	0	0	0	0	0	-0	0	0.05595	0	0	0	-0	0	0	0	0	0	-0	0	562.231	562.819	344.921	215.452	-0.102987	0.495724	0.00640205	-0.00442063	-0.962594
58	0.0444036	-0.0207393	0.00650873	0.00091036	-0.0147671	-0.0423576	0.0216636	0.0285379	-0.000514576	-1.70012	0.151297	0.225164	0.0499919	-0.00313263	0.0233778	-2.17717	-0.00924077	-1.56738	0	0	0	0	-0	0	0	0	-0.1265	0	-0	0	0	0	0	0	-0	0	0.105	-0.015	0	0	-0	0	0	-0.098	0.1	0	-0	0	0	0	0	0	-0	0	0.05595	0	0	0	-0	0	0	0	0	0	-0	0	562.233	562.823	344.958	215.463	-0.103049	0.496247	0.00640676	-0.00440236	-0.963807
59	0.0417764	-0.0207415	0.00650827	0.000909274	-0.0147689	-0.0423571	0.0216635	0.0285379	-0.000514511	-1.70012	0.151295	0.225168	0.050053	-0.00313265	0.0232466	-2.17983	-0.00929131	-1.56743	0	0	0	0	-0	0	0	0	-0.1265	0	-0	0	0	0	0	0	-0	0	0.105	-0.015	0	0	-0	0	0	-0.098	0.1	0	-0	0	0	0	0	0	-0	0	0.05595	0	0	0	-0	0	0	0	0	0	-0	0	562.235	562.831	345.011	215.479	-0.103124	0.496901	0.00641241	-0.00437518	-0.965343
60	0.0396935	-0.0207427	0.00650795	0.000908579	-0.0147699	-0.0423567	0.0216635	0.028538	-0.000514477	-1.70012	0.151294	0.225171	0.0501011	-0.00313262	0.0231425	-2.18193	-0.00931381	-1.56744	0	0	0	0	-0	0	0	0	-0.1265	0	-0	0	0	0	0	0	-0	0	0.105	-0.015	0	0	-0	0	0	-0.098	0.1	0	-0	0	0	0	0	0	-0	0	0.05595	0	0	0	-0	0	0	0	0	0	-0	0	562.237	562.834	345.038	215.487	-0.103182	0.497201	0.00641969	-0.00436059	-0.965981
61	0.040559	-0.0207453	0.00650745	0.00090733	-0.0147719	-0.042356	0.0216635	0.028538	-0.000514402	-1.70012	0.151292	0.225175	0.0500809	-0.00313267	0.023186	-2.1811	-0.00938953	-1.56754	0	0	0	0	-0	0	0	0	-0.1265	0	-0	0	0	0	0	0	-0	0	0.105	-0.015	0	0	-0	0	0	-0.098	0.1	0	-0	0	0	0	0	0	-0	0	0.05595	0	0	0	-0	0	0	0	0	0	-0	0	562.24	562.842	345.103	215.507	-0.10326	0.497955	0.00642628	-0.00432813	-0.967808
62	0.0348251	-0.0207503	0.00650647	0.000904846	-0.0147759	-0.0423547	0.0216635	0.0285381	-0.000514256	-1.70011	0.151288	0.225185	0.0502137	-0.00313274	0.0228993	-2.1869	-0.00951337	-1.56765	0	0	0	0	-0	0	0	0	-0.1265	0	-0	0	0	0	0	0	-0	0	0.105	-0.015	0	0	-0	0	0	-0.098	0.1	0	-0	0	0	0	0	0	-0	0	0.05595	0	0	0	-0	0	0	0	0	0	-0	0	562.244	562.856	345.23	215.542	-0.103435	0.499488	0.00643999	-0.00426418	-0.971437
63	0.0315259	-0.0207532	0.0065057	0.000903393	-0.0147783	-0.0423539	0.0216634	0.0285381	-0.000514185	-1.70011	0.151285	0.225192	0.0502882	-0.00313269	0.0227337	-2.19023	-0.00957282	-1.5677	0	0	0	0	-0	0	0	0	-0.1265	0	-0	0	0	0	0	0	-0	0	0.105	-0.015	0	0	-0	0	0	-0.098	0.1	0	-0	0	0	0	0	0	-0	0	0.05595	0	0	0	-0	0	0	0	0	0	-0	0	562.249	562.864	345.292	215.56	-0.10356	0.500155	0.00645445	-0.00423012	-0.972858
64	0.0341407	-0.0207545	0.00650536	0.000902618	-0.0147793	-0.0423536	0.0216634	0.0285382	-0.000514145	-1.70011	0.151284	0.225196	0.0502284	-0.00313266	0.0228652	-2.18763	-0.00960915	-1.56776	0	0	0	0	-0	0	0	0	-0.1265	0	-0	0	0	0	0	0	-0	0	0.105	-0.015	0	0	-0	0	0	-0.098	0.1	0	-0	0	0	0	0	0	-0	0	0.05595	0	0	0	-0	0	0	0	0	0	-0	0	562.25	562.867	345.317	215.567	-0.1036	0.500319	0.00646159	-0.00421591	-0.973227
65	0.0332807	-0.0207564	0.00650498	0.000901625	-0.0147808	-0.0423531	0.0216634	0.0285382	-0.000514087	-1.70011	0.151282	0.225199	0.0502478	-0.00313267	0.0228222	-2.18852	-0.00966304	-1.56781	0	0	0	0	-0	0	0	0	-0.1265	0	-0	0	0	0	0	0	-0	0	0.105	-0.015	0	0	-0	0	0	-0.098	0.1	0	-0	0	0	0	0	0	-0	0	0.05595	0	0	0	-0	0	0	0	0	0	-0	0	562.253	562.874	345.367	215.582	-0.103683	0.501003	0.00646738	-0.00419062	-0.974797
66	0.035149	-0.0207577	0.00650466	0.000900938	-0.0147818	-0.0423528	0.0216634	0.0285382	-0.000514051	-1.70011	0.151281	0.225202	0.0502051	-0.00313266	0.0229162	-2.18666	-0.00969852	-1.56787	0	0	0	0	-0	0	0	0	-0.1265	0	-0	0	0	0	0	0	-0	0	0.105	-0.015	0	0	-0	0	0	-0.098	0.1	0	-0	0	0	0	0	0	-0	0	0.05595	0	0	0	-0	0	0	0	0	0	-0	0	562.254	562.876	345.394	215.59	-0.10372	0.501212	0.00647314	-0.00417608	-0.975291
67	0.032039	-0.0207585	0.00650446	0.00090052	-0.0147825	-0.0423525	0.0216634	0.0285382	-0.000514029	-1.70011	0.15128	0.225204	0.0502762	-0.00313266	0.0227601	-2.18978	-0.00971157	-1.56786	0	0	0	0	-0	0	0	0	-0.1265	0	-0	0	0	0	0	0	-0	0	0.105	-0.015	0	0	-0	0	0	-0.098	0.1	0	-0	0	0	0	0	0	-0	0	0.05595	0	0	0	-0	0	0	0	0	0	-0	0	562.256	562.879	345.413	215.596	-0.103754	0.501425	0.0064771	-0.0041656	-0.975774
68	0.0342804	-0.0207592	0.00650428	0.000900214	-0.014783	-0.0423523	0.0216634	0.0285382	-0.000514014	-1.70011	0.151279	0.225206	0.0502249	-0.00313266	0.0228728	-2.18755	-0.00973468	-1.5679	0	0	0	0	-0	0	0	0	-0.1265	0	-0	0	0	0	0	0	-0	0	0.105	-0.015	0	0	-0	0	0	-0.098	0.1	0	-0	0	0	0	0	0	-0	0	0.05595	0	0	0	-0	0	0	0	0	0	-0	0	562.256	562.88	345.428	215.6	-0.103792	0.501664	0.00648009	-0.00415776	-0.976283
69	0.0339698	-0.0207604	0.00650405	0.000899579	-0.014784	-0.042352	0.0216633	0.0285383	-0.000513974	-1.70011	0.151279	0.225208	0.0502318	-0.00313267	0.0228573	-2.18788	-0.0097704	-1.56794	0	0	0	0	-0	0	0	0	-0.1265	0	-0	0	0	0	0	0	-0	0	0.105	-0.015	0	0	-0	0	0	-0.098	0.1	0	-0	0	0	0	0	0	-0	0	0.05595	0	0	0	-0	0	0	0	0	0	-0	0	562.258	562.885	345.461	215.609	-0.103831	0.502045	0.00648276	-0.00414149	-0.9772
70	0.0350073	-0.0207608	0.00650391	0.00089934	-0.0147843	-0.042352	0.0216633	0.0285383	-0.000513964	-1.70011	0.151278	0.225209	0.0502081	-0.00313265	0.0229095	-2.18684	-0.00977827	-1.56796	0	0	0	0	-0	0	0	0	-0.1265	0	-0	0	0	0	0	0	-0	0	0.105	-0.015	0	0	-0	0	0	-0.098	0.1	0	-0	0	0	0	0	0	-0	0	0.05595	0	0	0	-0	0	0	0	0	0	-0	0	562.259	562.886	345.465	215.611	-0.10385	0.502079	0.0064857	-0.00413825	-0.977239
71	0.0348253	-0.0207611	0.00650385	0.000899184	-0.0147846	-0.0423518	0.0216633	0.0285383	-0.000513956	-1.70011	0.151278	0.22521	0.0502122	-0.00313265	0.0229004	-2.18703	-0.00978796	-1.56797	0	0	0	0	-0	0	0	0	-0.1265	0	-0	0	0	0	0	0	-0	0	0.105	-0.015	0	0	-0	0	0	-0.098	0.1	0	-0	0	0	0	0	0	-0	0	0.05595	0	0	0	-0	0	0	0	0	0	-0	0	562.259	562.887	345.474	215.613	-0.103865	0.502188	0.00648728	-0.00413367	-0.977489
72	0.0352909	-0.0207616	0.00650375	0.000898884	-0.014785	-0.0423517	0.0216633	0.0285383	-0.000513939	-1.70011	0.151277	0.225211	0.0502015	-0.00313265	0.0229238	-2.18657	-0.00980443	-1.56799	0	0	0	0	-0	0	0	0	-0.1265	0	-0	0	0	0	0	0	-0	0	0.105	-0.015	0	0	-0	0	0	-0.098	0.1	0	-0	0	0	0	0	0	-0	0	0.05595	0	0	0	-0	0	0	0	0	0	-0	0	562.26	562.888	345.487	215.617	-0.103875	0.50229	0.00648912	-0.00412685	-0.977756
73	0.0344044	-0.0207624	0.00650359	0.000898497	-0.0147856	-0.0423515	0.0216633	0.0285383	-0.000513916	-1.70011	0.151277	0.225213	0.0502217	-0.00313265	0.0228794	-2.18747	-0.0098244	-1.56801	0	0	0	0	-0	0	0	0	-0.1265	0	-0	0	0	0	0	0	-0	0	0.105	-0.015	0	0	-0	0	0	-0.098	0.1	0	-0	0	0	0	0	0	-0	0	0.05595	0	0	0	-0	0	0	0	0	0	-0	0	562.261	562.891	345.507	215.623	-0.103899	0.502495	0.00649144	-0.00411672	-0.978251
74	0.0354644	-0.0207636	0.00650333	0.000897927	-0.0147866	-0.0423512	0.0216633	0.0285383	-0.000513883	-1.70011	0.151276	0.225215	0.0501974	-0.00313266	0.0229328	-2.18642	-0.00986043	-1.56806	0	0	0	0	-0	0	0	0	-0.1265	0	-0	0	0	0	0	0	-0	0	0.105	-0.015	0	0	-0	0	0	-0.098	0.1	0	-0	0	0	0	0	0	-0	0	0.05595	0	0	0	-0	0	0	0	0	0	-0	0	562.263	562.895	345.537	215.631	-0.10396	0.502973	0.00649484	-0.00410172	-0.979317
75	0.0359226	-0.0207653	0.00650299	0.000897037	-0.014788	-0.0423507	0.0216633	0.0285383	-0.000513832	-1.7001	0.151274	0.225218	0.0501868	-0.00313267	0.022956	-2.18599	-0.00990972	-1.56812	0	0	0	0	-0	0	0	0	-0.1265	0	-0	0	0	0	0	0	-0	0	0.105	-0.015	0	0	-0	0	0	-0.098	0.1	0	-0	0	0	0	0	0	-0	0	0.05595	0	0	0	-0	0	0	0	0	0	-0	0	562.265	562.9	345.58	215.643	-0.104019	0.503458	0.00650031	-0.00407998	-0.980462
76	0.0370145	-0.0207658	0.00650281	0.000896771	-0.0147883	-0.0423506	0.0216633	0.0285383	-0.000513822	-1.7001	0.151274	0.22522	0.0501617	-0.00313265	0.0230109	-2.1849	-0.00991909	-1.56814	0	0	0	0	-0	0	0	0	-0.1265	0	-0	0	0	0	0	0	-0	0	0.105	-0.015	0	0	-0	0	0	-0.098	0.1	0	-0	0	0	0	0	0	-0	0	0.05595	0	0	0	-0	0	0	0	0	0	-0	0	562.265	562.9	345.585	215.645	-0.104039	0.503469	0.00650393	-0.00407576	-0.980448
77	0.0367945	-0.0207662	0.00650273	0.00089655	-0.0147887	-0.0423505	0.0216633	0.0285384	-0.000513809	-1.7001	0.151273	0.225221	0.0501667	-0.00313265	0.0229999	-2.18512	-0.00993189	-1.56815	0	0	0	0	-0	0	0	0	-0.1265	0	-0	0	0	0	0	0	-0	0	0.105	-0.015	0	0	-0	0	0	-0.098	0.1	0	-0	0	0	0	0	0	-0	0	0.05595	0	0	0	-0	0	0	0	0	0	-0	0	562.266	562.902	345.597	215.648	-0.104045	0.503542	0.00650556	-0.00406978	-0.980653
78	0.0365467	-0.0207669	0.0065026	0.000896185	-0.0147893	-0.0423503	0.0216633	0.0285384	-0.000513786	-1.7001	0.151273	0.225222	0.0501723	-0.00313266	0.0229876	-2.18538	-0.00995113	-1.56817	0	0	0	0	-0	0	0	0	-0.1265	0	-0	0	0	0	0	0	-0	0	0.105	-0.015	0	0	-0	0	0	-0.098	0.1	0	-0	0	0	0	0	0	-0	0	0.05595	0	0	0	-0	0	0	0	0	0	-0	0	562.267	562.904	345.615	215.653	-0.104064	0.503721	0.00650715	-0.00406079	-0.981088
79	0.033286	-0.020768	0.00650238	0.000895662	-0.0147901	-0.04235	0.0216633	0.0285384	-0.000513757	-1.7001	0.151272	0.225224	0.0502472	-0.00313267	0.022824	-2.18866	-0.00997174	-1.56817	0	0	0	0	-0	0	0	0	-0.1265	0	-0	0	0	0	0	0	-0	0	0.105	-0.015	0	0	-0	0	0	-0.098	0.1	0	-0	0	0	0	0	0	-0	0	0.05595	0	0	0	-0	0	0	0	0	0	-0	0	562.268	562.907	345.641	215.661	-0.104104	0.504041	0.00651058	-0.00404757	-0.981839
80	0.0326762	-0.0207696	0.00650205	0.000894954	-0.0147913	-0.0423496	0.0216633	0.0285384	-0.000513718	-1.7001	0.151271	0.225227	0.0502609	-0.0031327	0.0227933	-2.18928	-0.0100129	-1.56821	0	0	0	0	-0	0	0	0	-0.1265	0	-0	0	0	0	0	0	-0	0	0.105	-0.015	0	0	-0	0	0	-0.098	0.1	0	-0	0	0	0	0	0	-0	0	0.05595	0	0	0	-0	0	0	0	0	0	-0	0	562.269	562.911	345.679	215.671	-0.104162	0.504518	0.00651546	-0.00402829	-0.982954
81	0.0324526	-0.0207718	0.00650158	0.000893877	-0.0147931	-0.0423491	0.0216632	0.0285384	-0.000513656	-1.7001	0.151269	0.225231	0.0502658	-0.00313269	0.0227825	-2.18954	-0.0100742	-1.56828	0	0	0	0	-0	0	0	0	-0.1265	0	-0	0	0	0	0	0	-0	0	0.105	-0.015	0	0	-0	0	0	-0.098	0.1	0	-0	0	0	0	0	0	-0	0	0.05595	0	0	0	-0	0	0	0	0	0	-0	0	562.273	562.919	345.734	215.686	-0.104262	0.505297	0.00652156	-0.00400029	-0.984709
82	0.0293762	-0.0207749	0.00650095	0.000892344	-0.0147955	-0.0423482	0.0216632	0.0285385	-0.000513569	-1.7001	0.151266	0.225237	0.0503358	-0.00313271	0.0226282	-2.19265	-0.0101537	-1.56835	0	0	0	0	-0	0	0	0	-0.1265	0	-0	0	0	0	0	0	-0	0	0.105	-0.015	0	0	-0	0	0	-0.098	0.1	0	-0	0	0	0	0	0	-0	0	0.05595	0	0	0	-0	0	0	0	0	0	-0	0	562.276	562.928	345.811	215.706	-0.104389	0.506298	0.00653066	-0.00396091	-0.98701
83	0.0248442	-0.0207766	0.00650052	0.000891386	-0.014797	-0.0423478	0.0216632	0.0285385	-0.000513521	-1.7001	0.151264	0.225242	0.050438	-0.00313269	0.0224002	-2.1972	-0.0101851	-1.56836	0	0	0	0	-0	0	0	0	-0.1265	0	-0	0	0	0	0	0	-0	0	0.105	-0.015	0	0	-0	0	0	-0.098	0.1	0	-0	0	0	0	0	0	-0	0	0.05595	0	0	0	-0	0	0	0	0	0	-0	0	562.278	562.932	345.848	215.716	-0.104442	0.506548	0.00653939	-0.00394026	-0.987582
84	0.0265036	-0.0207771	0.00650034	0.000891194	-0.0147974	-0.0423477	0.0216632	0.0285385	-0.000513515	-1.7001	0.151264	0.225244	0.0504002	-0.00313267	0.0224837	-2.19554	-0.0101979	-1.56838	0	0	0	0	-0	0	0	0	-0.1265	0	-0	0	0	0	0	0	-0	0	0.105	-0.015	0	0	-0	0	0	-0.098	0.1	0	-0	0	0	0	0	0	-0	0	0.05595	0	0	0	-0	0	0	0	0	0	-0	0	562.279	562.933	345.856	215.718	-0.104466	0.506599	0.00654334	-0.00393531	-0.987658
85	0.0266876	-0.0207776	0.00650025	0.000890802	-0.0147978	-0.0423475	0.0216632	0.0285385	-0.00051349	-1.7001	0.151263	0.225245	0.0503959	-0.00313267	0.0224931	-2.19537	-0.0102162	-1.5684	0	0	0	0	-0	0	0	0	-0.1265	0	-0	0	0	0	0	0	-0	0	0.105	-0.015	0	0	-0	0	0	-0.098	0.1	0	-0	0	0	0	0	0	-0	0	0.05595	0	0	0	-0	0	0	0	0	0	-0	0	562.28	562.935	345.871	215.723	-0.104475	0.506705	0.0065448	-0.00392741	-0.987945
86	0.0300708	-0.0207785	0.00650006	0.000890346	-0.0147986	-0.0423473	0.0216632	0.0285386	-0.000513463	-1.7001	0.151263	0.225246	0.0503197	-0.00313266	0.0226638	-2.192	-0.0102503	-1.56847	0	0	0	0	-0	0	0	0	-0.1265	0	-0	0	0	0	0	0	-0	0	0.105	-0.015	0	0	-0	0	0	-0.098	0.1	0	-0	0	0	0	0	0	-0	0	0.05595	0	0	0	-0	0	0	0	0	0	-0	0	562.282	562.939	345.894	215.729	-0.104501	0.506939	0.00654702	-0.00391572	-0.988509
87	0.0261725	-0.0207791	0.0064999	0.000890124	-0.014799	-0.0423472	0.0216632	0.0285386	-0.000513453	-1.7001	0.151262	0.225247	0.0504078	-0.00313267	0.0224675	-2.1959	-0.0102539	-1.56844	0	0	0	0	-0	0	0	0	-0.1265	0	-0	0	0	0	0	0	-0	0	0.105	-0.015	0	0	-0	0	0	-0.098	0.1	0	-0	0	0	0	0	0	-0	0	0.05595	0	0	0	-0	0	0	0	0	0	-0	0	562.282	562.94	345.906	215.732	-0.104533	0.507127	0.0065497	-0.00390943	-0.988908
88	0.029026	-0.0207795	0.00649981	0.000889955	-0.0147993	-0.042347	0.0216632	0.0285386	-0.000513446	-1.7001	0.151262	0.225248	0.0503433	-0.00313266	0.0226112	-2.19305	-0.0102703	-1.56848	0	0	0	0	-0	0	0	0	-0.1265	0	-0	0	0	0	0	0	-0	0	0.105	-0.015	0	0	-0	0	0	-0.098	0.1	0	-0	0	0	0	0	0	-0	0	0.05595	0	0	0	-0	0	0	0	0	0	-0	0	562.283	562.941	345.914	215.734	-0.104557	0.507257	0.00655188	-0.00390487	-0.989172
89	0.0267052	-0.0207797	0.00649976	0.000889773	-0.0147995	-0.042347	0.0216632	0.0285386	-0.000513436	-1.7001	0.151261	0.225249	0.0503955	-0.00313266	0.0224944	-2.19538	-0.010272	-1.56847	0	0	0	0	-0	0	0	0	-0.1265	0	-0	0	0	0	0	0	-0	0	0.105	-0.015	0	0	-0	0	0	-0.098	0.1	0	-0	0	0	0	0	0	-0	0	0.05595	0	0	0	-0	0	0	0	0	0	-0	0	562.283	562.941	345.92	215.736	-0.104564	0.50731	0.00655306	-0.0039015	-0.989304
90	0.0248005	-0.0207803	0.00649966	0.000889463	-0.0147999	-0.0423468	0.0216631	0.0285386	-0.000513419	-1.7001	0.151261	0.22525	0.0504382	-0.00313267	0.0223983	-2.19729	-0.0102836	-1.56847	0	0	0	0	-0	0	0	0	-0.1265	0	-0	0	0	0	0	0	-0	0	0.105	-0.015	0	0	-0	0	0	-0.098	0.1	0	-0	0	0	0	0	0	-0	0	0.05595	0	0	0	-0	0	0	0	0	0	-0	0	562.284	562.943	345.934	215.74	-0.104592	0.507521	0.00655514	-0.00389442	-0.989779
91	0.0261514	-0.0207811	0.00649947	0.000889072	-0.0148006	-0.0423466	0.0216631	0.0285386	-0.000513397	-1.7001	0.15126	0.225252	0.0504079	-0.00313268	0.0224665	-2.19595	-0.0103102	-1.56851	0	0	0	0	-0	0	0	0	-0.1265	0	-0	0	0	0	0	0	-0	0	0.105	-0.015	0	0	-0	0	0	-0.098	0.1	0	-0	0	0	0	0	0	-0	0	0.05595	0	0	0	-0	0	0	0	0	0	-0	0	562.284	562.945	345.955	215.746	-0.10463	0.507828	0.0065579	-0.00388389	-0.990483
92	0.027471	-0.0207813	0.00649939	0.000888916	-0.0148008	-0.0423465	0.0216631	0.0285386	-0.00051339	-1.7001	0.15126	0.225253	0.0503782	-0.00313267	0.022533	-2.19463	-0.0103164	-1.56853	0	0	0	0	-0	0	0	0	-0.1265	0	-0	0	0	0	0	0	-0	0	0.105	-0.015	0	0	-0	0	0	-0.098	0.1	0	-0	0	0	0	0	0	-0	0	0.05595	0	0	0	-0	0	0	0	0	0	-0	0	562.284	562.945	345.958	215.747	-0.104637	0.507819	0.00655961	-0.00388184	-0.990452
93	0.0277226	-0.0207815	0.00649934	0.000888812	-0.014801	-0.0423465	0.0216631	0.0285386	-0.000513384	-1.70009	0.15126	0.225254	0.0503725	-0.00313267	0.0225457	-2.19438	-0.0103235	-1.56854	0	0	0	0	-0	0	0	0	-0.1265	0	-0	0	0	0	0	0	-0	0	0.105	-0.015	0	0	-0	0	0	-0.098	0.1	0	-0	0	0	0	0	0	-0	0	0.05595	0	0	0	-0	0	0	0	0	0	-0	0	562.285	562.946	345.964	215.748	-0.104643	0.507872	0.00656017	-0.00387892	-0.990581
94	0.0282946	-0.0207819	0.00649927	0.000888644	-0.0148012	-0.0423464	0.0216631	0.0285386	-0.000513375	-1.70009	0.151259	0.225254	0.0503595	-0.00313266	0.0225746	-2.19381	-0.0103346	-1.56855	0	0	0	0	-0	0	0	0	-0.1265	0	-0	0	0	0	0	0	-0	0	0.105	-0.015	0	0	-0	0	0	-0.098	0.1	0	-0	0	0	0	0	0	-0	0	0.05595	0	0	0	-0	0	0	0	0	0	-0	0	562.286	562.947	345.972	215.751	-0.104659	0.507986	0.00656157	-0.00387449	-0.990834
95	0.0305607	-0.0207824	0.00649918	0.000888389	-0.0148017	-0.0423462	0.0216631	0.0285386	-0.000513359	-1.70009	0.151259	0.225255	0.0503083	-0.00313267	0.0226888	-2.19155	-0.0103541	-1.56859	0	0	0	0	-0	0	0	0	-0.1265	0	-0	0	0	0	0	0	-0	0	0.105	-0.015	0	0	-0	0	0	-0.098	0.1	0	-0	0	0	0	0	0	-0	0	0.05595	0	0	0	-0	0	0	0	0	0	-0	0	562.286	562.949	345.985	215.754	-0.104673	0.508121	0.00656275	-0.00386803	-0.99117
96	0.0333782	-0.0207832	0.00649902	0.000888033	-0.0148023	-0.0423461	0.0216631	0.0285386	-0.000513339	-1.70009	0.151258	0.225257	0.0502442	-0.00313268	0.0228305	-2.18874	-0.0103815	-1.56865	0	0	0	0	-0	0	0	0	-0.1265	0	-0	0	0	0	0	0	-0	0	0.105	-0.015	0	0	-0	0	0	-0.098	0.1	0	-0	0	0	0	0	0	-0	0	0.05595	0	0	0	-0	0	0	0	0	0	-0	0	562.287	562.951	346.004	215.759	-0.104702	0.508363	0.00656484	-0.00385845	-0.99173
97	0.0295078	-0.0207843	0.00649879	0.000887516	-0.0148031	-0.0423457	0.0216631	0.0285386	-0.000513311	-1.70009	0.151258	0.225259	0.0503324	-0.00313269	0.0226361	-2.19263	-0.0104041	-1.56864	0	0	0	0	-0	0	0	0	-0.1265	0	-0	0	0	0	0	0	-0	0	0.105	-0.015	0	0	-0	0	0	-0.098	0.1	0	-0	0	0	0	0	0	-0	0	0.05595	0	0	0	-0	0	0	0	0	0	-0	0	562.288	562.954	346.031	215.767	-0.104749	0.50872	0.00656866	-0.00384445	-0.992551
98	0.0264455	-0.0207849	0.00649864	0.000887181	-0.0148037	-0.0423456	0.0216631	0.0285387	-0.000513294	-1.70009	0.151257	0.22526	0.0504012	-0.00313268	0.0224819	-2.1957	-0.0104129	-1.56863	0	0	0	0	-0	0	0	0	-0.1265	0	-0	0	0	0	0	0	-0	0	0.105	-0.015	0	0	-0	0	0	-0.098	0.1	0	-0	0	0	0	0	0	-0	0	0.05595	0	0	0	-0	0	0	0	0	0	-0	0	562.289	562.956	346.045	215.77	-0.104765	0.508787	0.00657183	-0.00383697	-0.992708
99	0.0282612	-0.020786	0.00649841	0.00088661	-0.0148046	-0.0423453	0.0216631	0.0285387	-0.00051326	-1.70009	0.151256	0.225262	0.0503601	-0.00313268	0.0225735	-2.1939	-0.0104506	-1.56868	0	0	0	0	-0	0	0	0	-0.1265	0	-0	0	0	0	0	0	-0	0	0.105	-0.015	0	0	-0	0	0	-0.098	0.1	0	-0	0	0	0	0	0	-0	0	0.05595	0	0	0	-0	0	0	0	0	0	-0	0	562.291	562.96	346.074	215.778	-0.10482	0.509249	0.0065745	-0.003822	-0.993764
100	0.0302422	-0.0207867	0.00649825	0.000886211	-0.0148051	-0.0423451	0.0216631	0.0285387	-0.000513239	-1.70009	0.151255	0.225264	0.0503152	-0.00313267	0.0226733	-2.19192	-0.0104713	-1.56872	0	0	0	0	-0	0	0	0	-0.1265	0	-0	0	0	0	0	0	-0	0	0.105	-0.015	0	0	-0	0	0	-0.098	0.1	0	-0	0	0	0	0	0	-0	0	0.05595	0	0	0	-0	0	0	0	0	0	-0	0	562.292	562.962	346.089	215.782	-0.104831	0.509286	0.00657758	-0.00381393	-0.993867
