Stefan210/kinematic_calibration/src/kinematic_calibration/validation/experiments/experiments/anzahl_messungen/AB_C/larm_80/optimization_intermediate_results.csv
iteration	HeadPitch_offset	HeadYaw_offset	LElbowRoll_offset	LElbowYaw_offset	LShoulderPitch_offset	LShoulderRoll_offset	marker_transform_larm_tx	marker_transform_larm_ty	marker_transform_larm_tz	marker_transform_larm_rr	marker_transform_larm_rp	marker_transform_larm_ry	camera_transform_tx	camera_transform_ty	camera_transform_tz	camera_transform_rr	camera_transform_rp	camera_transform_ry	HeadPitch_transform_tx	HeadPitch_transform_ty	HeadPitch_transform_tz	HeadPitch_transform_rr	HeadPitch_transform_rp	HeadPitch_transform_ry	HeadYaw_transform_tx	HeadYaw_transform_ty	HeadYaw_transform_tz	HeadYaw_transform_rr	HeadYaw_transform_rp	HeadYaw_transform_ry	LElbowRoll_transform_tx	LElbowRoll_transform_ty	LElbowRoll_transform_tz	LElbowRoll_transform_rr	LElbowRoll_transform_rp	LElbowRoll_transform_ry	LElbowYaw_transform_tx	LElbowYaw_transform_ty	LElbowYaw_transform_tz	LElbowYaw_transform_rr	LElbowYaw_transform_rp	LElbowYaw_transform_ry	LShoulderPitch_transform_tx	LShoulderPitch_transform_ty	LShoulderPitch_transform_tz	LShoulderPitch_transform_rr	LShoulderPitch_transform_rp	LShoulderPitch_transform_ry	LShoulderRoll_transform_tx	LShoulderRoll_transform_ty	LShoulderRoll_transform_tz	LShoulderRoll_transform_rr	LShoulderRoll_transform_rp	LShoulderRoll_transform_ry	LWristYaw_transform_tx	LWristYaw_transform_ty	LWristYaw_transform_tz	LWristYaw_transform_rr	LWristYaw_transform_rp	LWristYaw_transform_ry	l_wrist_joint_transform_tx	l_wrist_joint_transform_ty	l_wrist_joint_transform_tz	l_wrist_joint_transform_rr	l_wrist_joint_transform_rp	l_wrist_joint_transform_ry	camera_fx	camera_fy	camera_cx	camera_cy	camera_D0	camera_D1	camera_D2	camera_D3	camera_D4	
0	0.0249164	-0.0307543	0.000853157	4.65819e-06	-0.000318322	-0.00310766	0.05071	0	0.01774	-2.26369	1.66533e-16	-1.5708	545.901	551.038	324.928	201.58	0.0255298	2.61142	-0.0636736	-0.0350419	0.213964
1	-0.0155417	0.00498308	0.0274836	0.0275125	0.00365639	0.0325585	0.0251618	-0.0300875	0.00244734	-0.000192358	-0.000475883	-0.00301141	0.0566625	-0.000441652	0.0157515	-2.20063	0.00263051	-1.53701	0	0	0	0	-0	0	0	0	-0.1265	0	-0	0	0	0	0	0	-0	0	0.105	0.015	0	0	-0	0	0	0.098	0.1	0	-0	0	0	0	0	0	-0	0	0.05595	0	0	0	-0	0	0	0	0	0	-0	0	545.901	551.039	324.928	201.581	-0.0153945	2.59961	-0.0981306	0.0309049	0.211651
2	-0.0156895	0.0158585	0.0271467	0.03615	-0.00223898	0.0348434	0.0253224	-0.0301811	0.00314971	-0.000274429	-0.000544019	-0.00300116	0.0546233	-0.000681772	0.0185465	-2.20087	0.000564005	-1.54891	0	0	0	0	-0	0	0	0	-0.1265	0	-0	0	0	0	0	0	-0	0	0.105	0.015	0	0	-0	0	0	0.098	0.1	0	-0	0	0	0	0	0	-0	0	0.05595	0	0	0	-0	0	0	0	0	0	-0	0	545.903	551.039	324.926	201.585	-0.166217	2.50899	-0.060833	0.00346835	0.18395
3	-0.0161751	0.0190597	0.025475	0.0329125	-0.0026745	0.0347946	0.0252237	-0.030113	0.00276629	-0.000228705	-0.000512364	-0.00300802	0.0562093	-0.000421005	0.0160558	-2.19829	-0.000407479	-1.55344	0	0	0	0	-0	0	0	0	-0.1265	0	-0	0	0	0	0	0	-0	0	0.105	0.015	0	0	-0	0	0	0.098	0.1	0	-0	0	0	0	0	0	-0	0	0.05595	0	0	0	-0	0	0	0	0	0	-0	0	545.908	551.04	324.923	201.593	-0.448259	2.33183	-0.0295603	-0.00355649	0.130437
4	-0.0161781	0.0271125	0.0236452	0.0291981	-0.00586414	0.0337995	0.0251092	-0.0299628	0.00230199	-0.000174642	-0.000465469	-0.00301134	0.0576366	-0.00040509	0.0143243	-2.19783	-0.0032033	-1.56275	0	0	0	0	-0	0	0	0	-0.1265	0	-0	0	0	0	0	0	-0	0	0.105	0.015	0	0	-0	0	0	0.098	0.1	0	-0	0	0	0	0	0	-0	0	0.05595	0	0	0	-0	0	0	0	0	0	-0	0	545.918	551.039	324.919	201.606	-0.691143	2.03446	0.00870346	-0.0137251	0.0267138
5	-0.0158964	0.0309579	0.0211919	0.0286033	-0.00738109	0.0327985	0.0249648	-0.0298564	0.00219139	-0.000154231	-0.000451541	-0.00299828	0.0577039	-0.000437029	0.0143726	-2.19906	-0.00413258	-1.56728	0	0	0	0	-0	0	0	0	-0.1265	0	-0	0	0	0	0	0	-0	0	0.105	0.015	0	0	-0	0	0	0.098	0.1	0	-0	0	0	0	0	0	-0	0	0.05595	0	0	0	-0	0	0	0	0	0	-0	0	545.941	551.034	324.916	201.622	-0.628716	1.57194	0.0150991	-0.0161934	-0.159792
6	-0.0153999	0.0313318	0.0192686	0.0289145	-0.00752773	0.0317247	0.0248464	-0.0297928	0.00222299	7.48157e-05	-0.000480606	-0.0030015	0.0569161	-0.000488944	0.0154563	-2.20131	-0.00339714	-1.56772	0	0	0	0	-0	0	0	0	-0.1265	0	-0	0	0	0	0	0	-0	0	0.105	0.015	0	0	-0	0	0	0.098	0.1	0	-0	0	0	0	0	0	-0	0	0.05595	0	0	0	-0	0	0	0	0	0	-0	0	545.985	551.015	324.922	201.641	-0.387691	0.91276	0.00533841	-0.0151769	-0.428594
7	-0.0151171	0.0313356	0.0181004	0.0292478	-0.00759645	0.0309462	0.0247762	-0.0297512	0.00226258	4.70421e-05	-0.000503413	-0.00289503	0.0561392	-0.00054873	0.0164989	-2.20328	-0.00281507	-1.56759	0	0	0	0	-0	0	0	0	-0.1265	0	-0	0	0	0	0	0	-0	0	0.105	0.015	0	0	-0	0	0	0.098	0.1	0	-0	0	0	0	0	0	-0	0	0.05595	0	0	0	-0	0	0	0	0	0	-0	0	546.07	550.959	324.94	201.649	-0.166299	0.301798	-0.00364032	-0.0142081	-0.646062
8	-0.0150454	0.0313901	0.0176372	0.0295545	-0.00767372	0.0306026	0.0247532	-0.0297341	0.00229249	-0.000361432	-0.000165532	-0.0034956	0.0557087	-0.000586477	0.0170632	-2.20427	-0.00266303	-1.56749	0	0	0	0	-0	0	0	0	-0.1265	0	-0	0	0	0	0	0	-0	0	0.105	0.015	0	0	-0	0	0	0.098	0.1	0	-0	0	0	0	0	0	-0	0	0.05595	0	0	0	-0	0	0	0	0	0	-0	0	546.282	550.788	324.956	201.635	-0.0576426	-0.0402248	-0.00696225	-0.0138966	-0.662975
9	-0.0153685	0.0314534	0.0174829	0.0297976	-0.00772907	0.0303742	0.0247446	-0.0297263	0.00230962	0.000330031	-0.000765429	-0.00368127	0.0554876	-0.000603449	0.0173278	-2.20497	-0.00269368	-1.56743	0	0	0	0	-0	0	0	0	-0.1265	0	-0	0	0	0	0	0	-0	0	0.105	0.015	0	0	-0	0	0	0.098	0.1	0	-0	0	0	0	0	0	-0	0	0.05595	0	0	0	-0	0	0	0	0	0	-0	0	546.864	550.299	324.94	201.569	-0.0259583	-0.228357	-0.00576306	-0.0139091	-0.38997
10	-0.0106426	0.0316455	0.0173106	0.0301389	-0.00786894	0.0298994	0.0247269	-0.0297099	0.00232759	-0.000670204	0.00072964	-0.00715677	0.0550548	-0.000621881	0.0180276	-2.20065	-0.00285609	-1.56749	0	0	0	0	-0	0	0	0	-0.1265	0	-0	0	0	0	0	0	-0	0	0.105	0.015	0	0	-0	0	0	0.098	0.1	0	-0	0	0	0	0	0	-0	0	0.05595	0	0	0	-0	0	0	0	0	0	-0	0	548.293	549.045	324.878	201.378	-0.00411866	-0.53138	-0.00060938	-0.0140466	0.351606
11	-0.0160059	0.0320095	0.0170191	0.0307262	-0.0081376	0.0290043	0.0246924	-0.0296792	0.0023565	-0.00960982	0.00812179	-0.0116704	0.0545105	-0.000654059	0.0185239	-2.20658	-0.00321839	-1.56771	0	0	0	0	-0	0	0	0	-0.1265	0	-0	0	0	0	0	0	-0	0	0.105	0.015	0	0	-0	0	0	0.098	0.1	0	-0	0	0	0	0	0	-0	0	0.05595	0	0	0	-0	0	0	0	0	0	-0	0	550.847	546.501	324.849	200.945	0.0326292	-1.09481	0.00944985	-0.0142975	1.77738
12	0.00616597	0.0323637	0.016748	0.0313022	-0.00841632	0.0280049	0.0246606	-0.0296494	0.00237268	-0.0349888	0.0387285	-0.0305524	0.0534293	-0.000688795	0.0205897	-2.18434	-0.00428393	-1.56867	0	0	0	0	-0	0	0	0	-0.1265	0	-0	0	0	0	0	0	-0	0	0.105	0.015	0	0	-0	0	0	0.098	0.1	0	-0	0	0	0	0	0	-0	0	0.05595	0	0	0	-0	0	0	0	0	0	-0	0	553.036	542.918	325.317	200.159	0.0843648	-1.8149	0.020966	-0.0144616	3.60653
13	0.0231876	0.0324916	0.0167144	0.0313901	-0.00850864	0.0277142	0.0246454	-0.029638	0.00238706	-0.0328738	0.0374227	-0.033947	0.0528545	-0.000700301	0.0217198	-2.16718	-0.004936	-1.56943	0	0	0	0	-0	0	0	0	-0.1265	0	-0	0	0	0	0	0	-0	0	0.105	0.015	0	0	-0	0	0	0.098	0.1	0	-0	0	0	0	0	0	-0	0	0.05595	0	0	0	-0	0	0	0	0	0	-0	0	553.436	541.664	325.748	199.885	0.102784	-2.04666	0.0244303	-0.0144543	4.18658
14	0.0282829	0.032548	0.0166912	0.0314544	-0.00856261	0.0274997	0.0246519	-0.0296464	0.00238515	-0.0288955	0.0474571	-0.0644302	0.0526179	-0.000706518	0.022119	-2.16161	-0.00580777	-1.5704	0	0	0	0	-0	0	0	0	-0.1265	0	-0	0	0	0	0	0	-0	0	0.105	0.015	0	0	-0	0	0	0.098	0.1	0	-0	0	0	0	0	0	-0	0	0.05595	0	0	0	-0	0	0	0	0	0	-0	0	553.381	540.391	326.417	199.543	0.121409	-2.24518	0.026813	-0.0143543	4.66179
15	0.0446765	0.0325708	0.0166982	0.0314561	-0.00858445	0.0274037	0.0246421	-0.0296305	0.002385	-0.0294772	0.0267931	-0.0600713	0.0522194	-0.000709194	0.0230232	-2.14481	-0.00642851	-1.57119	0	0	0	0	-0	0	0	0	-0.1265	0	-0	0	0	0	0	0	-0	0	0.105	0.015	0	0	-0	0	0	0.098	0.1	0	-0	0	0	0	0	0	-0	0	0.05595	0	0	0	-0	0	0	0	0	0	-0	0	553.169	539.639	326.917	199.315	0.131181	-2.338	0.02786	-0.0142755	4.86853
16	0.0573789	0.0325692	0.0167127	0.0314453	-0.00859162	0.0273456	0.0246437	-0.0296383	0.00237962	-0.0319646	0.0367966	-0.0855932	0.0519126	-0.000710384	0.0236919	-2.13169	-0.00695794	-1.5719	0	0	0	0	-0	0	0	0	-0.1265	0	-0	0	0	0	0	0	-0	0	0.105	0.015	0	0	-0	0	0	0.098	0.1	0	-0	0	0	0	0	0	-0	0	0.05595	0	0	0	-0	0	0	0	0	0	-0	0	552.906	539.039	327.373	199.107	0.137273	-2.39084	0.0284605	-0.0141836	4.98077
17	0.0429466	0.0325679	0.0167262	0.031433	-0.00859517	0.0273124	0.0246359	-0.0296312	0.00238396	-0.023967	0.0328346	-0.0962914	0.0522536	-0.000711073	0.0229383	-2.1458	-0.0073622	-1.57225	0	0	0	0	-0	0	0	0	-0.1265	0	-0	0	0	0	0	0	-0	0	0.105	0.015	0	0	-0	0	0	0.098	0.1	0	-0	0	0	0	0	0	-0	0	0.05595	0	0	0	-0	0	0	0	0	0	-0	0	552.69	538.634	327.708	198.957	0.14083	-2.41846	0.0287987	-0.0141235	5.03145
18	0.0442221	0.0325534	0.0167447	0.0314121	-0.00859429	0.0272763	0.0246368	-0.0296353	0.00237764	-0.0106247	0.0354999	-0.0813518	0.0522316	-0.000711514	0.0229897	-2.14403	-0.0079244	-1.5729	0	0	0	0	-0	0	0	0	-0.1265	0	-0	0	0	0	0	0	-0	0	0.105	0.015	0	0	-0	0	0	0.098	0.1	0	-0	0	0	0	0	0	-0	0	0.05595	0	0	0	-0	0	0	0	0	0	-0	0	552.359	538.104	328.19	198.734	0.145201	-2.44521	0.0290808	-0.0140168	5.07115
19	0.0490057	0.0325521	0.0167572	0.0314044	-0.00859557	0.0272646	0.0246362	-0.02963	0.00237892	-0.0116046	0.0239835	-0.0832723	0.0521306	-0.000711812	0.0232304	-2.13904	-0.00813848	-1.5732	0	0	0	0	-0	0	0	0	-0.1265	0	-0	0	0	0	0	0	-0	0	0.105	0.015	0	0	-0	0	0	0.098	0.1	0	-0	0	0	0	0	0	-0	0	0.05595	0	0	0	-0	0	0	0	0	0	-0	0	552.23	537.896	328.381	198.644	0.145591	-2.44893	0.0292422	-0.0139887	5.07425
20	0.0525251	0.0325428	0.0167687	0.0313909	-0.00859397	0.0272484	0.0246408	-0.0296318	0.00237281	-0.0161824	0.0445376	-0.0971729	0.0520581	-0.00071199	0.0234034	-2.13525	-0.00842664	-1.57358	0	0	0	0	-0	0	0	0	-0.1265	0	-0	0	0	0	0	0	-0	0	0.105	0.015	0	0	-0	0	0	0.098	0.1	0	-0	0	0	0	0	0	-0	0	0.05595	0	0	0	-0	0	0	0	0	0	-0	0	552.055	537.632	328.64	198.522	0.147033	-2.45485	0.0293557	-0.0139309	5.07487
21	0.061663	0.0325207	0.0167921	0.0313582	-0.00858807	0.0272214	0.0246431	-0.029646	0.0023769	0.00509252	0.0562748	-0.115308	0.0518662	-0.000712342	0.0238561	-2.1255	-0.00903447	-1.57441	0	0	0	0	-0	0	0	0	-0.1265	0	-0	0	0	0	0	0	-0	0	0.105	0.015	0	0	-0	0	0	0.098	0.1	0	-0	0	0	0	0	0	-0	0	0.05595	0	0	0	-0	0	0	0	0	0	-0	0	551.676	537.118	329.204	198.249	0.150436	-2.46394	0.0294594	-0.0137995	5.06142
22	0.0407696	0.0324979	0.0168228	0.0313254	-0.00858508	0.0271892	0.0246346	-0.029632	0.00237041	0.00739755	0.0612451	-0.113621	0.0523937	-0.000713026	0.0227404	-2.14552	-0.00999323	-1.57527	0	0	0	0	-0	0	0	0	-0.1265	0	-0	0	0	0	0	0	-0	0	0.105	0.015	0	0	-0	0	0	0.098	0.1	0	-0	0	0	0	0	0	-0	0	0.05595	0	0	0	-0	0	0	0	0	0	-0	0	551.18	536.46	329.987	197.847	0.153701	-2.46732	0.0295959	-0.0136274	5.025
23	0.0572782	0.032489	0.0168462	0.0313133	-0.00858577	0.0271768	0.0246473	-0.0296438	0.00237418	0.0034687	0.0417806	-0.137498	0.0520258	-0.000713462	0.0235789	-2.12856	-0.0103474	-1.57592	0	0	0	0	-0	0	0	0	-0.1265	0	-0	0	0	0	0	0	-0	0	0.105	0.015	0	0	-0	0	0	0.098	0.1	0	-0	0	0	0	0	0	-0	0	0.05595	0	0	0	-0	0	0	0	0	0	-0	0	550.975	536.161	330.352	197.647	0.15212	-2.45289	0.0297588	-0.0135589	4.9832
24	0.05897	0.0324862	0.0168578	0.0313042	-0.00858737	0.0271646	0.0246376	-0.0296369	0.00236555	-0.00337327	0.0444259	-0.153584	0.0519908	-0.00071388	0.0236524	-2.12655	-0.0106454	-1.57632	0	0	0	0	-0	0	0	0	-0.1265	0	-0	0	0	0	0	0	-0	0	0.105	0.015	0	0	-0	0	0	0.098	0.1	0	-0	0	0	0	0	0	-0	0	0.05595	0	0	0	-0	0	0	0	0	0	-0	0	550.827	535.951	330.627	197.503	0.151638	-2.4435	0.0298489	-0.0135103	4.94724
25	0.05101	0.0324736	0.0168738	0.0312921	-0.00858609	0.0271511	0.0246401	-0.0296386	0.00236633	-0.0136727	0.0296496	-0.146983	0.0521918	-0.000714383	0.0232255	-2.13406	-0.0111363	-1.57677	0	0	0	0	-0	0	0	0	-0.1265	0	-0	0	0	0	0	0	-0	0	0.105	0.015	0	0	-0	0	0	0.098	0.1	0	-0	0	0	0	0	0	-0	0	0.05595	0	0	0	-0	0	0	0	0	0	-0	0	550.628	535.677	331.026	197.289	0.151752	-2.43448	0.0298987	-0.013414	4.9091
26	0.0494008	0.0324766	0.0168804	0.0312915	-0.00858894	0.0271494	0.0246359	-0.0296344	0.00236635	-0.0135973	0.0234556	-0.151612	0.052233	-0.000714526	0.0231351	-2.13557	-0.0112427	-1.57687	0	0	0	0	-0	0	0	0	-0.1265	0	-0	0	0	0	0	0	-0	0	0.105	0.015	0	0	-0	0	0	0.098	0.1	0	-0	0	0	0	0	0	-0	0	0.05595	0	0	0	-0	0	0	0	0	0	-0	0	550.591	535.621	331.107	197.246	0.150696	-2.42874	0.0299692	-0.0134093	4.89698
27	0.0436721	0.0324732	0.0168852	0.031289	-0.00858886	0.0271449	0.0246352	-0.0296344	0.0023656	-0.0147698	0.0233577	-0.154288	0.0523696	-0.000714675	0.0228315	-2.14117	-0.0114033	-1.57695	0	0	0	0	-0	0	0	0	-0.1265	0	-0	0	0	0	0	0	-0	0	0.105	0.015	0	0	-0	0	0	0.098	0.1	0	-0	0	0	0	0	0	-0	0	0.05595	0	0	0	-0	0	0	0	0	0	-0	0	550.542	535.545	331.218	197.187	0.150166	-2.42252	0.0299982	-0.0133835	4.8786
28	0.0387147	0.0324609	0.0168987	0.0312754	-0.00858877	0.0271282	0.024637	-0.0296367	0.00236265	-0.0111201	0.0174041	-0.142354	0.0524921	-0.000715345	0.0225611	-2.14559	-0.0119867	-1.57755	0	0	0	0	-0	0	0	0	-0.1265	0	-0	0	0	0	0	0	-0	0	0.105	0.015	0	0	-0	0	0	0.098	0.1	0	-0	0	0	0	0	0	-0	0	0.05595	0	0	0	-0	0	0	0	0	0	-0	0	550.324	535.253	331.705	196.93	0.150924	-2.41327	0.0300055	-0.0132622	4.83235
29	0.0331152	0.0324599	0.0169101	0.0312726	-0.00859151	0.0271221	0.0246373	-0.0296368	0.00236523	-0.0144703	0.0259279	-0.13236	0.0526267	-0.000715775	0.0222574	-2.15092	-0.0122966	-1.57779	0	0	0	0	-0	0	0	0	-0.1265	0	-0	0	0	0	0	0	-0	0	0.105	0.015	0	0	-0	0	0	0.098	0.1	0	-0	0	0	0	0	0	-0	0	0.05595	0	0	0	-0	0	0	0	0	0	-0	0	550.229	535.116	331.938	196.803	0.149497	-2.40069	0.0300842	-0.0132219	4.79788
30	0.0346997	0.0324548	0.0169203	0.0312659	-0.00859355	0.0271123	0.0246352	-0.0296384	0.00235998	0.00194938	0.0179318	-0.12297	0.0525984	-0.000716278	0.0223322	-2.14895	-0.0126833	-1.57828	0	0	0	0	-0	0	0	0	-0.1265	0	-0	0	0	0	0	0	-0	0	0.105	0.015	0	0	-0	0	0	0.098	0.1	0	-0	0	0	0	0	0	-0	0	0.05595	0	0	0	-0	0	0	0	0	0	-0	0	550.094	534.934	332.284	196.62	0.149029	-2.3889	0.0301054	-0.0131416	4.75685
31	0.0421161	0.0324562	0.0169267	0.0312658	-0.0085956	0.0271105	0.0246359	-0.0296365	0.00236288	0.00488639	0.015477	-0.12805	0.0524373	-0.000716483	0.0227176	-2.14142	-0.0127411	-1.5785	0	0	0	0	-0	0	0	0	-0.1265	0	-0	0	0	0	0	0	-0	0	0.105	0.015	0	0	-0	0	0	0.098	0.1	0	-0	0	0	0	0	0	-0	0	0.05595	0	0	0	-0	0	0	0	0	0	-0	0	550.061	534.881	332.382	196.568	0.147904	-2.38172	0.0301643	-0.0131294	4.74065
32	0.0342239	0.0324547	0.0169306	0.0312642	-0.00859685	0.0271057	0.0246358	-0.029638	0.00236215	-0.00503482	0.0125993	-0.130023	0.0526181	-0.00071671	0.0223002	-2.14917	-0.0129548	-1.57859	0	0	0	0	-0	0	0	0	-0.1265	0	-0	0	0	0	0	0	-0	0	0.105	0.015	0	0	-0	0	0	0.098	0.1	0	-0	0	0	0	0	0	-0	0	0.05595	0	0	0	-0	0	0	0	0	0	-0	0	550.017	534.812	332.516	196.499	0.147313	-2.37466	0.0301899	-0.0130993	4.71975
33	0.0344731	0.0324544	0.0169342	0.0312636	-0.00859805	0.0271028	0.0246362	-0.029638	0.00236155	0.00229808	0.0144136	-0.123106	0.0526133	-0.000716904	0.0223101	-2.14882	-0.0130694	-1.57872	0	0	0	0	-0	0	0	0	-0.1265	0	-0	0	0	0	0	0	-0	0	0.105	0.015	0	0	-0	0	0	0.098	0.1	0	-0	0	0	0	0	0	-0	0	0.05595	0	0	0	-0	0	0	0	0	0	-0	0	549.984	534.762	332.616	196.448	0.146819	-2.36961	0.0302142	-0.0130794	4.70532
34	0.0240661	0.0324527	0.0169382	0.0312621	-0.00859923	0.0270979	0.0246381	-0.0296403	0.00236335	0.00934692	0.0137944	-0.137463	0.0528478	-0.000717181	0.0217602	-2.15907	-0.0133235	-1.57879	0	0	0	0	-0	0	0	0	-0.1265	0	-0	0	0	0	0	0	-0	0	0.105	0.015	0	0	-0	0	0	0.098	0.1	0	-0	0	0	0	0	0	-0	0	0.05595	0	0	0	-0	0	0	0	0	0	-0	0	549.937	534.69	332.765	196.372	0.146434	-2.36364	0.0302346	-0.0130452	4.68621
35	0.0161271	0.0324497	0.0169452	0.0312583	-0.00860199	0.0270896	0.0246378	-0.0296384	0.00236112	0.00440511	0.00300374	-0.13514	0.0530217	-0.000717743	0.0213354	-2.16667	-0.0137694	-1.57912	0	0	0	0	-0	0	0	0	-0.1265	0	-0	0	0	0	0	0	-0	0	0.105	0.015	0	0	-0	0	0	0.098	0.1	0	-0	0	0	0	0	0	-0	0	0.05595	0	0	0	-0	0	0	0	0	0	-0	0	549.833	534.552	333.094	196.206	0.146073	-2.35276	0.0302338	-0.0129669	4.64834
36	0.00283239	0.0324501	0.016952	0.0312574	-0.00860448	0.0270871	0.0246358	-0.0296372	0.00236096	0.00151323	0.00663879	-0.134336	0.053308	-0.000717992	0.020625	-2.17979	-0.0140715	-1.57915	0	0	0	0	-0	0	0	0	-0.1265	0	-0	0	0	0	0	0	-0	0	0.105	0.015	0	0	-0	0	0	0.098	0.1	0	-0	0	0	0	0	0	-0	0	0.05595	0	0	0	-0	0	0	0	0	0	-0	0	549.789	534.488	333.254	196.125	0.144935	-2.34372	0.030273	-0.0129363	4.62606
37	0.00605185	0.0324471	0.0169596	0.0312543	-0.00860772	0.0270786	0.0246361	-0.0296375	0.00236073	-0.00369394	0.0142547	-0.132561	0.0532403	-0.000718607	0.0207911	-2.17622	-0.014467	-1.57966	0	0	0	0	-0	0	0	0	-0.1265	0	-0	0	0	0	0	0	-0	0	0.105	0.015	0	0	-0	0	0	0.098	0.1	0	-0	0	0	0	0	0	-0	0	0.05595	0	0	0	-0	0	0	0	0	0	-0	0	549.692	534.353	333.611	195.95	0.144183	-2.32999	0.0302752	-0.0128495	4.58244
38	0.00172792	0.0324498	0.0169648	0.0312559	-0.00861074	0.0270775	0.0246362	-0.029638	0.00236028	-0.00210583	0.0177025	-0.131985	0.0533336	-0.00071876	0.0205567	-2.18045	-0.0146211	-1.57972	0	0	0	0	-0	0	0	0	-0.1265	0	-0	0	0	0	0	0	-0	0	0.105	0.015	0	0	-0	0	0	0.098	0.1	0	-0	0	0	0	0	0	-0	0	0.05595	0	0	0	-0	0	0	0	0	0	-0	0	549.671	534.319	333.706	195.904	0.142899	-2.32246	0.0303306	-0.0128382	4.5671
39	0.00526156	0.0324498	0.0169678	0.0312553	-0.00861243	0.0270739	0.0246357	-0.0296386	0.00235966	-0.0111137	0.0221894	-0.135042	0.0532617	-0.000719007	0.0207437	-2.17679	-0.0147471	-1.57995	0	0	0	0	-0	0	0	0	-0.1265	0	-0	0	0	0	0	0	-0	0	0.105	0.015	0	0	-0	0	0	0.098	0.1	0	-0	0	0	0	0	0	-0	0	0.05595	0	0	0	-0	0	0	0	0	0	-0	0	549.642	534.272	333.839	195.842	0.142317	-2.31584	0.0303465	-0.012808	4.54822
40	0.00718298	0.0324497	0.0169718	0.0312556	-0.00861498	0.0270696	0.0246378	-0.0296401	0.00235782	-0.0172195	0.0296618	-0.147064	0.053223	-0.000719384	0.0208444	-2.17468	-0.0149612	-1.58024	0	0	0	0	-0	0	0	0	-0.1265	0	-0	0	0	0	0	0	-0	0	0.105	0.015	0	0	-0	0	0	0.098	0.1	0	-0	0	0	0	0	0	-0	0	0.05595	0	0	0	-0	0	0	0	0	0	-0	0	549.601	534.21	334.035	195.751	0.141569	-2.30686	0.0303595	-0.0127629	4.52239
41	0.0144987	0.0324506	0.0169758	0.0312554	-0.00861727	0.0270668	0.0246362	-0.0296439	0.00236197	0.00142737	0.03029	-0.153702	0.0530723	-0.000719659	0.0212318	-2.16723	-0.0150638	-1.58054	0	0	0	0	-0	0	0	0	-0.1265	0	-0	0	0	0	0	0	-0	0	0.105	0.015	0	0	-0	0	0	0.098	0.1	0	-0	0	0	0	0	0	-0	0	0.05595	0	0	0	-0	0	0	0	0	0	-0	0	549.573	534.166	334.18	195.685	0.140679	-2.29879	0.0303829	-0.0127332	4.50125
42	0.0159794	0.0324525	0.0169781	0.0312579	-0.00861986	0.0270648	0.024638	-0.0296409	0.00235979	-0.00123113	0.0272518	-0.141706	0.0530414	-0.000719874	0.0213079	-2.16565	-0.0151776	-1.58071	0	0	0	0	-0	0	0	0	-0.1265	0	-0	0	0	0	0	0	-0	0	0.105	0.015	0	0	-0	0	0	0.098	0.1	0	-0	0	0	0	0	0	-0	0	0.05595	0	0	0	-0	0	0	0	0	0	-0	0	549.552	534.133	334.289	195.636	0.139839	-2.29173	0.0304064	-0.0127132	4.48332
43	0.0189462	0.0324523	0.0169808	0.0312567	-0.00862075	0.0270633	0.0246364	-0.0296395	0.00235953	-0.00697033	0.0242404	-0.144654	0.0529793	-0.000719999	0.021464	-2.16261	-0.0152437	-1.58087	0	0	0	0	-0	0	0	0	-0.1265	0	-0	0	0	0	0	0	-0	0	0.105	0.015	0	0	-0	0	0	0.098	0.1	0	-0	0	0	0	0	0	-0	0	0.05595	0	0	0	-0	0	0	0	0	0	-0	0	549.537	534.11	334.371	195.6	0.139298	-2.28699	0.0304174	-0.0126948	4.47145
44	0.0160961	0.0324529	0.0169822	0.0312569	-0.00862158	0.027063	0.0246363	-0.029639	0.00235962	-0.00488827	0.0274255	-0.143361	0.0530411	-0.000720039	0.0213119	-2.16543	-0.015312	-1.58087	0	0	0	0	-0	0	0	0	-0.1265	0	-0	0	0	0	0	0	-0	0	0.105	0.015	0	0	-0	0	0	0.098	0.1	0	-0	0	0	0	0	0	-0	0	0.05595	0	0	0	-0	0	0	0	0	0	-0	0	549.532	534.101	334.405	195.586	0.138922	-2.28451	0.0304289	-0.0126885	4.46626
45	0.0116578	0.0324527	0.0169836	0.0312571	-0.00862262	0.027061	0.0246361	-0.0296389	0.00235945	-0.00193286	0.0259987	-0.141777	0.0531358	-0.000720196	0.0210761	-2.16979	-0.0154569	-1.58091	0	0	0	0	-0	0	0	0	-0.1265	0	-0	0	0	0	0	0	-0	0	0.105	0.015	0	0	-0	0	0	0.098	0.1	0	-0	0	0	0	0	0	-0	0	0.05595	0	0	0	-0	0	0	0	0	0	-0	0	549.518	534.078	334.49	195.55	0.138556	-2.28028	0.0304337	-0.0126679	4.45441
46	0.0123951	0.0324531	0.0169859	0.0312577	-0.00862458	0.0270586	0.0246359	-0.029642	0.00235923	0.0125058	0.0269819	-0.139075	0.0531204	-0.000720454	0.0211145	-2.16894	-0.0156077	-1.58111	0	0	0	0	-0	0	0	0	-0.1265	0	-0	0	0	0	0	0	-0	0	0.105	0.015	0	0	-0	0	0	0.098	0.1	0	-0	0	0	0	0	0	-0	0	0.05595	0	0	0	-0	0	0	0	0	0	-0	0	549.497	534.046	334.625	195.493	0.137926	-2.27341	0.0304379	-0.0126368	4.43562
47	0.00701717	0.0324548	0.0169878	0.031259	-0.00862626	0.0270578	0.0246362	-0.0296391	0.00235941	0.0138067	0.023658	-0.13771	0.053235	-0.000720582	0.0208277	-2.17426	-0.015743	-1.58111	0	0	0	0	-0	0	0	0	-0.1265	0	-0	0	0	0	0	0	-0	0	0.105	0.015	0	0	-0	0	0	0.098	0.1	0	-0	0	0	0	0	0	-0	0	0.05595	0	0	0	-0	0	0	0	0	0	-0	0	549.487	534.03	334.692	195.465	0.137385	-2.26945	0.0304556	-0.0126256	4.4262
48	0.000938417	0.0324548	0.0169896	0.0312585	-0.00862742	0.0270563	0.0246362	-0.0296393	0.00235936	0.0128963	0.0229691	-0.139417	0.0533614	-0.000720712	0.0205032	-2.18027	-0.0159114	-1.58113	0	0	0	0	-0	0	0	0	-0.1265	0	-0	0	0	0	0	0	-0	0	0.105	0.015	0	0	-0	0	0	0.098	0.1	0	-0	0	0	0	0	0	-0	0	0.05595	0	0	0	-0	0	0	0	0	0	-0	0	549.474	534.01	334.781	195.428	0.136928	-2.26489	0.0304592	-0.012604	4.41438
49	0.0041886	0.0324557	0.0169909	0.0312588	-0.00862831	0.0270561	0.0246362	-0.0296393	0.00235934	0.0125695	0.0223429	-0.138281	0.0532946	-0.000720753	0.0206753	-2.17699	-0.0159141	-1.58122	0	0	0	0	-0	0	0	0	-0.1265	0	-0	0	0	0	0	0	-0	0	0.105	0.015	0	0	-0	0	0	0.098	0.1	0	-0	0	0	0	0	0	-0	0	0.05595	0	0	0	-0	0	0	0	0	0	-0	0	549.47	534.003	334.811	195.416	0.136556	-2.26257	0.0304718	-0.0125997	4.40952
50	0.00548134	0.032456	0.0169914	0.0312589	-0.00862876	0.0270557	0.0246364	-0.0296397	0.00235955	0.00907586	0.022206	-0.1342	0.0532679	-0.00072079	0.0207439	-2.17568	-0.0159291	-1.58128	0	0	0	0	-0	0	0	0	-0.1265	0	-0	0	0	0	0	0	-0	0	0.105	0.015	0	0	-0	0	0	0.098	0.1	0	-0	0	0	0	0	0	-0	0	0.05595	0	0	0	-0	0	0	0	0	0	-0	0	549.467	533.998	334.835	195.407	0.13638	-2.26111	0.0304757	-0.0125946	4.40591
