Stefan210/kinematic_calibration/src/kinematic_calibration/validation/experiments/experiments/impact_noise/bad_precision/larm_noise_3_pixel_rk_false/optimization_intermediate_results.csv
iteration	HeadPitch_offset	HeadYaw_offset	LElbowRoll_offset	LElbowYaw_offset	LShoulderPitch_offset	LShoulderRoll_offset	marker_transform_larm_tx	marker_transform_larm_ty	marker_transform_larm_tz	marker_transform_larm_rr	marker_transform_larm_rp	marker_transform_larm_ry	camera_transform_tx	camera_transform_ty	camera_transform_tz	camera_transform_rr	camera_transform_rp	camera_transform_ry	HeadPitch_transform_tx	HeadPitch_transform_ty	HeadPitch_transform_tz	HeadPitch_transform_rr	HeadPitch_transform_rp	HeadPitch_transform_ry	HeadYaw_transform_tx	HeadYaw_transform_ty	HeadYaw_transform_tz	HeadYaw_transform_rr	HeadYaw_transform_rp	HeadYaw_transform_ry	LElbowRoll_transform_tx	LElbowRoll_transform_ty	LElbowRoll_transform_tz	LElbowRoll_transform_rr	LElbowRoll_transform_rp	LElbowRoll_transform_ry	LElbowYaw_transform_tx	LElbowYaw_transform_ty	LElbowYaw_transform_tz	LElbowYaw_transform_rr	LElbowYaw_transform_rp	LElbowYaw_transform_ry	LShoulderPitch_transform_tx	LShoulderPitch_transform_ty	LShoulderPitch_transform_tz	LShoulderPitch_transform_rr	LShoulderPitch_transform_rp	LShoulderPitch_transform_ry	LShoulderRoll_transform_tx	LShoulderRoll_transform_ty	LShoulderRoll_transform_tz	LShoulderRoll_transform_rr	LShoulderRoll_transform_rp	LShoulderRoll_transform_ry	LWristYaw_transform_tx	LWristYaw_transform_ty	LWristYaw_transform_tz	LWristYaw_transform_rr	LWristYaw_transform_rp	LWristYaw_transform_ry	l_wrist_joint_transform_tx	l_wrist_joint_transform_ty	l_wrist_joint_transform_tz	l_wrist_joint_transform_rr	l_wrist_joint_transform_rp	l_wrist_joint_transform_ry	camera_fx	camera_fy	camera_cx	camera_cy	camera_D0	camera_D1	camera_D2	camera_D3	camera_D4	
0	0.0249164	-0.0307543	0.000853157	4.65819e-06	-0.000318322	-0.00310766	0.05071	0	0.01774	-2.26369	1.66533e-16	-1.5708	545.901	551.038	324.928	201.58	0.0255298	2.61142	-0.0636736	-0.0350419	0.213964
1	-0.016701	0.00134718	0.0345031	0.0262244	0.0140029	0.0282576	0.0262701	-0.0304716	0.00189756	-0.000123696	-0.000417408	-0.0029141	0.0553757	-0.00192057	0.0139477	-2.19566	0.0054336	-1.53412	0	0	0	0	-0	0	0	0	-0.1265	0	-0	0	0	0	0	0	-0	0	0.105	0.015	0	0	-0	0	0	0.098	0.1	0	-0	0	0	0	0	0	-0	0	0.05595	0	0	0	-0	0	0	0	0	0	-0	0	545.901	551.039	324.928	201.581	-0.00111141	2.60271	-0.0866239	0.0243306	0.212187
2	-0.0167008	0.0154559	0.0364437	0.0244505	0.00748138	0.0322863	0.0264824	-0.0307076	0.00206676	-0.000141975	-0.000432267	-0.00291322	0.0536772	-0.0019333	0.0171264	-2.1966	0.000731091	-1.54918	0	0	0	0	-0	0	0	0	-0.1265	0	-0	0	0	0	0	0	-0	0	0.105	0.015	0	0	-0	0	0	0.098	0.1	0	-0	0	0	0	0	0	-0	0	0.05595	0	0	0	-0	0	0	0	0	0	-0	0	545.903	551.039	324.926	201.585	-0.120137	2.52573	-0.0591885	0.0024549	0.188643
3	-0.0168686	0.0144424	0.034256	0.0259094	0.00633048	0.0300314	0.0263013	-0.0306176	0.00208957	-0.000142991	-0.000437138	-0.00292795	0.0550094	-0.00179955	0.0152284	-2.1954	0.00198556	-1.54959	0	0	0	0	-0	0	0	0	-0.1265	0	-0	0	0	0	0	0	-0	0	0.105	0.015	0	0	-0	0	0	0.098	0.1	0	-0	0	0	0	0	0	-0	0	0.05595	0	0	0	-0	0	0	0	0	0	-0	0	545.908	551.039	324.923	201.592	-0.359521	2.3658	-0.0336061	-0.00308167	0.140839
4	-0.0165316	0.016784	0.0311339	0.0273265	0.00245749	0.026636	0.0260196	-0.0304537	0.00211204	-0.000149645	-0.000445032	-0.00294881	0.0563205	-0.00180258	0.0138228	-2.19636	0.00171825	-1.5523	0	0	0	0	-0	0	0	0	-0.1265	0	-0	0	0	0	0	0	-0	0	0.105	0.015	0	0	-0	0	0	0.098	0.1	0	-0	0	0	0	0	0	-0	0	0.05595	0	0	0	-0	0	0	0	0	0	-0	0	545.92	551.039	324.918	201.606	-0.62681	2.06501	0.008398	-0.0144568	0.0406909
5	-0.0161839	0.0183989	0.0282805	0.0280212	0.000258633	0.025144	0.0257809	-0.0303594	0.00209969	-0.000148565	-0.000443813	-0.00295981	0.0566402	-0.00181485	0.0135964	-2.19769	0.00217403	-1.55382	0	0	0	0	-0	0	0	0	-0.1265	0	-0	0	0	0	0	0	-0	0	0.105	0.015	0	0	-0	0	0	0.098	0.1	0	-0	0	0	0	0	0	-0	0	0.05595	0	0	0	-0	0	0	0	0	0	-0	0	545.946	551.035	324.912	201.623	-0.629333	1.58356	0.0222388	-0.0196636	-0.141166
6	-0.0158181	0.0181581	0.0263103	0.0281574	9.76277e-05	0.0254523	0.0256352	-0.0303335	0.0020736	-0.000149646	-0.000436136	-0.00295742	0.0559191	-0.00181021	0.0145104	-2.19944	0.00361131	-1.55311	0	0	0	0	-0	0	0	0	-0.1265	0	-0	0	0	0	0	0	-0	0	0.105	0.015	0	0	-0	0	0	0.098	0.1	0	-0	0	0	0	0	0	-0	0	0.05595	0	0	0	-0	0	0	0	0	0	-0	0	545.994	551.025	324.909	201.642	-0.381487	0.865651	0.0117909	-0.0194574	-0.421221
7	-0.0156118	0.0177825	0.0250658	0.0281325	0.000219931	0.026054	0.0255494	-0.030324	0.00206015	-0.000176907	-0.000535005	-0.00298228	0.0550637	-0.00181222	0.0155801	-2.20115	0.00468927	-1.55221	0	0	0	0	-0	0	0	0	-0.1265	0	-0	0	0	0	0	0	-0	0	0.105	0.015	0	0	-0	0	0	0.098	0.1	0	-0	0	0	0	0	0	-0	0	0.05595	0	0	0	-0	0	0	0	0	0	-0	0	546.077	551.002	324.92	201.654	-0.11384	0.138173	-0.000794389	-0.0185265	-0.679466
8	-0.0152149	0.0178079	0.0245536	0.0281082	0.000196892	0.0264032	0.0255152	-0.0303201	0.00206202	0.00016441	-0.000636058	-0.00306231	0.0545547	-0.00182357	0.0162486	-2.20186	0.00501135	-1.55187	0	0	0	0	-0	0	0	0	-0.1265	0	-0	0	0	0	0	0	-0	0	0.105	0.015	0	0	-0	0	0	0.098	0.1	0	-0	0	0	0	0	0	-0	0	0.05595	0	0	0	-0	0	0	0	0	0	-0	0	546.257	550.939	324.937	201.669	0.030914	-0.300767	-0.00635219	-0.0182333	-0.74307
9	-0.0156281	0.0178986	0.0244365	0.0281176	0.000142798	0.0264922	0.0255067	-0.0303195	0.00206918	0.000262914	0.00074721	-0.00215079	0.0543383	-0.00183226	0.0165151	-2.20281	0.00502609	-1.55181	0	0	0	0	-0	0	0	0	-0.1265	0	-0	0	0	0	0	0	-0	0	0.105	0.015	0	0	-0	0	0	0.098	0.1	0	-0	0	0	0	0	0	-0	0	0.05595	0	0	0	-0	0	0	0	0	0	-0	0	546.744	550.764	324.947	201.713	0.0717987	-0.507305	-0.006122	-0.0182777	-0.507098
10	-0.0151008	0.0180574	0.0244059	0.0281229	5.21656e-05	0.0264743	0.0255017	-0.0303203	0.00208049	-0.00011842	0.00501789	0.000767309	0.0540482	-0.00184345	0.0168983	-2.20304	0.0048919	-1.55185	0	0	0	0	-0	0	0	0	-0.1265	0	-0	0	0	0	0	0	-0	0	0.105	0.015	0	0	-0	0	0	0.098	0.1	0	-0	0	0	0	0	0	-0	0	0.05595	0	0	0	-0	0	0	0	0	0	-0	0	548.047	550.315	324.953	201.841	0.0866438	-0.773969	-0.00193304	-0.018461	0.203949
11	-0.0143263	0.0183962	0.0243576	0.0281202	-0.000131783	0.0264153	0.0254913	-0.0303232	0.00210142	0.00490059	0.00678914	0.00389952	0.0534526	-0.00186473	0.017669	-2.20391	0.0045934	-1.55197	0	0	0	0	-0	0	0	0	-0.1265	0	-0	0	0	0	0	0	-0	0	0.105	0.015	0	0	-0	0	0	0.098	0.1	0	-0	0	0	0	0	0	-0	0	0.05595	0	0	0	-0	0	0	0	0	0	-0	0	550.969	549.465	324.961	202.166	0.104793	-1.28847	0.00750451	-0.0188712	1.68555
12	-0.0079392	0.0188857	0.0242616	0.0281343	-0.000376606	0.0263482	0.0254822	-0.0303424	0.00213735	-0.0210296	0.00158193	0.0216718	0.0524893	-0.00189248	0.0190681	-2.20044	0.00415312	-1.55203	0	0	0	0	-0	0	0	0	-0.1265	0	-0	0	0	0	0	0	-0	0	0.105	0.015	0	0	-0	0	0	0.098	0.1	0	-0	0	0	0	0	0	-0	0	0.05595	0	0	0	-0	0	0	0	0	0	-0	0	555.633	548.979	324.906	202.889	0.116237	-1.94809	0.0209532	-0.0195319	3.73788
13	-0.0192483	0.0191127	0.0241852	0.0281739	-0.000469235	0.0263281	0.025474	-0.0303413	0.00215133	-0.0371128	-0.00141217	0.0451975	0.0522559	-0.00190286	0.0190023	-2.21344	0.00424327	-1.5521	0	0	0	0	-0	0	0	0	-0.1265	0	-0	0	0	0	0	0	-0	0	0.105	0.015	0	0	-0	0	0	0.098	0.1	0	-0	0	0	0	0	0	-0	0	0.05595	0	0	0	-0	0	0	0	0	0	-0	0	558.324	549.431	324.862	203.349	0.113099	-2.24011	0.0272338	-0.0198561	4.81341
14	-0.00963979	0.019179	0.0241557	0.0281918	-0.000492548	0.0263209	0.0254616	-0.0303305	0.00215228	-0.0235976	-0.00877205	0.0466999	0.0519416	-0.00190548	0.0196713	-2.20436	0.00401397	-1.55209	0	0	0	0	-0	0	0	0	-0.1265	0	-0	0	0	0	0	0	-0	0	0.105	0.015	0	0	-0	0	0	0.098	0.1	0	-0	0	0	0	0	0	-0	0	0.05595	0	0	0	-0	0	0	0	0	0	-0	0	559.193	549.718	324.862	203.492	0.111502	-2.32061	0.0288978	-0.019932	5.13635
15	-0.00051856	0.0192609	0.024123	0.0282087	-0.000521571	0.0263133	0.0254654	-0.0303362	0.00215406	-0.0285019	-0.00257176	0.0243527	0.0516214	-0.00190927	0.0203063	-2.1959	0.00381125	-1.55209	0	0	0	0	-0	0	0	0	-0.1265	0	-0	0	0	0	0	0	-0	0	0.105	0.015	0	0	-0	0	0	0.098	0.1	0	-0	0	0	0	0	0	-0	0	0.05595	0	0	0	-0	0	0	0	0	0	-0	0	560.123	550.208	324.851	203.688	0.110059	-2.39626	0.0303167	-0.020021	5.43365
16	-0.000731134	0.0193058	0.0241001	0.0282216	-0.000532858	0.0263107	0.0254601	-0.0303294	0.0021612	-0.0311697	-0.0159963	0.020613	0.051541	-0.00191124	0.0203865	-2.19657	0.00380607	-1.5521	0	0	0	0	-0	0	0	0	-0.1265	0	-0	0	0	0	0	0	-0	0	0.105	0.015	0	0	-0	0	0	0.098	0.1	0	-0	0	0	0	0	0	-0	0	0.05595	0	0	0	-0	0	0	0	0	0	-0	0	560.706	550.608	324.84	203.834	0.108755	-2.43372	0.0309731	-0.0200629	5.59584
17	-0.0136521	0.0193597	0.0240695	0.028239	-0.00054452	0.0263073	0.0254572	-0.0303293	0.00216386	-0.0270945	-0.00445379	0.0196029	0.0517155	-0.00191374	0.0198216	-2.21013	0.00405795	-1.55215	0	0	0	0	-0	0	0	0	-0.1265	0	-0	0	0	0	0	0	-0	0	0.105	0.015	0	0	-0	0	0	0.098	0.1	0	-0	0	0	0	0	0	-0	0	0.05595	0	0	0	-0	0	0	0	0	0	-0	0	561.42	551.23	324.813	204.063	0.10586	-2.46066	0.0315004	-0.0201158	5.74262
18	-0.0039066	0.019377	0.0240569	0.0282478	-0.000546807	0.0263063	0.0254535	-0.0303294	0.0021651	-0.0179275	-0.00691435	0.0199164	0.051488	-0.00191445	0.0203609	-2.20063	0.00388169	-1.55211	0	0	0	0	-0	0	0	0	-0.1265	0	-0	0	0	0	0	0	-0	0	0.105	0.015	0	0	-0	0	0	0.098	0.1	0	-0	0	0	0	0	0	-0	0	0.05595	0	0	0	-0	0	0	0	0	0	-0	0	561.688	551.487	324.803	204.157	0.104628	-2.46744	0.0316311	-0.0201289	5.78984
19	-0.00399251	0.019401	0.0240412	0.0282576	-0.000550138	0.0263056	0.025454	-0.0303301	0.00216661	-0.0106712	-0.00152959	0.0254328	0.05145	-0.00191549	0.0203967	-2.20106	0.00389421	-1.55211	0	0	0	0	-0	0	0	0	-0.1265	0	-0	0	0	0	0	0	-0	0	0.105	0.015	0	0	-0	0	0	0.098	0.1	0	-0	0	0	0	0	0	-0	0	0.05595	0	0	0	-0	0	0	0	0	0	-0	0	562.025	551.837	324.788	204.291	0.102544	-2.47055	0.0317611	-0.0201524	5.83362
20	-0.00601424	0.0194301	0.0240198	0.0282707	-0.000551356	0.0263056	0.0254528	-0.0303279	0.0021698	-0.0158746	0.0124954	0.029756	0.0514464	-0.00191677	0.0203421	-2.20359	0.00395472	-1.55211	0	0	0	0	-0	0	0	0	-0.1265	0	-0	0	0	0	0	0	-0	0	0.105	0.015	0	0	-0	0	0	0.098	0.1	0	-0	0	0	0	0	0	-0	0	0.05595	0	0	0	-0	0	0	0	0	0	-0	0	562.472	552.349	324.763	204.5	0.0991892	-2.46622	0.0318272	-0.0201816	5.869
21	0.00597216	0.0194653	0.0239905	0.0282896	-0.0005499	0.0263067	0.0254514	-0.0303303	0.00216913	-0.0192103	0.0168629	0.0169892	0.0511511	-0.00191826	0.0210144	-2.19236	0.00376907	-1.55204	0	0	0	0	-0	0	0	0	-0.1265	0	-0	0	0	0	0	0	-0	0	0.105	0.015	0	0	-0	0	0	0.098	0.1	0	-0	0	0	0	0	0	-0	0	0.05595	0	0	0	-0	0	0	0	0	0	-0	0	563.059	553.078	324.725	204.828	0.0933687	-2.44417	0.0317959	-0.020222	5.87117
22	0.00773632	0.0194939	0.023964	0.0283076	-0.000545792	0.026309	0.0254495	-0.0303326	0.00217525	-0.00590532	0.0135158	0.00432821	0.0510687	-0.0019194	0.0211448	-2.19134	0.00376926	-1.55201	0	0	0	0	-0	0	0	0	-0.1265	0	-0	0	0	0	0	0	-0	0	0.105	0.015	0	0	-0	0	0	0.098	0.1	0	-0	0	0	0	0	0	-0	0	0.05595	0	0	0	-0	0	0	0	0	0	-0	0	563.579	553.763	324.694	205.166	0.087264	-2.41359	0.0316909	-0.0202563	5.84347
23	-0.00650223	0.0195023	0.0239536	0.0283146	-0.000542789	0.0263097	0.0254476	-0.0303277	0.00217305	-0.00450533	0.00723548	0.00325662	0.0513543	-0.00191977	0.0204328	-2.20588	0.00404763	-1.55206	0	0	0	0	-0	0	0	0	-0.1265	0	-0	0	0	0	0	0	-0	0	0.105	0.015	0	0	-0	0	0	0.098	0.1	0	-0	0	0	0	0	0	-0	0	0.05595	0	0	0	-0	0	0	0	0	0	-0	0	563.78	554.035	324.684	205.307	0.0848035	-2.39923	0.03162	-0.0202624	5.82582
24	-0.0156468	0.0195239	0.0239341	0.028328	-0.000539298	0.0263117	0.0254496	-0.0303323	0.00216924	-0.0145134	0.0182304	-0.0143916	0.0515096	-0.00192065	0.0199888	-2.21565	0.00423749	-1.55209	0	0	0	0	-0	0	0	0	-0.1265	0	-0	0	0	0	0	0	-0	0	0.105	0.015	0	0	-0	0	0	0.098	0.1	0	-0	0	0	0	0	0	-0	0	0.05595	0	0	0	-0	0	0	0	0	0	-0	0	564.167	554.562	324.666	205.604	0.0794754	-2.36935	0.0315303	-0.0202944	5.78627
25	0.00178907	0.0195498	0.0239084	0.0283459	-0.000531364	0.0263158	0.0254454	-0.0303315	0.0021708	0.00210527	0.00491364	-0.00132452	0.0511265	-0.00192176	0.02092	-2.19916	0.00392906	-1.55202	0	0	0	0	-0	0	0	0	-0.1265	0	-0	0	0	0	0	0	-0	0	0.105	0.015	0	0	-0	0	0	0.098	0.1	0	-0	0	0	0	0	0	-0	0	0.05595	0	0	0	-0	0	0	0	0	0	-0	0	564.689	555.285	324.648	206.061	0.0716709	-2.32273	0.0313947	-0.0203365	5.7164
26	-0.0169103	0.0195818	0.0238748	0.028372	-0.000519798	0.0263214	0.0254528	-0.0303512	0.00217885	-0.031367	-0.00961834	-0.00560437	0.0514707	-0.0019232	0.0199978	-2.21925	0.0042812	-1.55211	0	0	0	0	-0	0	0	0	-0.1265	0	-0	0	0	0	0	0	-0	0	0.105	0.015	0	0	-0	0	0	0.098	0.1	0	-0	0	0	0	0	0	-0	0	0.05595	0	0	0	-0	0	0	0	0	0	-0	0	565.37	556.239	324.642	206.757	0.0603905	-2.25265	0.0312396	-0.0203988	5.60114
27	-0.0268724	0.0195911	0.0238595	0.0283836	-0.000509675	0.0263259	0.0254423	-0.0303291	0.00217862	-0.0234842	-0.00919299	-0.00348509	0.0516458	-0.00192362	0.019497	-2.22991	0.00445009	-1.55217	0	0	0	0	-0	0	0	0	-0.1265	0	-0	0	0	0	0	0	-0	0	0.105	0.015	0	0	-0	0	0	0.098	0.1	0	-0	0	0	0	0	0	-0	0	0.05595	0	0	0	-0	0	0	0	0	0	-0	0	565.679	556.694	324.656	207.11	0.0549805	-2.21408	0.0311037	-0.020409	5.52899
28	-0.0230334	0.0196116	0.0238394	0.0283986	-0.000502781	0.0263283	0.0254495	-0.0303347	0.00218117	-0.036194	-0.0274081	-0.0108959	0.0515492	-0.00192465	0.0197135	-2.2271	0.00433456	-1.55221	0	0	0	0	-0	0	0	0	-0.1265	0	-0	0	0	0	0	0	-0	0	0.105	0.015	0	0	-0	0	0	0.098	0.1	0	-0	0	0	0	0	0	-0	0	0.05595	0	0	0	-0	0	0	0	0	0	-0	0	566.11	557.308	324.688	207.637	0.0465384	-2.15856	0.031026	-0.0204496	5.42675
29	-0.0203261	0.0196125	0.023836	0.0283995	-0.000498569	0.02633	0.0254424	-0.0303299	0.00218009	-0.0346329	-0.0234815	-0.00156889	0.0514913	-0.00192465	0.0198564	-2.2246	0.00427194	-1.55221	0	0	0	0	-0	0	0	0	-0.1265	0	-0	0	0	0	0	0	-0	0	0.105	0.015	0	0	-0	0	0	0.098	0.1	0	-0	0	0	0	0	0	-0	0	0.05595	0	0	0	-0	0	0	0	0	0	-0	0	566.196	557.433	324.699	207.746	0.0449341	-2.14602	0.0309805	-0.0204424	5.40201
30	-0.0142737	0.0196287	0.0238204	0.028413	-0.000492489	0.0263328	0.0254393	-0.0303492	0.00218403	-0.0725929	-0.0211601	0.0017549	0.0513572	-0.00192547	0.0201809	-2.2194	0.00409792	-1.55225	0	0	0	0	-0	0	0	0	-0.1265	0	-0	0	0	0	0	0	-0	0	0.105	0.015	0	0	-0	0	0	0.098	0.1	0	-0	0	0	0	0	0	-0	0	0.05595	0	0	0	-0	0	0	0	0	0	-0	0	566.526	557.908	324.746	208.191	0.0380223	-2.09992	0.0309448	-0.0204775	5.3131
31	-0.00624523	0.0196352	0.0238131	0.0284204	-0.000488064	0.0263352	0.0254421	-0.0303308	0.00218125	-0.0689366	-0.0178918	-0.00939656	0.0511874	-0.00192571	0.020599	-2.21181	0.00391017	-1.55226	0	0	0	0	-0	0	0	0	-0.1265	0	-0	0	0	0	0	0	-0	0	0.105	0.015	0	0	-0	0	0	0.098	0.1	0	-0	0	0	0	0	0	-0	0	0.05595	0	0	0	-0	0	0	0	0	0	-0	0	566.687	558.136	324.777	208.414	0.0345485	-2.07588	0.0309326	-0.0204852	5.26497
32	-0.00622675	0.0196379	0.0238111	0.0284196	-0.000486827	0.0263354	0.0254408	-0.0303299	0.00218111	-0.0755047	-0.0229041	-0.0120142	0.0511829	-0.00192581	0.0206012	-2.21196	0.00389261	-1.55228	0	0	0	0	-0	0	0	0	-0.1265	0	-0	0	0	0	0	0	-0	0	0.105	0.015	0	0	-0	0	0	0.098	0.1	0	-0	0	0	0	0	0	-0	0	0.05595	0	0	0	-0	0	0	0	0	0	-0	0	566.751	558.227	324.791	208.505	0.0331475	-2.06589	0.0309154	-0.020485	5.24572
33	-0.0119161	0.0196491	0.0238	0.0284292	-0.000481123	0.026338	0.0254385	-0.030333	0.00217965	-0.0943467	-0.0154447	-0.0189769	0.0512902	-0.00192644	0.0203188	-2.21836	0.00392197	-1.55238	0	0	0	0	-0	0	0	0	-0.1265	0	-0	0	0	0	0	0	-0	0	0.105	0.015	0	0	-0	0	0	0.098	0.1	0	-0	0	0	0	0	0	-0	0	0.05595	0	0	0	-0	0	0	0	0	0	-0	0	566.998	558.58	324.851	208.878	0.0277241	-2.02947	0.0309117	-0.0205087	5.17402
34	-0.0239296	0.0196642	0.0237858	0.0284421	-0.000472568	0.0263419	0.0254463	-0.0303285	0.00218822	-0.103521	0.0123879	-0.00992372	0.0515213	-0.00192727	0.0197129	-2.2314	0.00400985	-1.55257	0	0	0	0	-0	0	0	0	-0.1265	0	-0	0	0	0	0	0	-0	0	0.105	0.015	0	0	-0	0	0	0.098	0.1	0	-0	0	0	0	0	0	-0	0	0.05595	0	0	0	-0	0	0	0	0	0	-0	0	567.337	559.065	324.956	209.427	0.0199982	-1.97722	0.0309205	-0.0205354	5.06991
35	-0.0218588	0.0196642	0.0237843	0.0284411	-0.000470126	0.0263428	0.0254393	-0.0303302	0.00218277	-0.109396	0.01048	-0.00530272	0.0514752	-0.00192717	0.0198195	-2.22947	0.00395051	-1.55258	0	0	0	0	-0	0	0	0	-0.1265	0	-0	0	0	0	0	0	-0	0	0.105	0.015	0	0	-0	0	0	0.098	0.1	0	-0	0	0	0	0	0	-0	0	0.05595	0	0	0	-0	0	0	0	0	0	-0	0	567.381	559.131	324.973	209.502	0.0190155	-1.96902	0.0308942	-0.0205232	5.05347
36	-0.0175513	0.0196687	0.023782	0.0284439	-0.000469773	0.0263431	0.0254397	-0.0303305	0.00218296	-0.10825	0.00984635	-0.0143767	0.0513878	-0.00192736	0.0200429	-2.22536	0.0038407	-1.5526	0	0	0	0	-0	0	0	0	-0.1265	0	-0	0	0	0	0	0	-0	0	0.105	0.015	0	0	-0	0	0	0.098	0.1	0	-0	0	0	0	0	0	-0	0	0.05595	0	0	0	-0	0	0	0	0	0	-0	0	567.445	559.22	324.997	209.605	0.0173274	-1.95807	0.0309149	-0.0205305	5.03105
37	-0.0241311	0.0196729	0.0237782	0.028447	-0.00046739	0.0263442	0.0254402	-0.0303321	0.00218292	-0.118155	0.00349057	-0.0197552	0.0515161	-0.00192757	0.0197072	-2.23223	0.00391314	-1.55267	0	0	0	0	-0	0	0	0	-0.1265	0	-0	0	0	0	0	0	-0	0	0.105	0.015	0	0	-0	0	0	0.098	0.1	0	-0	0	0	0	0	0	-0	0	0.05595	0	0	0	-0	0	0	0	0	0	-0	0	567.536	559.349	325.034	209.76	0.0150804	-1.94232	0.0309231	-0.0205362	4.99797
38	-0.0387006	0.0196816	0.0237703	0.0284541	-0.000462184	0.0263467	0.0254379	-0.0303319	0.00218579	-0.132891	0.0114157	-0.0132542	0.0517954	-0.00192809	0.0189621	-2.24744	0.00406471	-1.55284	0	0	0	0	-0	0	0	0	-0.1265	0	-0	0	0	0	0	0	-0	0	0.105	0.015	0	0	-0	0	0	0.098	0.1	0	-0	0	0	0	0	0	-0	0	0.05595	0	0	0	-0	0	0	0	0	0	-0	0	567.731	559.625	325.122	210.102	0.0103788	-1.91014	0.0309505	-0.0205493	4.93164
39	-0.0307642	0.0196866	0.0237667	0.0284574	-0.000460354	0.0263476	0.0254414	-0.0303337	0.00218501	-0.13618	0.0140451	0.00296947	0.0516366	-0.00192825	0.0193739	-2.23982	0.00385923	-1.55287	0	0	0	0	-0	0	0	0	-0.1265	0	-0	0	0	0	0	0	-0	0	0.105	0.015	0	0	-0	0	0	0.098	0.1	0	-0	0	0	0	0	0	-0	0	0.05595	0	0	0	-0	0	0	0	0	0	-0	0	567.826	559.758	325.17	210.272	0.00786982	-1.8928	0.030973	-0.0205508	4.89555
40	-0.0454743	0.0196949	0.0237591	0.0284637	-0.000454127	0.0263504	0.0254438	-0.0303323	0.00218792	-0.13562	-0.00409671	-0.00948012	0.0519144	-0.00192878	0.0186178	-2.25523	0.00397861	-1.55306	0	0	0	0	-0	0	0	0	-0.1265	0	-0	0	0	0	0	0	-0	0	0.105	0.015	0	0	-0	0	0	0.098	0.1	0	-0	0	0	0	0	0	-0	0	0.05595	0	0	0	-0	0	0	0	0	0	-0	0	568.021	560.045	325.283	210.65	0.0028383	-1.85705	0.0309911	-0.0205593	4.81922
41	-0.0563683	0.0197074	0.0237488	0.028473	-0.000446246	0.0263538	0.0254409	-0.0303306	0.00218815	-0.128818	-0.02224	-0.0183385	0.0521039	-0.00192952	0.0180566	-2.26714	0.0039337	-1.55333	0	0	0	0	-0	0	0	0	-0.1265	0	-0	0	0	0	0	0	-0	0	0.105	0.015	0	0	-0	0	0	0.098	0.1	0	-0	0	0	0	0	0	-0	0	0.05595	0	0	0	-0	0	0	0	0	0	-0	0	568.296	560.44	325.466	211.202	-0.00444902	-1.80601	0.0310527	-0.0205674	4.71054
42	-0.0463944	0.0197118	0.0237482	0.0284727	-0.000446367	0.026354	0.0254375	-0.0303308	0.00218432	-0.132627	-0.0211746	-0.0228302	0.0519202	-0.00192949	0.0185756	-2.25735	0.00370977	-1.55333	0	0	0	0	-0	0	0	0	-0.1265	0	-0	0	0	0	0	0	-0	0	0.105	0.015	0	0	-0	0	0	0.098	0.1	0	-0	0	0	0	0	0	-0	0	0.05595	0	0	0	-0	0	0	0	0	0	-0	0	568.344	560.507	325.501	211.298	-0.00614583	-1.79435	0.0310792	-0.0205603	4.68636
43	-0.0585953	0.0197178	0.0237448	0.0284759	-0.000444467	0.0263551	0.0254412	-0.030333	0.00218653	-0.13603	-0.0339236	-0.0330299	0.0521418	-0.00192978	0.0179432	-2.26991	0.00382382	-1.55347	0	0	0	0	-0	0	0	0	-0.1265	0	-0	0	0	0	0	0	-0	0	0.105	0.015	0	0	-0	0	0	0.098	0.1	0	-0	0	0	0	0	0	-0	0	0.05595	0	0	0	-0	0	0	0	0	0	-0	0	568.442	560.644	325.577	211.495	-0.00911712	-1.77327	0.0311233	-0.0205646	4.63889
44	-0.0564079	0.0197241	0.0237402	0.0284797	-0.000440212	0.0263572	0.0254388	-0.0303313	0.0021827	-0.128355	-0.0469638	-0.0245999	0.0520954	-0.00193013	0.0180587	-2.26826	0.00363156	-1.5536	0	0	0	0	-0	0	0	0	-0.1265	0	-0	0	0	0	0	0	-0	0	0.105	0.015	0	0	-0	0	0	0.098	0.1	0	-0	0	0	0	0	0	-0	0	0.05595	0	0	0	-0	0	0	0	0	0	-0	0	568.579	560.835	325.695	211.785	-0.0131977	-1.74359	0.031177	-0.0205643	4.57181
45	-0.0596919	0.0197295	0.0237388	0.0284803	-0.000439596	0.0263578	0.0254361	-0.0303327	0.00218599	-0.113491	-0.0546667	-0.0274511	0.0521534	-0.00193027	0.0178884	-2.2718	0.00360495	-1.55369	0	0	0	0	-0	0	0	0	-0.1265	0	-0	0	0	0	0	0	-0	0	0.105	0.015	0	0	-0	0	0	0.098	0.1	0	-0	0	0	0	0	0	-0	0	0.05595	0	0	0	-0	0	0	0	0	0	-0	0	568.647	560.929	325.758	211.93	-0.0154934	-1.7276	0.0312184	-0.020562	4.53654
46	-0.059578	0.0197317	0.0237379	0.0284814	-0.000439567	0.0263578	0.0254378	-0.0303316	0.0021851	-0.10973	-0.05008	-0.0322147	0.0521506	-0.00193032	0.0178946	-2.2718	0.0035675	-1.55373	0	0	0	0	-0	0	0	0	-0.1265	0	-0	0	0	0	0	0	-0	0	0.105	0.015	0	0	-0	0	0	0.098	0.1	0	-0	0	0	0	0	0	-0	0	0.05595	0	0	0	-0	0	0	0	0	0	-0	0	568.675	560.967	325.785	211.989	-0.016492	-1.72061	0.0312406	-0.0205609	4.52086
47	-0.0620514	0.019733	0.0237374	0.0284814	-0.000438871	0.0263582	0.0254373	-0.0303316	0.00218534	-0.114752	-0.0513785	-0.0282578	0.0521944	-0.00193036	0.017766	-2.27437	0.00357908	-1.55376	0	0	0	0	-0	0	0	0	-0.1265	0	-0	0	0	0	0	0	-0	0	0.105	0.015	0	0	-0	0	0	0.098	0.1	0	-0	0	0	0	0	0	-0	0	0.05595	0	0	0	-0	0	0	0	0	0	-0	0	568.699	560.999	325.808	212.041	-0.0172918	-1.71479	0.0312541	-0.0205598	4.50765
48	-0.0634027	0.0197382	0.023734	0.0284846	-0.000436135	0.0263596	0.0254378	-0.0303376	0.00218689	-0.0954409	-0.0493366	-0.0346584	0.0522157	-0.0019307	0.0176976	-2.27613	0.00346436	-1.55389	0	0	0	0	-0	0	0	0	-0.1265	0	-0	0	0	0	0	0	-0	0	0.105	0.015	0	0	-0	0	0	0.098	0.1	0	-0	0	0	0	0	0	-0	0	0.05595	0	0	0	-0	0	0	0	0	0	-0	0	568.801	561.138	325.913	212.268	-0.0204989	-1.6915	0.0313131	-0.0205602	4.45361
49	-0.0624126	0.0197418	0.0237326	0.0284859	-0.0004351	0.0263605	0.0254374	-0.0303318	0.00218553	-0.0913316	-0.0446539	-0.0323384	0.0521974	-0.00193077	0.0177497	-2.27535	0.00337471	-1.55395	0	0	0	0	-0	0	0	0	-0.1265	0	-0	0	0	0	0	0	-0	0	0.105	0.015	0	0	-0	0	0	0.098	0.1	0	-0	0	0	0	0	0	-0	0	0.05595	0	0	0	-0	0	0	0	0	0	-0	0	568.851	561.209	325.968	212.382	-0.0222476	-1.67884	0.0313429	-0.0205563	4.42469
50	-0.0620034	0.0197463	0.0237306	0.028487	-0.000433588	0.0263611	0.0254355	-0.0303329	0.00218614	-0.109584	-0.0312023	-0.0314736	0.0521889	-0.001931	0.0177718	-2.27525	0.0032577	-1.55405	0	0	0	0	-0	0	0	0	-0.1265	0	-0	0	0	0	0	0	-0	0	0.105	0.015	0	0	-0	0	0	0.098	0.1	0	-0	0	0	0	0	0	-0	0	0.05595	0	0	0	-0	0	0	0	0	0	-0	0	568.922	561.313	326.053	212.551	-0.0246495	-1.66114	0.0313771	-0.0205532	4.38371
51	-0.0528211	0.0197528	0.0237274	0.0284902	-0.000431202	0.0263624	0.02544	-0.0303354	0.00218599	-0.11637	-0.0360357	-0.0173174	0.0520238	-0.00193133	0.0182523	-2.26653	0.00293511	-1.55418	0	0	0	0	-0	0	0	0	-0.1265	0	-0	0	0	0	0	0	-0	0	0.105	0.015	0	0	-0	0	0	0.098	0.1	0	-0	0	0	0	0	0	-0	0	0.05595	0	0	0	-0	0	0	0	0	0	-0	0	569.028	561.464	326.182	212.8	-0.0282861	-1.63445	0.0314396	-0.0205487	4.32126
52	-0.0519954	0.019758	0.0237255	0.028491	-0.000429125	0.0263638	0.0254372	-0.0303339	0.00218398	-0.12651	-0.0317346	-0.0263011	0.052005	-0.00193148	0.0182954	-2.26604	0.00279027	-1.5543	0	0	0	0	-0	0	0	0	-0.1265	0	-0	0	0	0	0	0	-0	0	0.105	0.015	0	0	-0	0	0	0.098	0.1	0	-0	0	0	0	0	0	-0	0	0.05595	0	0	0	-0	0	0	0	0	0	-0	0	569.107	561.575	326.284	212.986	-0.0310123	-1.61429	0.0314854	-0.0205404	4.27444
53	-0.0511393	0.0197615	0.0237253	0.0284909	-0.000429757	0.0263637	0.0254372	-0.0303323	0.00218608	-0.126039	-0.0356441	-0.0323008	0.0519892	-0.00193153	0.01834	-2.2653	0.00272854	-1.55434	0	0	0	0	-0	0	0	0	-0.1265	0	-0	0	0	0	0	0	-0	0	0.105	0.015	0	0	-0	0	0	0.098	0.1	0	-0	0	0	0	0	0	-0	0	0.05595	0	0	0	-0	0	0	0	0	0	-0	0	569.134	561.612	326.319	213.05	-0.0321421	-1.6067	0.031516	-0.0205379	4.25771
54	-0.0529687	0.0197637	0.0237242	0.0284917	-0.00042895	0.026364	0.0254378	-0.0303329	0.0021861	-0.128785	-0.0416781	-0.0387162	0.052022	-0.00193164	0.0182453	-2.26729	0.0026944	-1.55441	0	0	0	0	-0	0	0	0	-0.1265	0	-0	0	0	0	0	0	-0	0	0.105	0.015	0	0	-0	0	0	0.098	0.1	0	-0	0	0	0	0	0	-0	0	0.05595	0	0	0	-0	0	0	0	0	0	-0	0	569.171	561.664	326.369	213.137	-0.0334531	-1.59679	0.0315374	-0.0205346	4.23409
55	-0.048264	0.0197686	0.0237219	0.0284935	-0.000426892	0.0263652	0.0254374	-0.0303353	0.00218323	-0.116332	-0.0467079	-0.0277431	0.0519346	-0.0019319	0.0184911	-2.26293	0.00247152	-1.55453	0	0	0	0	-0	0	0	0	-0.1265	0	-0	0	0	0	0	0	-0	0	0.105	0.015	0	0	-0	0	0	0.098	0.1	0	-0	0	0	0	0	0	-0	0	0.05595	0	0	0	-0	0	0	0	0	0	-0	0	569.251	561.777	326.482	213.33	-0.0362966	-1.57522	0.0315862	-0.0205282	4.18197
56	-0.0453021	0.0197728	0.0237215	0.0284937	-0.000426768	0.0263657	0.0254373	-0.030333	0.00218566	-0.116123	-0.0479625	-0.0197563	0.0518788	-0.00193197	0.018645	-2.26015	0.00234721	-1.55459	0	0	0	0	-0	0	0	0	-0.1265	0	-0	0	0	0	0	0	-0	0	0.105	0.015	0	0	-0	0	0	0.098	0.1	0	-0	0	0	0	0	0	-0	0	0.05595	0	0	0	-0	0	0	0	0	0	-0	0	569.291	561.832	326.54	213.426	-0.0378955	-1.56407	0.0316274	-0.0205238	4.15652
57	-0.0447776	0.0197766	0.0237199	0.0284948	-0.000425621	0.0263662	0.0254369	-0.0303323	0.00218529	-0.1129	-0.0547036	-0.0153953	0.0518677	-0.00193216	0.0186729	-2.25988	0.00222476	-1.5547	0	0	0	0	-0	0	0	0	-0.1265	0	-0	0	0	0	0	0	-0	0	0.105	0.015	0	0	-0	0	0	0.098	0.1	0	-0	0	0	0	0	0	-0	0	0.05595	0	0	0	-0	0	0	0	0	0	-0	0	569.348	561.912	326.629	213.569	-0.0400091	-1.54819	0.03167	-0.0205174	4.1184
58	-0.045132	0.0197826	0.0237177	0.0284963	-0.000423924	0.0263673	0.0254392	-0.0303344	0.00218643	-0.106142	-0.0438742	-0.01137	0.051873	-0.00193244	0.0186553	-2.26062	0.00205623	-1.55486	0	0	0	0	-0	0	0	0	-0.1265	0	-0	0	0	0	0	0	-0	0	0.105	0.015	0	0	-0	0	0	0.098	0.1	0	-0	0	0	0	0	0	-0	0	0.05595	0	0	0	-0	0	0	0	0	0	-0	0	569.432	562.032	326.764	213.782	-0.0431258	-1.52459	0.0317267	-0.0205072	4.06125
59	-0.0491649	0.0197851	0.0237179	0.0284956	-0.000424145	0.0263675	0.0254364	-0.0303325	0.0021859	-0.108615	-0.043701	-0.0112277	0.0519483	-0.00193239	0.0184459	-2.26474	0.00208212	-1.55491	0	0	0	0	-0	0	0	0	-0.1265	0	-0	0	0	0	0	0	-0	0	0.105	0.015	0	0	-0	0	0	0.098	0.1	0	-0	0	0	0	0	0	-0	0	0.05595	0	0	0	-0	0	0	0	0	0	-0	0	569.449	562.056	326.793	213.826	-0.0439608	-1.51879	0.0317473	-0.0205018	4.04861
60	-0.0505976	0.0197875	0.0237173	0.0284962	-0.000424264	0.0263675	0.025437	-0.0303331	0.00218595	-0.104351	-0.038759	-0.0130275	0.051974	-0.00193249	0.0183715	-2.26628	0.00205296	-1.55496	0	0	0	0	-0	0	0	0	-0.1265	0	-0	0	0	0	0	0	-0	0	0.105	0.015	0	0	-0	0	0	0.098	0.1	0	-0	0	0	0	0	0	-0	0	0.05595	0	0	0	-0	0	0	0	0	0	-0	0	569.473	562.089	326.833	213.885	-0.0449527	-1.51157	0.0317724	-0.0205	4.03116
61	-0.0542232	0.0197937	0.0237146	0.0284983	-0.00042148	0.0263689	0.0254382	-0.0303328	0.00218784	-0.109291	-0.0251533	-0.00695664	0.0520389	-0.00193288	0.0181839	-2.27038	0.0018791	-1.55518	0	0	0	0	-0	0	0	0	-0.1265	0	-0	0	0	0	0	0	-0	0	0.105	0.015	0	0	-0	0	0	0.098	0.1	0	-0	0	0	0	0	0	-0	0	0.05595	0	0	0	-0	0	0	0	0	0	-0	0	569.571	562.231	327.012	214.149	-0.0486496	-1.48288	0.0318399	-0.0204857	3.95992
62	-0.0641925	0.0198043	0.0237112	0.0285006	-0.00041849	0.0263706	0.0254374	-0.0303348	0.00218594	-0.115514	-0.0284365	-0.0143671	0.0522183	-0.00193338	0.0176655	-2.28105	0.00167438	-1.55553	0	0	0	0	-0	0	0	0	-0.1265	0	-0	0	0	0	0	0	-0	0	0.105	0.015	0	0	-0	0	0	0.098	0.1	0	-0	0	0	0	0	0	-0	0	0.05595	0	0	0	-0	0	0	0	0	0	-0	0	569.708	562.438	327.289	214.536	-0.0540526	-1.44132	0.0319357	-0.0204582	3.85805
63	-0.0705133	0.0198134	0.0237108	0.0285005	-0.000419103	0.0263713	0.025439	-0.0303374	0.00218854	-0.124234	-0.0255031	0.000823013	0.0523271	-0.00193351	0.0173344	-2.28772	0.00157504	-1.55571	0	0	0	0	-0	0	0	0	-0.1265	0	-0	0	0	0	0	0	-0	0	0.105	0.015	0	0	-0	0	0	0.098	0.1	0	-0	0	0	0	0	0	-0	0	0.05595	0	0	0	-0	0	0	0	0	0	-0	0	569.781	562.539	327.435	214.73	-0.057492	-1.41618	0.0320262	-0.0204431	3.79776
64	-0.0697658	0.0198185	0.0237101	0.0285005	-0.000418467	0.026372	0.025437	-0.0303338	0.00218629	-0.121631	-0.0190653	0.0029383	0.0523126	-0.00193364	0.0173734	-2.28723	0.0014139	-1.55584	0	0	0	0	-0	0	0	0	-0.1265	0	-0	0	0	0	0	0	-0	0	0.105	0.015	0	0	-0	0	0	0.098	0.1	0	-0	0	0	0	0	0	-0	0	0.05595	0	0	0	-0	0	0	0	0	0	-0	0	569.835	562.612	327.548	214.874	-0.0599387	-1.39744	0.0320863	-0.0204301	3.75132
65	-0.0621494	0.019826	0.0237088	0.0285008	-0.000417864	0.0263727	0.0254372	-0.0303332	0.00218692	-0.114582	-0.0328945	0.000801098	0.0521793	-0.00193394	0.0177724	-2.28	0.00107392	-1.55603	0	0	0	0	-0	0	0	0	-0.1265	0	-0	0	0	0	0	0	-0	0	0.105	0.015	0	0	-0	0	0	0.098	0.1	0	-0	0	0	0	0	0	-0	0	0.05595	0	0	0	-0	0	0	0	0	0	-0	0	569.912	562.722	327.72	215.088	-0.0633258	-1.37131	0.0321626	-0.0204129	3.68585
66	-0.0663545	0.0198308	0.0237089	0.0285002	-0.000418602	0.026373	0.0254369	-0.0303339	0.00218693	-0.118386	-0.0247787	0.00565271	0.0522525	-0.00193398	0.0175524	-2.28436	0.00103968	-1.55613	0	0	0	0	-0	0	0	0	-0.1265	0	-0	0	0	0	0	0	-0	0	0.105	0.015	0	0	-0	0	0	0.098	0.1	0	-0	0	0	0	0	0	-0	0	0.05595	0	0	0	-0	0	0	0	0	0	-0	0	569.946	562.765	327.792	215.176	-0.0650552	-1.35874	0.0322151	-0.0204044	3.65566
67	-0.0713453	0.019835	0.0237082	0.0285005	-0.000418067	0.0263735	0.0254368	-0.0303346	0.0021861	-0.121229	-0.0263585	0.0118887	0.0523393	-0.00193413	0.0172915	-2.28957	0.000979428	-1.55625	0	0	0	0	-0	0	0	0	-0.1265	0	-0	0	0	0	0	0	-0	0	0.105	0.015	0	0	-0	0	0	0.098	0.1	0	-0	0	0	0	0	0	-0	0	0.05595	0	0	0	-0	0	0	0	0	0	-0	0	569.989	562.826	327.894	215.296	-0.0670781	-1.34276	0.0322586	-0.0203933	3.61491
68	-0.0719675	0.0198379	0.0237084	0.0285001	-0.0004186	0.0263736	0.0254369	-0.0303347	0.00218604	-0.126373	-0.0305682	0.00941472	0.0523495	-0.00193415	0.0172586	-2.29028	0.000931328	-1.5563	0	0	0	0	-0	0	0	0	-0.1265	0	-0	0	0	0	0	0	-0	0	0.105	0.015	0	0	-0	0	0	0.098	0.1	0	-0	0	0	0	0	0	-0	0	0.05595	0	0	0	-0	0	0	0	0	0	-0	0	570.007	562.85	327.936	215.345	-0.0680795	-1.3355	0.0322902	-0.0203887	3.59735
69	-0.0648984	0.0198422	0.0237072	0.0285005	-0.000417598	0.0263744	0.0254374	-0.0303345	0.00218532	-0.126688	-0.0227067	0.00363126	0.0522269	-0.00193436	0.0176289	-2.28347	0.000665894	-1.55644	0	0	0	0	-0	0	0	0	-0.1265	0	-0	0	0	0	0	0	-0	0	0.105	0.015	0	0	-0	0	0	0.098	0.1	0	-0	0	0	0	0	0	-0	0	0.05595	0	0	0	-0	0	0	0	0	0	-0	0	570.058	562.923	328.06	215.488	-0.070411	-1.31641	0.0323353	-0.0203747	3.54739
70	-0.0535117	0.0198496	0.0237061	0.0285006	-0.000416808	0.0263755	0.0254411	-0.0303351	0.00218757	-0.125252	-0.00453213	0.00865991	0.0520241	-0.00193464	0.0182236	-2.27247	0.000256448	-1.55666	0	0	0	0	-0	0	0	0	-0.1265	0	-0	0	0	0	0	0	-0	0	0.105	0.015	0	0	-0	0	0	0.098	0.1	0	-0	0	0	0	0	0	-0	0	0.05595	0	0	0	-0	0	0	0	0	0	-0	0	570.132	563.028	328.249	215.699	-0.0738349	-1.28923	0.0324122	-0.0203525	3.47763
71	-0.0555355	0.0198544	0.023706	0.0284998	-0.000416848	0.0263761	0.0254392	-0.0303383	0.00218984	-0.116506	-0.0137097	-0.00679983	0.0520579	-0.00193468	0.0181164	-2.27468	0.000158882	-1.55678	0	0	0	0	-0	0	0	0	-0.1265	0	-0	0	0	0	0	0	-0	0	0.105	0.015	0	0	-0	0	0	0.098	0.1	0	-0	0	0	0	0	0	-0	0	0.05595	0	0	0	-0	0	0	0	0	0	-0	0	570.167	563.081	328.346	215.805	-0.075797	-1.27382	0.0324528	-0.0203381	3.4392
72	-0.048736	0.0198621	0.0237044	0.0285008	-0.000415784	0.026377	0.0254401	-0.030337	0.00218912	-0.11901	-0.000278742	0.00609517	0.0519337	-0.00193504	0.0184708	-2.2683	-0.000221565	-1.55704	0	0	0	0	-0	0	0	0	-0.1265	0	-0	0	0	0	0	0	-0	0	0.105	0.015	0	0	-0	0	0	0.098	0.1	0	-0	0	0	0	0	0	-0	0	0.05595	0	0	0	-0	0	0	0	0	0	-0	0	570.246	563.2	328.567	216.041	-0.0794874	-1.24396	0.0325279	-0.0203108	3.36162
73	-0.0491741	0.0198685	0.0237047	0.0284997	-0.000416705	0.0263773	0.0254369	-0.0303352	0.0021864	-0.117219	-0.00553425	0.00032685	0.051941	-0.00193512	0.018447	-2.26895	-0.000363289	-1.55718	0	0	0	0	-0	0	0	0	-0.1265	0	-0	0	0	0	0	0	-0	0	0.105	0.015	0	0	-0	0	0	0.098	0.1	0	-0	0	0	0	0	0	-0	0	0.05595	0	0	0	-0	0	0	0	0	0	-0	0	570.286	563.256	328.68	216.158	-0.0817457	-1.22682	0.032587	-0.0202957	3.31917
74	-0.0528528	0.0198725	0.0237052	0.0284992	-0.000418018	0.026377	0.025437	-0.0303354	0.00218558	-0.119504	-0.0102912	0.00486078	0.0520092	-0.00193517	0.0182556	-2.27272	-0.000376281	-1.55724	0	0	0	0	-0	0	0	0	-0.1265	0	-0	0	0	0	0	0	-0	0	0.105	0.015	0	0	-0	0	0	0.098	0.1	0	-0	0	0	0	0	0	-0	0	0.05595	0	0	0	-0	0	0	0	0	0	-0	0	570.304	563.279	328.728	216.207	-0.0828649	-1.21887	0.0326242	-0.0202914	3.29986
75	-0.0582086	0.0198767	0.0237045	0.0284992	-0.000417479	0.0263777	0.0254366	-0.0303355	0.00218592	-0.122422	-0.0102624	0.00995631	0.0521061	-0.00193534	0.0179772	-2.27829	-0.00045811	-1.55738	0	0	0	0	-0	0	0	0	-0.1265	0	-0	0	0	0	0	0	-0	0	0.105	0.015	0	0	-0	0	0	0.098	0.1	0	-0	0	0	0	0	0	-0	0	0.05595	0	0	0	-0	0	0	0	0	0	-0	0	570.345	563.337	328.847	216.326	-0.0849172	-1.202	0.03267	-0.0202765	3.25524
76	-0.0668682	0.0198817	0.0237043	0.028499	-0.000417638	0.0263781	0.0254365	-0.0303355	0.00218562	-0.125352	-0.0113283	0.00618886	0.0522611	-0.00193548	0.0175255	-2.28716	-0.000497322	-1.55751	0	0	0	0	-0	0	0	0	-0.1265	0	-0	0	0	0	0	0	-0	0	0.105	0.015	0	0	-0	0	0	0.098	0.1	0	-0	0	0	0	0	0	-0	0	0.05595	0	0	0	-0	0	0	0	0	0	-0	0	570.383	563.392	328.965	216.443	-0.0870161	-1.18525	0.0327205	-0.0202611	3.21188
77	-0.0611522	0.0198861	0.0237043	0.0284986	-0.000418161	0.0263785	0.0254366	-0.0303358	0.00218555	-0.12839	-0.0123858	0.00132752	0.0521589	-0.00193557	0.0178235	-2.2816	-0.000692565	-1.55762	0	0	0	0	-0	0	0	0	-0.1265	0	-0	0	0	0	0	0	-0	0	0.105	0.015	0	0	-0	0	0	0.098	0.1	0	-0	0	0	0	0	0	-0	0	0.05595	0	0	0	-0	0	0	0	0	0	-0	0	570.413	563.432	329.055	216.531	-0.0886768	-1.17224	0.0327666	-0.0202497	3.17835
78	-0.0562886	0.0198913	0.0237038	0.0284983	-0.000417924	0.0263791	0.0254374	-0.0303384	0.00218485	-0.138752	-0.0141626	-0.00698767	0.0520709	-0.00193576	0.0180772	-2.27697	-0.000933585	-1.55779	0	0	0	0	-0	0	0	0	-0.1265	0	-0	0	0	0	0	0	-0	0	0.105	0.015	0	0	-0	0	0	0.098	0.1	0	-0	0	0	0	0	0	-0	0	0.05595	0	0	0	-0	0	0	0	0	0	-0	0	570.458	563.496	329.191	216.662	-0.0909824	-1.15344	0.0328179	-0.0202313	3.12913
79	-0.0461491	0.0198962	0.0237039	0.0284977	-0.000418302	0.0263796	0.0254353	-0.0303386	0.00218548	-0.122194	-0.0192765	-0.00589668	0.051887	-0.00193586	0.0186049	-2.26701	-0.00120012	-1.55792	0	0	0	0	-0	0	0	0	-0.1265	0	-0	0	0	0	0	0	-0	0	0.105	0.015	0	0	-0	0	0	0.098	0.1	0	-0	0	0	0	0	0	-0	0	0.05595	0	0	0	-0	0	0	0	0	0	-0	0	570.491	563.542	329.294	216.76	-0.0928071	-1.13913	0.0328669	-0.0202173	3.09236
80	-0.039304	0.0199003	0.0237038	0.0284979	-0.000419015	0.0263797	0.0254373	-0.0303354	0.00218581	-0.119956	-0.0294536	-0.00653001	0.0517571	-0.00193594	0.0189589	-2.26029	-0.00138953	-1.55803	0	0	0	0	-0	0	0	0	-0.1265	0	-0	0	0	0	0	0	-0	0	0.105	0.015	0	0	-0	0	0	0.098	0.1	0	-0	0	0	0	0	0	-0	0	0.05595	0	0	0	-0	0	0	0	0	0	-0	0	570.515	563.577	329.373	216.833	-0.0942614	-1.12775	0.0329058	-0.0202076	3.06305
81	-0.0346031	0.0199043	0.0237036	0.0284969	-0.00041865	0.0263803	0.0254371	-0.0303371	0.00218542	-0.112537	-0.0252041	-0.00381856	0.0516667	-0.00193609	0.0192015	-2.25579	-0.00160069	-1.55818	0	0	0	0	-0	0	0	0	-0.1265	0	-0	0	0	0	0	0	-0	0	0.105	0.015	0	0	-0	0	0	0.098	0.1	0	-0	0	0	0	0	0	-0	0	0.05595	0	0	0	-0	0	0	0	0	0	-0	0	570.55	563.629	329.491	216.942	-0.0962281	-1.11106	0.0329413	-0.0201897	3.01863
82	-0.0393665	0.0199112	0.0237029	0.0284967	-0.000418549	0.0263811	0.025439	-0.0303357	0.00218391	-0.108067	-0.0414184	0.00198727	0.0517574	-0.00193632	0.018955	-2.26084	-0.00176985	-1.55839	0	0	0	0	-0	0	0	0	-0.1265	0	-0	0	0	0	0	0	-0	0	0.105	0.015	0	0	-0	0	0	0.098	0.1	0	-0	0	0	0	0	0	-0	0	0.05595	0	0	0	-0	0	0	0	0	0	-0	0	570.604	563.71	329.671	217.105	-0.0991339	-1.0868	0.0329988	-0.0201643	2.95405
83	-0.0375987	0.0199174	0.0237033	0.0284953	-0.000419107	0.0263816	0.0254366	-0.030338	0.00218541	-0.0974303	-0.0399438	0.0012383	0.0517234	-0.00193646	0.019046	-2.2593	-0.00196904	-1.55856	0	0	0	0	-0	0	0	0	-0.1265	0	-0	0	0	0	0	0	-0	0	0.105	0.015	0	0	-0	0	0	0.098	0.1	0	-0	0	0	0	0	0	-0	0	0.05595	0	0	0	-0	0	0	0	0	0	-0	0	570.643	563.767	329.808	217.228	-0.101464	-1.06836	0.0330577	-0.0201442	2.90681
84	-0.0289289	0.0199253	0.0237026	0.0284956	-0.000419336	0.0263823	0.0254371	-0.0303359	0.00218521	-0.102446	-0.0284964	0.000663753	0.051558	-0.00193674	0.0194943	-2.25095	-0.00233977	-1.55883	0	0	0	0	-0	0	0	0	-0.1265	0	-0	0	0	0	0	0	-0	0	0.105	0.015	0	0	-0	0	0	0.098	0.1	0	-0	0	0	0	0	0	-0	0	0.05595	0	0	0	-0	0	0	0	0	0	-0	0	570.7	563.855	330.016	217.41	-0.104652	-1.04177	0.0331229	-0.0201144	2.83595
85	-0.0237359	0.0199309	0.0237033	0.0284944	-0.000420801	0.0263824	0.025436	-0.0303391	0.00218523	-0.088281	-0.0304913	0.000726666	0.0514553	-0.00193678	0.0197609	-2.24589	-0.00251294	-1.55895	0	0	0	0	-0	0	0	0	-0.1265	0	-0	0	0	0	0	0	-0	0	0.105	0.015	0	0	-0	0	0	0.098	0.1	0	-0	0	0	0	0	0	-0	0	0.05595	0	0	0	-0	0	0	0	0	0	-0	0	570.726	563.889	330.103	217.484	-0.106347	-1.02906	0.0331746	-0.0201022	2.80447
86	-0.0262562	0.0199352	0.0237032	0.0284944	-0.000420959	0.0263828	0.0254374	-0.0303371	0.00218444	-0.0876187	-0.0369607	0.00759163	0.0515045	-0.00193691	0.0196306	-2.24858	-0.0026255	-1.55909	0	0	0	0	-0	0	0	0	-0.1265	0	-0	0	0	0	0	0	-0	0	0.105	0.015	0	0	-0	0	0	0.098	0.1	0	-0	0	0	0	0	0	-0	0	0.05595	0	0	0	-0	0	0	0	0	0	-0	0	570.756	563.933	330.216	217.58	-0.108212	-1.01352	0.0332174	-0.0200863	2.76279
87	-0.0296082	0.0199412	0.0237031	0.0284933	-0.000420841	0.0263836	0.0254371	-0.0303383	0.00218479	-0.0957728	-0.0398536	0.00321906	0.0515704	-0.00193712	0.0194574	-2.25219	-0.00280196	-1.55929	0	0	0	0	-0	0	0	0	-0.1265	0	-0	0	0	0	0	0	-0	0	0.105	0.015	0	0	-0	0	0	0.098	0.1	0	-0	0	0	0	0	0	-0	0	0.05595	0	0	0	-0	0	0	0	0	0	-0	0	570.799	564	330.386	217.723	-0.110801	-0.991316	0.0332643	-0.0200597	2.70299
88	-0.0331706	0.0199457	0.0237036	0.0284927	-0.000422011	0.0263837	0.0254362	-0.0303374	0.00218501	-0.10386	-0.0363168	0.00346485	0.0516399	-0.00193715	0.0192729	-2.25586	-0.00285311	-1.55936	0	0	0	0	-0	0	0	0	-0.1265	0	-0	0	0	0	0	0	-0	0	0.105	0.015	0	0	-0	0	0	0.098	0.1	0	-0	0	0	0	0	0	-0	0	0.05595	0	0	0	-0	0	0	0	0	0	-0	0	570.817	564.027	330.457	217.782	-0.11216	-0.980936	0.0333023	-0.0200496	2.67693
89	-0.0321039	0.0199495	0.0237035	0.0284924	-0.000422248	0.026384	0.0254369	-0.0303379	0.00218558	-0.109871	-0.0345867	0.0100247	0.0516191	-0.00193728	0.0193277	-2.25493	-0.00299054	-1.55949	0	0	0	0	-0	0	0	0	-0.1265	0	-0	0	0	0	0	0	-0	0	0.105	0.015	0	0	-0	0	0	0.098	0.1	0	-0	0	0	0	0	0	-0	0	0.05595	0	0	0	-0	0	0	0	0	0	-0	0	570.843	564.065	330.555	217.862	-0.113774	-0.967322	0.0333368	-0.0200352	2.64036
90	-0.0291675	0.0199547	0.0237032	0.0284919	-0.000422221	0.0263848	0.0254372	-0.030338	0.00218489	-0.109345	-0.0348711	0.00227013	0.0515624	-0.00193745	0.0194789	-2.25221	-0.00321164	-1.55968	0	0	0	0	-0	0	0	0	-0.1265	0	-0	0	0	0	0	0	-0	0	0.105	0.015	0	0	-0	0	0	0.098	0.1	0	-0	0	0	0	0	0	-0	0	0.05595	0	0	0	-0	0	0	0	0	0	-0	0	570.881	564.123	330.703	217.983	-0.116045	-0.94769	0.0333781	-0.0200119	2.58711
91	-0.0209072	0.0199628	0.0237028	0.0284912	-0.000422303	0.0263858	0.0254385	-0.0303396	0.00218344	-0.106361	-0.0389288	0.0147643	0.0514019	-0.00193772	0.0199037	-2.24427	-0.00358586	-1.55998	0	0	0	0	-0	0	0	0	-0.1265	0	-0	0	0	0	0	0	-0	0	0.105	0.015	0	0	-0	0	0	0.098	0.1	0	-0	0	0	0	0	0	-0	0	0.05595	0	0	0	-0	0	0	0	0	0	-0	0	570.933	564.211	330.927	218.162	-0.119398	-0.918449	0.03343	-0.0199763	2.50761
92	-0.0105103	0.0199705	0.0237034	0.0284899	-0.000423366	0.0263866	0.0254378	-0.0303422	0.00218426	-0.0906243	-0.0353329	0.0182048	0.0511937	-0.00193787	0.0204368	-2.23411	-0.00391259	-1.56023	0	0	0	0	-0	0	0	0	-0.1265	0	-0	0	0	0	0	0	-0	0	0.105	0.015	0	0	-0	0	0	0.098	0.1	0	-0	0	0	0	0	0	-0	0	0.05595	0	0	0	-0	0	0	0	0	0	-0	0	570.974	564.271	331.098	218.297	-0.122132	-0.896138	0.0334975	-0.0199502	2.44887
93	-0.0104813	0.0199765	0.0237037	0.0284896	-0.000424258	0.0263871	0.0254385	-0.0303409	0.00218289	-0.0982573	-0.0333417	0.00526571	0.0511909	-0.00193799	0.0204364	-2.23426	-0.00407526	-1.5604	0	0	0	0	-0	0	0	0	-0.1265	0	-0	0	0	0	0	0	-0	0	0.105	0.015	0	0	-0	0	0	0.098	0.1	0	-0	0	0	0	0	0	-0	0	0.05595	0	0	0	-0	0	0	0	0	0	-0	0	571.005	564.317	331.228	218.398	-0.12435	-0.877788	0.0335506	-0.0199307	2.40003
94	-0.0139654	0.0199811	0.0237042	0.0284883	-0.000424932	0.0263874	0.0254391	-0.0303398	0.00218319	-0.0980892	-0.0262793	-0.00666404	0.0512624	-0.00193809	0.0202577	-2.23788	-0.00416326	-1.56051	0	0	0	0	-0	0	0	0	-0.1265	0	-0	0	0	0	0	0	-0	0	0.105	0.015	0	0	-0	0	0	0.098	0.1	0	-0	0	0	0	0	0	-0	0	0.05595	0	0	0	-0	0	0	0	0	0	-0	0	571.029	564.353	331.327	218.474	-0.125976	-0.864415	0.0335872	-0.0199149	2.36495
95	-0.0168452	0.0199883	0.0237036	0.0284877	-0.000424765	0.0263884	0.0254364	-0.0303384	0.00218436	-0.105745	-0.0222311	-0.00637518	0.0513204	-0.00193838	0.0201095	-2.24107	-0.00441224	-1.56077	0	0	0	0	-0	0	0	0	-0.1265	0	-0	0	0	0	0	0	-0	0	0.105	0.015	0	0	-0	0	0	0.098	0.1	0	-0	0	0	0	0	0	-0	0	0.05595	0	0	0	-0	0	0	0	0	0	-0	0	571.078	564.434	331.55	218.644	-0.128984	-0.837666	0.0336321	-0.0198775	2.29149
96	-0.0175759	0.0199936	0.0237046	0.0284872	-0.000426888	0.026388	0.0254369	-0.0303392	0.00218437	-0.114233	-0.0237988	-0.00565989	0.0513358	-0.00193841	0.0200711	-2.24188	-0.00448571	-1.56085	0	0	0	0	-0	0	0	0	-0.1265	0	-0	0	0	0	0	0	-0	0	0.105	0.015	0	0	-0	0	0	0.098	0.1	0	-0	0	0	0	0	0	-0	0	0.05595	0	0	0	-0	0	0	0	0	0	-0	0	571.094	564.456	331.612	218.691	-0.130364	-0.827727	0.0336772	-0.0198699	2.26758
97	-0.0215348	0.0199967	0.0237046	0.0284867	-0.000426909	0.0263884	0.0254374	-0.0303381	0.00218406	-0.113773	-0.0312737	-0.00412492	0.0514153	-0.00193851	0.0198678	-2.24595	-0.00455439	-1.56093	0	0	0	0	-0	0	0	0	-0.1265	0	-0	0	0	0	0	0	-0	0	0.105	0.015	0	0	-0	0	0	0.098	0.1	0	-0	0	0	0	0	0	-0	0	0.05595	0	0	0	-0	0	0	0	0	0	-0	0	571.115	564.486	331.698	218.755	-0.131698	-0.816267	0.0337048	-0.0198559	2.2366
98	-0.0144809	0.0200013	0.0237046	0.0284861	-0.000427182	0.0263891	0.0254368	-0.0303383	0.00218409	-0.113407	-0.0306844	-0.00639265	0.0512749	-0.00193866	0.02023	-2.23907	-0.00478636	-1.56113	0	0	0	0	-0	0	0	0	-0.1265	0	-0	0	0	0	0	0	-0	0	0.105	0.015	0	0	-0	0	0	0.098	0.1	0	-0	0	0	0	0	0	-0	0	0.05595	0	0	0	-0	0	0	0	0	0	-0	0	571.143	564.53	331.827	218.852	-0.133596	-0.799614	0.0337409	-0.0198346	2.19092
99	-0.00901515	0.0200179	0.0237024	0.0284858	-0.000426065	0.0263916	0.0254386	-0.0303383	0.00218424	-0.115661	-0.017225	-0.00548489	0.0511635	-0.00193946	0.0205078	-2.23435	-0.00555462	-1.56187	0	0	0	0	-0	0	0	0	-0.1265	0	-0	0	0	0	0	0	-0	0	0.105	0.015	0	0	-0	0	0	0.098	0.1	0	-0	0	0	0	0	0	-0	0	0.05595	0	0	0	-0	0	0	0	0	0	-0	0	571.251	564.739	332.405	219.271	-0.140325	-0.737437	0.0337969	-0.0197327	2.01757
100	-0.0211985	0.0200408	0.0237033	0.0284833	-0.000428556	0.0263938	0.0254431	-0.0303461	0.00218432	-0.129213	-0.0306819	-0.0155769	0.0514144	-0.00194013	0.0198814	-2.24727	-0.00618407	-1.56254	0	0	0	0	-0	0	0	0	-0.1265	0	-0	0	0	0	0	0	-0	0	0.105	0.015	0	0	-0	0	0	0.098	0.1	0	-0	0	0	0	0	0	-0	0	0.05595	0	0	0	-0	0	0	0	0	0	-0	0	571.364	564.937	332.995	219.691	-0.148302	-0.668763	0.0339335	-0.0196304	1.83341
