Stefan210/kinematic_calibration/src/kinematic_calibration/validation/experiments/experiments/single_point_vs_pose/marker_single_point/rarm_210/optimization_intermediate_results.csv
iteration	HeadPitch_offset	HeadYaw_offset	RElbowRoll_offset	RElbowYaw_offset	RShoulderPitch_offset	RShoulderRoll_offset	marker_transform_rarm_tx	marker_transform_rarm_ty	marker_transform_rarm_tz	marker_transform_rarm_rr	marker_transform_rarm_rp	marker_transform_rarm_ry	camera_transform_tx	camera_transform_ty	camera_transform_tz	camera_transform_rr	camera_transform_rp	camera_transform_ry	HeadPitch_transform_tx	HeadPitch_transform_ty	HeadPitch_transform_tz	HeadPitch_transform_rr	HeadPitch_transform_rp	HeadPitch_transform_ry	HeadYaw_transform_tx	HeadYaw_transform_ty	HeadYaw_transform_tz	HeadYaw_transform_rr	HeadYaw_transform_rp	HeadYaw_transform_ry	RElbowRoll_transform_tx	RElbowRoll_transform_ty	RElbowRoll_transform_tz	RElbowRoll_transform_rr	RElbowRoll_transform_rp	RElbowRoll_transform_ry	RElbowYaw_transform_tx	RElbowYaw_transform_ty	RElbowYaw_transform_tz	RElbowYaw_transform_rr	RElbowYaw_transform_rp	RElbowYaw_transform_ry	RShoulderPitch_transform_tx	RShoulderPitch_transform_ty	RShoulderPitch_transform_tz	RShoulderPitch_transform_rr	RShoulderPitch_transform_rp	RShoulderPitch_transform_ry	RShoulderRoll_transform_tx	RShoulderRoll_transform_ty	RShoulderRoll_transform_tz	RShoulderRoll_transform_rr	RShoulderRoll_transform_rp	RShoulderRoll_transform_ry	RWristYaw_transform_tx	RWristYaw_transform_ty	RWristYaw_transform_tz	RWristYaw_transform_rr	RWristYaw_transform_rp	RWristYaw_transform_ry	r_wrist_joint_transform_tx	r_wrist_joint_transform_ty	r_wrist_joint_transform_tz	r_wrist_joint_transform_rr	r_wrist_joint_transform_rp	r_wrist_joint_transform_ry	camera_fx	camera_fy	camera_cx	camera_cy	camera_D0	camera_D1	camera_D2	camera_D3	camera_D4	
0	0.0230449	0.0294606	-0.0013508	-0.00116347	0.000678263	0.00258603	0.05071	0	0.01774	-2.26369	1.66533e-16	-1.5708	545.901	551.038	324.928	201.58	0.0255298	2.61142	-0.0636736	-0.0350419	0.213964
1	-0.0144941	-0.0181798	0.00437987	0.0143866	-0.0155457	-0.0346693	0.0209589	0.0286537	-0.000956136	-0.00112137	0.000652978	0.0027567	0.0539864	-0.00292385	0.0188442	-2.20545	0.0138597	-1.53628	0	0	0	0	-0	0	0	0	-0.1265	0	-0	0	0	0	0	0	-0	0	0.105	-0.015	0	0	-0	0	0	-0.098	0.1	0	-0	0	0	0	0	0	-0	0	0.05595	0	0	0	-0	0	0	0	0	0	-0	0	545.901	551.039	324.929	201.581	-0.0406897	2.58894	-0.0744258	-0.0640582	0.208752
2	-0.0127012	-0.0357226	-0.00235655	0.0169509	-0.0276794	-0.0323239	0.0209618	0.0288066	-0.00102312	-0.00112762	0.000658214	0.00276929	0.0532834	-0.00178072	0.0221624	-2.21308	0.0218686	-1.5266	0	0	0	0	-0	0	0	0	-0.1265	0	-0	0	0	0	0	0	-0	0	0.105	-0.015	0	0	-0	0	0	-0.098	0.1	0	-0	0	0	0	0	0	-0	0	0.05595	0	0	0	-0	0	0	0	0	0	-0	0	545.903	551.04	324.934	201.586	-0.227678	2.46578	-0.0178002	-0.0352207	0.165871
3	-0.0139263	-0.0288818	0.000839858	0.0168233	-0.0222959	-0.0350088	0.0210038	0.0288157	-0.00122003	-0.00114995	0.000675709	0.00276358	0.0548766	-0.00270015	0.0185374	-2.20729	0.0210769	-1.52906	0	0	0	0	-0	0	0	0	-0.1265	0	-0	0	0	0	0	0	-0	0	0.105	-0.015	0	0	-0	0	0	-0.098	0.1	0	-0	0	0	0	0	0	-0	0	0.05595	0	0	0	-0	0	0	0	0	0	-0	0	545.904	551.04	324.939	201.591	-0.460491	2.31929	-0.00843359	-0.0298522	0.116759
4	-0.0142336	-0.0253915	0.00318931	0.0139897	-0.0195468	-0.0372761	0.021094	0.0288176	-0.00125053	-0.00115461	0.000680057	0.00275539	0.0558928	-0.00328904	0.0161441	-2.20546	0.0209712	-1.53248	0	0	0	0	-0	0	0	0	-0.1265	0	-0	0	0	0	0	0	-0	0	0.105	-0.015	0	0	-0	0	0	-0.098	0.1	0	-0	0	0	0	0	0	-0	0	0.05595	0	0	0	-0	0	0	0	0	0	-0	0	545.909	551.041	324.948	201.599	-0.68718	2.0677	0.0228241	-0.00991093	0.0167143
5	-0.0144461	-0.0233831	0.00535912	0.0123705	-0.0179905	-0.0387899	0.0211204	0.0287918	-0.00124607	-0.00114783	0.000681034	0.00274482	0.0558129	-0.00366781	0.0155399	-2.2045	0.0206172	-1.53375	0	0	0	0	-0	0	0	0	-0.1265	0	-0	0	0	0	0	0	-0	0	0.105	-0.015	0	0	-0	0	0	-0.098	0.1	0	-0	0	0	0	0	0	-0	0	0.05595	0	0	0	-0	0	0	0	0	0	-0	0	545.92	551.039	324.961	201.609	-0.647814	1.70851	0.0269942	-0.00552392	-0.15585
6	-0.0145379	-0.0222972	0.0073766	0.0112485	-0.0172593	-0.0397919	0.0211144	0.0287436	-0.00117683	-0.00113026	0.000682741	0.00275351	0.0547673	-0.00386924	0.0163726	-2.20443	0.0198831	-1.53427	0	0	0	0	-0	0	0	0	-0.1265	0	-0	0	0	0	0	0	-0	0	0.105	-0.015	0	0	-0	0	0	-0.098	0.1	0	-0	0	0	0	0	0	-0	0	0.05595	0	0	0	-0	0	0	0	0	0	-0	0	545.938	551.035	324.978	201.62	-0.408275	1.17288	0.0148009	-0.00941971	-0.431379
7	-0.0145422	-0.0216837	0.00889145	0.0102453	-0.0169606	-0.0404832	0.0211058	0.028703	-0.00109591	-0.00112405	0.000676365	0.0027613	0.0537222	-0.00398234	0.0173574	-2.20466	0.0192654	-1.53466	0	0	0	0	-0	0	0	0	-0.1265	0	-0	0	0	0	0	0	-0	0	0.105	-0.015	0	0	-0	0	0	-0.098	0.1	0	-0	0	0	0	0	0	-0	0	0.05595	0	0	0	-0	0	0	0	0	0	-0	0	545.961	551.028	324.99	201.628	-0.163346	0.634736	0.00231023	-0.0136582	-0.714864
8	-0.0144483	-0.0216242	0.00950761	0.00968472	-0.0170164	-0.0407392	0.0211006	0.0286844	-0.00104666	-0.00104175	0.000680882	0.00275926	0.0531773	-0.00400809	0.0179358	-2.20492	0.0190225	-1.53479	0	0	0	0	-0	0	0	0	-0.1265	0	-0	0	0	0	0	0	-0	0	0.105	-0.015	0	0	-0	0	0	-0.098	0.1	0	-0	0	0	0	0	0	-0	0	0.05595	0	0	0	-0	0	0	0	0	0	-0	0	545.995	551.016	324.996	201.637	-0.0356565	0.342799	-0.00348421	-0.0155452	-0.886536
9	-0.0144434	-0.0216539	0.0096321	0.00953126	-0.0170609	-0.0407692	0.0210989	0.0286795	-0.0010332	-0.00157189	0.000613326	0.00282605	0.0530456	-0.0040078	0.0180852	-2.2051	0.0189701	-1.53483	0	0	0	0	-0	0	0	0	-0.1265	0	-0	0	0	0	0	0	-0	0	0.105	-0.015	0	0	-0	0	0	-0.098	0.1	0	-0	0	0	0	0	0	-0	0	0.05595	0	0	0	-0	0	0	0	0	0	-0	0	546.078	550.988	325.004	201.668	-0.00864425	0.291683	-0.00452424	-0.0159202	-0.974731
10	-0.0151476	-0.0216701	0.00963882	0.00948946	-0.017068	-0.040748	0.0210985	0.0286779	-0.00103131	-0.000257772	0.0015656	0.00172227	0.053046	-0.00400446	0.0180615	-2.20598	0.0189834	-1.53489	0	0	0	0	-0	0	0	0	-0.1265	0	-0	0	0	0	0	0	-0	0	0.105	-0.015	0	0	-0	0	0	-0.098	0.1	0	-0	0	0	0	0	0	-0	0	0.05595	0	0	0	-0	0	0	0	0	0	-0	0	546.295	550.929	325.02	201.766	-0.0169509	0.347864	-0.00398029	-0.0159061	-1.10446
11	-0.0138185	-0.0216963	0.0096298	0.00943223	-0.0170731	-0.040705	0.0210979	0.0286758	-0.00103009	-0.00401571	0.000379794	0.00060015	0.0530158	-0.00399799	0.0181372	-2.20518	0.0189339	-1.53495	0	0	0	0	-0	0	0	0	-0.1265	0	-0	0	0	0	0	0	-0	0	0.105	-0.015	0	0	-0	0	0	-0.098	0.1	0	-0	0	0	0	0	0	-0	0	0.05595	0	0	0	-0	0	0	0	0	0	-0	0	546.783	550.886	325.044	202.062	-0.039072	0.474474	-0.00266761	-0.0158238	-1.36056
12	-0.00210994	-0.0217283	0.00961819	0.00935657	-0.0170726	-0.0406482	0.021098	0.0286731	-0.00102736	-0.00631115	0.00762273	-0.00151889	0.0527781	-0.00398889	0.0187858	-2.19517	0.0185717	-1.53485	0	0	0	0	-0	0	0	0	-0.1265	0	-0	0	0	0	0	0	-0	0	0.105	-0.015	0	0	-0	0	0	-0.098	0.1	0	-0	0	0	0	0	0	-0	0	0.05595	0	0	0	-0	0	0	0	0	0	-0	0	547.654	551.203	325.036	202.943	-0.0676227	0.644397	-0.00100536	-0.0157756	-1.71202
13	0.0211366	-0.0217579	0.00960635	0.00928659	-0.0170553	-0.0405925	0.0210999	0.0286751	-0.00102318	-0.0173313	0.01797	0.00960342	0.052268	-0.00397926	0.020093	-2.1767	0.0179656	-1.53452	0	0	0	0	-0	0	0	0	-0.1265	0	-0	0	0	0	0	0	-0	0	0.105	-0.015	0	0	-0	0	0	-0.098	0.1	0	-0	0	0	0	0	0	-0	0	0.05595	0	0	0	-0	0	0	0	0	0	-0	0	549.107	552.61	324.927	205.349	-0.0928616	0.821858	0.000325015	-0.0159203	-2.1116
14	0.0237612	-0.021768	0.0095976	0.00925539	-0.0170418	-0.0405666	0.021106	0.0286801	-0.00101835	-0.0300713	0.032566	-0.0126143	0.0521715	-0.00397458	0.0202548	-2.17631	0.0179841	-1.53452	0	0	0	0	-0	0	0	0	-0.1265	0	-0	0	0	0	0	0	-0	0	0.105	-0.015	0	0	-0	0	0	-0.098	0.1	0	-0	0	0	0	0	0	-0	0	0.05595	0	0	0	-0	0	0	0	0	0	-0	0	549.702	553.308	324.872	206.492	-0.103113	0.907896	0.000705007	-0.0159801	-2.32345
15	0.00961494	-0.0217917	0.00958716	0.00921364	-0.0170282	-0.0405325	0.0210959	0.0286705	-0.00101598	-0.0395472	0.0336767	-0.0218295	0.0524021	-0.00396895	0.0195817	-2.1949	0.0187152	-1.53484	0	0	0	0	-0	0	0	0	-0.1265	0	-0	0	0	0	0	0	-0	0	0.105	-0.015	0	0	-0	0	0	-0.098	0.1	0	-0	0	0	0	0	0	-0	0	0.05595	0	0	0	-0	0	0	0	0	0	-0	0	550.773	554.62	324.774	208.757	-0.116796	1.02871	0.00133533	-0.0161611	-2.62684
16	0.0144745	-0.0218209	0.00957317	0.00917493	-0.0170217	-0.0404991	0.0211043	0.0286811	-0.00100908	-0.0299722	0.0317215	-0.051673	0.0522601	-0.0039634	0.0198874	-2.19388	0.0187143	-1.53483	0	0	0	0	-0	0	0	0	-0.1265	0	-0	0	0	0	0	0	-0	0	0.105	-0.015	0	0	-0	0	0	-0.098	0.1	0	-0	0	0	0	0	0	-0	0	0.05595	0	0	0	-0	0	0	0	0	0	-0	0	551.646	555.707	324.708	210.735	-0.128973	1.1429	0.00188171	-0.0162956	-2.92553
17	-0.00131076	-0.0218679	0.00955108	0.00911937	-0.0170142	-0.0404501	0.0210977	0.0286878	-0.00101932	-0.0614884	0.0189921	-0.0801066	0.0525058	-0.00395621	0.0191442	-2.21611	0.0195187	-1.53533	0	0	0	0	-0	0	0	0	-0.1265	0	-0	0	0	0	0	0	-0	0	0.105	-0.015	0	0	-0	0	0	-0.098	0.1	0	-0	0	0	0	0	0	-0	0	0.05595	0	0	0	-0	0	0	0	0	0	-0	0	552.972	557.356	324.65	214.075	-0.145194	1.30684	0.00283854	-0.0165327	-3.37459
18	-0.00621365	-0.0218974	0.00953477	0.00908021	-0.0170137	-0.0404209	0.0211072	0.0286884	-0.000999191	-0.0363986	0.00911363	-0.109715	0.0525722	-0.00395129	0.0189148	-2.22372	0.0197491	-1.53556	0	0	0	0	-0	0	0	0	-0.1265	0	-0	0	0	0	0	0	-0	0	0.105	-0.015	0	0	-0	0	0	-0.098	0.1	0	-0	0	0	0	0	0	-0	0	0.05595	0	0	0	-0	0	0	0	0	0	-0	0	553.511	558.033	324.666	215.496	-0.155199	1.40785	0.00331373	-0.0165584	-3.65985
19	-0.012172	-0.0219118	0.0095242	0.00905993	-0.0170099	-0.040402	0.0211021	0.0286671	-0.000988066	-0.0451498	-0.0245542	-0.0903234	0.0526704	-0.00394835	0.0186198	-2.2315	0.0199778	-1.53579	0	0	0	0	-0	0	0	0	-0.1265	0	-0	0	0	0	0	0	-0	0	0.105	-0.015	0	0	-0	0	0	-0.098	0.1	0	-0	0	0	0	0	0	-0	0	0.05595	0	0	0	-0	0	0	0	0	0	-0	0	553.861	558.472	324.691	216.451	-0.161541	1.47231	0.00363168	-0.0165807	-3.84234
20	-0.0167816	-0.0219277	0.009515	0.00905003	-0.0170123	-0.0403892	0.0211012	0.0286651	-0.000993833	-0.0442605	-0.051962	-0.0794631	0.0527457	-0.00394629	0.0183903	-2.23735	0.0201411	-1.53597	0	0	0	0	-0	0	0	0	-0.1265	0	-0	0	0	0	0	0	-0	0	0.105	-0.015	0	0	-0	0	0	-0.098	0.1	0	-0	0	0	0	0	0	-0	0	0.05595	0	0	0	-0	0	0	0	0	0	-0	0	554.099	558.774	324.717	217.107	-0.165691	1.51561	0.0038409	-0.0165941	-3.96642
21	-0.0196941	-0.0219315	0.00951217	0.00904596	-0.0170129	-0.0403859	0.021093	0.0286645	-0.000998015	-0.0425996	-0.0470099	-0.0727393	0.052797	-0.00394563	0.0182391	-2.24051	0.0202424	-1.53605	0	0	0	0	-0	0	0	0	-0.1265	0	-0	0	0	0	0	0	-0	0	0.105	-0.015	0	0	-0	0	0	-0.098	0.1	0	-0	0	0	0	0	0	-0	0	0.05595	0	0	0	-0	0	0	0	0	0	-0	0	554.146	558.833	324.723	217.239	-0.166704	1.5257	0.00389571	-0.0165849	-3.99609
22	-0.0277474	-0.021938	0.00951068	0.0090409	-0.0170152	-0.0403827	0.0210926	0.0286638	-0.00099706	-0.0428633	-0.0523053	-0.0737881	0.0529415	-0.00394522	0.0178172	-2.2489	0.0205216	-1.53623	0	0	0	0	-0	0	0	0	-0.1265	0	-0	0	0	0	0	0	-0	0	0.105	-0.015	0	0	-0	0	0	-0.098	0.1	0	-0	0	0	0	0	0	-0	0	0.05595	0	0	0	-0	0	0	0	0	0	-0	0	554.21	558.914	324.732	217.416	-0.16798	1.53849	0.00395704	-0.0165886	-4.03209
23	-0.0212253	-0.0219423	0.0095084	0.00903777	-0.0170157	-0.0403793	0.0210923	0.0286639	-0.000996714	-0.0393321	-0.0508915	-0.0722623	0.052821	-0.00394475	0.0181657	-2.24275	0.0202932	-1.53613	0	0	0	0	-0	0	0	0	-0.1265	0	-0	0	0	0	0	0	-0	0	0.105	-0.015	0	0	-0	0	0	-0.098	0.1	0	-0	0	0	0	0	0	-0	0	0.05595	0	0	0	-0	0	0	0	0	0	-0	0	554.278	558.999	324.742	217.612	-0.169176	1.55102	0.00402379	-0.0165926	-4.06824
24	-0.013899	-0.0219484	0.00950563	0.0090326	-0.0170167	-0.0403748	0.0210926	0.0286636	-0.000995921	-0.0404972	-0.0584486	-0.0707648	0.0526825	-0.00394412	0.0185583	-2.23596	0.0200324	-1.53602	0	0	0	0	-0	0	0	0	-0.1265	0	-0	0	0	0	0	0	-0	0	0.105	-0.015	0	0	-0	0	0	-0.098	0.1	0	-0	0	0	0	0	0	-0	0	0.05595	0	0	0	-0	0	0	0	0	0	-0	0	554.374	559.121	324.76	217.892	-0.170623	1.567	0.00411458	-0.0165987	-4.11558
25	-0.00755192	-0.0219569	0.00950152	0.00902599	-0.0170181	-0.0403685	0.021095	0.0286668	-0.00099503	-0.0313229	-0.0668327	-0.0615258	0.052557	-0.00394324	0.0189006	-2.23037	0.0197975	-1.53596	0	0	0	0	-0	0	0	0	-0.1265	0	-0	0	0	0	0	0	-0	0	0.105	-0.015	0	0	-0	0	0	-0.098	0.1	0	-0	0	0	0	0	0	-0	0	0.05595	0	0	0	-0	0	0	0	0	0	-0	0	554.508	559.291	324.789	218.285	-0.172576	1.58898	0.0042417	-0.0166053	-4.18143
26	-0.00408473	-0.0219621	0.00949857	0.00901951	-0.0170183	-0.0403637	0.021095	0.0286688	-0.000994772	-0.0147786	-0.0749664	-0.0655132	0.0524857	-0.00394247	0.0190885	-2.22744	0.0196629	-1.53595	0	0	0	0	-0	0	0	0	-0.1265	0	-0	0	0	0	0	0	-0	0	0.105	-0.015	0	0	-0	0	0	-0.098	0.1	0	-0	0	0	0	0	0	-0	0	0.05595	0	0	0	-0	0	0	0	0	0	-0	0	554.602	559.412	324.813	218.565	-0.173971	1.60472	0.0043368	-0.0166026	-4.22942
27	-0.00897415	-0.0219665	0.00949639	0.0090143	-0.0170189	-0.04036	0.0210933	0.0286642	-0.000995224	-0.015034	-0.0661098	-0.0578638	0.0525758	-0.0039419	0.0188356	-2.23271	0.0198213	-1.53608	0	0	0	0	-0	0	0	0	-0.1265	0	-0	0	0	0	0	0	-0	0	0.105	-0.015	0	0	-0	0	0	-0.098	0.1	0	-0	0	0	0	0	0	-0	0	0.05595	0	0	0	-0	0	0	0	0	0	-0	0	554.669	559.497	324.831	218.767	-0.175092	1.61695	0.0044086	-0.0165992	-4.26614
28	-0.0119147	-0.0219805	0.00949026	0.00900703	-0.0170228	-0.0403519	0.0210894	0.0286759	-0.000988453	0.0159244	-0.0544215	-0.0706568	0.0526222	-0.00394087	0.0186924	-2.23669	0.0198793	-1.53626	0	0	0	0	-0	0	0	0	-0.1265	0	-0	0	0	0	0	0	-0	0	0.105	-0.015	0	0	-0	0	0	-0.098	0.1	0	-0	0	0	0	0	0	-0	0	0.05595	0	0	0	-0	0	0	0	0	0	-0	0	554.846	559.728	324.893	219.319	-0.177602	1.64677	0.00458039	-0.0166027	-4.35761
29	-0.00652375	-0.0219848	0.00948922	0.00899372	-0.0170224	-0.0403463	0.0210907	0.0286662	-0.000992384	0.0320653	-0.0488714	-0.0720863	0.0525176	-0.00393991	0.0189808	-2.2318	0.0196649	-1.53622	0	0	0	0	-0	0	0	0	-0.1265	0	-0	0	0	0	0	0	-0	0	0.105	-0.015	0	0	-0	0	0	-0.098	0.1	0	-0	0	0	0	0	0	-0	0	0.05595	0	0	0	-0	0	0	0	0	0	-0	0	554.927	559.833	324.926	219.579	-0.179027	1.66253	0.00467885	-0.0165851	-4.40635
30	-0.00388556	-0.0219889	0.00948595	0.00899575	-0.0170242	-0.0403446	0.0210921	0.0286638	-0.000992301	0.0361786	-0.0519079	-0.0673864	0.0524657	-0.00393961	0.0191207	-2.22932	0.0195651	-1.53619	0	0	0	0	-0	0	0	0	-0.1265	0	-0	0	0	0	0	0	-0	0	0.105	-0.015	0	0	-0	0	0	-0.098	0.1	0	-0	0	0	0	0	0	-0	0	0.05595	0	0	0	-0	0	0	0	0	0	-0	0	554.955	559.869	324.938	219.665	-0.179627	1.66884	0.00471343	-0.0165795	-4.42528
31	-0.0071103	-0.0219918	0.00948397	0.00899495	-0.0170248	-0.0403427	0.0210917	0.0286631	-0.000992434	0.0336368	-0.0586219	-0.0689523	0.0525259	-0.00393937	0.0189534	-2.23277	0.0196631	-1.53628	0	0	0	0	-0	0	0	0	-0.1265	0	-0	0	0	0	0	0	-0	0	0.105	-0.015	0	0	-0	0	0	-0.098	0.1	0	-0	0	0	0	0	0	-0	0	0.05595	0	0	0	-0	0	0	0	0	0	-0	0	554.991	559.916	324.955	219.781	-0.180304	1.67642	0.00475179	-0.0165768	-4.44806
32	-0.00602364	-0.0219932	0.00948323	0.00899371	-0.0170252	-0.0403417	0.0210917	0.0286632	-0.000991967	0.0336489	-0.05423	-0.0707367	0.0525043	-0.00393919	0.0190113	-2.23177	0.0196197	-1.53627	0	0	0	0	-0	0	0	0	-0.1265	0	-0	0	0	0	0	0	-0	0	0.105	-0.015	0	0	-0	0	0	-0.098	0.1	0	-0	0	0	0	0	0	-0	0	0.05595	0	0	0	-0	0	0	0	0	0	-0	0	555.006	559.935	324.962	219.828	-0.180579	1.67944	0.00477058	-0.0165732	-4.45742
33	0.00391837	-0.0219979	0.0094811	0.00899089	-0.0170265	-0.0403389	0.0210916	0.0286631	-0.000991666	0.0339311	-0.0504866	-0.0726472	0.0523129	-0.00393886	0.0195366	-2.22218	0.0192513	-1.53613	0	0	0	0	-0	0	0	0	-0.1265	0	-0	0	0	0	0	0	-0	0	0.105	-0.015	0	0	-0	0	0	-0.098	0.1	0	-0	0	0	0	0	0	-0	0	0.05595	0	0	0	-0	0	0	0	0	0	-0	0	555.062	560.008	324.99	220.013	-0.181518	1.69041	0.00483151	-0.0165695	-4.49105
34	0.00114093	-0.0220046	0.00947792	0.00898695	-0.0170283	-0.0403347	0.0210924	0.0286682	-0.000992095	0.0513135	-0.052313	-0.0686146	0.0523609	-0.00393832	0.0193953	-2.22545	0.0193084	-1.53626	0	0	0	0	-0	0	0	0	-0.1265	0	-0	0	0	0	0	0	-0	0	0.105	-0.015	0	0	-0	0	0	-0.098	0.1	0	-0	0	0	0	0	0	-0	0	0.05595	0	0	0	-0	0	0	0	0	0	-0	0	555.141	560.114	325.035	220.272	-0.18278	1.70545	0.00491607	-0.016559	-4.53799
35	0.00628396	-0.0220131	0.00947431	0.0089788	-0.0170305	-0.0403292	0.0210943	0.0286633	-0.000989692	0.0498078	-0.0358616	-0.0728531	0.0522561	-0.00393758	0.0196711	-2.22097	0.0190676	-1.53627	0	0	0	0	-0	0	0	0	-0.1265	0	-0	0	0	0	0	0	-0	0	0.105	-0.015	0	0	-0	0	0	-0.098	0.1	0	-0	0	0	0	0	0	-0	0	0.05595	0	0	0	-0	0	0	0	0	0	-0	0	555.243	560.251	325.104	220.621	-0.184369	1.72487	0.00503535	-0.0165384	-4.59982
36	0.00744483	-0.0220177	0.00947093	0.00897661	-0.0170317	-0.0403259	0.0210931	0.028665	-0.000988903	0.0491435	-0.0431865	-0.0605958	0.0522304	-0.00393701	0.0197345	-2.22012	0.0189936	-1.53631	0	0	0	0	-0	0	0	0	-0.1265	0	-0	0	0	0	0	0	-0	0	0.105	-0.015	0	0	-0	0	0	-0.098	0.1	0	-0	0	0	0	0	0	-0	0	0.05595	0	0	0	-0	0	0	0	0	0	-0	0	555.292	560.316	325.14	220.787	-0.185309	1.73558	0.00509807	-0.0165208	-4.63351
37	0.0011232	-0.022021	0.0094696	0.00897254	-0.0170326	-0.0403235	0.021091	0.0286631	-0.000990112	0.0445434	-0.0481407	-0.061806	0.0523536	-0.00393665	0.0194064	-2.22667	0.0191848	-1.53647	0	0	0	0	-0	0	0	0	-0.1265	0	-0	0	0	0	0	0	-0	0	0.105	-0.015	0	0	-0	0	0	-0.098	0.1	0	-0	0	0	0	0	0	-0	0	0.05595	0	0	0	-0	0	0	0	0	0	-0	0	555.328	560.364	325.167	220.907	-0.186039	1.74362	0.00514517	-0.016508	-4.65838
38	-0.00713731	-0.0220251	0.0094679	0.00897071	-0.0170343	-0.0403216	0.0210917	0.0286638	-0.000989768	0.0474807	-0.0503907	-0.0687461	0.0525114	-0.00393638	0.0189756	-2.23514	0.0194413	-1.53668	0	0	0	0	-0	0	0	0	-0.1265	0	-0	0	0	0	0	0	-0	0	0.105	-0.015	0	0	-0	0	0	-0.098	0.1	0	-0	0	0	0	0	0	-0	0	0.05595	0	0	0	-0	0	0	0	0	0	-0	0	555.361	560.408	325.194	221.02	-0.186615	1.75049	0.00518447	-0.0164978	-4.68021
39	-0.00937465	-0.0220314	0.00946498	0.00896693	-0.0170363	-0.040318	0.0210911	0.0286638	-0.000989974	0.0410953	-0.0535243	-0.0742043	0.0525491	-0.00393594	0.0188618	-2.23781	0.0194561	-1.53681	0	0	0	0	-0	0	0	0	-0.1265	0	-0	0	0	0	0	0	-0	0	0.105	-0.015	0	0	-0	0	0	-0.098	0.1	0	-0	0	0	0	0	0	-0	0	0.05595	0	0	0	-0	0	0	0	0	0	-0	0	555.426	560.498	325.255	221.252	-0.187691	1.76395	0.0052612	-0.0164777	-4.7235
40	-0.00671904	-0.0220328	0.00946411	0.0089644	-0.0170368	-0.0403168	0.0210909	0.0286629	-0.000989116	0.0405115	-0.054254	-0.0742466	0.0524983	-0.00393567	0.0190021	-2.23524	0.0193542	-1.53678	0	0	0	0	-0	0	0	0	-0.1265	0	-0	0	0	0	0	0	-0	0	0.105	-0.015	0	0	-0	0	0	-0.098	0.1	0	-0	0	0	0	0	0	-0	0	0.05595	0	0	0	-0	0	0	0	0	0	-0	0	555.438	560.514	325.266	221.292	-0.187991	1.76692	0.00528412	-0.0164663	-4.73296
41	-0.00995417	-0.0220345	0.0094632	0.00896359	-0.0170374	-0.0403158	0.0210913	0.0286629	-0.000988753	0.0416297	-0.047953	-0.0770916	0.0525591	-0.00393553	0.018833	-2.23857	0.0194484	-1.53687	0	0	0	0	-0	0	0	0	-0.1265	0	-0	0	0	0	0	0	-0	0	0.105	-0.015	0	0	-0	0	0	-0.098	0.1	0	-0	0	0	0	0	0	-0	0	0.05595	0	0	0	-0	0	0	0	0	0	-0	0	555.454	560.536	325.282	221.347	-0.188348	1.77091	0.00530365	-0.0164602	-4.7452
42	-0.00996486	-0.0220369	0.00946206	0.00896223	-0.0170381	-0.0403145	0.0210908	0.0286634	-0.000989587	0.0489175	-0.0407725	-0.0736944	0.0525581	-0.00393536	0.0188337	-2.23874	0.0194246	-1.5369	0	0	0	0	-0	0	0	0	-0.1265	0	-0	0	0	0	0	0	-0	0	0.105	-0.015	0	0	-0	0	0	-0.098	0.1	0	-0	0	0	0	0	0	-0	0	0.05595	0	0	0	-0	0	0	0	0	0	-0	0	555.476	560.567	325.305	221.427	-0.188789	1.77617	0.00533099	-0.0164512	-4.7618
43	-0.00820876	-0.0220376	0.00946176	0.00896119	-0.0170384	-0.040314	0.0210909	0.0286629	-0.000988864	0.0474901	-0.0431055	-0.0748808	0.0525248	-0.00393527	0.0189263	-2.23701	0.0193601	-1.53687	0	0	0	0	-0	0	0	0	-0.1265	0	-0	0	0	0	0	0	-0	0	0.105	-0.015	0	0	-0	0	0	-0.098	0.1	0	-0	0	0	0	0	0	-0	0	0.05595	0	0	0	-0	0	0	0	0	0	-0	0	555.481	560.572	325.31	221.443	-0.188903	1.77726	0.00534132	-0.0164467	-4.76534
44	-0.00951973	-0.0220386	0.00946121	0.00896077	-0.0170387	-0.0403134	0.021091	0.0286628	-0.00098877	0.0463521	-0.047482	-0.0749278	0.0525492	-0.00393519	0.0188579	-2.23839	0.0193938	-1.53692	0	0	0	0	-0	0	0	0	-0.1265	0	-0	0	0	0	0	0	-0	0	0.105	-0.015	0	0	-0	0	0	-0.098	0.1	0	-0	0	0	0	0	0	-0	0	0.05595	0	0	0	-0	0	0	0	0	0	-0	0	555.491	560.586	325.32	221.478	-0.189114	1.77971	0.00535329	-0.0164428	-4.77293
45	-0.0118416	-0.0220401	0.00946046	0.00895987	-0.0170392	-0.0403125	0.021091	0.0286629	-0.000988663	0.0444331	-0.0455542	-0.0748994	0.0525923	-0.00393508	0.0187368	-2.24081	0.019456	-1.53698	0	0	0	0	-0	0	0	0	-0.1265	0	-0	0	0	0	0	0	-0	0	0.105	-0.015	0	0	-0	0	0	-0.098	0.1	0	-0	0	0	0	0	0	-0	0	0.05595	0	0	0	-0	0	0	0	0	0	-0	0	555.505	560.606	325.336	221.529	-0.189397	1.78306	0.00537133	-0.0164366	-4.78353
46	-0.00808505	-0.0220424	0.0094594	0.00895843	-0.01704	-0.0403112	0.0210909	0.0286631	-0.000988377	0.0479888	-0.0445835	-0.0781315	0.0525209	-0.00393491	0.0189356	-2.23719	0.0193041	-1.53695	0	0	0	0	-0	0	0	0	-0.1265	0	-0	0	0	0	0	0	-0	0	0.105	-0.015	0	0	-0	0	0	-0.098	0.1	0	-0	0	0	0	0	0	-0	0	0.05595	0	0	0	-0	0	0	0	0	0	-0	0	555.526	560.635	325.36	221.603	-0.189828	1.78808	0.00539821	-0.0164269	-4.79933
47	-0.00542237	-0.0220435	0.00945883	0.0089574	-0.0170404	-0.0403105	0.0210908	0.0286629	-0.000988432	0.0467727	-0.0445963	-0.0790404	0.0524697	-0.00393479	0.019076	-2.2346	0.0192015	-1.53691	0	0	0	0	-0	0	0	0	-0.1265	0	-0	0	0	0	0	0	-0	0	0.105	-0.015	0	0	-0	0	0	-0.098	0.1	0	-0	0	0	0	0	0	-0	0	0.05595	0	0	0	-0	0	0	0	0	0	-0	0	555.536	560.649	325.371	221.64	-0.190024	1.7904	0.0054128	-0.0164203	-4.80694
48	-0.000664202	-0.0220449	0.00945819	0.00895668	-0.0170409	-0.0403098	0.0210914	0.0286631	-0.000988478	0.0494104	-0.0505868	-0.0808489	0.0523783	-0.00393469	0.0193262	-2.22992	0.0190265	-1.53684	0	0	0	0	-0	0	0	0	-0.1265	0	-0	0	0	0	0	0	-0	0	0.105	-0.015	0	0	-0	0	0	-0.098	0.1	0	-0	0	0	0	0	0	-0	0	0.05595	0	0	0	-0	0	0	0	0	0	-0	0	555.547	560.664	325.384	221.679	-0.190252	1.79306	0.00542702	-0.0164145	-4.81533
49	0.00606349	-0.0220473	0.009457	0.00895556	-0.0170418	-0.0403086	0.021091	0.0286632	-0.00098859	0.0466243	-0.0540792	-0.0852571	0.0522466	-0.00393454	0.01968	-2.22335	0.0187671	-1.53676	0	0	0	0	-0	0	0	0	-0.1265	0	-0	0	0	0	0	0	-0	0	0.105	-0.015	0	0	-0	0	0	-0.098	0.1	0	-0	0	0	0	0	0	-0	0	0.05595	0	0	0	-0	0	0	0	0	0	-0	0	555.569	560.697	325.414	221.764	-0.19061	1.79785	0.00545355	-0.0164033	-4.83128
50	0.00542304	-0.0220487	0.00945635	0.00895432	-0.0170423	-0.0403077	0.0210913	0.0286636	-0.00098813	0.0527574	-0.0577903	-0.0870104	0.0522573	-0.0039344	0.0196469	-2.22407	0.0187737	-1.53679	0	0	0	0	-0	0	0	0	-0.1265	0	-0	0	0	0	0	0	-0	0	0.105	-0.015	0	0	-0	0	0	-0.098	0.1	0	-0	0	0	0	0	0	-0	0	0.05595	0	0	0	-0	0	0	0	0	0	-0	0	555.581	560.713	325.428	221.806	-0.190818	1.8003	0.00547137	-0.0163951	-4.8394
51	0.0103134	-0.0220495	0.00945593	0.0089533	-0.0170426	-0.0403072	0.0210911	0.0286632	-0.000987925	0.0502136	-0.0545725	-0.0906333	0.0521609	-0.00393431	0.019903	-2.21924	0.0185956	-1.53672	0	0	0	0	-0	0	0	0	-0.1265	0	-0	0	0	0	0	0	-0	0	0.105	-0.015	0	0	-0	0	0	-0.098	0.1	0	-0	0	0	0	0	0	-0	0	0.05595	0	0	0	-0	0	0	0	0	0	-0	0	555.589	560.725	325.439	221.837	-0.190995	1.80237	0.00548271	-0.0163894	-4.84607
52	0.00912299	-0.0220518	0.00945493	0.00895223	-0.0170434	-0.040306	0.0210914	0.0286636	-0.000987876	0.0555575	-0.0586157	-0.0867756	0.0521831	-0.00393416	0.0198418	-2.22056	0.0186103	-1.53678	0	0	0	0	-0	0	0	0	-0.1265	0	-0	0	0	0	0	0	-0	0	0.105	-0.015	0	0	-0	0	0	-0.098	0.1	0	-0	0	0	0	0	0	-0	0	0.05595	0	0	0	-0	0	0	0	0	0	-0	0	555.608	560.751	325.464	221.904	-0.191371	1.80688	0.00550697	-0.0163793	-4.86046
53	0.00786017	-0.0220528	0.00945438	0.00895108	-0.0170438	-0.0403053	0.021091	0.0286635	-0.000987904	0.0494265	-0.0570478	-0.0888096	0.0522077	-0.00393404	0.0197765	-2.22188	0.0186401	-1.53682	0	0	0	0	-0	0	0	0	-0.1265	0	-0	0	0	0	0	0	-0	0	0.105	-0.015	0	0	-0	0	0	-0.098	0.1	0	-0	0	0	0	0	0	-0	0	0.05595	0	0	0	-0	0	0	0	0	0	-0	0	555.617	560.763	325.476	221.937	-0.19156	1.80899	0.0055221	-0.016372	-4.86737
54	0.00633999	-0.0220552	0.00945342	0.00894969	-0.0170448	-0.0403042	0.0210915	0.0286636	-0.00098791	0.0530498	-0.061771	-0.09478	0.0522368	-0.0039339	0.0196984	-2.22354	0.0186624	-1.53689	0	0	0	0	-0	0	0	0	-0.1265	0	-0	0	0	0	0	0	-0	0	0.105	-0.015	0	0	-0	0	0	-0.098	0.1	0	-0	0	0	0	0	0	-0	0	0.05595	0	0	0	-0	0	0	0	0	0	-0	0	555.636	560.79	325.504	222.009	-0.191913	1.81348	0.00554661	-0.0163604	-4.88206
55	0.00926636	-0.0220563	0.00945271	0.00894887	-0.0170452	-0.0403034	0.021091	0.0286633	-0.000987731	0.0542452	-0.0609275	-0.0891936	0.0521787	-0.00393378	0.0198518	-2.22068	0.0185482	-1.53685	0	0	0	0	-0	0	0	0	-0.1265	0	-0	0	0	0	0	0	-0	0	0.105	-0.015	0	0	-0	0	0	-0.098	0.1	0	-0	0	0	0	0	0	-0	0	0.05595	0	0	0	-0	0	0	0	0	0	-0	0	555.645	560.803	325.518	222.044	-0.192126	1.81589	0.00556231	-0.0163525	-4.8899
56	0.0109633	-0.0220574	0.00945224	0.00894827	-0.0170456	-0.0403029	0.0210908	0.0286629	-0.00098753	0.0525148	-0.058035	-0.0895	0.0521446	-0.00393371	0.0199406	-2.21903	0.0184796	-1.53684	0	0	0	0	-0	0	0	0	-0.1265	0	-0	0	0	0	0	0	-0	0	0.105	-0.015	0	0	-0	0	0	-0.098	0.1	0	-0	0	0	0	0	0	-0	0	0.05595	0	0	0	-0	0	0	0	0	0	-0	0	555.651	560.813	325.529	222.07	-0.1923	1.81785	0.00557238	-0.0163471	-4.89604
57	0.00799831	-0.0220581	0.00945187	0.00894788	-0.0170459	-0.0403025	0.0210907	0.0286628	-0.00098749	0.054093	-0.058133	-0.0902546	0.0522034	-0.00393365	0.0197863	-2.22203	0.0185715	-1.5369	0	0	0	0	-0	0	0	0	-0.1265	0	-0	0	0	0	0	0	-0	0	0.105	-0.015	0	0	-0	0	0	-0.098	0.1	0	-0	0	0	0	0	0	-0	0	0.05595	0	0	0	-0	0	0	0	0	0	-0	0	555.657	560.821	325.537	222.09	-0.19242	1.81924	0.00557969	-0.0163429	-4.90049
58	0.00779088	-0.0220586	0.00945165	0.00894746	-0.0170461	-0.0403022	0.0210907	0.0286629	-0.00098753	0.0517381	-0.0585076	-0.0925543	0.0522071	-0.00393361	0.0197757	-2.22227	0.0185721	-1.53692	0	0	0	0	-0	0	0	0	-0.1265	0	-0	0	0	0	0	0	-0	0	0.105	-0.015	0	0	-0	0	0	-0.098	0.1	0	-0	0	0	0	0	0	-0	0	0.05595	0	0	0	-0	0	0	0	0	0	-0	0	555.661	560.826	325.543	222.105	-0.1925	1.8202	0.00558591	-0.0163399	-4.90367
59	0.0073092	-0.0220597	0.00945116	0.00894679	-0.0170466	-0.0403017	0.0210909	0.028663	-0.000987318	0.0511089	-0.0568527	-0.0968014	0.0522163	-0.00393354	0.019751	-2.22281	0.0185739	-1.53695	0	0	0	0	-0	0	0	0	-0.1265	0	-0	0	0	0	0	0	-0	0	0.105	-0.015	0	0	-0	0	0	-0.098	0.1	0	-0	0	0	0	0	0	-0	0	0.05595	0	0	0	-0	0	0	0	0	0	-0	0	555.669	560.837	325.557	222.137	-0.192689	1.82244	0.00559861	-0.0163339	-4.91087
60	0.00446259	-0.0220613	0.00945042	0.00894593	-0.0170472	-0.0403009	0.0210909	0.0286629	-0.000987605	0.0505394	-0.061608	-0.100407	0.052272	-0.00393344	0.0196031	-2.22575	0.0186482	-1.53703	0	0	0	0	-0	0	0	0	-0.1265	0	-0	0	0	0	0	0	-0	0	0.105	-0.015	0	0	-0	0	0	-0.098	0.1	0	-0	0	0	0	0	0	-0	0	0.05595	0	0	0	-0	0	0	0	0	0	-0	0	555.681	560.856	325.577	222.185	-0.19294	1.82558	0.00561477	-0.0163246	-4.92113
61	0.00214352	-0.0220622	0.00944993	0.00894546	-0.0170476	-0.0403004	0.0210907	0.0286628	-0.000987262	0.0514516	-0.0622688	-0.0985629	0.052317	-0.00393337	0.0194822	-2.22811	0.0187154	-1.53709	0	0	0	0	-0	0	0	0	-0.1265	0	-0	0	0	0	0	0	-0	0	0.105	-0.015	0	0	-0	0	0	-0.098	0.1	0	-0	0	0	0	0	0	-0	0	0.05595	0	0	0	-0	0	0	0	0	0	-0	0	555.687	560.864	325.587	222.209	-0.193073	1.82715	0.00562473	-0.0163188	-4.92633
62	0.00230798	-0.022064	0.00944917	0.00894448	-0.0170483	-0.0402996	0.021091	0.0286635	-0.000987347	0.0559384	-0.062791	-0.0935863	0.0523132	-0.00393327	0.0194915	-2.22804	0.018685	-1.53712	0	0	0	0	-0	0	0	0	-0.1265	0	-0	0	0	0	0	0	-0	0	0.105	-0.015	0	0	-0	0	0	-0.098	0.1	0	-0	0	0	0	0	0	-0	0	0.05595	0	0	0	-0	0	0	0	0	0	-0	0	555.699	560.883	325.61	222.26	-0.193343	1.83055	0.00564197	-0.0163086	-4.93743
63	0.00170564	-0.0220647	0.00944877	0.00894364	-0.0170486	-0.0402991	0.0210909	0.0286629	-0.00098699	0.0545377	-0.0589874	-0.095862	0.0523245	-0.00393318	0.0194606	-2.22869	0.0186925	-1.53714	0	0	0	0	-0	0	0	0	-0.1265	0	-0	0	0	0	0	0	-0	0	0.105	-0.015	0	0	-0	0	0	-0.098	0.1	0	-0	0	0	0	0	0	-0	0	0.05595	0	0	0	-0	0	0	0	0	0	-0	0	555.707	560.894	325.622	222.285	-0.19348	1.83217	0.0056523	-0.0163019	-4.94283
64	0.000312556	-0.0220655	0.00944837	0.00894333	-0.0170489	-0.0402987	0.0210907	0.0286633	-0.000987058	0.0491473	-0.0579106	-0.0950187	0.0523514	-0.00393312	0.019388	-2.23012	0.0187299	-1.53718	0	0	0	0	-0	0	0	0	-0.1265	0	-0	0	0	0	0	0	-0	0	0.105	-0.015	0	0	-0	0	0	-0.098	0.1	0	-0	0	0	0	0	0	-0	0	0.05595	0	0	0	-0	0	0	0	0	0	-0	0	555.711	560.901	325.63	222.304	-0.193599	1.83354	0.00566008	-0.0162974	-4.94726
65	0.00106044	-0.0220669	0.00944779	0.00894237	-0.0170495	-0.040298	0.0210913	0.0286631	-0.000987166	0.0519157	-0.0645086	-0.0974641	0.0523364	-0.00393303	0.0194278	-2.22945	0.0186835	-1.5372	0	0	0	0	-0	0	0	0	-0.1265	0	-0	0	0	0	0	0	-0	0	0.105	-0.015	0	0	-0	0	0	-0.098	0.1	0	-0	0	0	0	0	0	-0	0	0.05595	0	0	0	-0	0	0	0	0	0	-0	0	555.722	560.917	325.65	222.345	-0.193853	1.83655	0.00567503	-0.0162885	-4.95688
66	0.00290062	-0.0220677	0.00944724	0.00894213	-0.0170497	-0.0402976	0.0210905	0.0286628	-0.000987003	0.0543178	-0.0614805	-0.0968507	0.0523004	-0.00393297	0.0195244	-2.22765	0.018611	-1.53718	0	0	0	0	-0	0	0	0	-0.1265	0	-0	0	0	0	0	0	-0	0	0.105	-0.015	0	0	-0	0	0	-0.098	0.1	0	-0	0	0	0	0	0	-0	0	0.05595	0	0	0	-0	0	0	0	0	0	-0	0	555.728	560.925	325.66	222.366	-0.194004	1.83818	0.00568429	-0.0162828	-4.96203
67	-0.0013748	-0.0220694	0.00944663	0.00894107	-0.0170505	-0.0402968	0.0210908	0.028663	-0.000986869	0.057227	-0.0645753	-0.0978186	0.0523833	-0.00393287	0.0193016	-2.23201	0.0187302	-1.53729	0	0	0	0	-0	0	0	0	-0.1265	0	-0	0	0	0	0	0	-0	0	0.105	-0.015	0	0	-0	0	0	-0.098	0.1	0	-0	0	0	0	0	0	-0	0	0.05595	0	0	0	-0	0	0	0	0	0	-0	0	555.739	560.942	325.682	222.411	-0.194246	1.84124	0.00569993	-0.0162727	-4.97212
68	-0.00165616	-0.0220716	0.00944558	0.00893995	-0.0170515	-0.0402957	0.0210908	0.0286636	-0.000987085	0.052374	-0.0655412	-0.10332	0.0523875	-0.00393273	0.0192878	-2.23242	0.018703	-1.53734	0	0	0	0	-0	0	0	0	-0.1265	0	-0	0	0	0	0	0	-0	0	0.105	-0.015	0	0	-0	0	0	-0.098	0.1	0	-0	0	0	0	0	0	-0	0	0.05595	0	0	0	-0	0	0	0	0	0	-0	0	555.755	560.966	325.715	222.476	-0.194558	1.84535	0.00572236	-0.0162571	-4.98596
69	0.00121932	-0.0220728	0.00944502	0.00893874	-0.017052	-0.0402951	0.021091	0.0286635	-0.000986679	0.0470845	-0.0630548	-0.106652	0.0523316	-0.00393261	0.019439	-2.2296	0.0185884	-1.53731	0	0	0	0	-0	0	0	0	-0.1265	0	-0	0	0	0	0	0	-0	0	0.105	-0.015	0	0	-0	0	0	-0.098	0.1	0	-0	0	0	0	0	0	-0	0	0.05595	0	0	0	-0	0	0	0	0	0	-0	0	555.763	560.978	325.731	222.508	-0.194756	1.84756	0.00573766	-0.0162472	-4.99327
70	-0.000896607	-0.0220737	0.00944457	0.00893832	-0.0170523	-0.0402946	0.0210908	0.0286632	-0.000986696	0.0474566	-0.0645619	-0.112158	0.0523722	-0.00393255	0.0193286	-2.23176	0.0186454	-1.53737	0	0	0	0	-0	0	0	0	-0.1265	0	-0	0	0	0	0	0	-0	0	0.105	-0.015	0	0	-0	0	0	-0.098	0.1	0	-0	0	0	0	0	0	-0	0	0.05595	0	0	0	-0	0	0	0	0	0	-0	0	555.769	560.987	325.744	222.532	-0.19487	1.84903	0.00574626	-0.0162407	-4.99827
71	0.000415797	-0.0220756	0.0094437	0.00893754	-0.0170532	-0.0402938	0.021091	0.0286628	-0.000987127	0.0499486	-0.0549783	-0.108915	0.0523463	-0.00393246	0.019398	-2.23055	0.0185707	-1.53738	0	0	0	0	-0	0	0	0	-0.1265	0	-0	0	0	0	0	0	-0	0	0.105	-0.015	0	0	-0	0	0	-0.098	0.1	0	-0	0	0	0	0	0	-0	0	0.05595	0	0	0	-0	0	0	0	0	0	-0	0	555.78	561.005	325.771	222.583	-0.195134	1.85247	0.00576249	-0.0162278	-5.00973
72	0.00144493	-0.0220767	0.00944307	0.00893702	-0.0170538	-0.0402933	0.0210909	0.0286636	-0.000986581	0.0553403	-0.0565394	-0.10465	0.0523261	-0.00393238	0.0194522	-2.22957	0.018521	-1.53738	0	0	0	0	-0	0	0	0	-0.1265	0	-0	0	0	0	0	0	-0	0	0.105	-0.015	0	0	-0	0	0	-0.098	0.1	0	-0	0	0	0	0	0	-0	0	0.05595	0	0	0	-0	0	0	0	0	0	-0	0	555.786	561.014	325.785	222.608	-0.195293	1.85426	0.00577543	-0.0162196	-5.01566
73	-0.00180515	-0.0220773	0.00944285	0.00893618	-0.017054	-0.0402929	0.0210906	0.0286631	-0.000986418	0.0591098	-0.0581133	-0.102682	0.0523891	-0.00393232	0.0192824	-2.23285	0.0186177	-1.53746	0	0	0	0	-0	0	0	0	-0.1265	0	-0	0	0	0	0	0	-0	0	0.105	-0.015	0	0	-0	0	0	-0.098	0.1	0	-0	0	0	0	0	0	-0	0	0.05595	0	0	0	-0	0	0	0	0	0	-0	0	555.79	561.02	325.796	222.627	-0.195418	1.85566	0.00578353	-0.0162137	-5.02019
74	-0.000290721	-0.022078	0.00944254	0.00893595	-0.0170543	-0.0402926	0.0210905	0.0286628	-0.00098643	0.0601136	-0.0548589	-0.10171	0.0523595	-0.00393227	0.0193619	-2.23136	0.0185585	-1.53744	0	0	0	0	-0	0	0	0	-0.1265	0	-0	0	0	0	0	0	-0	0	0.105	-0.015	0	0	-0	0	0	-0.098	0.1	0	-0	0	0	0	0	0	-0	0	0.05595	0	0	0	-0	0	0	0	0	0	-0	0	555.794	561.025	325.804	222.641	-0.195522	1.85683	0.00578968	-0.0162095	-5.02389
75	-0.00366838	-0.0220791	0.00944203	0.00893532	-0.0170548	-0.0402921	0.0210907	0.0286631	-0.000986291	0.0628492	-0.0568051	-0.0979698	0.0524245	-0.0039322	0.0191855	-2.2348	0.0186514	-1.53753	0	0	0	0	-0	0	0	0	-0.1265	0	-0	0	0	0	0	0	-0	0	0.105	-0.015	0	0	-0	0	0	-0.098	0.1	0	-0	0	0	0	0	0	-0	0	0.05595	0	0	0	-0	0	0	0	0	0	-0	0	555.801	561.036	325.821	222.671	-0.195685	1.85891	0.0058007	-0.0162012	-5.03087
76	-0.00253134	-0.0220797	0.00944171	0.00893498	-0.017055	-0.0402918	0.0210905	0.028663	-0.00098626	0.0599538	-0.0557878	-0.0964385	0.0524023	-0.00393216	0.0192452	-2.23369	0.0186036	-1.53752	0	0	0	0	-0	0	0	0	-0.1265	0	-0	0	0	0	0	0	-0	0	0.105	-0.015	0	0	-0	0	0	-0.098	0.1	0	-0	0	0	0	0	0	-0	0	0.05595	0	0	0	-0	0	0	0	0	0	-0	0	555.804	561.042	325.83	222.686	-0.195782	1.86003	0.00580695	-0.016196	-5.03453
77	-0.0040118	-0.0220802	0.00944148	0.00893464	-0.0170553	-0.0402915	0.0210905	0.0286628	-0.000986211	0.0593374	-0.0543742	-0.0984812	0.0524306	-0.00393212	0.0191678	-2.23519	0.0186455	-1.53755	0	0	0	0	-0	0	0	0	-0.1265	0	-0	0	0	0	0	0	-0	0	0.105	-0.015	0	0	-0	0	0	-0.098	0.1	0	-0	0	0	0	0	0	-0	0	0.05595	0	0	0	-0	0	0	0	0	0	-0	0	555.807	561.046	325.837	222.697	-0.195866	1.86092	0.00581207	-0.0161923	-5.03734
78	-0.00492667	-0.0220811	0.00944111	0.00893411	-0.0170557	-0.0402911	0.0210906	0.0286631	-0.000985965	0.0568944	-0.0565528	-0.0941243	0.0524477	-0.00393206	0.0191203	-2.23615	0.0186591	-1.53759	0	0	0	0	-0	0	0	0	-0.1265	0	-0	0	0	0	0	0	-0	0	0.105	-0.015	0	0	-0	0	0	-0.098	0.1	0	-0	0	0	0	0	0	-0	0	0.05595	0	0	0	-0	0	0	0	0	0	-0	0	555.814	561.056	325.851	222.722	-0.195997	1.86261	0.0058207	-0.0161853	-5.04303
79	-0.00565871	-0.0220815	0.0094409	0.00893368	-0.0170559	-0.0402909	0.0210905	0.0286628	-0.000986052	0.0574805	-0.0537512	-0.0963879	0.0524615	-0.00393202	0.0190822	-2.23691	0.018675	-1.53762	0	0	0	0	-0	0	0	0	-0.1265	0	-0	0	0	0	0	0	-0	0	0.105	-0.015	0	0	-0	0	0	-0.098	0.1	0	-0	0	0	0	0	0	-0	0	0.05595	0	0	0	-0	0	0	0	0	0	-0	0	555.817	561.061	325.859	222.734	-0.196061	1.86337	0.00582588	-0.0161808	-5.04562
80	-0.00467472	-0.022082	0.00944068	0.00893348	-0.0170561	-0.0402907	0.0210905	0.0286629	-0.000986186	0.0598516	-0.0538096	-0.0943872	0.0524426	-0.00393198	0.019134	-2.23594	0.0186361	-1.5376	0	0	0	0	-0	0	0	0	-0.1265	0	-0	0	0	0	0	0	-0	0	0.105	-0.015	0	0	-0	0	0	-0.098	0.1	0	-0	0	0	0	0	0	-0	0	0.05595	0	0	0	-0	0	0	0	0	0	-0	0	555.82	561.064	325.864	222.743	-0.196125	1.86409	0.00583045	-0.0161778	-5.04798
81	-0.00302448	-0.0220828	0.00944036	0.00893303	-0.0170565	-0.0402903	0.0210902	0.0286633	-0.000986199	0.0666647	-0.0504293	-0.0940852	0.0524108	-0.00393194	0.0192208	-2.23433	0.0185673	-1.53759	0	0	0	0	-0	0	0	0	-0.1265	0	-0	0	0	0	0	0	-0	0	0.105	-0.015	0	0	-0	0	0	-0.098	0.1	0	-0	0	0	0	0	0	-0	0	0.05595	0	0	0	-0	0	0	0	0	0	-0	0	555.824	561.072	325.877	222.764	-0.196242	1.86557	0.0058377	-0.0161718	-5.05291
82	-0.00312056	-0.022084	0.0094399	0.0089322	-0.017057	-0.0402898	0.0210907	0.0286635	-0.000986052	0.0604415	-0.0483264	-0.0939381	0.0524123	-0.00393187	0.0192162	-2.23448	0.0185497	-1.53762	0	0	0	0	-0	0	0	0	-0.1265	0	-0	0	0	0	0	0	-0	0	0.105	-0.015	0	0	-0	0	0	-0.098	0.1	0	-0	0	0	0	0	0	-0	0	0.05595	0	0	0	-0	0	0	0	0	0	-0	0	555.831	561.082	325.895	222.793	-0.196425	1.86778	0.0058496	-0.0161624	-5.06019
83	-0.00394139	-0.0220855	0.00943912	0.00893152	-0.0170577	-0.0402891	0.0210907	0.0286636	-0.000985939	0.067088	-0.0506583	-0.0957943	0.0524276	-0.00393179	0.0191739	-2.23538	0.0185456	-1.53767	0	0	0	0	-0	0	0	0	-0.1265	0	-0	0	0	0	0	0	-0	0	0.105	-0.015	0	0	-0	0	0	-0.098	0.1	0	-0	0	0	0	0	0	-0	0	0.05595	0	0	0	-0	0	0	0	0	0	-0	0	555.841	561.099	325.923	222.836	-0.196647	1.87071	0.00586355	-0.0161487	-5.0701
84	0.00248657	-0.0220879	0.00943804	0.00893026	-0.0170588	-0.040288	0.0210904	0.0286628	-0.000985863	0.068302	-0.0474849	-0.0954325	0.0523037	-0.00393165	0.0195119	-2.22907	0.018286	-1.53761	0	0	0	0	-0	0	0	0	-0.1265	0	-0	0	0	0	0	0	-0	0	0.105	-0.015	0	0	-0	0	0	-0.098	0.1	0	-0	0	0	0	0	0	-0	0	0.05595	0	0	0	-0	0	0	0	0	0	-0	0	555.855	561.122	325.963	222.897	-0.19698	1.87498	0.00588494	-0.016128	-5.08451
85	0.00286694	-0.0220886	0.00943761	0.00893009	-0.0170592	-0.0402877	0.0210904	0.0286629	-0.000985801	0.0696352	-0.0489525	-0.0937027	0.0522951	-0.00393158	0.0195316	-2.22871	0.0182672	-1.53761	0	0	0	0	-0	0	0	0	-0.1265	0	-0	0	0	0	0	0	-0	0	0.105	-0.015	0	0	-0	0	0	-0.098	0.1	0	-0	0	0	0	0	0	-0	0	0.05595	0	0	0	-0	0	0	0	0	0	-0	0	555.857	561.125	325.969	222.905	-0.19706	1.87567	0.00589215	-0.0161228	-5.08681
86	0.00522269	-0.0220893	0.00943733	0.00892943	-0.0170596	-0.0402874	0.0210904	0.0286629	-0.000985783	0.0674823	-0.0481861	-0.0956869	0.0522489	-0.00393153	0.019655	-2.22639	0.0181749	-1.53758	0	0	0	0	-0	0	0	0	-0.1265	0	-0	0	0	0	0	0	-0	0	0.105	-0.015	0	0	-0	0	0	-0.098	0.1	0	-0	0	0	0	0	0	-0	0	0.05595	0	0	0	-0	0	0	0	0	0	-0	0	555.861	561.131	325.981	222.923	-0.197175	1.87705	0.00589984	-0.0161164	-5.09138
87	0.00683851	-0.0220897	0.00943714	0.00892916	-0.0170598	-0.0402872	0.0210904	0.0286629	-0.000985758	0.0690298	-0.0494835	-0.0982314	0.0522169	-0.0039315	0.0197396	-2.22479	0.0181141	-1.53756	0	0	0	0	-0	0	0	0	-0.1265	0	-0	0	0	0	0	0	-0	0	0.105	-0.015	0	0	-0	0	0	-0.098	0.1	0	-0	0	0	0	0	0	-0	0	0.05595	0	0	0	-0	0	0	0	0	0	-0	0	555.863	561.135	325.988	222.932	-0.197234	1.87771	0.00590454	-0.0161126	-5.09359
88	0.00478491	-0.0220906	0.00943675	0.00892884	-0.0170602	-0.0402868	0.0210908	0.0286628	-0.000985525	0.0692514	-0.0424797	-0.100148	0.0522572	-0.00393146	0.0196326	-2.22688	0.0181664	-1.53762	0	0	0	0	-0	0	0	0	-0.1265	0	-0	0	0	0	0	0	-0	0	0.105	-0.015	0	0	-0	0	0	-0.098	0.1	0	-0	0	0	0	0	0	-0	0	0.05595	0	0	0	-0	0	0	0	0	0	-0	0	555.867	561.142	326.002	222.952	-0.197355	1.87925	0.00591075	-0.0161056	-5.09867
89	0.00662292	-0.0220909	0.00943651	0.0089286	-0.0170603	-0.0402866	0.0210903	0.0286629	-0.000985675	0.067531	-0.0422596	-0.0989319	0.0522208	-0.00393142	0.0197288	-2.22506	0.0180974	-1.5376	0	0	0	0	-0	0	0	0	-0.1265	0	-0	0	0	0	0	0	-0	0	0.105	-0.015	0	0	-0	0	0	-0.098	0.1	0	-0	0	0	0	0	0	-0	0	0.05595	0	0	0	-0	0	0	0	0	0	-0	0	555.87	561.146	326.009	222.962	-0.197415	1.87995	0.00591615	-0.0161015	-5.10109
90	0.00597394	-0.022092	0.00943611	0.00892812	-0.0170608	-0.0402862	0.0210903	0.0286634	-0.000985535	0.061078	-0.0433423	-0.0969314	0.0522335	-0.00393138	0.0196951	-2.22575	0.0181012	-1.53763	0	0	0	0	-0	0	0	0	-0.1265	0	-0	0	0	0	0	0	-0	0	0.105	-0.015	0	0	-0	0	0	-0.098	0.1	0	-0	0	0	0	0	0	-0	0	0.05595	0	0	0	-0	0	0	0	0	0	-0	0	555.874	561.154	326.025	222.984	-0.197559	1.88173	0.0059232	-0.0160935	-5.10692
91	0.00782564	-0.0220933	0.00943559	0.00892713	-0.0170615	-0.0402856	0.0210903	0.0286629	-0.000985559	0.0630618	-0.0436434	-0.0972783	0.0521967	-0.0039313	0.0197922	-2.22396	0.0180134	-1.53763	0	0	0	0	-0	0	0	0	-0.1265	0	-0	0	0	0	0	0	-0	0	0.105	-0.015	0	0	-0	0	0	-0.098	0.1	0	-0	0	0	0	0	0	-0	0	0.05595	0	0	0	-0	0	0	0	0	0	-0	0	555.881	561.164	326.048	223.016	-0.197763	1.88419	0.00593743	-0.0160812	-5.1151
92	0.0102491	-0.0220954	0.0094346	0.00892647	-0.0170625	-0.0402848	0.0210909	0.0286632	-0.000985459	0.0587872	-0.0390148	-0.0987455	0.0521482	-0.0039312	0.0199194	-2.22163	0.0178935	-1.53763	0	0	0	0	-0	0	0	0	-0.1265	0	-0	0	0	0	0	0	-0	0	0.105	-0.015	0	0	-0	0	0	-0.098	0.1	0	-0	0	0	0	0	0	-0	0	0.05595	0	0	0	-0	0	0	0	0	0	-0	0	555.891	561.182	326.083	223.062	-0.198053	1.88785	0.0059528	-0.0160633	-5.1273
93	0.00927466	-0.0220962	0.00943412	0.00892571	-0.0170629	-0.0402843	0.0210909	0.0286631	-0.000985425	0.0620062	-0.0449663	-0.0983934	0.0521671	-0.00393111	0.0198689	-2.22264	0.0179062	-1.53768	0	0	0	0	-0	0	0	0	-0.1265	0	-0	0	0	0	0	0	-0	0	0.105	-0.015	0	0	-0	0	0	-0.098	0.1	0	-0	0	0	0	0	0	-0	0	0.05595	0	0	0	-0	0	0	0	0	0	-0	0	555.895	561.188	326.1	223.084	-0.198155	1.88905	0.00596592	-0.0160528	-5.13176
94	0.002981	-0.0220983	0.00943317	0.00892488	-0.017064	-0.0402835	0.0210908	0.0286629	-0.000985125	0.0627433	-0.0512302	-0.095687	0.0522917	-0.00393102	0.0195413	-2.22902	0.0180703	-1.53784	0	0	0	0	-0	0	0	0	-0.1265	0	-0	0	0	0	0	0	-0	0	0.105	-0.015	0	0	-0	0	0	-0.098	0.1	0	-0	0	0	0	0	0	-0	0	0.05595	0	0	0	-0	0	0	0	0	0	-0	0	555.906	561.207	326.139	223.132	-0.198446	1.89281	0.00598115	-0.0160332	-5.14435
95	-0.00208288	-0.0220995	0.00943254	0.00892439	-0.0170646	-0.040283	0.0210912	0.0286625	-0.000985122	0.060325	-0.0639823	-0.0943504	0.0523895	-0.00393093	0.0192765	-2.23413	0.0182147	-1.53796	0	0	0	0	-0	0	0	0	-0.1265	0	-0	0	0	0	0	0	-0	0	0.105	-0.015	0	0	-0	0	0	-0.098	0.1	0	-0	0	0	0	0	0	-0	0	0.05595	0	0	0	-0	0	0	0	0	0	-0	0	555.911	561.215	326.158	223.155	-0.198618	1.89471	0.0059928	-0.0160217	-5.15065
96	-0.00581662	-0.0221003	0.00943207	0.00892421	-0.017065	-0.0402827	0.0210903	0.0286628	-0.000985325	0.0602748	-0.0674242	-0.0949611	0.0524606	-0.00393089	0.0190809	-2.23789	0.0183205	-1.53805	0	0	0	0	-0	0	0	0	-0.1265	0	-0	0	0	0	0	0	-0	0	0.105	-0.015	0	0	-0	0	0	-0.098	0.1	0	-0	0	0	0	0	0	-0	0	0.05595	0	0	0	-0	0	0	0	0	0	-0	0	555.913	561.221	326.172	223.172	-0.198704	1.89587	0.00599984	-0.0160137	-5.15477
97	-0.00216956	-0.022101	0.00943195	0.0089233	-0.0170654	-0.0402824	0.0210904	0.0286631	-0.000985222	0.0563566	-0.0659986	-0.0944667	0.0523905	-0.00393084	0.0192723	-2.23427	0.0181885	-1.53799	0	0	0	0	-0	0	0	0	-0.1265	0	-0	0	0	0	0	0	-0	0	0.105	-0.015	0	0	-0	0	0	-0.098	0.1	0	-0	0	0	0	0	0	-0	0	0.05595	0	0	0	-0	0	0	0	0	0	-0	0	555.917	561.225	326.183	223.185	-0.198792	1.89684	0.00600693	-0.0160073	-5.15809
98	-0.00189757	-0.0221014	0.00943174	0.00892303	-0.0170656	-0.0402822	0.0210903	0.0286628	-0.000985104	0.0570658	-0.0629469	-0.0962527	0.0523849	-0.00393081	0.0192866	-2.23402	0.0181703	-1.538	0	0	0	0	-0	0	0	0	-0.1265	0	-0	0	0	0	0	0	-0	0	0.105	-0.015	0	0	-0	0	0	-0.098	0.1	0	-0	0	0	0	0	0	-0	0	0.05595	0	0	0	-0	0	0	0	0	0	-0	0	555.919	561.229	326.191	223.194	-0.198866	1.89766	0.00601089	-0.0160027	-5.16074
99	-0.00261277	-0.0221024	0.00943132	0.00892246	-0.0170661	-0.0402817	0.0210904	0.0286629	-0.000985177	0.0557656	-0.0602182	-0.0953221	0.0523985	-0.00393076	0.0192493	-2.23477	0.018173	-1.53804	0	0	0	0	-0	0	0	0	-0.1265	0	-0	0	0	0	0	0	-0	0	0.105	-0.015	0	0	-0	0	0	-0.098	0.1	0	-0	0	0	0	0	0	-0	0	0.05595	0	0	0	-0	0	0	0	0	0	-0	0	555.922	561.235	326.209	223.215	-0.199013	1.89944	0.00602039	-0.0159933	-5.16667
100	-0.00210222	-0.022103	0.00943105	0.00892219	-0.0170664	-0.0402815	0.0210903	0.028663	-0.000985041	0.0547332	-0.0611545	-0.0917467	0.0523886	-0.00393072	0.0192762	-2.23428	0.0181459	-1.53804	0	0	0	0	-0	0	0	0	-0.1265	0	-0	0	0	0	0	0	-0	0	0.105	-0.015	0	0	-0	0	0	-0.098	0.1	0	-0	0	0	0	0	0	-0	0	0.05595	0	0	0	-0	0	0	0	0	0	-0	0	555.924	561.239	326.218	223.225	-0.19908	1.90021	0.0060256	-0.0159878	-5.16932
