Stefan210/kinematic_calibration/src/kinematic_calibration/validation/experiments/experiments/anzahl_messungen/BC_A/larm_22/optimization_intermediate_results.csv
iteration	HeadPitch_offset	HeadYaw_offset	LElbowRoll_offset	LElbowYaw_offset	LShoulderPitch_offset	LShoulderRoll_offset	marker_transform_larm_tx	marker_transform_larm_ty	marker_transform_larm_tz	marker_transform_larm_rr	marker_transform_larm_rp	marker_transform_larm_ry	camera_transform_tx	camera_transform_ty	camera_transform_tz	camera_transform_rr	camera_transform_rp	camera_transform_ry	HeadPitch_transform_tx	HeadPitch_transform_ty	HeadPitch_transform_tz	HeadPitch_transform_rr	HeadPitch_transform_rp	HeadPitch_transform_ry	HeadYaw_transform_tx	HeadYaw_transform_ty	HeadYaw_transform_tz	HeadYaw_transform_rr	HeadYaw_transform_rp	HeadYaw_transform_ry	LElbowRoll_transform_tx	LElbowRoll_transform_ty	LElbowRoll_transform_tz	LElbowRoll_transform_rr	LElbowRoll_transform_rp	LElbowRoll_transform_ry	LElbowYaw_transform_tx	LElbowYaw_transform_ty	LElbowYaw_transform_tz	LElbowYaw_transform_rr	LElbowYaw_transform_rp	LElbowYaw_transform_ry	LShoulderPitch_transform_tx	LShoulderPitch_transform_ty	LShoulderPitch_transform_tz	LShoulderPitch_transform_rr	LShoulderPitch_transform_rp	LShoulderPitch_transform_ry	LShoulderRoll_transform_tx	LShoulderRoll_transform_ty	LShoulderRoll_transform_tz	LShoulderRoll_transform_rr	LShoulderRoll_transform_rp	LShoulderRoll_transform_ry	LWristYaw_transform_tx	LWristYaw_transform_ty	LWristYaw_transform_tz	LWristYaw_transform_rr	LWristYaw_transform_rp	LWristYaw_transform_ry	l_wrist_joint_transform_tx	l_wrist_joint_transform_ty	l_wrist_joint_transform_tz	l_wrist_joint_transform_rr	l_wrist_joint_transform_rp	l_wrist_joint_transform_ry	camera_fx	camera_fy	camera_cx	camera_cy	camera_D0	camera_D1	camera_D2	camera_D3	camera_D4	
0	0.0249164	-0.0307543	0.000853157	4.65819e-06	-0.000318322	-0.00310766	0.05071	0	0.01774	-2.26369	1.66533e-16	-1.5708	545.901	551.038	324.928	201.58	0.0255298	2.61142	-0.0636736	-0.0350419	0.213964
1	-0.0127429	0.0627792	0.0663417	0.00806939	-0.0135375	-0.0157426	0.0264142	-0.0296511	0.00216334	-0.000157928	-0.000443659	-0.00281512	0.0553856	-0.0100919	0.0244584	-2.21366	-0.00660428	-1.59415	0	0	0	0	-0	0	0	0	-0.1265	0	-0	0	0	0	0	0	-0	0	0.105	0.015	0	0	-0	0	0	0.098	0.1	0	-0	0	0	0	0	0	-0	0	0.05595	0	0	0	-0	0	0	0	0	0	-0	0	545.902	551.039	324.926	201.582	-0.0498822	2.56541	-0.0971611	0.0439988	0.199168
2	-0.00778426	0.100603	0.0406404	0.0350118	-0.0574393	0.0158185	0.0257431	-0.0290308	0.0032768	-0.000295441	-0.000567396	-0.00283027	0.0502049	-0.00836206	0.0364679	-2.23617	-0.02594	-1.60011	0	0	0	0	-0	0	0	0	-0.1265	0	-0	0	0	0	0	0	-0	0	0.105	0.015	0	0	-0	0	0	0.098	0.1	0	-0	0	0	0	0	0	-0	0	0.05595	0	0	0	-0	0	0	0	0	0	-0	0	545.905	551.038	324.921	201.587	-0.154288	2.43839	0.0533521	-0.0379881	0.145442
3	-0.010809	0.0847778	0.0494432	0.0325	-0.0368152	0.0121855	0.0262191	-0.0294382	0.00342158	-0.000307426	-0.000576822	-0.00281804	0.0548983	-0.00747145	0.029231	-2.22201	-0.0232443	-1.6154	0	0	0	0	-0	0	0	0	-0.1265	0	-0	0	0	0	0	0	-0	0	0.105	0.015	0	0	-0	0	0	0.098	0.1	0	-0	0	0	0	0	0	-0	0	0.05595	0	0	0	-0	0	0	0	0	0	-0	0	545.906	551.038	324.919	201.588	-0.228419	2.39193	-0.0277135	0.0371199	0.130339
4	-0.00966011	0.0909372	0.0429326	0.0327214	-0.0450351	0.0136493	0.0259483	-0.0291295	0.00334949	-0.00030397	-0.000571389	-0.00281718	0.0531256	-0.00798535	0.0314768	-2.22735	-0.0221133	-1.60036	0	0	0	0	-0	0	0	0	-0.1265	0	-0	0	0	0	0	0	-0	0	0.105	0.015	0	0	-0	0	0	0.098	0.1	0	-0	0	0	0	0	0	-0	0	0.05595	0	0	0	-0	0	0	0	0	0	-0	0	545.909	551.038	324.914	201.593	-0.369666	2.25166	0.0415914	-0.025674	0.073457
5	-0.0123462	0.0714554	0.045457	0.0247703	-0.0282173	0.0119167	0.0261033	-0.0294362	0.00289116	-0.000246406	-0.000522716	-0.00283068	0.0564919	-0.00656811	0.0245085	-2.2148	-0.01856	-1.60271	0	0	0	0	-0	0	0	0	-0.1265	0	-0	0	0	0	0	0	-0	0	0.105	0.015	0	0	-0	0	0	0.098	0.1	0	-0	0	0	0	0	0	-0	0	0.05595	0	0	0	-0	0	0	0	0	0	-0	0	545.91	551.038	324.912	201.594	-0.44226	2.19614	-0.00897053	0.0175973	0.0529603
6	-0.0119688	0.0715016	0.0380106	0.0235719	-0.0327231	0.0139759	0.0258039	-0.0291901	0.00270711	-0.000227786	-0.000508277	-0.00284099	0.055441	-0.00637421	0.0251099	-2.2166	-0.0165891	-1.58816	0	0	0	0	-0	0	0	0	-0.1265	0	-0	0	0	0	0	0	-0	0	0.105	0.015	0	0	-0	0	0	0.098	0.1	0	-0	0	0	0	0	0	-0	0	0.05595	0	0	0	-0	0	0	0	0	0	-0	0	545.913	551.037	324.908	201.598	-0.570698	2.05378	0.0391979	-0.0250135	-0.00916166
7	-0.0147476	0.0471644	0.0351575	0.0139103	-0.0151008	0.0133332	0.025773	-0.029384	0.00210171	-0.000157927	-0.000447019	-0.0028656	0.0583637	-0.00453501	0.0176493	-2.20361	-0.00994876	-1.57811	0	0	0	0	-0	0	0	0	-0.1265	0	-0	0	0	0	0	0	-0	0	0.105	0.015	0	0	-0	0	0	0.098	0.1	0	-0	0	0	0	0	0	-0	0	0.05595	0	0	0	-0	0	0	0	0	0	-0	0	545.916	551.037	324.905	201.602	-0.703221	1.90898	0.0130869	-0.00499871	-0.0712385
8	-0.0149431	0.0436899	0.024319	0.0147977	-0.0177833	0.0180257	0.0253452	-0.0292058	0.0020248	-0.000146865	-0.000440894	-0.00289727	0.057665	-0.00335721	0.0172901	-2.2028	-0.00881575	-1.56628	0	0	0	0	-0	0	0	0	-0.1265	0	-0	0	0	0	0	0	-0	0	0.105	0.015	0	0	-0	0	0	0.098	0.1	0	-0	0	0	0	0	0	-0	0	0.05595	0	0	0	-0	0	0	0	0	0	-0	0	545.921	551.035	324.9	201.605	-0.781807	1.73111	0.0469742	-0.031433	-0.163525
9	-0.0157758	0.0325139	0.0175207	0.0149326	-0.0120206	0.0218372	0.0251021	-0.0293164	0.0019974	-0.00014179	-0.000436606	-0.00294029	0.0580012	-0.00176553	0.0151745	-2.19892	-0.00654702	-1.56059	0	0	0	0	-0	0	0	0	-0.1265	0	-0	0	0	0	0	0	-0	0	0.105	0.015	0	0	-0	0	0	0.098	0.1	0	-0	0	0	0	0	0	-0	0	0.05595	0	0	0	-0	0	0	0	0	0	-0	0	545.931	551.031	324.897	201.609	-0.739783	1.50037	0.0408938	-0.025835	-0.297044
10	-0.0154629	0.0294316	0.0108894	0.0212522	-0.0114804	0.0272798	0.0248008	-0.0294654	0.00233652	-0.00018444	-0.000470362	-0.00299551	0.0564713	-0.000606543	0.0166189	-2.20059	-0.00702533	-1.56088	0	0	0	0	-0	0	0	0	-0.1265	0	-0	0	0	0	0	0	-0	0	0.105	0.015	0	0	-0	0	0	0.098	0.1	0	-0	0	0	0	0	0	-0	0	0.05595	0	0	0	-0	0	0	0	0	0	-0	0	545.951	551.021	324.893	201.613	-0.47564	1.14946	0.0244941	-0.0182493	-0.532205
11	-0.0151083	0.0273582	0.00680752	0.02668	-0.0103656	0.0313541	0.0245995	-0.02964	0.00265342	-0.000221145	-0.000481024	-0.00303993	0.0549024	0.000242022	0.018344	-2.20242	-0.00761335	-1.56383	0	0	0	0	-0	0	0	0	-0.1265	0	-0	0	0	0	0	0	-0	0	0.105	0.015	0	0	-0	0	0	0.098	0.1	0	-0	0	0	0	0	0	-0	0	0.05595	0	0	0	-0	0	0	0	0	0	-0	0	545.984	551.003	324.892	201.612	-0.133137	0.737084	-0.00253719	-0.00404202	-0.818646
12	-0.0147006	0.0275894	0.00448099	0.0304924	-0.0108948	0.0339815	0.0244801	-0.0297255	0.00288015	-0.000293877	-0.000483834	-0.00297079	0.0537928	0.000660201	0.0198691	-2.20432	-0.00842745	-1.56648	0	0	0	0	-0	0	0	0	-0.1265	0	-0	0	0	0	0	0	-0	0	0.105	0.015	0	0	-0	0	0	0.098	0.1	0	-0	0	0	0	0	0	-0	0	0.05595	0	0	0	-0	0	0	0	0	0	-0	0	546.041	550.967	324.89	201.599	0.111563	0.432319	-0.0192822	0.00521127	-1.0398
13	-0.0145352	0.0280886	0.00373833	0.0318704	-0.0115138	0.0348998	0.0244394	-0.0297475	0.00296211	6.71773e-06	-0.000327615	-0.00301786	0.0533731	0.000771636	0.0205247	-2.20517	-0.00879632	-1.56745	0	0	0	0	-0	0	0	0	-0.1265	0	-0	0	0	0	0	0	-0	0	0.105	0.015	0	0	-0	0	0	0.098	0.1	0	-0	0	0	0	0	0	-0	0	0.05595	0	0	0	-0	0	0	0	0	0	-0	0	546.183	550.875	324.881	201.568	0.198903	0.31492	-0.0238533	0.00799873	-1.14015
14	-0.0143534	0.0283525	0.00373989	0.0320981	-0.0118263	0.0350814	0.0244377	-0.0297527	0.00297541	-0.000561569	0.000345591	-0.00289018	0.0532992	0.000761944	0.0206798	-2.20504	-0.00879098	-1.56747	0	0	0	0	-0	0	0	0	-0.1265	0	-0	0	0	0	0	0	-0	0	0.105	0.015	0	0	-0	0	0	0.098	0.1	0	-0	0	0	0	0	0	-0	0	0.05595	0	0	0	-0	0	0	0	0	0	-0	0	546.587	550.617	324.854	201.492	0.198297	0.325733	-0.022682	0.00784274	-1.18891
15	-0.0147181	0.0287563	0.00414354	0.0321294	-0.0122372	0.035152	0.024455	-0.0297613	0.00297815	0.00113062	0.000906235	-0.00324077	0.0533235	0.00068459	0.0207288	-2.20496	-0.00858155	-1.56713	0	0	0	0	-0	0	0	0	-0.1265	0	-0	0	0	0	0	0	-0	0	0.105	0.015	0	0	-0	0	0	0.098	0.1	0	-0	0	0	0	0	0	-0	0	0.05595	0	0	0	-0	0	0	0	0	0	-0	0	547.701	549.909	324.8	201.291	0.152993	0.440209	-0.0178776	0.00653824	-1.3192
16	-0.00921622	0.0294575	0.00509197	0.0322433	-0.0129577	0.0353086	0.0244975	-0.0297828	0.00299273	0.000999723	0.00169686	-0.00308941	0.0533259	0.000513435	0.0210718	-2.19829	-0.00820462	-1.56639	0	0	0	0	-0	0	0	0	-0.1265	0	-0	0	0	0	0	0	-0	0	0.105	0.015	0	0	-0	0	0	0.098	0.1	0	-0	0	0	0	0	0	-0	0	0.05595	0	0	0	-0	0	0	0	0	0	-0	0	550.396	548.253	324.809	200.843	0.0275504	0.806777	-0.00660932	0.00379331	-1.7718
17	-0.0012978	0.030281	0.00663531	0.0325773	-0.0138588	0.0356275	0.0245707	-0.0298295	0.00303595	-0.0198726	-0.00252357	-0.0117891	0.0534436	0.000240145	0.0214535	-2.1884	-0.00824121	-1.56561	0	0	0	0	-0	0	0	0	-0.1265	0	-0	0	0	0	0	0	-0	0	0.105	0.015	0	0	-0	0	0	0.098	0.1	0	-0	0	0	0	0	0	-0	0	0.05595	0	0	0	-0	0	0	0	0	0	-0	0	555.34	545.56	325.473	200.212	-0.213038	1.56947	0.0126719	-0.000146907	-2.75108
18	-0.0122448	0.0306113	0.00744615	0.0328158	-0.0142536	0.0358173	0.0246152	-0.0298534	0.00307176	-0.0344304	-0.00505802	0.013126	0.0538633	9.14192e-05	0.0208035	-2.19809	-0.00872068	-1.56549	0	0	0	0	-0	0	0	0	-0.1265	0	-0	0	0	0	0	0	-0	0	0.105	0.015	0	0	-0	0	0	0.098	0.1	0	-0	0	0	0	0	0	-0	0	0.05595	0	0	0	-0	0	0	0	0	0	-0	0	558.449	544.184	326.356	199.844	-0.355258	2.01858	0.0233449	-0.00207952	-3.31071
19	0.00691207	0.0309196	0.00801339	0.0330101	-0.0146209	0.0359875	0.0246394	-0.0298643	0.00309104	-0.0442927	-0.0150761	0.0333823	0.0535545	-2.33185e-05	0.0218343	-2.17816	-0.0100045	-1.56638	0	0	0	0	-0	0	0	0	-0.1265	0	-0	0	0	0	0	0	-0	0	0.105	0.015	0	0	-0	0	0	0.098	0.1	0	-0	0	0	0	0	0	-0	0	0.05595	0	0	0	-0	0	0	0	0	0	-0	0	561.089	543.571	327.645	199.612	-0.45813	2.32472	0.0312165	-0.00341544	-3.67082
20	0.024453	0.0311199	0.00826089	0.0331384	-0.0148709	0.0361379	0.0246381	-0.0298789	0.00310699	-0.0100343	-0.0238426	0.0316785	0.0531525	-8.73124e-05	0.0228349	-2.16039	-0.0119191	-1.56816	0	0	0	0	-0	0	0	0	-0.1265	0	-0	0	0	0	0	0	-0	0	0.105	0.015	0	0	-0	0	0	0.098	0.1	0	-0	0	0	0	0	0	-0	0	0.05595	0	0	0	-0	0	0	0	0	0	-0	0	563.149	543.926	329.363	199.527	-0.514907	2.47385	0.0354162	-0.00392	-3.81872
21	0.0373519	0.0311557	0.00827142	0.0332007	-0.0149237	0.0361971	0.0246481	-0.0298802	0.00311373	-0.0357255	-0.0322056	0.0456925	0.0528282	-9.68083e-05	0.0235464	-2.14742	-0.0126457	-1.56901	0	0	0	0	-0	0	0	0	-0.1265	0	-0	0	0	0	0	0	-0	0	0.105	0.015	0	0	-0	0	0	0.098	0.1	0	-0	0	0	0	0	0	-0	0	0.05595	0	0	0	-0	0	0	0	0	0	-0	0	563.762	544.215	330.006	199.481	-0.526894	2.50334	0.0361251	-0.00395638	-3.84369
22	0.0346551	0.0311788	0.00827174	0.0332255	-0.0149549	0.036233	0.0246445	-0.029869	0.00311186	-0.028419	-0.0223878	0.0350413	0.0528675	-0.000101669	0.0234254	-2.15011	-0.0131168	-1.56946	0	0	0	0	-0	0	0	0	-0.1265	0	-0	0	0	0	0	0	-0	0	0.105	0.015	0	0	-0	0	0	0.098	0.1	0	-0	0	0	0	0	0	-0	0	0.05595	0	0	0	-0	0	0	0	0	0	-0	0	564.115	544.445	330.435	199.459	-0.532132	2.51351	0.0364262	-0.00391706	-3.84741
23	0.0322381	0.0312026	0.00825534	0.0332478	-0.0149894	0.0362769	0.0246459	-0.0298673	0.00311013	-0.0263309	-0.0440524	0.0469346	0.0528915	-0.000105412	0.0233328	-2.15258	-0.0138336	-1.57017	0	0	0	0	-0	0	0	0	-0.1265	0	-0	0	0	0	0	0	-0	0	0.105	0.015	0	0	-0	0	0	0.098	0.1	0	-0	0	0	0	0	0	-0	0	0.05595	0	0	0	-0	0	0	0	0	0	-0	0	564.554	544.827	331.064	199.453	-0.536278	2.51654	0.0366092	-0.0037983	-3.83708
24	0.0288205	0.0312339	0.00818314	0.0332783	-0.0150434	0.0363552	0.0246337	-0.0298672	0.00311634	-0.00479811	-0.0668961	0.0455669	0.0528961	-0.000106666	0.0232258	-2.15629	-0.0154322	-1.57175	0	0	0	0	-0	0	0	0	-0.1265	0	-0	0	0	0	0	0	-0	0	0.105	0.015	0	0	-0	0	0	0.098	0.1	0	-0	0	0	0	0	0	-0	0	0.05595	0	0	0	-0	0	0	0	0	0	-0	0	565.334	545.695	332.429	199.534	-0.538802	2.50234	0.0366	-0.00344619	-3.78945
25	0.0245137	0.0312386	0.0081414	0.0333177	-0.0150532	0.0363919	0.0246369	-0.0298683	0.00312055	-0.00693303	-0.0544173	0.0594643	0.0529701	-0.000102733	0.023025	-2.16068	-0.015875	-1.57214	0	0	0	0	-0	0	0	0	-0.1265	0	-0	0	0	0	0	0	-0	0	0.105	0.015	0	0	-0	0	0	0.098	0.1	0	-0	0	0	0	0	0	-0	0	0.05595	0	0	0	-0	0	0	0	0	0	-0	0	565.517	545.941	332.795	199.552	-0.537634	2.49696	0.0364163	-0.00328198	-3.77946
26	0.0331922	0.0312481	0.00808805	0.0333307	-0.015075	0.0364305	0.0246364	-0.0298715	0.00312009	-0.00831581	-0.0631849	0.0390036	0.0527277	-0.000100483	0.0235243	-2.1522	-0.0167481	-1.57319	0	0	0	0	-0	0	0	0	-0.1265	0	-0	0	0	0	0	0	-0	0	0.105	0.015	0	0	-0	0	0	0.098	0.1	0	-0	0	0	0	0	0	-0	0	0.05595	0	0	0	-0	0	0	0	0	0	-0	0	565.877	546.419	333.54	199.614	-0.536715	2.4823	0.0362524	-0.00304749	-3.74545
27	0.0242926	0.031255	0.00805493	0.0333495	-0.0150872	0.0364569	0.024633	-0.0298687	0.00311735	-0.0142349	-0.0724807	0.053887	0.0529108	-9.79582e-05	0.0230773	-2.16121	-0.0172071	-1.5735	0	0	0	0	-0	0	0	0	-0.1265	0	-0	0	0	0	0	0	-0	0	0.105	0.015	0	0	-0	0	0	0.098	0.1	0	-0	0	0	0	0	0	-0	0	0.05595	0	0	0	-0	0	0	0	0	0	-0	0	566.043	546.652	333.91	199.647	-0.535413	2.47383	0.036116	-0.00290346	-3.72902
28	0.0239922	0.0312681	0.00800145	0.0333594	-0.0151127	0.0364947	0.0246339	-0.0298716	0.00311782	-0.0278369	-0.0862871	0.0700638	0.0528717	-9.53881e-05	0.0231022	-2.16177	-0.0181965	-1.5745	0	0	0	0	-0	0	0	0	-0.1265	0	-0	0	0	0	0	0	-0	0	0.105	0.015	0	0	-0	0	0	0.098	0.1	0	-0	0	0	0	0	0	-0	0	0.05595	0	0	0	-0	0	0	0	0	0	-0	0	566.403	547.139	334.732	199.744	-0.53381	2.45553	0.0359454	-0.00263758	-3.68913
29	0.0362009	0.0312916	0.00792596	0.0333798	-0.0151534	0.0365494	0.0246247	-0.029865	0.00311936	-0.0207525	-0.0733571	0.0742892	0.052527	-9.12646e-05	0.0238073	-2.14999	-0.0195966	-1.57622	0	0	0	0	-0	0	0	0	-0.1265	0	-0	0	0	0	0	0	-0	0	0.105	0.015	0	0	-0	0	0	0.098	0.1	0	-0	0	0	0	0	0	-0	0	0.05595	0	0	0	-0	0	0	0	0	0	-0	0	566.898	547.806	335.939	199.921	-0.531097	2.42853	0.0357224	-0.00223753	-3.63226
30	0.0426918	0.0312977	0.00789427	0.0334077	-0.0151635	0.0365763	0.0246192	-0.0298637	0.00311987	-0.0273786	-0.0717854	0.0756294	0.0523478	-8.726e-05	0.0241666	-2.1436	-0.0198877	-1.57672	0	0	0	0	-0	0	0	0	-0.1265	0	-0	0	0	0	0	0	-0	0	0.105	0.015	0	0	-0	0	0	0.098	0.1	0	-0	0	0	0	0	0	-0	0	0.05595	0	0	0	-0	0	0	0	0	0	-0	0	566.997	547.96	336.217	199.959	-0.529062	2.42133	0.0355499	-0.00207886	-3.62177
31	0.0587608	0.0313175	0.00783291	0.033413	-0.0152002	0.0366147	0.0246198	-0.0298658	0.00312008	-0.0189892	-0.0607234	0.0854798	0.0519055	-8.38507e-05	0.0250538	-2.12795	-0.0211251	-1.57848	0	0	0	0	-0	0	0	0	-0.1265	0	-0	0	0	0	0	0	-0	0	0.105	0.015	0	0	-0	0	0	0.098	0.1	0	-0	0	0	0	0	0	-0	0	0.05595	0	0	0	-0	0	0	0	0	0	-0	0	567.413	548.529	337.354	200.149	-0.526476	2.39444	0.0353829	-0.00170953	-3.5651
32	0.0663922	0.0313324	0.0077903	0.0334358	-0.0152231	0.0366464	0.0246135	-0.0298616	0.00311922	-0.00476927	-0.0827576	0.0872279	0.0516742	-7.97595e-05	0.0254766	-2.12054	-0.0217122	-1.57939	0	0	0	0	-0	0	0	0	-0.1265	0	-0	0	0	0	0	0	-0	0	0.105	0.015	0	0	-0	0	0	0.098	0.1	0	-0	0	0	0	0	0	-0	0	0.05595	0	0	0	-0	0	0	0	0	0	-0	0	567.601	548.803	337.916	200.241	-0.523664	2.37886	0.0352064	-0.00147438	-3.5376
33	0.0584876	0.0313372	0.00777069	0.0334498	-0.015231	0.0366626	0.024612	-0.0298619	0.00312022	-0.00512656	-0.0810839	0.0870898	0.0518599	-7.73659e-05	0.0250803	-2.12853	-0.0220466	-1.57953	0	0	0	0	-0	0	0	0	-0.1265	0	-0	0	0	0	0	0	-0	0	0.105	0.015	0	0	-0	0	0	0.098	0.1	0	-0	0	0	0	0	0	-0	0	0.05595	0	0	0	-0	0	0	0	0	0	-0	0	567.673	548.914	338.146	200.278	-0.522249	2.37245	0.0351051	-0.00135829	-3.52696
34	0.0540027	0.0313427	0.0077511	0.0334542	-0.0152414	0.0366741	0.0246134	-0.0298633	0.0031217	-0.003771	-0.0713345	0.0970805	0.0519557	-7.57371e-05	0.0248603	-2.13313	-0.0224571	-1.57983	0	0	0	0	-0	0	0	0	-0.1265	0	-0	0	0	0	0	0	-0	0	0.105	0.015	0	0	-0	0	0	0.098	0.1	0	-0	0	0	0	0	0	-0	0	0.05595	0	0	0	-0	0	0	0	0	0	-0	0	567.773	549.061	338.461	200.331	-0.521064	2.36392	0.035033	-0.00124147	-3.51047
35	0.0516395	0.0313513	0.00772972	0.0334597	-0.0152551	0.0366876	0.0246136	-0.0298664	0.00312114	-0.00826745	-0.0706086	0.1153	0.0519964	-7.40467e-05	0.0247532	-2.13564	-0.0229124	-1.58025	0	0	0	0	-0	0	0	0	-0.1265	0	-0	0	0	0	0	0	-0	0	0.105	0.015	0	0	-0	0	0	0.098	0.1	0	-0	0	0	0	0	0	-0	0	0.05595	0	0	0	-0	0	0	0	0	0	-0	0	567.889	549.225	338.828	200.394	-0.519687	2.35396	0.0349603	-0.00110707	-3.49133
36	0.0578452	0.0313585	0.00771328	0.0334675	-0.0152664	0.0366999	0.0246102	-0.0298645	0.00312038	-0.0214033	-0.075286	0.115482	0.0518292	-7.25925e-05	0.0250885	-2.12953	-0.0231776	-1.58075	0	0	0	0	-0	0	0	0	-0.1265	0	-0	0	0	0	0	0	-0	0	0.105	0.015	0	0	-0	0	0	0.098	0.1	0	-0	0	0	0	0	0	-0	0	0.05595	0	0	0	-0	0	0	0	0	0	-0	0	567.975	549.344	339.102	200.441	-0.518628	2.34676	0.0349075	-0.00100205	-3.47778
37	0.0461055	0.0313673	0.00769211	0.0334714	-0.0152812	0.0367131	0.0246083	-0.0298605	0.00311998	-0.0182533	-0.088376	0.116322	0.0521045	-7.08757e-05	0.0244956	-2.14143	-0.0237755	-1.581	0	0	0	0	-0	0	0	0	-0.1265	0	-0	0	0	0	0	0	-0	0	0.105	0.015	0	0	-0	0	0	0.098	0.1	0	-0	0	0	0	0	0	-0	0	0.05595	0	0	0	-0	0	0	0	0	0	-0	0	568.1	549.517	339.512	200.513	-0.517253	2.33601	0.0348396	-0.000854539	-3.45666
38	0.0370685	0.031402	0.00764218	0.0334696	-0.0153364	0.0367463	0.024605	-0.0298624	0.00310881	0.00951456	-0.130274	0.12703	0.0522695	-6.78661e-05	0.0240702	-2.15103	-0.0256063	-1.58262	0	0	0	0	-0	0	0	0	-0.1265	0	-0	0	0	0	0	0	-0	0	0.105	0.015	0	0	-0	0	0	0.098	0.1	0	-0	0	0	0	0	0	-0	0	0.05595	0	0	0	-0	0	0	0	0	0	-0	0	568.544	550.067	340.966	200.801	-0.514457	2.30281	0.0347885	-0.000386826	-3.3864
39	0.0531439	0.0314245	0.00759756	0.0334964	-0.0153682	0.0367816	0.0246009	-0.0298762	0.00312752	-0.0232178	-0.119409	0.143456	0.0518453	-6.25186e-05	0.0249458	-2.13523	-0.0262837	-1.58397	0	0	0	0	-0	0	0	0	-0.1265	0	-0	0	0	0	0	0	-0	0	0.105	0.015	0	0	-0	0	0	0.098	0.1	0	-0	0	0	0	0	0	-0	0	0.05595	0	0	0	-0	0	0	0	0	0	-0	0	568.729	550.333	341.684	200.932	-0.510382	2.28124	0.0345935	-6.78582e-05	-3.34957
40	0.0429706	0.0314451	0.00755672	0.0335168	-0.0154028	0.036804	0.0246053	-0.0298672	0.00312567	-0.017599	-0.131546	0.120238	0.0520611	-5.89319e-05	0.0244432	-2.14569	-0.0273286	-1.5847	0	0	0	0	-0	0	0	0	-0.1265	0	-0	0	0	0	0	0	-0	0	0.105	0.015	0	0	-0	0	0	0.098	0.1	0	-0	0	0	0	0	0	-0	0	0.05595	0	0	0	-0	0	0	0	0	0	-0	0	568.925	550.6	342.455	201.075	-0.507529	2.26057	0.0344971	0.000218604	-3.31037
41	0.0439723	0.0314611	0.00752907	0.0335238	-0.0154258	0.0368233	0.0245972	-0.0298615	0.00312501	-0.00193782	-0.152108	0.108137	0.0520097	-5.54665e-05	0.0245178	-2.14489	-0.0280087	-1.58548	0	0	0	0	-0	0	0	0	-0.1265	0	-0	0	0	0	0	0	-0	0	0.105	0.015	0	0	-0	0	0	0.098	0.1	0	-0	0	0	0	0	0	-0	0	0.05595	0	0	0	-0	0	0	0	0	0	-0	0	569.06	550.788	343.029	201.178	-0.504602	2.24333	0.0343682	0.000466886	-3.27953
42	0.0291672	0.0314741	0.00750717	0.0335342	-0.015445	0.0368382	0.0245946	-0.0298592	0.00311967	0.00906976	-0.167008	0.106549	0.0523543	-5.28246e-05	0.0237657	-2.15986	-0.0287507	-1.58563	0	0	0	0	-0	0	0	0	-0.1265	0	-0	0	0	0	0	0	-0	0	0.105	0.015	0	0	-0	0	0	0.098	0.1	0	-0	0	0	0	0	0	-0	0	0.05595	0	0	0	-0	0	0	0	0	0	-0	0	569.159	550.926	343.465	201.256	-0.502357	2.23019	0.0342738	0.000656977	-3.2561
43	0.0492103	0.0314982	0.00747752	0.0335316	-0.0154832	0.0368543	0.0246004	-0.0298569	0.00312442	7.30526e-05	-0.132956	0.115168	0.0518425	-4.97655e-05	0.0248404	-2.14013	-0.0296234	-1.58745	0	0	0	0	-0	0	0	0	-0.1265	0	-0	0	0	0	0	0	-0	0	0.105	0.015	0	0	-0	0	0	0.098	0.1	0	-0	0	0	0	0	0	-0	0	0.05595	0	0	0	-0	0	0	0	0	0	-0	0	569.383	551.206	344.441	201.433	-0.499402	2.20432	0.0342093	0.00100176	-3.2048
44	0.0480574	0.0315157	0.00745158	0.0335456	-0.0155078	0.036872	0.0245979	-0.0298666	0.00311817	-0.00733439	-0.137717	0.138021	0.0518387	-4.63514e-05	0.0247966	-2.14145	-0.0302106	-1.58807	0	0	0	0	-0	0	0	0	-0.1265	0	-0	0	0	0	0	0	-0	0	0.105	0.015	0	0	-0	0	0	0.098	0.1	0	-0	0	0	0	0	0	-0	0	0.05595	0	0	0	-0	0	0	0	0	0	-0	0	569.479	551.338	344.925	201.516	-0.496402	2.18863	0.0340916	0.00123044	-3.1783
45	0.0448601	0.0315274	0.00743399	0.0335572	-0.0155247	0.036885	0.0245915	-0.0298614	0.00311876	-0.0183709	-0.14121	0.14769	0.0519035	-4.41745e-05	0.0246453	-2.14477	-0.0307019	-1.58845	0	0	0	0	-0	0	0	0	-0.1265	0	-0	0	0	0	0	0	-0	0	0.105	0.015	0	0	-0	0	0	0.098	0.1	0	-0	0	0	0	0	0	-0	0	0.05595	0	0	0	-0	0	0	0	0	0	-0	0	569.548	551.435	345.288	201.577	-0.494374	2.17683	0.034025	0.00138623	-3.15768
46	0.0436646	0.031541	0.0074149	0.0335603	-0.0155461	0.0368942	0.0245898	-0.0298642	0.00311576	-0.0342711	-0.13911	0.137122	0.0519158	-4.17084e-05	0.0245987	-2.14613	-0.0313734	-1.58913	0	0	0	0	-0	0	0	0	-0.1265	0	-0	0	0	0	0	0	-0	0	0.105	0.015	0	0	-0	0	0	0.098	0.1	0	-0	0	0	0	0	0	-0	0	0.05595	0	0	0	-0	0	0	0	0	0	-0	0	569.652	551.569	345.831	201.668	-0.492135	2.16112	0.0339525	0.00160429	-3.12809
47	0.0459871	0.0315538	0.00739734	0.0335689	-0.0155651	0.0369055	0.0245892	-0.0298619	0.00311738	-0.0457112	-0.142861	0.127972	0.0518437	-3.94125e-05	0.0247342	-2.14393	-0.0318186	-1.58973	0	0	0	0	-0	0	0	0	-0.1265	0	-0	0	0	0	0	0	-0	0	0.105	0.015	0	0	-0	0	0	0.098	0.1	0	-0	0	0	0	0	0	-0	0	0.05595	0	0	0	-0	0	0	0	0	0	-0	0	569.726	551.668	346.237	201.733	-0.489987	2.14829	0.033882	0.00177985	-3.10536
48	0.0542964	0.031564	0.00738349	0.0335739	-0.0155804	0.0369135	0.0245873	-0.029858	0.00311729	-0.0489142	-0.15201	0.132434	0.0516261	-3.75194e-05	0.0251765	-2.13572	-0.0320725	-1.59046	0	0	0	0	-0	0	0	0	-0.1265	0	-0	0	0	0	0	0	-0	0	0.105	0.015	0	0	-0	0	0	0.098	0.1	0	-0	0	0	0	0	0	-0	0	0.05595	0	0	0	-0	0	0	0	0	0	-0	0	569.788	551.749	346.583	201.788	-0.488252	2.13765	0.0338229	0.0019308	-3.08624
49	0.0365489	0.0316003	0.0073528	0.033564	-0.0156384	0.0369237	0.0245848	-0.0298642	0.00312242	-0.0311741	-0.164287	0.112958	0.0520351	-3.33665e-05	0.0242899	-2.15387	-0.0342433	-1.59188	0	0	0	0	-0	0	0	0	-0.1265	0	-0	0	0	0	0	0	-0	0	0.105	0.015	0	0	-0	0	0	0.098	0.1	0	-0	0	0	0	0	0	-0	0	0.05595	0	0	0	-0	0	0	0	0	0	-0	0	570.074	552.065	348.118	202.034	-0.484025	2.09753	0.0337704	0.00247976	-3.00553
50	0.0361214	0.0316172	0.00732371	0.0336005	-0.0156603	0.0369484	0.024585	-0.029862	0.00312088	-0.0240931	-0.171735	0.0937367	0.0520191	-2.92895e-05	0.0242873	-2.15439	-0.0345484	-1.59217	0	0	0	0	-0	0	0	0	-0.1265	0	-0	0	0	0	0	0	-0	0	0.105	0.015	0	0	-0	0	0	0.098	0.1	0	-0	0	0	0	0	0	-0	0	0.05595	0	0	0	-0	0	0	0	0	0	-0	0	570.102	552.117	348.342	202.065	-0.480531	2.08648	0.0336132	0.00266571	-2.99229
