Stefan210/kinematic_calibration/src/kinematic_calibration/validation/experiments/experiments/impact_noise/bad_precision/larm_noise_5_pixel_rk_false/optimization_intermediate_results.csv
iteration	HeadPitch_offset	HeadYaw_offset	LElbowRoll_offset	LElbowYaw_offset	LShoulderPitch_offset	LShoulderRoll_offset	marker_transform_larm_tx	marker_transform_larm_ty	marker_transform_larm_tz	marker_transform_larm_rr	marker_transform_larm_rp	marker_transform_larm_ry	camera_transform_tx	camera_transform_ty	camera_transform_tz	camera_transform_rr	camera_transform_rp	camera_transform_ry	HeadPitch_transform_tx	HeadPitch_transform_ty	HeadPitch_transform_tz	HeadPitch_transform_rr	HeadPitch_transform_rp	HeadPitch_transform_ry	HeadYaw_transform_tx	HeadYaw_transform_ty	HeadYaw_transform_tz	HeadYaw_transform_rr	HeadYaw_transform_rp	HeadYaw_transform_ry	LElbowRoll_transform_tx	LElbowRoll_transform_ty	LElbowRoll_transform_tz	LElbowRoll_transform_rr	LElbowRoll_transform_rp	LElbowRoll_transform_ry	LElbowYaw_transform_tx	LElbowYaw_transform_ty	LElbowYaw_transform_tz	LElbowYaw_transform_rr	LElbowYaw_transform_rp	LElbowYaw_transform_ry	LShoulderPitch_transform_tx	LShoulderPitch_transform_ty	LShoulderPitch_transform_tz	LShoulderPitch_transform_rr	LShoulderPitch_transform_rp	LShoulderPitch_transform_ry	LShoulderRoll_transform_tx	LShoulderRoll_transform_ty	LShoulderRoll_transform_tz	LShoulderRoll_transform_rr	LShoulderRoll_transform_rp	LShoulderRoll_transform_ry	LWristYaw_transform_tx	LWristYaw_transform_ty	LWristYaw_transform_tz	LWristYaw_transform_rr	LWristYaw_transform_rp	LWristYaw_transform_ry	l_wrist_joint_transform_tx	l_wrist_joint_transform_ty	l_wrist_joint_transform_tz	l_wrist_joint_transform_rr	l_wrist_joint_transform_rp	l_wrist_joint_transform_ry	camera_fx	camera_fy	camera_cx	camera_cy	camera_D0	camera_D1	camera_D2	camera_D3	camera_D4	
0	0.0249164	-0.0307543	0.000853157	4.65819e-06	-0.000318322	-0.00310766	0.05071	0	0.01774	-2.26369	1.66533e-16	-1.5708	545.901	551.038	324.928	201.58	0.0255298	2.61142	-0.0636736	-0.0350419	0.213964
1	-0.0163804	-0.000178075	0.0389885	0.0223049	0.0165582	0.0256773	0.0265415	-0.0306286	0.00158835	-8.55137e-05	-0.000385891	-0.00289639	0.0554973	-0.0024028	0.0137947	-2.19688	0.00699835	-1.53407	0	0	0	0	-0	0	0	0	-0.1265	0	-0	0	0	0	0	0	-0	0	0.105	0.015	0	0	-0	0	0	0.098	0.1	0	-0	0	0	0	0	0	-0	0	0.05595	0	0	0	-0	0	0	0	0	0	-0	0	545.901	551.039	324.928	201.581	-0.00269586	2.60251	-0.0876912	0.0220426	0.21216
2	-0.016306	0.0136853	0.0414914	0.0192046	0.00979804	0.0290729	0.0268009	-0.0308751	0.00164566	-8.97583e-05	-0.000390644	-0.00289018	0.0538645	-0.00251821	0.0169769	-2.1981	0.00244041	-1.54858	0	0	0	0	-0	0	0	0	-0.1265	0	-0	0	0	0	0	0	-0	0	0.105	0.015	0	0	-0	0	0	0.098	0.1	0	-0	0	0	0	0	0	-0	0	0.05595	0	0	0	-0	0	0	0	0	0	-0	0	545.903	551.039	324.926	201.585	-0.127329	2.52417	-0.0588111	-0.000548176	0.188357
3	-0.0164746	0.0127748	0.0393706	0.0206141	0.0085757	0.0267006	0.0266183	-0.0307854	0.00166273	-9.24991e-05	-0.00039635	-0.00290655	0.0552553	-0.00239244	0.0150046	-2.19688	0.00367646	-1.54913	0	0	0	0	-0	0	0	0	-0.1265	0	-0	0	0	0	0	0	-0	0	0.105	0.015	0	0	-0	0	0	0.098	0.1	0	-0	0	0	0	0	0	-0	0	0.05595	0	0	0	-0	0	0	0	0	0	-0	0	545.908	551.04	324.923	201.593	-0.37827	2.36258	-0.031939	-0.00626071	0.140457
4	-0.0161465	0.0153183	0.0361353	0.0221325	0.00446598	0.0231522	0.026317	-0.0306161	0.00169319	-8.57325e-05	-0.000403357	-0.00292146	0.0566152	-0.00236888	0.01353	-2.1978	0.00318883	-1.55213	0	0	0	0	-0	0	0	0	-0.1265	0	-0	0	0	0	0	0	-0	0	0.105	0.015	0	0	-0	0	0	0.098	0.1	0	-0	0	0	0	0	0	-0	0	0.05595	0	0	0	-0	0	0	0	0	0	-0	0	545.919	551.04	324.919	201.606	-0.661251	2.06319	0.0122026	-0.0180927	0.0414675
5	-0.0158054	0.0172917	0.0332598	0.0228695	0.0020355	0.0216242	0.0260667	-0.0305201	0.00168367	-8.49308e-05	-0.000400831	-0.00292467	0.0569654	-0.00237037	0.013276	-2.19906	0.00338796	-1.55406	0	0	0	0	-0	0	0	0	-0.1265	0	-0	0	0	0	0	0	-0	0	0.105	0.015	0	0	-0	0	0	0.098	0.1	0	-0	0	0	0	0	0	-0	0	0.05595	0	0	0	-0	0	0	0	0	0	-0	0	545.944	551.036	324.914	201.622	-0.675906	1.59469	0.0274297	-0.0235905	-0.1351
6	-0.0154768	0.0172846	0.0313439	0.0230303	0.0017484	0.0219365	0.0259199	-0.0304943	0.00166069	-0.000103892	-0.000413569	-0.00294767	0.0562756	-0.00236587	0.0141614	-2.20077	0.00466882	-1.55359	0	0	0	0	-0	0	0	0	-0.1265	0	-0	0	0	0	0	0	-0	0	0.105	0.015	0	0	-0	0	0	0.098	0.1	0	-0	0	0	0	0	0	-0	0	0.05595	0	0	0	-0	0	0	0	0	0	-0	0	545.989	551.027	324.913	201.641	-0.441844	0.904776	0.0180874	-0.0235858	-0.404159
7	-0.0149856	0.0169931	0.030145	0.023042	0.00180597	0.0225281	0.0258361	-0.0304844	0.00165227	-0.000106099	-0.00053943	-0.00303397	0.0554598	-0.00236825	0.0152024	-2.20211	0.00567239	-1.55279	0	0	0	0	-0	0	0	0	-0.1265	0	-0	0	0	0	0	0	-0	0	0.105	0.015	0	0	-0	0	0	0.098	0.1	0	-0	0	0	0	0	0	-0	0	0.05595	0	0	0	-0	0	0	0	0	0	-0	0	546.064	551.005	324.925	201.655	-0.190033	0.214757	0.00650172	-0.0228086	-0.648002
8	-0.0145293	0.0170276	0.0296467	0.0230439	0.0017548	0.0228685	0.0258031	-0.0304799	0.00165728	-0.000224571	0.000586513	-0.00306382	0.0549872	-0.00237871	0.0158324	-2.20271	0.00596978	-1.55248	0	0	0	0	-0	0	0	0	-0.1265	0	-0	0	0	0	0	0	-0	0	0.105	0.015	0	0	-0	0	0	0.098	0.1	0	-0	0	0	0	0	0	-0	0	0.05595	0	0	0	-0	0	0	0	0	0	-0	0	546.226	550.949	324.95	201.673	-0.0565463	-0.193631	0.00148624	-0.0225803	-0.701136
9	-0.0149011	0.0171094	0.0295306	0.0230626	0.00169404	0.0229546	0.025795	-0.0304789	0.00166513	-0.00039819	0.000528992	-0.0026977	0.0547919	-0.00238692	0.0160757	-2.2036	0.00595441	-1.55246	0	0	0	0	-0	0	0	0	-0.1265	0	-0	0	0	0	0	0	-0	0	0.105	0.015	0	0	-0	0	0	0.098	0.1	0	-0	0	0	0	0	0	-0	0	0.05595	0	0	0	-0	0	0	0	0	0	-0	0	546.663	550.79	324.99	201.731	-0.0193712	-0.387542	0.00175051	-0.0226329	-0.464823
10	-0.013012	0.0172464	0.0295033	0.0230654	0.0016116	0.0229335	0.0257903	-0.0304797	0.00167512	0.00229422	-0.000331225	0.00093938	0.0545045	-0.00239797	0.0165022	-2.20249	0.00571562	-1.55259	0	0	0	0	-0	0	0	0	-0.1265	0	-0	0	0	0	0	0	-0	0	0.105	0.015	0	0	-0	0	0	0.098	0.1	0	-0	0	0	0	0	0	-0	0	0.05595	0	0	0	-0	0	0	0	0	0	-0	0	547.827	550.383	325.076	201.895	-0.00414021	-0.649958	0.0055666	-0.0228066	0.236242
11	-0.0128227	0.0175357	0.0294659	0.0230526	0.00145035	0.0228664	0.0257867	-0.0304882	0.00169441	-0.013763	-0.0128035	0.0088144	0.0539699	-0.00241917	0.0171713	-2.20403	0.00525555	-1.55291	0	0	0	0	-0	0	0	0	-0.1265	0	-0	0	0	0	0	0	-0	0	0.105	0.015	0	0	-0	0	0	0.098	0.1	0	-0	0	0	0	0	0	-0	0	0.05595	0	0	0	-0	0	0	0	0	0	-0	0	550.423	549.608	325.259	202.318	0.016237	-1.15741	0.0141011	-0.023198	1.68702
12	-0.00559925	0.0177254	0.0294342	0.023049	0.001346	0.0228208	0.0257833	-0.0304841	0.00171088	-0.0110611	-0.0396867	-0.00157342	0.0534719	-0.00243219	0.0180235	-2.19804	0.00483636	-1.55305	0	0	0	0	-0	0	0	0	-0.1265	0	-0	0	0	0	0	0	-0	0	0.105	0.015	0	0	-0	0	0	0.098	0.1	0	-0	0	0	0	0	0	-0	0	0.05595	0	0	0	-0	0	0	0	0	0	-0	0	552.373	549.163	325.362	202.635	0.0239728	-1.48638	0.0202876	-0.0235048	2.70641
13	0.00159914	0.0179192	0.0293981	0.023049	0.00124693	0.0227833	0.0257695	-0.0304882	0.00171633	-0.00494329	-0.0433285	0.01172	0.0529605	-0.0024449	0.0188645	-2.19225	0.00449655	-1.55312	0	0	0	0	-0	0	0	0	-0.1265	0	-0	0	0	0	0	0	-0	0	0.105	0.015	0	0	-0	0	0	0.098	0.1	0	-0	0	0	0	0	0	-0	0	0.05595	0	0	0	-0	0	0	0	0	0	-0	0	554.404	548.956	325.406	203.027	0.0301081	-1.7986	0.0261956	-0.0238267	3.69652
14	-0.0020342	0.0180912	0.0293538	0.0230639	0.00116969	0.022756	0.025771	-0.0304905	0.001732	0.00299542	-0.021318	0.019385	0.0526893	-0.00245576	0.0190678	-2.19742	0.00454268	-1.55307	0	0	0	0	-0	0	0	0	-0.1265	0	-0	0	0	0	0	0	-0	0	0.105	0.015	0	0	-0	0	0	0.098	0.1	0	-0	0	0	0	0	0	-0	0	0.05595	0	0	0	-0	0	0	0	0	0	-0	0	556.362	549.183	325.314	203.519	0.0327238	-2.05504	0.0309905	-0.0241404	4.55861
15	0.00585433	0.0181329	0.0293356	0.0230742	0.00115574	0.0227486	0.025759	-0.0304868	0.00173273	0.000838519	-0.0179585	0.0166861	0.0524345	-0.00245864	0.019608	-2.19003	0.00444849	-1.55296	0	0	0	0	-0	0	0	0	-0.1265	0	-0	0	0	0	0	0	-0	0	0.105	0.015	0	0	-0	0	0	0.098	0.1	0	-0	0	0	0	0	0	-0	0	0.05595	0	0	0	-0	0	0	0	0	0	-0	0	557.016	549.341	325.248	203.686	0.032827	-2.13032	0.0323493	-0.0242294	4.83637
16	0.00276659	0.0182537	0.029279	0.0231142	0.00112499	0.022741	0.0257706	-0.0305087	0.00174014	0.0173693	-0.00938507	0.0485371	0.0522621	-0.00246615	0.0197086	-2.19491	0.0049236	-1.5525	0	0	0	0	-0	0	0	0	-0.1265	0	-0	0	0	0	0	0	-0	0	0.105	0.015	0	0	-0	0	0	0.098	0.1	0	-0	0	0	0	0	0	-0	0	0.05595	0	0	0	-0	0	0	0	0	0	-0	0	558.702	550.339	324.841	204.388	0.0305297	-2.27021	0.0347045	-0.0245106	5.38095
17	0.0313358	0.0182815	0.0292518	0.0231359	0.00113001	0.0227442	0.0257544	-0.0304931	0.00174665	0.00194374	-0.0134463	0.0585095	0.0516195	-0.00246818	0.0212902	-2.16712	0.00465835	-1.55208	0	0	0	0	-0	0	0	0	-0.1265	0	-0	0	0	0	0	0	-0	0	0.105	0.015	0	0	-0	0	0	0.098	0.1	0	-0	0	0	0	0	0	-0	0	0.05595	0	0	0	-0	0	0	0	0	0	-0	0	559.362	550.877	324.611	204.714	0.029349	-2.31198	0.0352019	-0.0245943	5.57327
18	0.03736	0.0183015	0.0292316	0.0231571	0.00113099	0.0227439	0.0257583	-0.0304854	0.00175352	0.0109713	-0.044923	0.0512375	0.0514188	-0.00246965	0.0216409	-2.16166	0.00474447	-1.55182	0	0	0	0	-0	0	0	0	-0.1265	0	-0	0	0	0	0	0	-0	0	0.105	0.015	0	0	-0	0	0	0.098	0.1	0	-0	0	0	0	0	0	-0	0	0.05595	0	0	0	-0	0	0	0	0	0	-0	0	559.795	551.288	324.43	204.957	0.0279773	-2.33236	0.0354379	-0.0246677	5.6782
19	0.0272419	0.0183188	0.0292108	0.0231742	0.00113828	0.0227463	0.0257582	-0.0304966	0.00175073	-0.00720163	-0.0592582	0.0633664	0.0515892	-0.00247122	0.0211667	-2.17246	0.00520667	-1.55156	0	0	0	0	-0	0	0	0	-0.1265	0	-0	0	0	0	0	0	-0	0	0.105	0.015	0	0	-0	0	0	0.098	0.1	0	-0	0	0	0	0	0	-0	0	0.05595	0	0	0	-0	0	0	0	0	0	-0	0	560.268	551.799	324.195	205.267	0.0261365	-2.34716	0.0355311	-0.0247428	5.77488
20	0.00652374	0.0183299	0.0291951	0.023189	0.00114475	0.0227498	0.0257573	-0.0304949	0.00175214	-0.0250857	-0.0763967	0.0668117	0.051996	-0.00247209	0.0201264	-2.19368	0.00581424	-1.55145	0	0	0	0	-0	0	0	0	-0.1265	0	-0	0	0	0	0	0	-0	0	0.105	0.015	0	0	-0	0	0	0.098	0.1	0	-0	0	0	0	0	0	-0	0	0.05595	0	0	0	-0	0	0	0	0	0	-0	0	560.59	552.176	324.018	205.501	0.0247281	-2.3544	0.0355371	-0.0247955	5.83323
21	0.00348324	0.0183361	0.0291834	0.0232014	0.00115024	0.0227523	0.0257512	-0.03049	0.00175227	-0.0305203	-0.0841599	0.0799906	0.0520279	-0.00247266	0.0199834	-2.1971	0.00603506	-1.55131	0	0	0	0	-0	0	0	0	-0.1265	0	-0	0	0	0	0	0	-0	0	0.105	0.015	0	0	-0	0	0	0.098	0.1	0	-0	0	0	0	0	0	-0	0	0.05595	0	0	0	-0	0	0	0	0	0	-0	0	560.815	552.453	323.885	205.677	0.0236466	-2.3574	0.0355056	-0.0248342	5.86842
22	-0.0142308	0.0183456	0.0291682	0.0232168	0.0011575	0.0227549	0.0257464	-0.0304875	0.00175597	-0.0435051	-0.0710753	0.0841275	0.0523584	-0.0024736	0.019085	-2.21536	0.0066206	-1.55117	0	0	0	0	-0	0	0	0	-0.1265	0	-0	0	0	0	0	0	-0	0	0.105	0.015	0	0	-0	0	0	0.098	0.1	0	-0	0	0	0	0	0	-0	0	0.05595	0	0	0	-0	0	0	0	0	0	-0	0	561.13	552.85	323.686	205.943	0.0214027	-2.35658	0.0354658	-0.0248968	5.9065
23	-0.0092329	0.0183497	0.0291565	0.0232299	0.00116454	0.0227577	0.0257455	-0.0304925	0.00175319	-0.0639756	-0.0631395	0.0773988	0.0522401	-0.00247415	0.0193592	-2.21078	0.00670652	-1.55096	0	0	0	0	-0	0	0	0	-0.1265	0	-0	0	0	0	0	0	-0	0	0.105	0.015	0	0	-0	0	0	0.098	0.1	0	-0	0	0	0	0	0	-0	0	0.05595	0	0	0	-0	0	0	0	0	0	-0	0	561.347	553.14	323.538	206.143	0.0200922	-2.35592	0.0353865	-0.0249383	5.93168
24	-0.0123725	0.01835	0.0291533	0.0232324	0.0011674	0.022759	0.0257468	-0.0304874	0.00175586	-0.0701066	-0.0666456	0.0751721	0.0522953	-0.00247432	0.0191995	-2.21405	0.0068259	-1.55092	0	0	0	0	-0	0	0	0	-0.1265	0	-0	0	0	0	0	0	-0	0	0.105	0.015	0	0	-0	0	0	0.098	0.1	0	-0	0	0	0	0	0	-0	0	0.05595	0	0	0	-0	0	0	0	0	0	-0	0	561.415	553.231	323.492	206.207	0.0197454	-2.35582	0.0353558	-0.0249481	5.93955
25	-0.0173972	0.0183512	0.0291486	0.0232375	0.00117076	0.0227601	0.0257471	-0.0304879	0.001756	-0.0682471	-0.0673222	0.0845966	0.0523857	-0.00247455	0.0189424	-2.21925	0.00700435	-1.55088	0	0	0	0	-0	0	0	0	-0.1265	0	-0	0	0	0	0	0	-0	0	0.105	0.015	0	0	-0	0	0	0.098	0.1	0	-0	0	0	0	0	0	-0	0	0.05595	0	0	0	-0	0	0	0	0	0	-0	0	561.505	553.353	323.429	206.294	0.0191733	-2.35513	0.0353143	-0.0249657	5.94944
26	-0.0020716	0.0183598	0.0291296	0.0232602	0.0011832	0.0227658	0.0257477	-0.0304895	0.00175902	-0.0715334	-0.0661565	0.0987546	0.0520735	-0.00247546	0.0197655	-2.20471	0.00704129	-1.55042	0	0	0	0	-0	0	0	0	-0.1265	0	-0	0	0	0	0	0	-0	0	0.105	0.015	0	0	-0	0	0	0.098	0.1	0	-0	0	0	0	0	0	-0	0	0.05595	0	0	0	-0	0	0	0	0	0	-0	0	561.88	553.86	323.148	206.687	0.0157501	-2.34669	0.0352072	-0.0250542	5.97751
27	-0.000995135	0.0183597	0.02912	0.0232712	0.00119193	0.0227698	0.0257459	-0.030488	0.00175732	-0.0777611	-0.0593154	0.0890683	0.0520345	-0.00247584	0.0198292	-2.20402	0.00718542	-1.55024	0	0	0	0	-0	0	0	0	-0.1265	0	-0	0	0	0	0	0	-0	0	0.105	0.015	0	0	-0	0	0	0.098	0.1	0	-0	0	0	0	0	0	-0	0	0.05595	0	0	0	-0	0	0	0	0	0	-0	0	562.06	554.108	323.011	206.884	0.0146374	-2.34424	0.0351094	-0.025088	5.99339
28	-0.000379361	0.0183593	0.0291165	0.0232744	0.00119537	0.022771	0.0257457	-0.0304867	0.00175921	-0.0807392	-0.0667544	0.0911869	0.0520181	-0.00247604	0.019865	-2.20357	0.00724146	-1.55016	0	0	0	0	-0	0	0	0	-0.1265	0	-0	0	0	0	0	0	-0	0	0.105	0.015	0	0	-0	0	0	0.098	0.1	0	-0	0	0	0	0	0	-0	0	0.05595	0	0	0	-0	0	0	0	0	0	-0	0	562.131	554.207	322.956	206.964	0.0142091	-2.34337	0.0350681	-0.0251015	5.99998
29	0.0128008	0.0183637	0.0291024	0.0232926	0.00120632	0.0227757	0.0257452	-0.0304876	0.00176071	-0.0819885	-0.0682088	0.100052	0.051742	-0.00247672	0.0205632	-2.19104	0.00724092	-1.54978	0	0	0	0	-0	0	0	0	-0.1265	0	-0	0	0	0	0	0	-0	0	0.105	0.015	0	0	-0	0	0	0.098	0.1	0	-0	0	0	0	0	0	-0	0	0.05595	0	0	0	-0	0	0	0	0	0	-0	0	562.413	554.594	322.73	207.295	0.0114118	-2.33507	0.0349762	-0.0251735	6.01765
30	0.0154579	0.0183625	0.0290953	0.0233012	0.00121363	0.0227789	0.0257472	-0.0304894	0.00175682	-0.0893118	-0.053922	0.0852422	0.0516754	-0.00247701	0.0207048	-2.1887	0.00731731	-1.54961	0	0	0	0	-0	0	0	0	-0.1265	0	-0	0	0	0	0	0	-0	0	0.105	0.015	0	0	-0	0	0	0.098	0.1	0	-0	0	0	0	0	0	-0	0	0.05595	0	0	0	-0	0	0	0	0	0	-0	0	562.543	554.781	322.62	207.46	0.0105879	-2.33295	0.0348932	-0.0252012	6.02885
31	0.0103399	0.0183626	0.0290905	0.0233067	0.00121857	0.0227813	0.0257447	-0.030488	0.00176181	-0.0977021	-0.0583356	0.0821364	0.0517764	-0.00247723	0.020444	-2.19406	0.00752449	-1.54955	0	0	0	0	-0	0	0	0	-0.1265	0	-0	0	0	0	0	0	-0	0	0.105	0.015	0	0	-0	0	0	0.098	0.1	0	-0	0	0	0	0	0	-0	0	0.05595	0	0	0	-0	0	0	0	0	0	-0	0	562.639	554.921	322.538	207.583	0.00987734	-2.33117	0.0348337	-0.0252231	6.03749
32	-0.00306463	0.0183651	0.029071	0.023335	0.001237	0.022789	0.0257485	-0.0304986	0.00176979	-0.118252	-0.0564021	0.103059	0.052033	-0.00247822	0.0197629	-2.20851	0.00824171	-1.54919	0	0	0	0	-0	0	0	0	-0.1265	0	-0	0	0	0	0	0	-0	0	0.105	0.015	0	0	-0	0	0	0.098	0.1	0	-0	0	0	0	0	0	-0	0	0.05595	0	0	0	-0	0	0	0	0	0	-0	0	563.041	555.472	322.18	208.131	0.00543164	-2.31663	0.0347224	-0.0253414	6.05856
33	-0.00308703	0.0183588	0.0290678	0.0233374	0.00124418	0.0227928	0.0257442	-0.0304881	0.00176374	-0.12261	-0.0569832	0.0939805	0.0520249	-0.00247824	0.0197635	-2.20868	0.00830793	-1.54913	0	0	0	0	-0	0	0	0	-0.1265	0	-0	0	0	0	0	0	-0	0	0.105	0.015	0	0	-0	0	0	0.098	0.1	0	-0	0	0	0	0	0	-0	0	0.05595	0	0	0	-0	0	0	0	0	0	-0	0	563.091	555.55	322.133	208.206	0.00580818	-2.31744	0.0346284	-0.0253397	6.06378
34	-0.0085344	0.0183594	0.0290642	0.0233423	0.00124677	0.0227932	0.025745	-0.0304874	0.00176459	-0.128322	-0.0672003	0.0946065	0.0521304	-0.00247847	0.0194815	-2.21432	0.00850547	-1.54909	0	0	0	0	-0	0	0	0	-0.1265	0	-0	0	0	0	0	0	-0	0	0.105	0.015	0	0	-0	0	0	0.098	0.1	0	-0	0	0	0	0	0	-0	0	0.05595	0	0	0	-0	0	0	0	0	0	-0	0	563.16	555.655	322.068	208.308	0.00511899	-2.31573	0.0345911	-0.0253621	6.07046
35	-0.016643	0.0183594	0.0290564	0.0233538	0.00125489	0.0227964	0.0257457	-0.0304866	0.00176417	-0.128143	-0.0518216	0.0890563	0.0522814	-0.00247887	0.0190631	-2.22286	0.00885928	-1.54898	0	0	0	0	-0	0	0	0	-0.1265	0	-0	0	0	0	0	0	-0	0	0.105	0.015	0	0	-0	0	0	0.098	0.1	0	-0	0	0	0	0	0	-0	0	0.05595	0	0	0	-0	0	0	0	0	0	-0	0	563.314	555.878	321.925	208.536	0.00375594	-2.31256	0.0345171	-0.0254071	6.08612
36	-0.0235081	0.0183579	0.0290458	0.02337	0.00126725	0.0228016	0.0257472	-0.0304884	0.00177092	-0.1255	-0.0698822	0.0762149	0.0524029	-0.0024794	0.018709	-2.23036	0.00927191	-1.54878	0	0	0	0	-0	0	0	0	-0.1265	0	-0	0	0	0	0	0	-0	0	0.105	0.015	0	0	-0	0	0	0.098	0.1	0	-0	0	0	0	0	0	-0	0	0.05595	0	0	0	-0	0	0	0	0	0	-0	0	563.529	556.187	321.715	208.873	0.00171793	-2.30696	0.0344197	-0.0254728	6.10507
37	-0.013345	0.0183534	0.0290312	0.0233929	0.00128625	0.0228094	0.0257456	-0.0304907	0.0017663	-0.127796	-0.0644794	0.0594991	0.0522009	-0.00248017	0.0192486	-2.22113	0.0094279	-1.5483	0	0	0	0	-0	0	0	0	-0.1265	0	-0	0	0	0	0	0	-0	0	0.105	0.015	0	0	-0	0	0	0.098	0.1	0	-0	0	0	0	0	0	-0	0	0.05595	0	0	0	-0	0	0	0	0	0	-0	0	563.832	556.615	321.411	209.368	-0.00116562	-2.29888	0.034294	-0.0255674	6.13169
38	-0.011606	0.0183497	0.0290286	0.023395	0.00129064	0.0228119	0.0257434	-0.030488	0.0017681	-0.123268	-0.0589881	0.0512083	0.0521623	-0.00248022	0.0193402	-2.21952	0.00943986	-1.54823	0	0	0	0	-0	0	0	0	-0.1265	0	-0	0	0	0	0	0	-0	0	0.105	0.015	0	0	-0	0	0	0.098	0.1	0	-0	0	0	0	0	0	-0	0	0.05595	0	0	0	-0	0	0	0	0	0	-0	0	563.869	556.674	321.371	209.435	-0.000955586	-2.29973	0.0342359	-0.0255709	6.13656
39	-0.007848	0.0183484	0.0290261	0.023399	0.00129389	0.0228128	0.0257422	-0.0304892	0.00176717	-0.134737	-0.056126	0.043557	0.0520882	-0.00248038	0.0195368	-2.21592	0.00941989	-1.54813	0	0	0	0	-0	0	0	0	-0.1265	0	-0	0	0	0	0	0	-0	0	0.105	0.015	0	0	-0	0	0	0.098	0.1	0	-0	0	0	0	0	0	-0	0	0.05595	0	0	0	-0	0	0	0	0	0	-0	0	563.917	556.748	321.319	209.521	-0.00128324	-2.29951	0.0342009	-0.0255868	6.14436
40	-0.0159981	0.0183474	0.0290208	0.0234082	0.00130046	0.0228155	0.0257422	-0.0304875	0.00177009	-0.139884	-0.0526882	0.0510537	0.052244	-0.00248068	0.0191136	-2.22443	0.00974698	-1.54806	0	0	0	0	-0	0	0	0	-0.1265	0	-0	0	0	0	0	0	-0	0	0.105	0.015	0	0	-0	0	0	0.098	0.1	0	-0	0	0	0	0	0	-0	0	0.05595	0	0	0	-0	0	0	0	0	0	-0	0	564.025	556.908	321.204	209.712	-0.00231905	-2.29739	0.0341526	-0.0256246	6.15761
41	-0.0150319	0.0183442	0.0290157	0.0234168	0.00130811	0.0228184	0.0257432	-0.0304876	0.00177061	-0.14207	-0.0606935	0.0439059	0.0522208	-0.00248095	0.019165	-2.22381	0.00986799	-1.54791	0	0	0	0	-0	0	0	0	-0.1265	0	-0	0	0	0	0	0	-0	0	0.105	0.015	0	0	-0	0	0	0.098	0.1	0	-0	0	0	0	0	0	-0	0	0.05595	0	0	0	-0	0	0	0	0	0	-0	0	564.127	557.058	321.09	209.901	-0.00313415	-2.29564	0.0340931	-0.0256587	6.16999
42	-0.014536	0.0183418	0.0290134	0.0234198	0.00131196	0.0228201	0.0257421	-0.0304872	0.00177008	-0.146114	-0.0646799	0.0402268	0.0522096	-0.00248105	0.0191918	-2.22346	0.00991526	-1.54784	0	0	0	0	-0	0	0	0	-0.1265	0	-0	0	0	0	0	0	-0	0	0.105	0.015	0	0	-0	0	0	0.098	0.1	0	-0	0	0	0	0	0	-0	0	0.05595	0	0	0	-0	0	0	0	0	0	-0	0	564.168	557.121	321.044	209.978	-0.00323264	-2.29599	0.0340535	-0.0256692	6.17698
43	-0.0192909	0.0183407	0.0290106	0.0234247	0.00131567	0.0228215	0.0257439	-0.0304878	0.00177	-0.151047	-0.0751599	0.045245	0.0522994	-0.00248122	0.0189443	-2.22841	0.010103	-1.54781	0	0	0	0	-0	0	0	0	-0.1265	0	-0	0	0	0	0	0	-0	0	0.105	0.015	0	0	-0	0	0	0.098	0.1	0	-0	0	0	0	0	0	-0	0	0.05595	0	0	0	-0	0	0	0	0	0	-0	0	564.223	557.205	320.981	210.083	-0.00362847	-2.29602	0.0340222	-0.0256892	6.18721
44	-0.0140734	0.018339	0.0290086	0.0234281	0.00131914	0.022823	0.0257424	-0.0304881	0.00177081	-0.144387	-0.0716795	0.0386041	0.0521987	-0.00248131	0.0192175	-2.22334	0.0100424	-1.5477	0	0	0	0	-0	0	0	0	-0.1265	0	-0	0	0	0	0	0	-0	0	0.105	0.015	0	0	-0	0	0	0.098	0.1	0	-0	0	0	0	0	0	-0	0	0.05595	0	0	0	-0	0	0	0	0	0	-0	0	564.263	557.266	320.934	210.161	-0.00383196	-2.29618	0.0339923	-0.025702	6.19453
45	-0.0206693	0.0183376	0.0290055	0.0234337	0.00132336	0.0228247	0.0257415	-0.0304872	0.00177097	-0.138791	-0.0696535	0.0394117	0.0523233	-0.00248149	0.0188734	-2.23015	0.0102818	-1.54767	0	0	0	0	-0	0	0	0	-0.1265	0	-0	0	0	0	0	0	-0	0	0.105	0.015	0	0	-0	0	0	0.098	0.1	0	-0	0	0	0	0	0	-0	0	0.05595	0	0	0	-0	0	0	0	0	0	-0	0	564.323	557.356	320.865	210.278	-0.00429872	-2.29571	0.033958	-0.0257242	6.20399
46	-0.0183633	0.0183362	0.0290042	0.0234357	0.00132553	0.0228255	0.0257418	-0.0304867	0.00177083	-0.139037	-0.0641805	0.03599	0.0522778	-0.00248156	0.0189941	-2.22793	0.0102651	-1.54761	0	0	0	0	-0	0	0	0	-0.1265	0	-0	0	0	0	0	0	-0	0	0.105	0.015	0	0	-0	0	0	0.098	0.1	0	-0	0	0	0	0	0	-0	0	0.05595	0	0	0	-0	0	0	0	0	0	-0	0	564.347	557.392	320.836	210.325	-0.00438044	-2.29604	0.0339403	-0.0257316	6.20876
47	-0.0147908	0.018334	0.0289998	0.0234444	0.00133231	0.0228281	0.0257412	-0.0304869	0.00177119	-0.145418	-0.0575177	0.0329884	0.0522078	-0.00248185	0.0191812	-2.22472	0.0103266	-1.54743	0	0	0	0	-0	0	0	0	-0.1265	0	-0	0	0	0	0	0	-0	0	0.105	0.015	0	0	-0	0	0	0.098	0.1	0	-0	0	0	0	0	0	-0	0	0.05595	0	0	0	-0	0	0	0	0	0	-0	0	564.444	557.531	320.72	210.519	-0.00532152	-2.29479	0.0339079	-0.0257707	6.22407
48	-0.0207628	0.0183307	0.0289952	0.0234528	0.00133975	0.0228311	0.0257416	-0.0304871	0.00177233	-0.149552	-0.0616221	0.0338229	0.0523197	-0.00248212	0.0188701	-2.23104	0.0106088	-1.54735	0	0	0	0	-0	0	0	0	-0.1265	0	-0	0	0	0	0	0	-0	0	0.105	0.015	0	0	-0	0	0	0.098	0.1	0	-0	0	0	0	0	0	-0	0	0.05595	0	0	0	-0	0	0	0	0	0	-0	0	564.537	557.669	320.607	210.71	-0.00597997	-2.29478	0.0338604	-0.0258056	6.24126
49	-0.0212518	0.0183284	0.0289948	0.0234529	0.00134145	0.0228319	0.0257412	-0.0304867	0.00177234	-0.1499	-0.0606965	0.0358379	0.0523273	-0.00248211	0.0188447	-2.23155	0.0106308	-1.54734	0	0	0	0	-0	0	0	0	-0.1265	0	-0	0	0	0	0	0	-0	0	0.105	0.015	0	0	-0	0	0	0.098	0.1	0	-0	0	0	0	0	0	-0	0	0.05595	0	0	0	-0	0	0	0	0	0	-0	0	564.543	557.677	320.6	210.722	-0.0058033	-2.29523	0.0338401	-0.0258032	6.24202
50	-0.0210266	0.0183281	0.0289942	0.0234538	0.00134217	0.0228323	0.0257411	-0.0304866	0.00177236	-0.15032	-0.0591866	0.0356062	0.0523228	-0.00248214	0.0188566	-2.23136	0.0106407	-1.54732	0	0	0	0	-0	0	0	0	-0.1265	0	-0	0	0	0	0	0	-0	0	0.105	0.015	0	0	-0	0	0	0.098	0.1	0	-0	0	0	0	0	0	-0	0	0.05595	0	0	0	-0	0	0	0	0	0	-0	0	564.552	557.692	320.588	210.742	-0.00582794	-2.29549	0.0338329	-0.025807	6.24432
51	-0.0211122	0.0183276	0.0289935	0.0234552	0.00134332	0.0228327	0.0257411	-0.0304867	0.00177246	-0.151063	-0.0599025	0.035037	0.0523242	-0.00248219	0.0188521	-2.2315	0.0106654	-1.5473	0	0	0	0	-0	0	0	0	-0.1265	0	-0	0	0	0	0	0	-0	0	0.105	0.015	0	0	-0	0	0	0.098	0.1	0	-0	0	0	0	0	0	-0	0	0.05595	0	0	0	-0	0	0	0	0	0	-0	0	564.566	557.713	320.57	210.772	-0.00591082	-2.2956	0.033823	-0.0258126	6.24728
52	-0.0173564	0.0183268	0.0289923	0.0234575	0.00134519	0.0228334	0.0257414	-0.0304869	0.00177211	-0.15398	-0.055236	0.0303027	0.0522529	-0.00248226	0.0190486	-2.22784	0.0106151	-1.54722	0	0	0	0	-0	0	0	0	-0.1265	0	-0	0	0	0	0	0	-0	0	0.105	0.015	0	0	-0	0	0	0.098	0.1	0	-0	0	0	0	0	0	-0	0	0.05595	0	0	0	-0	0	0	0	0	0	-0	0	564.589	557.75	320.54	210.822	-0.00606497	-2.29577	0.0338072	-0.0258219	6.25246
53	-0.0199326	0.0183257	0.0289906	0.0234609	0.00134801	0.0228346	0.0257413	-0.0304888	0.00177289	-0.165359	-0.056143	0.0301884	0.0523008	-0.00248236	0.018914	-2.23055	0.0107321	-1.54719	0	0	0	0	-0	0	0	0	-0.1265	0	-0	0	0	0	0	0	-0	0	0.105	0.015	0	0	-0	0	0	0.098	0.1	0	-0	0	0	0	0	0	-0	0	0.05595	0	0	0	-0	0	0	0	0	0	-0	0	564.625	557.803	320.495	210.897	-0.00634246	-2.29584	0.033792	-0.0258363	6.25973
54	-0.0155059	0.0183237	0.0289881	0.0234659	0.00135233	0.0228362	0.0257411	-0.0304867	0.00177316	-0.166031	-0.0555544	0.0277804	0.0522159	-0.00248252	0.0191456	-2.22633	0.010712	-1.54706	0	0	0	0	-0	0	0	0	-0.1265	0	-0	0	0	0	0	0	-0	0	0.105	0.015	0	0	-0	0	0	0.098	0.1	0	-0	0	0	0	0	0	-0	0	0.05595	0	0	0	-0	0	0	0	0	0	-0	0	564.677	557.882	320.428	211.009	-0.00665988	-2.29652	0.0337618	-0.0258569	6.27198
55	-0.0155455	0.0183214	0.0289855	0.0234708	0.00135668	0.0228379	0.0257413	-0.0304882	0.00177365	-0.175538	-0.0570561	0.0286282	0.0522151	-0.00248267	0.0191434	-2.22657	0.0107957	-1.54698	0	0	0	0	-0	0	0	0	-0.1265	0	-0	0	0	0	0	0	-0	0	0.105	0.015	0	0	-0	0	0	0.098	0.1	0	-0	0	0	0	0	0	-0	0	0.05595	0	0	0	-0	0	0	0	0	0	-0	0	564.728	557.957	320.362	211.119	-0.00698458	-2.29678	0.0337331	-0.0258772	6.28237
56	-0.0125474	0.0183197	0.0289845	0.0234726	0.00135897	0.022839	0.0257412	-0.0304872	0.00177362	-0.170414	-0.0552808	0.0301289	0.052157	-0.00248273	0.0193002	-2.22366	0.0107587	-1.54691	0	0	0	0	-0	0	0	0	-0.1265	0	-0	0	0	0	0	0	-0	0	0.105	0.015	0	0	-0	0	0	0.098	0.1	0	-0	0	0	0	0	0	-0	0	0.05595	0	0	0	-0	0	0	0	0	0	-0	0	564.748	557.987	320.335	211.164	-0.00700002	-2.29732	0.0337154	-0.0258836	6.28702
57	-0.0217367	0.0183186	0.028983	0.0234753	0.00136129	0.0228399	0.0257413	-0.0304869	0.00177393	-0.172119	-0.0590001	0.0281428	0.0523336	-0.00248281	0.0188208	-2.23296	0.011024	-1.54696	0	0	0	0	-0	0	0	0	-0.1265	0	-0	0	0	0	0	0	-0	0	0.105	0.015	0	0	-0	0	0	0.098	0.1	0	-0	0	0	0	0	0	-0	0	0.05595	0	0	0	-0	0	0	0	0	0	-0	0	564.776	558.03	320.298	211.225	-0.00719274	-2.29736	0.0336984	-0.0258952	6.29256
58	-0.0228818	0.0183175	0.0289818	0.0234776	0.00136319	0.0228407	0.025741	-0.0304875	0.00177367	-0.165309	-0.0600066	0.0313085	0.0523525	-0.00248286	0.0187601	-2.23419	0.0110865	-1.54694	0	0	0	0	-0	0	0	0	-0.1265	0	-0	0	0	0	0	0	-0	0	0.105	0.015	0	0	-0	0	0	0.098	0.1	0	-0	0	0	0	0	0	-0	0	0.05595	0	0	0	-0	0	0	0	0	0	-0	0	564.796	558.062	320.27	211.271	-0.00726843	-2.2978	0.0336828	-0.0259031	6.29763
59	-0.0176139	0.0183146	0.028978	0.0234864	0.00137032	0.0228434	0.0257446	-0.030491	0.00177493	-0.176249	-0.067793	0.042154	0.0522525	-0.00248316	0.0190353	-2.22929	0.0111139	-1.54673	0	0	0	0	-0	0	0	0	-0.1265	0	-0	0	0	0	0	0	-0	0	0.105	0.015	0	0	-0	0	0	0.098	0.1	0	-0	0	0	0	0	0	-0	0	0.05595	0	0	0	-0	0	0	0	0	0	-0	0	564.886	558.192	320.148	211.474	-0.0080717	-2.29811	0.0336559	-0.0259442	6.31801
60	-0.0173714	0.0183106	0.0289757	0.0234904	0.00137569	0.0228458	0.0257419	-0.0304882	0.00177432	-0.172587	-0.0688349	0.0510939	0.0522461	-0.00248324	0.0190477	-2.22923	0.0111851	-1.54664	0	0	0	0	-0	0	0	0	-0.1265	0	-0	0	0	0	0	0	-0	0	0.105	0.015	0	0	-0	0	0	0.098	0.1	0	-0	0	0	0	0	0	-0	0	0.05595	0	0	0	-0	0	0	0	0	0	-0	0	564.928	558.258	320.088	211.574	-0.00807347	-2.29947	0.0336091	-0.025958	6.32929
61	-0.0086408	0.0183079	0.0289727	0.0234971	0.00138088	0.0228477	0.0257443	-0.0304876	0.00177569	-0.176947	-0.082911	0.0505282	0.0520787	-0.00248347	0.0195037	-2.22077	0.0110863	-1.54643	0	0	0	0	-0	0	0	0	-0.1265	0	-0	0	0	0	0	0	-0	0	0.105	0.015	0	0	-0	0	0	0.098	0.1	0	-0	0	0	0	0	0	-0	0	0.05595	0	0	0	-0	0	0	0	0	0	-0	0	564.992	558.351	319.998	211.722	-0.0084939	-2.30083	0.0335872	-0.0259878	6.34669
62	0.00261738	0.0183046	0.0289701	0.023502	0.00138599	0.0228498	0.025743	-0.0304873	0.00177615	-0.173951	-0.0717453	0.0529187	0.0518561	-0.0024836	0.0200893	-2.20972	0.0108946	-1.54622	0	0	0	0	-0	0	0	0	-0.1265	0	-0	0	0	0	0	0	-0	0	0.105	0.015	0	0	-0	0	0	0.098	0.1	0	-0	0	0	0	0	0	-0	0	0.05595	0	0	0	-0	0	0	0	0	0	-0	0	565.039	558.423	319.931	211.832	-0.0085885	-2.30232	0.033547	-0.0260059	6.35992
63	-0.00691832	0.0182998	0.0289657	0.0235128	0.00139488	0.0228533	0.0257423	-0.0304879	0.00177594	-0.176173	-0.0774338	0.0607833	0.0520431	-0.00248392	0.0195927	-2.21969	0.0113111	-1.54613	0	0	0	0	-0	0	0	0	-0.1265	0	-0	0	0	0	0	0	-0	0	0.105	0.015	0	0	-0	0	0	0.098	0.1	0	-0	0	0	0	0	0	-0	0	0.05595	0	0	0	-0	0	0	0	0	0	-0	0	565.141	558.566	319.782	212.074	-0.0094337	-2.30343	0.0335261	-0.0260554	6.38551
64	-0.00747449	0.018297	0.0289647	0.0235136	0.00139739	0.0228546	0.0257413	-0.0304874	0.00177644	-0.174856	-0.0764917	0.0663962	0.0520509	-0.00248395	0.0195632	-2.2203	0.0113526	-1.54611	0	0	0	0	-0	0	0	0	-0.1265	0	-0	0	0	0	0	0	-0	0	0.105	0.015	0	0	-0	0	0	0.098	0.1	0	-0	0	0	0	0	0	-0	0	0.05595	0	0	0	-0	0	0	0	0	0	-0	0	565.154	558.586	319.762	212.107	-0.00920585	-2.30455	0.0334971	-0.0260566	6.38914
65	-0.00899485	0.0182945	0.0289623	0.0235196	0.00140215	0.0228562	0.0257405	-0.0304883	0.00177708	-0.164001	-0.0803846	0.0649271	0.0520802	-0.00248416	0.0194834	-2.22207	0.0114927	-1.54602	0	0	0	0	-0	0	0	0	-0.1265	0	-0	0	0	0	0	0	-0	0	0.105	0.015	0	0	-0	0	0	0.098	0.1	0	-0	0	0	0	0	0	-0	0	0.05595	0	0	0	-0	0	0	0	0	0	-0	0	565.207	558.667	319.679	212.24	-0.0095124	-2.30659	0.0334753	-0.0260835	6.40779
66	-0.00389077	0.018291	0.0289597	0.0235253	0.00140752	0.0228583	0.0257444	-0.0304873	0.00177748	-0.161104	-0.0650667	0.0650695	0.05198	-0.00248433	0.0197487	-2.2172	0.0114685	-1.54586	0	0	0	0	-0	0	0	0	-0.1265	0	-0	0	0	0	0	0	-0	0	0.105	0.015	0	0	-0	0	0	0.098	0.1	0	-0	0	0	0	0	0	-0	0	0.05595	0	0	0	-0	0	0	0	0	0	-0	0	565.259	558.745	319.598	212.371	-0.00963915	-2.30907	0.0334439	-0.0261078	6.42584
67	-0.000822718	0.0182874	0.0289577	0.0235294	0.00141235	0.0228604	0.0257412	-0.0304882	0.00177765	-0.169814	-0.0661807	0.0666688	0.0519183	-0.00248442	0.0199072	-2.21431	0.0114683	-1.54574	0	0	0	0	-0	0	0	0	-0.1265	0	-0	0	0	0	0	0	-0	0	0.105	0.015	0	0	-0	0	0	0.098	0.1	0	-0	0	0	0	0	0	-0	0	0.05595	0	0	0	-0	0	0	0	0	0	-0	0	565.295	558.804	319.537	212.469	-0.00961731	-2.31092	0.0334019	-0.0261232	6.43885
68	-0.00588156	0.0182839	0.0289552	0.023536	0.00141771	0.0228623	0.0257415	-0.0304879	0.00177887	-0.174627	-0.0620855	0.0743239	0.0520189	-0.00248462	0.019643	-2.21963	0.0117075	-1.54568	0	0	0	0	-0	0	0	0	-0.1265	0	-0	0	0	0	0	0	-0	0	0.105	0.015	0	0	-0	0	0	0.098	0.1	0	-0	0	0	0	0	0	-0	0	0.05595	0	0	0	-0	0	0	0	0	0	-0	0	565.347	558.885	319.446	212.612	-0.00986328	-2.31322	0.0333744	-0.0261519	6.45795
69	-0.013549	0.0182785	0.0289513	0.0235454	0.00142617	0.0228656	0.0257429	-0.0304911	0.0017788	-0.1892	-0.0675366	0.0750776	0.0521681	-0.00248489	0.0192425	-2.22767	0.0120678	-1.5456	0	0	0	0	-0	0	0	0	-0.1265	0	-0	0	0	0	0	0	-0	0	0.105	0.015	0	0	-0	0	0	0.098	0.1	0	-0	0	0	0	0	0	-0	0	0.05595	0	0	0	-0	0	0	0	0	0	-0	0	565.429	559.008	319.312	212.823	-0.0101794	-2.31672	0.0333296	-0.0261925	6.4868
70	-0.0122189	0.0182754	0.0289501	0.0235471	0.00142925	0.0228674	0.0257419	-0.0304879	0.00177879	-0.183465	-0.0623841	0.077889	0.0521403	-0.00248491	0.0193115	-2.22642	0.012071	-1.54555	0	0	0	0	-0	0	0	0	-0.1265	0	-0	0	0	0	0	0	-0	0	0.105	0.015	0	0	-0	0	0	0.098	0.1	0	-0	0	0	0	0	0	-0	0	0.05595	0	0	0	-0	0	0	0	0	0	-0	0	565.443	559.033	319.284	212.865	-0.00992921	-2.3183	0.0332973	-0.0261957	6.49268
71	-0.0140889	0.0182726	0.0289482	0.0235523	0.00143353	0.0228686	0.0257433	-0.0304898	0.0017786	-0.180876	-0.0624351	0.0912391	0.0521764	-0.00248508	0.0192128	-2.2285	0.0122115	-1.54547	0	0	0	0	-0	0	0	0	-0.1265	0	-0	0	0	0	0	0	-0	0	0.105	0.015	0	0	-0	0	0	0.098	0.1	0	-0	0	0	0	0	0	-0	0	0.05595	0	0	0	-0	0	0	0	0	0	-0	0	565.485	559.097	319.21	212.98	-0.0100398	-2.32117	0.0332733	-0.0262191	6.5118
72	-0.014377	0.0182701	0.028947	0.0235547	0.0014365	0.02287	0.0257403	-0.030488	0.00177906	-0.192322	-0.0536273	0.0908781	0.0521816	-0.00248513	0.0191973	-2.22889	0.0122664	-1.54543	0	0	0	0	-0	0	0	0	-0.1265	0	-0	0	0	0	0	0	-0	0	0.105	0.015	0	0	-0	0	0	0.098	0.1	0	-0	0	0	0	0	0	-0	0	0.05595	0	0	0	-0	0	0	0	0	0	-0	0	565.503	559.13	319.173	213.037	-0.00986434	-2.32343	0.0332446	-0.0262273	6.52226
73	-0.00721465	0.0182679	0.0289455	0.0235587	0.00143952	0.022871	0.025741	-0.0304875	0.00177815	-0.201971	-0.0417738	0.0864716	0.052044	-0.00248526	0.0195704	-2.22188	0.0121541	-1.54527	0	0	0	0	-0	0	0	0	-0.1265	0	-0	0	0	0	0	0	-0	0	0.105	0.015	0	0	-0	0	0	0.098	0.1	0	-0	0	0	0	0	0	-0	0	0.05595	0	0	0	-0	0	0	0	0	0	-0	0	565.533	559.175	319.117	213.121	-0.00990103	-2.32589	0.0332305	-0.026245	6.53677
74	-0.0131606	0.0182659	0.0289443	0.0235616	0.0014423	0.0228721	0.025741	-0.0304869	0.00177964	-0.20076	-0.045399	0.0864831	0.0521589	-0.00248534	0.0192599	-2.22793	0.0123578	-1.54529	0	0	0	0	-0	0	0	0	-0.1265	0	-0	0	0	0	0	0	-0	0	0.105	0.015	0	0	-0	0	0	0.098	0.1	0	-0	0	0	0	0	0	-0	0	0.05595	0	0	0	-0	0	0	0	0	0	-0	0	565.555	559.21	319.076	213.184	-0.00981814	-2.32826	0.0332102	-0.0262561	6.54896
75	-0.00325552	0.0182591	0.0289401	0.023574	0.00145274	0.022876	0.025741	-0.0304892	0.00178038	-0.1889	-0.0464609	0.0873568	0.0519668	-0.00248571	0.019774	-2.21852	0.0123332	-1.54493	0	0	0	0	-0	0	0	0	-0.1265	0	-0	0	0	0	0	0	-0	0	0.105	0.015	0	0	-0	0	0	0.098	0.1	0	-0	0	0	0	0	0	-0	0	0.05595	0	0	0	-0	0	0	0	0	0	-0	0	565.656	559.353	318.892	213.457	-0.0102796	-2.33412	0.0331864	-0.0263144	6.59205
76	-0.007216	0.0182532	0.0289373	0.0235801	0.00145959	0.022879	0.0257428	-0.0304893	0.00178076	-0.183035	-0.0432721	0.097274	0.0520421	-0.00248584	0.0195663	-2.22272	0.0125496	-1.54486	0	0	0	0	-0	0	0	0	-0.1265	0	-0	0	0	0	0	0	-0	0	0.105	0.015	0	0	-0	0	0	0.098	0.1	0	-0	0	0	0	0	0	-0	0	0.05595	0	0	0	-0	0	0	0	0	0	-0	0	565.7	559.426	318.801	213.59	-0.00997466	-2.33889	0.0331307	-0.0263358	6.61539
77	-0.00196355	0.0182488	0.0289355	0.0235842	0.0014645	0.0228811	0.025741	-0.030487	0.00178112	-0.182427	-0.0443866	0.0975222	0.051939	-0.00248595	0.0198382	-2.21765	0.0124996	-1.5447	0	0	0	0	-0	0	0	0	-0.1265	0	-0	0	0	0	0	0	-0	0	0.105	0.015	0	0	-0	0	0	0.098	0.1	0	-0	0	0	0	0	0	-0	0	0.05595	0	0	0	-0	0	0	0	0	0	-0	0	565.731	559.477	318.733	213.688	-0.00975132	-2.34254	0.0330896	-0.0263527	6.63332
78	-0.00501046	0.0182467	0.0289346	0.0235862	0.00146646	0.0228818	0.0257412	-0.030488	0.00178188	-0.189772	-0.0416701	0.102337	0.0519988	-0.002486	0.0196792	-2.22076	0.0126145	-1.5447	0	0	0	0	-0	0	0	0	-0.1265	0	-0	0	0	0	0	0	-0	0	0.105	0.015	0	0	-0	0	0	0.098	0.1	0	-0	0	0	0	0	0	-0	0	0.05595	0	0	0	-0	0	0	0	0	0	-0	0	565.742	559.498	318.705	213.728	-0.00961112	-2.34416	0.0330696	-0.0263595	6.6404
79	-0.00449313	0.0182452	0.0289341	0.0235877	0.00146813	0.0228825	0.0257413	-0.0304878	0.00178109	-0.195449	-0.0414039	0.0984512	0.0519884	-0.00248604	0.0197056	-2.22031	0.0126315	-1.54466	0	0	0	0	-0	0	0	0	-0.1265	0	-0	0	0	0	0	0	-0	0	0.105	0.015	0	0	-0	0	0	0.098	0.1	0	-0	0	0	0	0	0	-0	0	0.05595	0	0	0	-0	0	0	0	0	0	-0	0	565.752	559.515	318.68	213.762	-0.00952754	-2.34563	0.033058	-0.0263657	6.64731
80	-0.0100452	0.018243	0.0289327	0.0235916	0.00147133	0.0228836	0.0257416	-0.0304878	0.00178269	-0.190593	-0.0473934	0.0914897	0.0520981	-0.00248614	0.0194158	-2.226	0.0128479	-1.54466	0	0	0	0	-0	0	0	0	-0.1265	0	-0	0	0	0	0	0	-0	0	0.105	0.015	0	0	-0	0	0	0.098	0.1	0	-0	0	0	0	0	0	-0	0	0.05595	0	0	0	-0	0	0	0	0	0	-0	0	565.778	559.558	318.623	213.843	-0.0094662	-2.34874	0.0330359	-0.0263821	6.66398
81	-0.0113325	0.0182415	0.0289323	0.0235921	0.00147251	0.0228842	0.0257412	-0.0304872	0.0017816	-0.192616	-0.0481626	0.088924	0.052122	-0.00248614	0.0193486	-2.22731	0.0128924	-1.54467	0	0	0	0	-0	0	0	0	-0.1265	0	-0	0	0	0	0	0	-0	0	0.105	0.015	0	0	-0	0	0	0.098	0.1	0	-0	0	0	0	0	0	-0	0	0.05595	0	0	0	-0	0	0	0	0	0	-0	0	565.782	559.563	318.615	213.854	-0.00931324	-2.34954	0.0330233	-0.0263822	6.66615
82	-0.0148508	0.0182409	0.028932	0.0235931	0.00147327	0.0228845	0.0257413	-0.0304872	0.00178173	-0.194754	-0.0502828	0.0865867	0.0521901	-0.00248618	0.0191648	-2.23087	0.0130046	-1.54469	0	0	0	0	-0	0	0	0	-0.1265	0	-0	0	0	0	0	0	-0	0	0.105	0.015	0	0	-0	0	0	0.098	0.1	0	-0	0	0	0	0	0	-0	0	0.05595	0	0	0	-0	0	0	0	0	0	-0	0	565.788	559.575	318.599	213.876	-0.00928368	-2.3506	0.033018	-0.0263871	6.67135
83	-0.0122607	0.0182397	0.0289314	0.0235947	0.00147475	0.022885	0.0257413	-0.0304871	0.00178182	-0.192865	-0.0476761	0.0869859	0.0521403	-0.00248622	0.0192993	-2.22834	0.0129676	-1.54463	0	0	0	0	-0	0	0	0	-0.1265	0	-0	0	0	0	0	0	-0	0	0.105	0.015	0	0	-0	0	0	0.098	0.1	0	-0	0	0	0	0	0	-0	0	0.05595	0	0	0	-0	0	0	0	0	0	-0	0	565.798	559.592	318.575	213.91	-0.00921812	-2.35202	0.0330067	-0.0263937	6.67832
84	-0.0110671	0.018238	0.0289307	0.0235971	0.00147686	0.0228858	0.0257424	-0.0304889	0.00178196	-0.201823	-0.0523905	0.0835937	0.0521172	-0.00248628	0.0193608	-2.22723	0.0129819	-1.54456	0	0	0	0	-0	0	0	0	-0.1265	0	-0	0	0	0	0	0	-0	0	0.105	0.015	0	0	-0	0	0	0.098	0.1	0	-0	0	0	0	0	0	-0	0	0.05595	0	0	0	-0	0	0	0	0	0	-0	0	565.813	559.616	318.539	213.959	-0.00914413	-2.35419	0.0329946	-0.0264039	6.68909
85	-0.016454	0.0182354	0.0289295	0.0236005	0.00148022	0.0228872	0.0257421	-0.0304884	0.0017819	-0.206804	-0.0536293	0.0759551	0.0522216	-0.00248636	0.0190791	-2.23275	0.0131914	-1.54456	0	0	0	0	-0	0	0	0	-0.1265	0	-0	0	0	0	0	0	-0	0	0.105	0.015	0	0	-0	0	0	0.098	0.1	0	-0	0	0	0	0	0	-0	0	0.05595	0	0	0	-0	0	0	0	0	0	-0	0	565.837	559.654	318.484	214.033	-0.0090273	-2.35738	0.0329736	-0.0264183	6.70508
86	-0.0162651	0.0182317	0.0289277	0.0236058	0.00148486	0.022889	0.0257437	-0.0304872	0.00178117	-0.207999	-0.0395717	0.0696873	0.0522176	-0.00248649	0.0190871	-2.23275	0.0132887	-1.54446	0	0	0	0	-0	0	0	0	-0.1265	0	-0	0	0	0	0	0	-0	0	0.105	0.015	0	0	-0	0	0	0.098	0.1	0	-0	0	0	0	0	0	-0	0	0.05595	0	0	0	-0	0	0	0	0	0	-0	0	565.87	559.708	318.404	214.142	-0.00889356	-2.36163	0.0329464	-0.026441	6.72682
87	-0.0268416	0.018226	0.0289252	0.0236132	0.0014919	0.0228916	0.0257414	-0.030488	0.00178728	-0.226076	-0.016616	0.076099	0.0524197	-0.0024867	0.0185328	-2.24361	0.0137189	-1.54445	0	0	0	0	-0	0	0	0	-0.1265	0	-0	0	0	0	0	0	-0	0	0.105	0.015	0	0	-0	0	0	0.098	0.1	0	-0	0	0	0	0	0	-0	0	0.05595	0	0	0	-0	0	0	0	0	0	-0	0	565.92	559.786	318.284	214.301	-0.00856889	-2.36933	0.0329051	-0.0264735	6.7639
88	-0.0172467	0.018221	0.0289235	0.0236177	0.00149649	0.0228935	0.0257421	-0.030487	0.00178291	-0.225211	-0.0252202	0.0791553	0.0522389	-0.00248677	0.0190337	-2.23416	0.0135448	-1.54424	0	0	0	0	-0	0	0	0	-0.1265	0	-0	0	0	0	0	0	-0	0	0.105	0.015	0	0	-0	0	0	0.098	0.1	0	-0	0	0	0	0	0	-0	0	0.05595	0	0	0	-0	0	0	0	0	0	-0	0	565.941	559.824	318.223	214.379	-0.00818651	-2.37332	0.0328629	-0.0264867	6.78038
89	-0.022362	0.0182189	0.0289224	0.0236203	0.00149896	0.0228946	0.0257423	-0.0304876	0.00178305	-0.223748	-0.0192997	0.0731997	0.0523341	-0.00248684	0.0187648	-2.23937	0.0137378	-1.54425	0	0	0	0	-0	0	0	0	-0.1265	0	-0	0	0	0	0	0	-0	0	0.105	0.015	0	0	-0	0	0	0.098	0.1	0	-0	0	0	0	0	0	-0	0	0.05595	0	0	0	-0	0	0	0	0	0	-0	0	565.958	559.852	318.178	214.437	-0.00795176	-2.37698	0.0328434	-0.0264984	6.79589
90	-0.0230339	0.0182168	0.0289218	0.0236221	0.00150116	0.0228955	0.0257418	-0.030488	0.00178346	-0.230358	-0.021179	0.0696087	0.052346	-0.0024869	0.0187288	-2.24012	0.0137996	-1.54422	0	0	0	0	-0	0	0	0	-0.1265	0	-0	0	0	0	0	0	-0	0	0.105	0.015	0	0	-0	0	0	0.098	0.1	0	-0	0	0	0	0	0	-0	0	0.05595	0	0	0	-0	0	0	0	0	0	-0	0	565.97	559.872	318.144	214.48	-0.00779133	-2.37945	0.0328287	-0.0265065	6.80669
91	-0.0262051	0.018213	0.0289203	0.0236276	0.0015058	0.0228971	0.0257415	-0.0304882	0.00178224	-0.22045	-0.0307724	0.0763583	0.0524058	-0.00248705	0.0185611	-2.24349	0.0139961	-1.54415	0	0	0	0	-0	0	0	0	-0.1265	0	-0	0	0	0	0	0	-0	0	0.105	0.015	0	0	-0	0	0	0.098	0.1	0	-0	0	0	0	0	0	-0	0	0.05595	0	0	0	-0	0	0	0	0	0	-0	0	566.003	559.924	318.055	214.591	-0.00751976	-2.38583	0.032806	-0.0265308	6.83626
92	-0.0229946	0.0182101	0.0289192	0.0236303	0.00150874	0.0228984	0.025743	-0.0304883	0.00178433	-0.213882	-0.0233107	0.0790143	0.0523461	-0.0024871	0.0187284	-2.24038	0.0139679	-1.54404	0	0	0	0	-0	0	0	0	-0.1265	0	-0	0	0	0	0	0	-0	0	0.105	0.015	0	0	-0	0	0	0.098	0.1	0	-0	0	0	0	0	0	-0	0	0.05595	0	0	0	-0	0	0	0	0	0	-0	0	566.017	559.95	318.011	214.645	-0.00725772	-2.38887	0.0327791	-0.0265407	6.84878
93	-0.0189321	0.0182075	0.0289183	0.0236324	0.00151122	0.0228995	0.0257424	-0.0304869	0.00178424	-0.214268	-0.0136352	0.0783751	0.0522698	-0.00248713	0.0189404	-2.23639	0.0139021	-1.54394	0	0	0	0	-0	0	0	0	-0.1265	0	-0	0	0	0	0	0	-0	0	0.105	0.015	0	0	-0	0	0	0.098	0.1	0	-0	0	0	0	0	0	-0	0	0.05595	0	0	0	-0	0	0	0	0	0	-0	0	566.028	559.969	317.978	214.685	-0.00698278	-2.39157	0.0327542	-0.0265476	6.85936
94	-0.0248416	0.0182042	0.0289171	0.0236369	0.00151501	0.0229008	0.0257425	-0.0304893	0.00178575	-0.205826	-0.0152341	0.0690833	0.0523819	-0.00248725	0.0186297	-2.24245	0.0141551	-1.54393	0	0	0	0	-0	0	0	0	-0.1265	0	-0	0	0	0	0	0	-0	0	0.105	0.015	0	0	-0	0	0	0.098	0.1	0	-0	0	0	0	0	0	-0	0	0.05595	0	0	0	-0	0	0	0	0	0	-0	0	566.053	560.01	317.903	214.774	-0.00674686	-2.39674	0.0327319	-0.0265678	6.88323
95	-0.0195877	0.0182014	0.0289161	0.0236393	0.00151771	0.0229021	0.0257415	-0.030487	0.00178474	-0.205137	-0.0163243	0.0680365	0.0522829	-0.00248729	0.0189042	-2.23728	0.0140627	-1.54381	0	0	0	0	-0	0	0	0	-0.1265	0	-0	0	0	0	0	0	-0	0	0.105	0.015	0	0	-0	0	0	0.098	0.1	0	-0	0	0	0	0	0	-0	0	0.05595	0	0	0	-0	0	0	0	0	0	-0	0	566.064	560.031	317.866	214.818	-0.00637986	-2.40042	0.0327077	-0.0265753	6.89675
96	-0.0189243	0.0182006	0.0289158	0.0236399	0.00151832	0.0229023	0.0257415	-0.0304871	0.0017847	-0.205817	-0.0157182	0.0652942	0.0522696	-0.00248732	0.0189384	-2.23663	0.0140574	-1.54379	0	0	0	0	-0	0	0	0	-0.1265	0	-0	0	0	0	0	0	-0	0	0.105	0.015	0	0	-0	0	0	0.098	0.1	0	-0	0	0	0	0	0	-0	0	0.05595	0	0	0	-0	0	0	0	0	0	-0	0	566.067	560.036	317.856	214.83	-0.00629517	-2.40129	0.0327006	-0.0265775	6.89999
97	-0.0197952	0.0181996	0.0289155	0.023641	0.00151934	0.0229026	0.0257415	-0.030487	0.00178483	-0.204624	-0.0155123	0.0645935	0.0522862	-0.00248735	0.0188925	-2.23755	0.0141065	-1.54377	0	0	0	0	-0	0	0	0	-0.1265	0	-0	0	0	0	0	0	-0	0	0.105	0.015	0	0	-0	0	0	0.098	0.1	0	-0	0	0	0	0	0	-0	0	0.05595	0	0	0	-0	0	0	0	0	0	-0	0	566.074	560.047	317.836	214.853	-0.00620012	-2.4029	0.0326945	-0.0265827	6.9069
98	-0.0249834	0.0181981	0.0289149	0.0236428	0.00152097	0.0229033	0.0257416	-0.0304871	0.00178489	-0.204102	-0.0135383	0.0623655	0.0523844	-0.00248739	0.0186207	-2.24279	0.014285	-1.54381	0	0	0	0	-0	0	0	0	-0.1265	0	-0	0	0	0	0	0	-0	0	0.105	0.015	0	0	-0	0	0	0.098	0.1	0	-0	0	0	0	0	0	-0	0	0.05595	0	0	0	-0	0	0	0	0	0	-0	0	566.083	560.062	317.805	214.888	-0.00605563	-2.40526	0.032685	-0.0265905	6.91701
99	-0.0250901	0.0181959	0.0289141	0.0236456	0.00152341	0.0229042	0.025742	-0.0304871	0.00178581	-0.207241	-0.0062369	0.0664551	0.052386	-0.00248745	0.0186139	-2.24299	0.0143458	-1.54375	0	0	0	0	-0	0	0	0	-0.1265	0	-0	0	0	0	0	0	-0	0	0.105	0.015	0	0	-0	0	0	0.098	0.1	0	-0	0	0	0	0	0	-0	0	0.05595	0	0	0	-0	0	0	0	0	0	-0	0	566.097	560.086	317.76	214.94	-0.00582848	-2.40878	0.0326667	-0.0266018	6.93208
100	-0.0228331	0.0181923	0.0289131	0.0236496	0.00152719	0.0229056	0.0257421	-0.0304877	0.00178376	-0.19949	-0.0163131	0.0733257	0.0523444	-0.00248754	0.0187306	-2.24087	0.0143713	-1.54363	0	0	0	0	-0	0	0	0	-0.1265	0	-0	0	0	0	0	0	-0	0	0.105	0.015	0	0	-0	0	0	0.098	0.1	0	-0	0	0	0	0	0	-0	0	0.05595	0	0	0	-0	0	0	0	0	0	-0	0	566.117	560.119	317.692	215.016	-0.00547875	-2.41418	0.0326418	-0.0266183	6.95522
