Stefan210/kinematic_calibration/src/kinematic_calibration/validation/experiments/experiments/single_point_vs_pose/marker_pose/rarm_220/optimization_intermediate_results.csv
iteration	HeadPitch_offset	HeadYaw_offset	RElbowRoll_offset	RElbowYaw_offset	RShoulderPitch_offset	RShoulderRoll_offset	marker_transform_rarm_tx	marker_transform_rarm_ty	marker_transform_rarm_tz	marker_transform_rarm_rr	marker_transform_rarm_rp	marker_transform_rarm_ry	camera_transform_tx	camera_transform_ty	camera_transform_tz	camera_transform_rr	camera_transform_rp	camera_transform_ry	HeadPitch_transform_tx	HeadPitch_transform_ty	HeadPitch_transform_tz	HeadPitch_transform_rr	HeadPitch_transform_rp	HeadPitch_transform_ry	HeadYaw_transform_tx	HeadYaw_transform_ty	HeadYaw_transform_tz	HeadYaw_transform_rr	HeadYaw_transform_rp	HeadYaw_transform_ry	RElbowRoll_transform_tx	RElbowRoll_transform_ty	RElbowRoll_transform_tz	RElbowRoll_transform_rr	RElbowRoll_transform_rp	RElbowRoll_transform_ry	RElbowYaw_transform_tx	RElbowYaw_transform_ty	RElbowYaw_transform_tz	RElbowYaw_transform_rr	RElbowYaw_transform_rp	RElbowYaw_transform_ry	RShoulderPitch_transform_tx	RShoulderPitch_transform_ty	RShoulderPitch_transform_tz	RShoulderPitch_transform_rr	RShoulderPitch_transform_rp	RShoulderPitch_transform_ry	RShoulderRoll_transform_tx	RShoulderRoll_transform_ty	RShoulderRoll_transform_tz	RShoulderRoll_transform_rr	RShoulderRoll_transform_rp	RShoulderRoll_transform_ry	RWristYaw_transform_tx	RWristYaw_transform_ty	RWristYaw_transform_tz	RWristYaw_transform_rr	RWristYaw_transform_rp	RWristYaw_transform_ry	r_wrist_joint_transform_tx	r_wrist_joint_transform_ty	r_wrist_joint_transform_tz	r_wrist_joint_transform_rr	r_wrist_joint_transform_rp	r_wrist_joint_transform_ry	camera_fx	camera_fy	camera_cx	camera_cy	camera_D0	camera_D1	camera_D2	camera_D3	camera_D4	
0	0.0230449	0.0294606	-0.0013508	-0.00116347	0.000678263	0.00258603	0.05071	0	0.01774	-2.26369	1.66533e-16	-1.5708	545.901	551.038	324.928	201.58	0.0255298	2.61142	-0.0636736	-0.0350419	0.213964
1	-0.0134369	-0.0295727	-0.0118292	-0.014144	-0.01508	-0.041089	0.0254017	0.0365233	-0.00177927	-0.606232	0.268804	0.176776	0.0521768	0.00112424	0.0236006	-2.21088	0.00991621	-1.54235	0	0	0	0	-0	0	0	0	-0.1265	0	-0	0	0	0	0	0	-0	0	0.105	-0.015	0	0	-0	0	0	-0.098	0.1	0	-0	0	0	0	0	0	-0	0	0.05595	0	0	0	-0	0	0	0	0	0	-0	0	545.902	551.039	324.931	201.582	-0.0826751	2.55352	-0.0778935	-0.0687448	0.196399
2	-0.00847876	-0.0550593	-0.0333411	0.0162416	-0.0297572	-0.0367654	0.0225355	0.0295707	2.35302e-05	-0.868224	0.278127	0.0540923	0.0502073	0.00215451	0.0300572	-2.23162	0.028966	-1.53219	0	0	0	0	-0	0	0	0	-0.1265	0	-0	0	0	0	0	0	-0	0	0.105	-0.015	0	0	-0	0	0	-0.098	0.1	0	-0	0	0	0	0	0	-0	0	0.05595	0	0	0	-0	0	0	0	0	0	-0	0	545.905	551.039	324.937	201.588	-0.213373	2.40635	0.0399676	-0.026655	0.132005
3	-0.0134841	-0.0327205	-0.0294453	0.00922449	-0.0153576	-0.0447026	0.023242	0.0274986	-0.00045622	-1.06412	0.245327	0.0137712	0.0531426	0.00124736	0.0226715	-2.21015	0.0159183	-1.54857	0	0	0	0	-0	0	0	0	-0.1265	0	-0	0	0	0	0	0	-0	0	0.105	-0.015	0	0	-0	0	0	-0.098	0.1	0	-0	0	0	0	0	0	-0	0	0.05595	0	0	0	-0	0	0	0	0	0	-0	0	545.912	551.039	324.948	201.597	-0.568158	2.10972	-0.0174753	0.000912992	0.0192594
4	-0.0137957	-0.0290059	-0.0258048	0.00233114	-0.0113209	-0.0502045	0.0233627	0.0281335	-0.000305	-1.22346	0.182219	0.0750719	0.0551546	-0.000240749	0.0185265	-2.20787	0.0142993	-1.54792	0	0	0	0	-0	0	0	0	-0.1265	0	-0	0	0	0	0	0	-0	0	0.105	-0.015	0	0	-0	0	0	-0.098	0.1	0	-0	0	0	0	0	0	-0	0	0.05595	0	0	0	-0	0	0	0	0	0	-0	0	545.919	551.039	324.958	201.607	-0.813978	1.7213	0.0325833	0.0271235	-0.169291
5	-0.0146829	-0.0191809	-0.0142594	-0.00362859	-0.00570747	-0.0535929	0.0229213	0.0295516	0.000302108	-1.46397	0.130484	0.196124	0.0559934	-0.0021088	0.0155057	-2.20365	0.0116335	-1.54848	0	0	0	0	-0	0	0	0	-0.1265	0	-0	0	0	0	0	0	-0	0	0.105	-0.015	0	0	-0	0	0	-0.098	0.1	0	-0	0	0	0	0	0	-0	0	0.05595	0	0	0	-0	0	0	0	0	0	-0	0	545.934	551.035	324.967	201.616	-0.697951	1.24022	0.0213893	0.0214309	-0.463939
6	-0.0143354	-0.0200318	0.00111296	-0.00396539	-0.0123326	-0.045079	0.0220433	0.0293838	0.000205762	-1.69134	0.138418	0.25619	0.0543034	-0.00295644	0.0171185	-2.20545	0.0144108	-1.5401	0	0	0	0	-0	0	0	0	-0.1265	0	-0	0	0	0	0	0	-0	0	0.105	-0.015	0	0	-0	0	0	-0.098	0.1	0	-0	0	0	0	0	0	-0	0	0.05595	0	0	0	-0	0	0	0	0	0	-0	0	545.952	551.026	324.971	201.619	-0.362569	0.877193	0.00780853	0.00216096	-0.726226
7	-0.0142548	-0.0204492	0.00514409	-5.94189e-05	-0.014601	-0.0418678	0.0217584	0.0286147	-0.000428802	-1.70515	0.150662	0.231023	0.053423	-0.00323953	0.0179644	-2.2059	0.0160598	-1.5373	0	0	0	0	-0	0	0	0	-0.1265	0	-0	0	0	0	0	0	-0	0	0.105	-0.015	0	0	-0	0	0	-0.098	0.1	0	-0	0	0	0	0	0	-0	0	0.05595	0	0	0	-0	0	0	0	0	0	-0	0	545.982	551.01	324.974	201.62	-0.169192	0.621018	0.000335769	-0.00881727	-0.863237
8	-0.0142379	-0.0202705	0.00546651	0.000525311	-0.0145581	-0.0418764	0.0217595	0.028585	-0.000465823	-1.70659	0.151742	0.227449	0.0530879	-0.00323239	0.018327	-2.20604	0.0157757	-1.53751	0	0	0	0	-0	0	0	0	-0.1265	0	-0	0	0	0	0	0	-0	0	0.105	-0.015	0	0	-0	0	0	-0.098	0.1	0	-0	0	0	0	0	0	-0	0	0.05595	0	0	0	-0	0	0	0	0	0	-0	0	546.062	550.964	324.986	201.621	-0.0917833	0.466564	-0.00390881	-0.0116511	-0.810823
9	-0.0140422	-0.0201842	0.00555065	0.000547668	-0.0145548	-0.0419059	0.0217562	0.0285775	-0.000466355	-1.70635	0.151851	0.226469	0.052896	-0.00321585	0.0185402	-2.20609	0.0155176	-1.53782	0	0	0	0	-0	0	0	0	-0.1265	0	-0	0	0	0	0	0	-0	0	0.105	-0.015	0	0	-0	0	0	-0.098	0.1	0	-0	0	0	0	0	0	-0	0	0.05595	0	0	0	-0	0	0	0	0	0	-0	0	546.284	550.835	325.021	201.624	-0.0494162	0.284731	-0.00459898	-0.0122492	-0.567163
10	-0.0140284	-0.0200632	0.00564289	0.000506236	-0.0145455	-0.0419387	0.0217496	0.0285717	-0.000465843	-1.70556	0.151835	0.225775	0.052647	-0.00319245	0.0187974	-2.20639	0.0151138	-1.53838	0	0	0	0	-0	0	0	0	-0.1265	0	-0	0	0	0	0	0	-0	0	0.105	-0.015	0	0	-0	0	0	-0.098	0.1	0	-0	0	0	0	0	0	-0	0	0.05595	0	0	0	-0	0	0	0	0	0	-0	0	546.856	550.501	325.104	201.631	-0.000333672	0.0307556	-0.00439882	-0.0127133	-0.18794
11	-0.0139816	-0.019954	0.00572118	0.00049145	-0.0145448	-0.0418505	0.0217351	0.0285686	-0.00047116	-1.7042	0.151754	0.225687	0.052385	-0.00316176	0.0190493	-2.20655	0.0145841	-1.53911	0	0	0	0	-0	0	0	0	-0.1265	0	-0	0	0	0	0	0	-0	0	0.105	-0.015	0	0	-0	0	0	-0.098	0.1	0	-0	0	0	0	0	0	-0	0	0.05595	0	0	0	-0	0	0	0	0	0	-0	0	548.102	549.817	325.282	201.671	0.0283708	-0.144533	-0.00272792	-0.0131883	0.0881789
12	-0.0174901	-0.0198825	0.00576803	0.000522213	-0.0145437	-0.0416217	0.0217143	0.0285694	-0.000483229	-1.70248	0.151625	0.2264	0.0522387	-0.00313005	0.019043	-2.21036	0.0140734	-1.54003	0	0	0	0	-0	0	0	0	-0.1265	0	-0	0	0	0	0	0	-0	0	0.105	-0.015	0	0	-0	0	0	-0.098	0.1	0	-0	0	0	0	0	0	-0	0	0.05595	0	0	0	-0	0	0	0	0	0	-0	0	550.078	549.087	325.595	201.882	0.017752	-0.140515	0.000459642	-0.0135212	0.105412
13	-0.0131429	-0.0198394	0.00579616	0.000548373	-0.0145334	-0.0414298	0.0216991	0.0285699	-0.000491747	-1.70127	0.151539	0.22698	0.0519663	-0.00309887	0.0194445	-2.20759	0.0131313	-1.54108	0	0	0	0	-0	0	0	0	-0.1265	0	-0	0	0	0	0	0	-0	0	0.105	-0.015	0	0	-0	0	0	-0.098	0.1	0	-0	0	0	0	0	0	-0	0	0.05595	0	0	0	-0	0	0	0	0	0	-0	0	552.295	549.585	326.108	202.644	-0.00492097	-0.0637844	0.00296423	-0.0135319	0.00944697
14	0.0136311	-0.0198449	0.00582018	0.000544482	-0.0145406	-0.0413317	0.021693	0.0285662	-0.000491924	-1.70099	0.151538	0.226729	0.0511988	-0.00305961	0.021111	-2.18553	0.0107254	-1.5429	0	0	0	0	-0	0	0	0	-0.1265	0	-0	0	0	0	0	0	-0	0	0.105	-0.015	0	0	-0	0	0	-0.098	0.1	0	-0	0	0	0	0	0	-0	0	0.05595	0	0	0	-0	0	0	0	0	0	-0	0	555.089	552.493	327.339	204.742	-0.0254313	0.0271742	0.00393754	-0.0129943	-0.116178
15	0.0169935	-0.0198944	0.00583721	0.000521628	-0.0145765	-0.0412613	0.02169	0.0285608	-0.000489005	-1.70111	0.151532	0.226182	0.0508727	-0.00302459	0.0215265	-2.18782	0.00861497	-1.54563	0	0	0	0	-0	0	0	0	-0.1265	0	-0	0	0	0	0	0	-0	0	0.105	-0.015	0	0	-0	0	0	-0.098	0.1	0	-0	0	0	0	0	0	-0	0	0.05595	0	0	0	-0	0	0	0	0	0	-0	0	557.607	555.696	329.048	207.358	-0.0423598	0.116976	0.00444879	-0.0121951	-0.253005
16	-0.00758183	-0.0200492	0.00584742	0.000451426	-0.0146887	-0.0411501	0.0216853	0.0285543	-0.000482409	-1.70127	0.15146	0.225562	0.0511185	-0.00298412	0.0205956	-2.2217	0.00466633	-1.55152	0	0	0	0	-0	0	0	0	-0.1265	0	-0	0	0	0	0	0	-0	0	0.105	-0.015	0	0	-0	0	0	-0.098	0.1	0	-0	0	0	0	0	0	-0	0	0.05595	0	0	0	-0	0	0	0	0	0	-0	0	560.742	559.945	332.958	211.879	-0.0642881	0.249179	0.00539371	-0.0104286	-0.473451
17	-0.012704	-0.0200583	0.00584044	0.00042461	-0.0146992	-0.0411385	0.0216857	0.0285532	-0.000480844	-1.70133	0.151394	0.225488	0.0512008	-0.00297854	0.0203527	-2.22715	0.00452063	-1.55173	0	0	0	0	-0	0	0	0	-0.1265	0	-0	0	0	0	0	0	-0	0	0.105	-0.015	0	0	-0	0	0	-0.098	0.1	0	-0	0	0	0	0	0	-0	0	0.05595	0	0	0	-0	0	0	0	0	0	-0	0	560.868	560.083	333.118	212.062	-0.0668318	0.265975	0.00563296	-0.010191	-0.512856
18	0.00129592	-0.0200804	0.00583942	0.000416361	-0.0147152	-0.0411224	0.021685	0.0285527	-0.000480204	-1.70134	0.151379	0.225449	0.0508878	-0.00297453	0.0211024	-2.21433	0.003634	-1.55241	0	0	0	0	-0	0	0	0	-0.1265	0	-0	0	0	0	0	0	-0	0	0.105	-0.015	0	0	-0	0	0	-0.098	0.1	0	-0	0	0	0	0	0	-0	0	0.05595	0	0	0	-0	0	0	0	0	0	-0	0	561.211	560.534	333.651	212.658	-0.0700463	0.286797	0.00581166	-0.00994637	-0.550836
19	0.0177667	-0.0201128	0.00583803	0.000401926	-0.0147387	-0.0411034	0.0216842	0.0285521	-0.000479065	-1.70136	0.151357	0.225398	0.0505007	-0.00296967	0.0219786	-2.19938	0.00248232	-1.5534	0	0	0	0	-0	0	0	0	-0.1265	0	-0	0	0	0	0	0	-0	0	0.105	-0.015	0	0	-0	0	0	-0.098	0.1	0	-0	0	0	0	0	0	-0	0	0.05595	0	0	0	-0	0	0	0	0	0	-0	0	561.609	561.084	334.401	213.426	-0.0733248	0.309115	0.00603499	-0.00959089	-0.593107
20	0.0143255	-0.0201563	0.00583507	0.000381914	-0.0147709	-0.0410804	0.0216832	0.0285514	-0.000477565	-1.70137	0.151324	0.225355	0.0505316	-0.00296464	0.0218444	-2.20462	0.00139722	-1.55482	0	0	0	0	-0	0	0	0	-0.1265	0	-0	0	0	0	0	0	-0	0	0.105	-0.015	0	0	-0	0	0	-0.098	0.1	0	-0	0	0	0	0	0	-0	0	0.05595	0	0	0	-0	0	0	0	0	0	-0	0	562.038	561.699	335.422	214.349	-0.077093	0.335626	0.00631465	-0.0091	-0.644861
21	0.00475724	-0.0201962	0.00583088	0.000360824	-0.014801	-0.041061	0.0216824	0.0285511	-0.000476103	-1.70137	0.151287	0.225344	0.0507142	-0.00296095	0.0213921	-2.21562	0.000486961	-1.55609	0	0	0	0	-0	0	0	0	-0.1265	0	-0	0	0	0	0	0	-0	0	0.105	-0.015	0	0	-0	0	0	-0.098	0.1	0	-0	0	0	0	0	0	-0	0	0.05595	0	0	0	-0	0	0	0	0	0	-0	0	562.346	562.154	336.352	215.092	-0.0801621	0.357192	0.00657407	-0.00863284	-0.688369
22	0.0169815	-0.020213	0.00582797	0.000350416	-0.0148144	-0.0410525	0.0216821	0.028551	-0.00047546	-1.70137	0.151266	0.225353	0.0504414	-0.00295931	0.0220227	-2.20395	-0.000119185	-1.55659	0	0	0	0	-0	0	0	0	-0.1265	0	-0	0	0	0	0	0	-0	0	0.105	-0.015	0	0	-0	0	0	-0.098	0.1	0	-0	0	0	0	0	0	-0	0	0.05595	0	0	0	-0	0	0	0	0	0	-0	0	562.456	562.312	336.722	215.375	-0.0813893	0.364663	0.00671171	-0.00842685	-0.703687
23	0.0219986	-0.0202412	0.00582515	0.000338504	-0.0148356	-0.0410399	0.0216815	0.0285509	-0.000474632	-1.70137	0.151245	0.225357	0.0503127	-0.00295778	0.0222911	-2.19985	-0.000978763	-1.55753	0	0	0	0	-0	0	0	0	-0.1265	0	-0	0	0	0	0	0	-0	0	0.105	-0.015	0	0	-0	0	0	-0.098	0.1	0	-0	0	0	0	0	0	-0	0	0.05595	0	0	0	-0	0	0	0	0	0	-0	0	562.628	562.585	337.423	215.855	-0.0832796	0.379062	0.00686762	-0.00808609	-0.733604
24	0.0126998	-0.0202677	0.0058217	0.00032506	-0.0148562	-0.0410287	0.0216811	0.0285509	-0.000473763	-1.70137	0.15122	0.225374	0.050508	-0.0029564	0.0218366	-2.20991	-0.00158517	-1.55838	0	0	0	0	-0	0	0	0	-0.1265	0	-0	0	0	0	0	0	-0	0	0.105	-0.015	0	0	-0	0	0	-0.098	0.1	0	-0	0	0	0	0	0	-0	0	0.05595	0	0	0	-0	0	0	0	0	0	-0	0	562.764	562.803	338.069	216.256	-0.0849535	0.391086	0.0070238	-0.0077562	-0.758943
25	0.0183869	-0.0202793	0.00581951	0.000318258	-0.0148656	-0.0410237	0.0216808	0.0285509	-0.000473371	-1.70136	0.151206	0.22539	0.0503777	-0.00295569	0.0221281	-2.20452	-0.00195182	-1.55873	0	0	0	0	-0	0	0	0	-0.1265	0	-0	0	0	0	0	0	-0	0	0.105	-0.015	0	0	-0	0	0	-0.098	0.1	0	-0	0	0	0	0	0	-0	0	0.05595	0	0	0	-0	0	0	0	0	0	-0	0	562.814	562.879	338.326	216.412	-0.0856417	0.395054	0.00711176	-0.00761175	-0.767278
26	0.0124546	-0.0203132	0.00581589	0.000304284	-0.0148918	-0.0410106	0.0216803	0.028551	-0.000472434	-1.70135	0.151182	0.225414	0.0504972	-0.00295504	0.0218427	-2.21133	-0.00292619	-1.55992	0	0	0	0	-0	0	0	0	-0.1265	0	-0	0	0	0	0	0	-0	0	0.105	-0.015	0	0	-0	0	0	-0.098	0.1	0	-0	0	0	0	0	0	-0	0	0.05595	0	0	0	-0	0	0	0	0	0	-0	0	562.952	563.131	339.242	216.872	-0.0876199	0.411218	0.00725359	-0.00716405	-0.8022
27	0.0037823	-0.0203443	0.00581124	0.000289171	-0.0149167	-0.040999	0.0216798	0.0285512	-0.000471528	-1.70134	0.151154	0.225454	0.050678	-0.00295432	0.0214148	-2.22067	-0.00375331	-1.56092	0	0	0	0	-0	0	0	0	-0.1265	0	-0	0	0	0	0	0	-0	0	0.105	-0.015	0	0	-0	0	0	-0.098	0.1	0	-0	0	0	0	0	0	-0	0	0.05595	0	0	0	-0	0	0	0	0	0	-0	0	563.052	563.315	340.037	217.225	-0.0893487	0.42348	0.00741071	-0.00674863	-0.828823
28	-0.00727796	-0.0203798	0.0058061	0.000273101	-0.0149455	-0.0409865	0.0216793	0.0285515	-0.000470571	-1.70133	0.151124	0.225505	0.0509062	-0.00295405	0.0208632	-2.2324	-0.00478585	-1.56212	0	0	0	0	-0	0	0	0	-0.1265	0	-0	0	0	0	0	0	-0	0	0.105	-0.015	0	0	-0	0	0	-0.098	0.1	0	-0	0	0	0	0	0	-0	0	0.05595	0	0	0	-0	0	0	0	0	0	-0	0	563.144	563.506	341.007	217.582	-0.0912657	0.437807	0.00755871	-0.00624842	-0.860351
29	-0.0126298	-0.0203897	0.00580343	0.000266444	-0.0149542	-0.0409832	0.0216791	0.0285517	-0.000470261	-1.70133	0.151109	0.225537	0.0510133	-0.00295351	0.0205921	-2.2379	-0.00497356	-1.56233	0	0	0	0	-0	0	0	0	-0.1265	0	-0	0	0	0	0	0	-0	0	0.105	-0.015	0	0	-0	0	0	-0.098	0.1	0	-0	0	0	0	0	0	-0	0	0.05595	0	0	0	-0	0	0	0	0	0	-0	0	563.166	563.536	341.2	217.661	-0.0917473	0.438921	0.00765051	-0.00612334	-0.862344
30	-0.0106362	-0.0204124	0.00580049	0.000256773	-0.0149725	-0.0409756	0.0216788	0.0285519	-0.000469667	-1.70131	0.151092	0.225571	0.0509687	-0.00295382	0.020698	-2.23631	-0.00578281	-1.56318	0	0	0	0	-0	0	0	0	-0.1265	0	-0	0	0	0	0	0	-0	0	0.105	-0.015	0	0	-0	0	0	-0.098	0.1	0	-0	0	0	0	0	0	-0	0	0.05595	0	0	0	-0	0	0	0	0	0	-0	0	563.21	563.644	341.867	217.878	-0.0928721	0.448505	0.00772368	-0.00578866	-0.884145
31	-0.0133309	-0.0204158	0.00579879	0.000253697	-0.0149758	-0.040975	0.0216787	0.028552	-0.000469546	-1.70131	0.151084	0.225589	0.0510243	-0.00295347	0.0205612	-2.23903	-0.00579279	-1.5632	0	0	0	0	-0	0	0	0	-0.1265	0	-0	0	0	0	0	0	-0	0	0.105	-0.015	0	0	-0	0	0	-0.098	0.1	0	-0	0	0	0	0	0	-0	0	0.05595	0	0	0	-0	0	0	0	0	0	-0	0	563.215	563.646	341.894	217.888	-0.0930865	0.448061	0.00777028	-0.00575434	-0.882497
32	-0.00795792	-0.0204176	0.00579867	0.00025274	-0.0149773	-0.0409741	0.0216786	0.028552	-0.000469496	-1.70131	0.151082	0.225594	0.050913	-0.00295343	0.0208359	-2.2337	-0.00590091	-1.5633	0	0	0	0	-0	0	0	0	-0.1265	0	-0	0	0	0	0	0	-0	0	0.105	-0.015	0	0	-0	0	0	-0.098	0.1	0	-0	0	0	0	0	0	-0	0	0.05595	0	0	0	-0	0	0	0	0	0	-0	0	563.221	563.654	341.951	217.91	-0.0931421	0.448472	0.00778293	-0.00572566	-0.883538
33	-0.00184413	-0.0204205	0.00579826	0.000251404	-0.0149797	-0.0409729	0.0216786	0.0285521	-0.000469423	-1.70131	0.15108	0.2256	0.0507845	-0.00295344	0.0211475	-2.22764	-0.00604355	-1.56345	0	0	0	0	-0	0	0	0	-0.1265	0	-0	0	0	0	0	0	-0	0	0.105	-0.015	0	0	-0	0	0	-0.098	0.1	0	-0	0	0	0	0	0	-0	0	0.05595	0	0	0	-0	0	0	0	0	0	-0	0	563.227	563.666	342.033	217.94	-0.0932753	0.449486	0.0077983	-0.00568341	-0.885876
34	-0.00108882	-0.0204249	0.00579764	0.000249483	-0.0149832	-0.0409716	0.0216785	0.0285521	-0.000469309	-1.70131	0.151076	0.225607	0.0507673	-0.00295353	0.021186	-2.22696	-0.00618839	-1.5636	0	0	0	0	-0	0	0	0	-0.1265	0	-0	0	0	0	0	0	-0	0	0.105	-0.015	0	0	-0	0	0	-0.098	0.1	0	-0	0	0	0	0	0	-0	0	0.05595	0	0	0	-0	0	0	0	0	0	-0	0	563.232	563.682	342.153	217.982	-0.0934422	0.450892	0.00781585	-0.00562224	-0.889197
35	0.00262422	-0.0204292	0.00579692	0.000247371	-0.0149868	-0.0409701	0.0216785	0.0285522	-0.00046919	-1.7013	0.151072	0.225615	0.0506882	-0.00295355	0.0213752	-2.22332	-0.00634968	-1.56377	0	0	0	0	-0	0	0	0	-0.1265	0	-0	0	0	0	0	0	-0	0	0.105	-0.015	0	0	-0	0	0	-0.098	0.1	0	-0	0	0	0	0	0	-0	0	0.05595	0	0	0	-0	0	0	0	0	0	-0	0	563.24	563.7	342.268	218.022	-0.0936734	0.452547	0.00783616	-0.00556158	-0.892887
36	0.00301761	-0.0204439	0.0057951	0.000241446	-0.0149987	-0.0409654	0.0216783	0.0285523	-0.000468829	-1.70129	0.151062	0.225637	0.0506779	-0.00295381	0.0213976	-2.22316	-0.00686725	-1.56433	0	0	0	0	-0	0	0	0	-0.1265	0	-0	0	0	0	0	0	-0	0	0.105	-0.015	0	0	-0	0	0	-0.098	0.1	0	-0	0	0	0	0	0	-0	0	0.05595	0	0	0	-0	0	0	0	0	0	-0	0	563.266	563.767	342.707	218.144	-0.0944135	0.45888	0.00787517	-0.00534008	-0.907342
37	0.00146553	-0.0204463	0.00579398	0.000239469	-0.015001	-0.040965	0.0216782	0.0285524	-0.000468754	-1.7013	0.151057	0.225649	0.0507111	-0.00295359	0.0213192	-2.22472	-0.00687723	-1.56435	0	0	0	0	-0	0	0	0	-0.1265	0	-0	0	0	0	0	0	-0	0	0.105	-0.015	0	0	-0	0	0	-0.098	0.1	0	-0	0	0	0	0	0	-0	0	0.05595	0	0	0	-0	0	0	0	0	0	-0	0	563.268	563.768	342.725	218.15	-0.0945573	0.458572	0.00790576	-0.00531791	-0.906162
38	0.00541616	-0.0204472	0.00579394	0.000238917	-0.0150018	-0.0409645	0.0216782	0.0285524	-0.000468729	-1.70129	0.151056	0.225652	0.0506264	-0.00295356	0.02152	-2.22079	-0.00693911	-1.56441	0	0	0	0	-0	0	0	0	-0.1265	0	-0	0	0	0	0	0	-0	0	0.105	-0.015	0	0	-0	0	0	-0.098	0.1	0	-0	0	0	0	0	0	-0	0	0.05595	0	0	0	-0	0	0	0	0	0	-0	0	563.271	563.771	342.756	218.161	-0.094575	0.458656	0.00791379	-0.00530205	-0.906432
39	0.0033729	-0.0204477	0.00579383	0.000238585	-0.0150023	-0.0409643	0.0216782	0.0285524	-0.000468712	-1.70129	0.151055	0.225653	0.0506699	-0.00295355	0.0214165	-2.22284	-0.00694398	-1.56442	0	0	0	0	-0	0	0	0	-0.1265	0	-0	0	0	0	0	0	-0	0	0.105	-0.015	0	0	-0	0	0	-0.098	0.1	0	-0	0	0	0	0	0	-0	0	0.05595	0	0	0	-0	0	0	0	0	0	-0	0	563.272	563.773	342.772	218.166	-0.0945879	0.458704	0.00791758	-0.00529353	-0.906566
40	0.00253793	-0.0204491	0.00579365	0.000237998	-0.0150034	-0.0409638	0.0216782	0.0285524	-0.000468679	-1.70129	0.151054	0.225656	0.0506875	-0.00295357	0.0213744	-2.2237	-0.00698327	-1.56446	0	0	0	0	-0	0	0	0	-0.1265	0	-0	0	0	0	0	0	-0	0	0.105	-0.015	0	0	-0	0	0	-0.098	0.1	0	-0	0	0	0	0	0	-0	0	0.05595	0	0	0	-0	0	0	0	0	0	-0	0	563.275	563.778	342.81	218.178	-0.0946571	0.459257	0.00792323	-0.00527416	-0.907829
41	0.000280927	-0.0204513	0.00579336	0.000237002	-0.0150052	-0.0409631	0.0216781	0.0285525	-0.000468621	-1.70129	0.151052	0.22566	0.0507355	-0.00295359	0.0212603	-2.22599	-0.00704319	-1.56453	0	0	0	0	-0	0	0	0	-0.1265	0	-0	0	0	0	0	0	-0	0	0.105	-0.015	0	0	-0	0	0	-0.098	0.1	0	-0	0	0	0	0	0	-0	0	0.05595	0	0	0	-0	0	0	0	0	0	-0	0	563.279	563.788	342.873	218.198	-0.094758	0.460072	0.00793197	-0.00524162	-0.909717
42	0.00542662	-0.0204529	0.00579306	0.000236191	-0.0150065	-0.0409627	0.0216781	0.0285525	-0.000468576	-1.70129	0.151051	0.225663	0.0506258	-0.0029536	0.0215216	-2.22087	-0.00712403	-1.56462	0	0	0	0	-0	0	0	0	-0.1265	0	-0	0	0	0	0	0	-0	0	0.105	-0.015	0	0	-0	0	0	-0.098	0.1	0	-0	0	0	0	0	0	-0	0	0.05595	0	0	0	-0	0	0	0	0	0	-0	0	563.281	563.794	342.915	218.212	-0.0948254	0.460509	0.00793956	-0.00521908	-0.910709
43	0.0021339	-0.020456	0.00579264	0.000234958	-0.0150091	-0.0409616	0.0216781	0.0285525	-0.000468505	-1.70129	0.151049	0.225668	0.0506958	-0.00295366	0.021355	-2.22422	-0.00720866	-1.56471	0	0	0	0	-0	0	0	0	-0.1265	0	-0	0	0	0	0	0	-0	0	0.105	-0.015	0	0	-0	0	0	-0.098	0.1	0	-0	0	0	0	0	0	-0	0	0.05595	0	0	0	-0	0	0	0	0	0	-0	0	563.286	563.806	343.005	218.239	-0.0949963	0.461882	0.00795091	-0.00517317	-0.913818
44	0.000152995	-0.020457	0.00579236	0.000234321	-0.0150099	-0.0409614	0.0216781	0.0285525	-0.000468476	-1.70129	0.151047	0.225671	0.0507377	-0.00295362	0.0212547	-2.22621	-0.00721769	-1.56471	0	0	0	0	-0	0	0	0	-0.1265	0	-0	0	0	0	0	0	-0	0	0.105	-0.015	0	0	-0	0	0	-0.098	0.1	0	-0	0	0	0	0	0	-0	0	0.05595	0	0	0	-0	0	0	0	0	0	-0	0	563.288	563.808	343.023	218.245	-0.0950372	0.461941	0.0079587	-0.00516152	-0.91389
45	-0.00167042	-0.0204574	0.00579228	0.00023407	-0.0150103	-0.0409612	0.0216781	0.0285526	-0.000468462	-1.70129	0.151047	0.225673	0.0507763	-0.00295362	0.0211622	-2.22804	-0.00722101	-1.56472	0	0	0	0	-0	0	0	0	-0.1265	0	-0	0	0	0	0	0	-0	0	0.105	-0.015	0	0	-0	0	0	-0.098	0.1	0	-0	0	0	0	0	0	-0	0	0.05595	0	0	0	-0	0	0	0	0	0	-0	0	563.288	563.81	343.035	218.248	-0.0950571	0.462065	0.00796123	-0.00515484	-0.914174
46	0.000516134	-0.0204584	0.00579218	0.000233626	-0.0150111	-0.0409609	0.021678	0.0285526	-0.000468436	-1.70129	0.151046	0.225674	0.0507299	-0.00295364	0.0212734	-2.22587	-0.00726629	-1.56477	0	0	0	0	-0	0	0	0	-0.1265	0	-0	0	0	0	0	0	-0	0	0.105	-0.015	0	0	-0	0	0	-0.098	0.1	0	-0	0	0	0	0	0	-0	0	0.05595	0	0	0	-0	0	0	0	0	0	-0	0	563.289	563.813	343.062	218.257	-0.0950754	0.462264	0.00796443	-0.00514104	-0.914703
47	-0.00190992	-0.0204598	0.00579196	0.000233006	-0.0150122	-0.0409605	0.021678	0.0285526	-0.000468399	-1.70129	0.151045	0.225677	0.0507813	-0.00295368	0.0211503	-2.22832	-0.00729861	-1.5648	0	0	0	0	-0	0	0	0	-0.1265	0	-0	0	0	0	0	0	-0	0	0.105	-0.015	0	0	-0	0	0	-0.098	0.1	0	-0	0	0	0	0	0	-0	0	0.05595	0	0	0	-0	0	0	0	0	0	-0	0	563.29	563.818	343.102	218.269	-0.0951271	0.462707	0.00796954	-0.00512039	-0.915765
48	0.00169254	-0.0204618	0.00579168	0.000232074	-0.0150139	-0.0409598	0.021678	0.0285526	-0.000468347	-1.70128	0.151043	0.22568	0.0507048	-0.0029537	0.0213335	-2.22474	-0.00738894	-1.5649	0	0	0	0	-0	0	0	0	-0.1265	0	-0	0	0	0	0	0	-0	0	0.105	-0.015	0	0	-0	0	0	-0.098	0.1	0	-0	0	0	0	0	0	-0	0	0.05595	0	0	0	-0	0	0	0	0	0	-0	0	563.294	563.826	343.161	218.286	-0.0952315	0.463503	0.00797781	-0.00509012	-0.917577
49	-0.00124513	-0.020463	0.00579142	0.000231538	-0.0150149	-0.0409594	0.021678	0.0285526	-0.000468323	-1.70128	0.151042	0.225684	0.0507672	-0.0029537	0.0211845	-2.2277	-0.00740526	-1.56492	0	0	0	0	-0	0	0	0	-0.1265	0	-0	0	0	0	0	0	-0	0	0.105	-0.015	0	0	-0	0	0	-0.098	0.1	0	-0	0	0	0	0	0	-0	0	0.05595	0	0	0	-0	0	0	0	0	0	-0	0	563.295	563.829	343.19	218.295	-0.0953044	0.463914	0.00798506	-0.00507399	-0.918443
50	0.00128196	-0.0204639	0.00579126	0.000231124	-0.0150156	-0.0409592	0.021678	0.0285526	-0.0004683	-1.70128	0.151041	0.225686	0.0507134	-0.00295371	0.0213128	-2.22518	-0.0074454	-1.56496	0	0	0	0	-0	0	0	0	-0.1265	0	-0	0	0	0	0	0	-0	0	0.105	-0.015	0	0	-0	0	0	-0.098	0.1	0	-0	0	0	0	0	0	-0	0	0.05595	0	0	0	-0	0	0	0	0	0	-0	0	563.296	563.832	343.211	218.301	-0.095347	0.46419	0.00798897	-0.00506236	-0.919053
51	0.0047915	-0.0204654	0.00579106	0.000230417	-0.0150169	-0.0409587	0.0216779	0.0285527	-0.000468259	-1.70128	0.15104	0.225688	0.0506382	-0.00295373	0.021491	-2.2217	-0.0075212	-1.56505	0	0	0	0	-0	0	0	0	-0.1265	0	-0	0	0	0	0	0	-0	0	0.105	-0.015	0	0	-0	0	0	-0.098	0.1	0	-0	0	0	0	0	0	-0	0	0.05595	0	0	0	-0	0	0	0	0	0	-0	0	563.299	563.838	343.259	218.314	-0.0954127	0.464755	0.00799431	-0.00503824	-0.920389
52	0.00612489	-0.0204659	0.00579091	0.000230193	-0.0150173	-0.0409586	0.0216779	0.0285527	-0.00046825	-1.70128	0.151039	0.22569	0.0506093	-0.00295372	0.0215584	-2.22037	-0.0075362	-1.56507	0	0	0	0	-0	0	0	0	-0.1265	0	-0	0	0	0	0	0	-0	0	0.105	-0.015	0	0	-0	0	0	-0.098	0.1	0	-0	0	0	0	0	0	-0	0	0.05595	0	0	0	-0	0	0	0	0	0	-0	0	563.299	563.839	343.265	218.316	-0.09544	0.46482	0.00799777	-0.00503358	-0.920473
53	0.00796947	-0.0204663	0.00579088	0.000229942	-0.0150177	-0.0409585	0.0216779	0.0285527	-0.000468235	-1.70128	0.151039	0.225691	0.0505693	-0.00295371	0.0216519	-2.21853	-0.00756226	-1.5651	0	0	0	0	-0	0	0	0	-0.1265	0	-0	0	0	0	0	0	-0	0	0.105	-0.015	0	0	-0	0	0	-0.098	0.1	0	-0	0	0	0	0	0	-0	0	0.05595	0	0	0	-0	0	0	0	0	0	-0	0	563.3	563.841	343.278	218.32	-0.095447	0.464891	0.0079994	-0.0050268	-0.92067
54	0.00715198	-0.020467	0.00579078	0.000229631	-0.0150182	-0.0409582	0.0216779	0.0285527	-0.000468218	-1.70128	0.151038	0.225692	0.0505869	-0.00295372	0.0216107	-2.21936	-0.00758047	-1.56512	0	0	0	0	-0	0	0	0	-0.1265	0	-0	0	0	0	0	0	-0	0	0.105	-0.015	0	0	-0	0	0	-0.098	0.1	0	-0	0	0	0	0	0	-0	0	0.05595	0	0	0	-0	0	0	0	0	0	-0	0	563.302	563.844	343.298	218.326	-0.0954855	0.465176	0.0080023	-0.00501662	-0.921309
55	0.0105828	-0.020468	0.00579065	0.000229152	-0.0150191	-0.0409579	0.0216779	0.0285527	-0.00046819	-1.70128	0.151037	0.225694	0.0505126	-0.00295374	0.0217844	-2.21594	-0.00763368	-1.56518	0	0	0	0	-0	0	0	0	-0.1265	0	-0	0	0	0	0	0	-0	0	0.105	-0.015	0	0	-0	0	0	-0.098	0.1	0	-0	0	0	0	0	0	-0	0	0.05595	0	0	0	-0	0	0	0	0	0	-0	0	563.303	563.848	343.327	218.334	-0.0955222	0.465486	0.00800589	-0.00500165	-0.922055
56	0.00945974	-0.0204695	0.00579042	0.000228547	-0.0150203	-0.0409575	0.0216779	0.0285527	-0.000468156	-1.70128	0.151036	0.225696	0.0505367	-0.00295377	0.0217277	-2.21709	-0.00767672	-1.56523	0	0	0	0	-0	0	0	0	-0.1265	0	-0	0	0	0	0	0	-0	0	0.105	-0.015	0	0	-0	0	0	-0.098	0.1	0	-0	0	0	0	0	0	-0	0	0.05595	0	0	0	-0	0	0	0	0	0	-0	0	563.305	563.853	343.37	218.346	-0.0955925	0.466038	0.00801124	-0.00497964	-0.923324
57	0.0077229	-0.0204699	0.00579029	0.000228268	-0.0150207	-0.0409574	0.0216779	0.0285527	-0.000468143	-1.70128	0.151036	0.225698	0.0505744	-0.00295375	0.0216399	-2.21883	-0.00767493	-1.56522	0	0	0	0	-0	0	0	0	-0.1265	0	-0	0	0	0	0	0	-0	0	0.105	-0.015	0	0	-0	0	0	-0.098	0.1	0	-0	0	0	0	0	0	-0	0	0.05595	0	0	0	-0	0	0	0	0	0	-0	0	563.306	563.854	343.376	218.348	-0.09562	0.466112	0.00801464	-0.00497491	-0.923429
58	0.00707377	-0.0204704	0.00579021	0.000228094	-0.015021	-0.0409572	0.0216779	0.0285527	-0.000468134	-1.70128	0.151035	0.225699	0.0505883	-0.00295376	0.0216071	-2.21948	-0.00768754	-1.56523	0	0	0	0	-0	0	0	0	-0.1265	0	-0	0	0	0	0	0	-0	0	0.105	-0.015	0	0	-0	0	0	-0.098	0.1	0	-0	0	0	0	0	0	-0	0	0.05595	0	0	0	-0	0	0	0	0	0	-0	0	563.306	563.856	343.39	218.352	-0.0956514	0.466356	0.00801646	-0.00496779	-0.923977
59	0.00795468	-0.0204711	0.00579012	0.000227748	-0.0150216	-0.040957	0.0216779	0.0285527	-0.000468115	-1.70128	0.151035	0.2257	0.0505692	-0.00295377	0.0216518	-2.21861	-0.00771649	-1.56527	0	0	0	0	-0	0	0	0	-0.1265	0	-0	0	0	0	0	0	-0	0	0.105	-0.015	0	0	-0	0	0	-0.098	0.1	0	-0	0	0	0	0	0	-0	0	0.05595	0	0	0	-0	0	0	0	0	0	-0	0	563.308	563.858	343.411	218.358	-0.0956894	0.466639	0.0080194	-0.00495708	-0.924612
60	0.00532742	-0.0204721	0.00578996	0.000227293	-0.0150225	-0.0409566	0.0216778	0.0285527	-0.00046809	-1.70128	0.151034	0.225702	0.050626	-0.00295378	0.0215191	-2.22126	-0.00773741	-1.56528	0	0	0	0	-0	0	0	0	-0.1265	0	-0	0	0	0	0	0	-0	0	0.105	-0.015	0	0	-0	0	0	-0.098	0.1	0	-0	0	0	0	0	0	-0	0	0.05595	0	0	0	-0	0	0	0	0	0	-0	0	563.309	563.862	343.441	218.366	-0.0957409	0.467027	0.00802365	-0.00494131	-0.925501
61	0.00803639	-0.0204727	0.00578984	0.000226985	-0.015023	-0.0409564	0.0216778	0.0285528	-0.000468074	-1.70128	0.151033	0.225704	0.0505675	-0.00295378	0.0216563	-2.21856	-0.00777001	-1.56533	0	0	0	0	-0	0	0	0	-0.1265	0	-0	0	0	0	0	0	-0	0	0.105	-0.015	0	0	-0	0	0	-0.098	0.1	0	-0	0	0	0	0	0	-0	0	0.05595	0	0	0	-0	0	0	0	0	0	-0	0	563.31	563.864	343.456	218.37	-0.0957697	0.467184	0.00802682	-0.00493288	-0.92584
62	0.00947494	-0.0204739	0.00578969	0.000226513	-0.015024	-0.0409561	0.0216778	0.0285528	-0.000468046	-1.70128	0.151032	0.225706	0.0505361	-0.00295381	0.0217291	-2.21713	-0.0078167	-1.56538	0	0	0	0	-0	0	0	0	-0.1265	0	-0	0	0	0	0	0	-0	0	0.105	-0.015	0	0	-0	0	0	-0.098	0.1	0	-0	0	0	0	0	0	-0	0	0.05595	0	0	0	-0	0	0	0	0	0	-0	0	563.311	563.869	343.49	218.379	-0.0958105	0.467549	0.00803016	-0.00491582	-0.926717
63	0.0100557	-0.0204755	0.00578946	0.000225726	-0.0150254	-0.0409556	0.0216778	0.0285528	-0.000468001	-1.70128	0.151031	0.225709	0.0505232	-0.00295383	0.0217587	-2.21658	-0.00787657	-1.56545	0	0	0	0	-0	0	0	0	-0.1265	0	-0	0	0	0	0	0	-0	0	0.105	-0.015	0	0	-0	0	0	-0.098	0.1	0	-0	0	0	0	0	0	-0	0	0.05595	0	0	0	-0	0	0	0	0	0	-0	0	563.314	563.875	343.538	218.392	-0.0958924	0.468187	0.00803598	-0.00489056	-0.928178
64	0.0115611	-0.020476	0.00578931	0.000225468	-0.0150257	-0.0409555	0.0216778	0.0285528	-0.000467991	-1.70128	0.15103	0.22571	0.0504905	-0.00295381	0.0218348	-2.21508	-0.00789275	-1.56547	0	0	0	0	-0	0	0	0	-0.1265	0	-0	0	0	0	0	0	-0	0	0.105	-0.015	0	0	-0	0	0	-0.098	0.1	0	-0	0	0	0	0	0	-0	0	0.05595	0	0	0	-0	0	0	0	0	0	-0	0	563.315	563.876	343.546	218.394	-0.0959189	0.468236	0.00803982	-0.00488554	-0.928228
65	0.0148182	-0.0204765	0.00578925	0.000225265	-0.0150261	-0.0409553	0.0216778	0.0285528	-0.000467979	-1.70128	0.15103	0.225711	0.0504192	-0.00295381	0.0219993	-2.21183	-0.00792688	-1.56551	0	0	0	0	-0	0	0	0	-0.1265	0	-0	0	0	0	0	0	-0	0	0.105	-0.015	0	0	-0	0	0	-0.098	0.1	0	-0	0	0	0	0	0	-0	0	0.05595	0	0	0	-0	0	0	0	0	0	-0	0	563.316	563.878	343.56	218.398	-0.095937	0.468383	0.00804155	-0.0048781	-0.928577
66	0.0141572	-0.0204772	0.00578915	0.000224951	-0.0150268	-0.0409551	0.0216778	0.0285528	-0.000467963	-1.70128	0.151029	0.225713	0.0504334	-0.00295382	0.021966	-2.2125	-0.00794817	-1.56553	0	0	0	0	-0	0	0	0	-0.1265	0	-0	0	0	0	0	0	-0	0	0.105	-0.015	0	0	-0	0	0	-0.098	0.1	0	-0	0	0	0	0	0	-0	0	0.05595	0	0	0	-0	0	0	0	0	0	-0	0	563.317	563.881	343.581	218.404	-0.0959761	0.468676	0.0080445	-0.00486701	-0.929239
67	0.0164904	-0.0204783	0.00578897	0.000224446	-0.0150277	-0.0409548	0.0216778	0.0285528	-0.000467933	-1.70128	0.151029	0.225715	0.0503821	-0.00295384	0.0220838	-2.21018	-0.00799702	-1.56559	0	0	0	0	-0	0	0	0	-0.1265	0	-0	0	0	0	0	0	-0	0	0.105	-0.015	0	0	-0	0	0	-0.098	0.1	0	-0	0	0	0	0	0	-0	0	0.05595	0	0	0	-0	0	0	0	0	0	-0	0	563.318	563.885	343.613	218.412	-0.0960341	0.469135	0.00804786	-0.00485057	-0.930283
68	0.0210114	-0.0204798	0.00578878	0.000223723	-0.015029	-0.0409543	0.0216777	0.0285528	-0.000467892	-1.70127	0.151027	0.225717	0.0502818	-0.00295384	0.0223119	-2.20568	-0.00807364	-1.56569	0	0	0	0	-0	0	0	0	-0.1265	0	-0	0	0	0	0	0	-0	0	0.105	-0.015	0	0	-0	0	0	-0.098	0.1	0	-0	0	0	0	0	0	-0	0	0.05595	0	0	0	-0	0	0	0	0	0	-0	0	563.322	563.892	343.659	218.424	-0.0961013	0.469643	0.00805362	-0.00482668	-0.931461
69	0.0267737	-0.0204821	0.00578845	0.000222739	-0.0150309	-0.0409535	0.0216777	0.0285529	-0.000467839	-1.70127	0.151025	0.225722	0.0501527	-0.00295389	0.0226016	-2.19995	-0.00817857	-1.56582	0	0	0	0	-0	0	0	0	-0.1265	0	-0	0	0	0	0	0	-0	0	0.105	-0.015	0	0	-0	0	0	-0.098	0.1	0	-0	0	0	0	0	0	-0	0	0.05595	0	0	0	-0	0	0	0	0	0	-0	0	563.324	563.9	343.725	218.441	-0.0962078	0.470466	0.0080618	-0.00479237	-0.933359
70	0.0258184	-0.0204853	0.00578797	0.000221413	-0.0150336	-0.0409526	0.0216777	0.0285529	-0.000467763	-1.70127	0.151023	0.225727	0.050173	-0.00295392	0.0225539	-2.20095	-0.00828102	-1.56593	0	0	0	0	-0	0	0	0	-0.1265	0	-0	0	0	0	0	0	-0	0	0.105	-0.015	0	0	-0	0	0	-0.098	0.1	0	-0	0	0	0	0	0	-0	0	0.05595	0	0	0	-0	0	0	0	0	0	-0	0	563.33	563.914	343.819	218.463	-0.0963799	0.471773	0.00807098	-0.00474348	-0.936286
71	0.0265472	-0.0204859	0.0057877	0.000220929	-0.0150341	-0.0409526	0.0216777	0.0285529	-0.000467743	-1.70127	0.151022	0.22573	0.0501566	-0.00295388	0.0225905	-2.20022	-0.00828876	-1.56594	0	0	0	0	-0	0	0	0	-0.1265	0	-0	0	0	0	0	0	-0	0	0.105	-0.015	0	0	-0	0	0	-0.098	0.1	0	-0	0	0	0	0	0	-0	0	0.05595	0	0	0	-0	0	0	0	0	0	-0	0	563.33	563.915	343.823	218.464	-0.0964217	0.471781	0.0080773	-0.00473871	-0.936167
72	0.0258129	-0.0204861	0.0057877	0.000220799	-0.0150342	-0.0409525	0.0216777	0.0285529	-0.000467736	-1.70127	0.151022	0.225731	0.0501731	-0.00295387	0.0225538	-2.20096	-0.00829283	-1.56595	0	0	0	0	-0	0	0	0	-0.1265	0	-0	0	0	0	0	0	-0	0	0.105	-0.015	0	0	-0	0	0	-0.098	0.1	0	-0	0	0	0	0	0	-0	0	0.05595	0	0	0	-0	0	0	0	0	0	-0	0	563.331	563.915	343.829	218.466	-0.0964254	0.471802	0.0080785	-0.00473526	-0.936229
73	0.024931	-0.0204864	0.00578765	0.000220664	-0.0150345	-0.0409523	0.0216776	0.0285529	-0.00046773	-1.70127	0.151021	0.225732	0.0501929	-0.00295387	0.0225096	-2.20184	-0.00829987	-1.56595	0	0	0	0	-0	0	0	0	-0.1265	0	-0	0	0	0	0	0	-0	0	0.105	-0.015	0	0	-0	0	0	-0.098	0.1	0	-0	0	0	0	0	0	-0	0	0.05595	0	0	0	-0	0	0	0	0	0	-0	0	563.332	563.916	343.839	218.468	-0.0964412	0.471908	0.00808026	-0.00473015	-0.936473
74	0.0263114	-0.0204869	0.00578759	0.000220423	-0.0150349	-0.0409522	0.0216776	0.028553	-0.000467716	-1.70127	0.151021	0.225733	0.0501617	-0.00295387	0.022579	-2.20047	-0.00832334	-1.56598	0	0	0	0	-0	0	0	0	-0.1265	0	-0	0	0	0	0	0	-0	0	0.105	-0.015	0	0	-0	0	0	-0.098	0.1	0	-0	0	0	0	0	0	-0	0	0.05595	0	0	0	-0	0	0	0	0	0	-0	0	563.333	563.918	343.854	218.472	-0.0964615	0.47206	0.00808218	-0.00472255	-0.936827
75	0.0261596	-0.0204876	0.00578748	0.000220083	-0.0150355	-0.0409519	0.0216776	0.028553	-0.000467698	-1.70127	0.15102	0.225734	0.050165	-0.00295388	0.0225715	-2.20063	-0.00834733	-1.56601	0	0	0	0	-0	0	0	0	-0.1265	0	-0	0	0	0	0	0	-0	0	0.105	-0.015	0	0	-0	0	0	-0.098	0.1	0	-0	0	0	0	0	0	-0	0	0.05595	0	0	0	-0	0	0	0	0	0	-0	0	563.334	563.922	343.875	218.477	-0.0965138	0.472433	0.00808515	-0.00471129	-0.937638
76	0.0246483	-0.0204887	0.00578734	0.000219592	-0.0150365	-0.0409516	0.0216776	0.028553	-0.00046767	-1.70127	0.151019	0.225736	0.050199	-0.00295389	0.0224959	-2.20216	-0.0083764	-1.56604	0	0	0	0	-0	0	0	0	-0.1265	0	-0	0	0	0	0	0	-0	0	0.105	-0.015	0	0	-0	0	0	-0.098	0.1	0	-0	0	0	0	0	0	-0	0	0.05595	0	0	0	-0	0	0	0	0	0	-0	0	563.336	563.926	343.907	218.485	-0.0965514	0.472742	0.00808859	-0.00469485	-0.938382
77	0.0221151	-0.0204893	0.0057872	0.000219302	-0.015037	-0.0409514	0.0216776	0.028553	-0.000467655	-1.70127	0.151019	0.225738	0.0502559	-0.00295389	0.0223687	-2.2047	-0.00838233	-1.56604	0	0	0	0	-0	0	0	0	-0.1265	0	-0	0	0	0	0	0	-0	0	0.105	-0.015	0	0	-0	0	0	-0.098	0.1	0	-0	0	0	0	0	0	-0	0	0.05595	0	0	0	-0	0	0	0	0	0	-0	0	563.337	563.928	343.923	218.489	-0.0965885	0.47296	0.00809155	-0.00468606	-0.938847
78	0.0235172	-0.0204904	0.00578706	0.000218806	-0.0150379	-0.040951	0.0216776	0.028553	-0.00046763	-1.70127	0.151018	0.22574	0.0502243	-0.00295391	0.0224393	-2.20331	-0.0084285	-1.56609	0	0	0	0	-0	0	0	0	-0.1265	0	-0	0	0	0	0	0	-0	0	0.105	-0.015	0	0	-0	0	0	-0.098	0.1	0	-0	0	0	0	0	0	-0	0	0.05595	0	0	0	-0	0	0	0	0	0	-0	0	563.338	563.932	343.957	218.498	-0.0966498	0.47342	0.0080963	-0.00466843	-0.93989
79	0.022392	-0.0204907	0.00578694	0.000218594	-0.0150382	-0.040951	0.0216776	0.028553	-0.00046762	-1.70127	0.151017	0.225741	0.0502495	-0.0029539	0.0223828	-2.20444	-0.0084285	-1.56609	0	0	0	0	-0	0	0	0	-0.1265	0	-0	0	0	0	0	0	-0	0	0.105	-0.015	0	0	-0	0	0	-0.098	0.1	0	-0	0	0	0	0	0	-0	0	0.05595	0	0	0	-0	0	0	0	0	0	-0	0	563.339	563.932	343.962	218.499	-0.0966672	0.473454	0.00809868	-0.00466504	-0.93993
80	0.0243707	-0.020491	0.00578691	0.000218479	-0.0150385	-0.0409509	0.0216776	0.028553	-0.000467612	-1.70127	0.151017	0.225742	0.0502051	-0.0029539	0.0224823	-2.20246	-0.00844888	-1.56612	0	0	0	0	-0	0	0	0	-0.1265	0	-0	0	0	0	0	0	-0	0	0.105	-0.015	0	0	-0	0	0	-0.098	0.1	0	-0	0	0	0	0	0	-0	0	0.05595	0	0	0	-0	0	0	0	0	0	-0	0	563.339	563.934	343.971	218.501	-0.0966781	0.473555	0.00809934	-0.00466009	-0.940175
81	0.0238757	-0.0204915	0.00578686	0.000218254	-0.0150389	-0.0409508	0.0216776	0.028553	-0.000467599	-1.70127	0.151017	0.225742	0.0502161	-0.00295391	0.0224575	-2.20297	-0.00846297	-1.56613	0	0	0	0	-0	0	0	0	-0.1265	0	-0	0	0	0	0	0	-0	0	0.105	-0.015	0	0	-0	0	0	-0.098	0.1	0	-0	0	0	0	0	0	-0	0	0.05595	0	0	0	-0	0	0	0	0	0	-0	0	563.34	563.936	343.986	218.505	-0.0966909	0.473674	0.00810058	-0.00465269	-0.940474
82	0.0251845	-0.0204918	0.0057868	0.000218094	-0.0150391	-0.0409507	0.0216776	0.028553	-0.00046759	-1.70127	0.151017	0.225743	0.0501867	-0.0029539	0.0225233	-2.20166	-0.00847723	-1.56615	0	0	0	0	-0	0	0	0	-0.1265	0	-0	0	0	0	0	0	-0	0	0.105	-0.015	0	0	-0	0	0	-0.098	0.1	0	-0	0	0	0	0	0	-0	0	0.05595	0	0	0	-0	0	0	0	0	0	-0	0	563.34	563.937	343.993	218.507	-0.0967006	0.473723	0.00810177	-0.00464871	-0.940581
83	0.0255094	-0.0204923	0.00578672	0.00021789	-0.0150395	-0.0409505	0.0216776	0.028553	-0.00046758	-1.70127	0.151016	0.225744	0.0501793	-0.00295391	0.0225396	-2.20134	-0.00849685	-1.56618	0	0	0	0	-0	0	0	0	-0.1265	0	-0	0	0	0	0	0	-0	0	0.105	-0.015	0	0	-0	0	0	-0.098	0.1	0	-0	0	0	0	0	0	-0	0	0.05595	0	0	0	-0	0	0	0	0	0	-0	0	563.342	563.939	344.009	218.51	-0.0967452	0.474048	0.00810394	-0.00464056	-0.941287
84	0.0236853	-0.0204931	0.00578661	0.000217527	-0.0150402	-0.0409503	0.0216775	0.028553	-0.000467559	-1.70127	0.151016	0.225746	0.0502203	-0.00295392	0.0224482	-2.20318	-0.00851512	-1.56619	0	0	0	0	-0	0	0	0	-0.1265	0	-0	0	0	0	0	0	-0	0	0.105	-0.015	0	0	-0	0	0	-0.098	0.1	0	-0	0	0	0	0	0	-0	0	0.05595	0	0	0	-0	0	0	0	0	0	-0	0	563.343	563.942	344.032	218.516	-0.0967719	0.474261	0.00810646	-0.00462847	-0.941796
85	0.0225588	-0.0204943	0.00578642	0.000217038	-0.0150412	-0.0409499	0.0216775	0.0285531	-0.000467533	-1.70127	0.151015	0.225748	0.0502455	-0.00295395	0.0223917	-2.20432	-0.00854895	-1.56623	0	0	0	0	-0	0	0	0	-0.1265	0	-0	0	0	0	0	0	-0	0	0.105	-0.015	0	0	-0	0	0	-0.098	0.1	0	-0	0	0	0	0	0	-0	0	0.05595	0	0	0	-0	0	0	0	0	0	-0	0	563.344	563.946	344.066	218.524	-0.096839	0.474773	0.00811046	-0.00461078	-0.942951
86	0.0206449	-0.020495	0.00578629	0.000216676	-0.0150418	-0.0409497	0.0216775	0.0285531	-0.000467514	-1.70127	0.151014	0.22575	0.0502882	-0.00295394	0.0222957	-2.20624	-0.00855957	-1.56623	0	0	0	0	-0	0	0	0	-0.1265	0	-0	0	0	0	0	0	-0	0	0.105	-0.015	0	0	-0	0	0	-0.098	0.1	0	-0	0	0	0	0	0	-0	0	0.05595	0	0	0	-0	0	0	0	0	0	-0	0	563.345	563.949	344.083	218.528	-0.0968774	0.47498	0.00811398	-0.00460134	-0.943382
87	0.0200967	-0.0204962	0.00578614	0.000216149	-0.0150428	-0.0409493	0.0216775	0.0285531	-0.000467484	-1.70126	0.151013	0.225752	0.0503002	-0.00295396	0.0222682	-2.2068	-0.00859937	-1.56627	0	0	0	0	-0	0	0	0	-0.1265	0	-0	0	0	0	0	0	-0	0	0.105	-0.015	0	0	-0	0	0	-0.098	0.1	0	-0	0	0	0	0	0	-0	0	0.05595	0	0	0	-0	0	0	0	0	0	-0	0	563.347	563.953	344.119	218.537	-0.0969219	0.475361	0.00811758	-0.00458254	-0.944299
88	0.0169678	-0.0204969	0.00578601	0.000215771	-0.0150434	-0.0409492	0.0216775	0.0285531	-0.000467463	-1.70126	0.151012	0.225753	0.0503698	-0.00295396	0.022111	-2.20994	-0.00860612	-1.56627	0	0	0	0	-0	0	0	0	-0.1265	0	-0	0	0	0	0	0	-0	0	0.105	-0.015	0	0	-0	0	0	-0.098	0.1	0	-0	0	0	0	0	0	-0	0	0.05595	0	0	0	-0	0	0	0	0	0	-0	0	563.348	563.955	344.138	218.541	-0.0969371	0.475432	0.00812037	-0.00457242	-0.944481
89	0.0205484	-0.0204982	0.00578582	0.000215244	-0.0150445	-0.0409487	0.0216775	0.0285531	-0.000467437	-1.70126	0.151011	0.225756	0.0502904	-0.00295399	0.0222913	-2.20638	-0.00866761	-1.56635	0	0	0	0	-0	0	0	0	-0.1265	0	-0	0	0	0	0	0	-0	0	0.105	-0.015	0	0	-0	0	0	-0.098	0.1	0	-0	0	0	0	0	0	-0	0	0.05595	0	0	0	-0	0	0	0	0	0	-0	0	563.349	563.959	344.177	218.55	-0.0970165	0.476021	0.00812577	-0.00455224	-0.945804
90	0.0237698	-0.0205001	0.0057855	0.00021445	-0.0150461	-0.0409482	0.0216775	0.0285531	-0.000467392	-1.70126	0.15101	0.22576	0.0502181	-0.00295403	0.0224534	-2.20318	-0.00874673	-1.56645	0	0	0	0	-0	0	0	0	-0.1265	0	-0	0	0	0	0	0	-0	0	0.105	-0.015	0	0	-0	0	0	-0.098	0.1	0	-0	0	0	0	0	0	-0	0	0.05595	0	0	0	-0	0	0	0	0	0	-0	0	563.352	563.967	344.233	218.563	-0.0971363	0.476938	0.0081306	-0.00452273	-0.947839
91	0.0264315	-0.0205028	0.00578513	0.000213236	-0.0150483	-0.0409474	0.0216774	0.0285532	-0.000467325	-1.70126	0.151008	0.225765	0.0501579	-0.00295408	0.0225873	-2.20055	-0.00884793	-1.56658	0	0	0	0	-0	0	0	0	-0.1265	0	-0	0	0	0	0	0	-0	0	0.105	-0.015	0	0	-0	0	0	-0.098	0.1	0	-0	0	0	0	0	0	-0	0	0.05595	0	0	0	-0	0	0	0	0	0	-0	0	563.355	563.976	344.311	218.579	-0.0972446	0.47777	0.00813905	-0.00448197	-0.949787
92	0.0276647	-0.0205034	0.0057849	0.000212808	-0.0150489	-0.0409473	0.0216774	0.0285532	-0.000467308	-1.70126	0.151007	0.225768	0.0501299	-0.00295405	0.0226492	-2.19932	-0.00886504	-1.5666	0	0	0	0	-0	0	0	0	-0.1265	0	-0	0	0	0	0	0	-0	0	0.105	-0.015	0	0	-0	0	0	-0.098	0.1	0	-0	0	0	0	0	0	-0	0	0.05595	0	0	0	-0	0	0	0	0	0	-0	0	563.355	563.977	344.322	218.582	-0.0972798	0.477789	0.00814526	-0.00447435	-0.949742
93	0.0287986	-0.0205041	0.00578483	0.000212465	-0.0150495	-0.040947	0.0216774	0.0285532	-0.00046729	-1.70126	0.151006	0.225769	0.050104	-0.00295405	0.0227062	-2.1982	-0.00889448	-1.56664	0	0	0	0	-0	0	0	0	-0.1265	0	-0	0	0	0	0	0	-0	0	0.105	-0.015	0	0	-0	0	0	-0.098	0.1	0	-0	0	0	0	0	0	-0	0	0.05595	0	0	0	-0	0	0	0	0	0	-0	0	563.357	563.979	344.344	218.587	-0.0973053	0.477984	0.0081482	-0.00446326	-0.950215
94	0.0299102	-0.0205043	0.00578476	0.000212347	-0.0150497	-0.040947	0.0216774	0.0285532	-0.000467285	-1.70126	0.151006	0.22577	0.0500787	-0.00295404	0.0227619	-2.19709	-0.0089024	-1.56665	0	0	0	0	-0	0	0	0	-0.1265	0	-0	0	0	0	0	0	-0	0	0.105	-0.015	0	0	-0	0	0	-0.098	0.1	0	-0	0	0	0	0	0	-0	0	0.05595	0	0	0	-0	0	0	0	0	0	-0	0	563.357	563.98	344.346	218.588	-0.0973152	0.477992	0.00814964	-0.00446113	-0.950202
95	0.031338	-0.0205045	0.00578475	0.000212242	-0.0150498	-0.0409469	0.0216774	0.0285532	-0.000467278	-1.70126	0.151006	0.22577	0.0500462	-0.00295404	0.0228334	-2.19566	-0.00891519	-1.56667	0	0	0	0	-0	0	0	0	-0.1265	0	-0	0	0	0	0	0	-0	0	0.105	-0.015	0	0	-0	0	0	-0.098	0.1	0	-0	0	0	0	0	0	-0	0	0.05595	0	0	0	-0	0	0	0	0	0	-0	0	563.358	563.981	344.352	218.589	-0.0973188	0.478037	0.00815009	-0.00445805	-0.950325
96	0.0325683	-0.0205048	0.00578469	0.000212126	-0.0150501	-0.0409468	0.0216774	0.0285532	-0.000467272	-1.70126	0.151005	0.225771	0.050018	-0.00295405	0.022895	-2.19443	-0.00893044	-1.5667	0	0	0	0	-0	0	0	0	-0.1265	0	-0	0	0	0	0	0	-0	0	0.105	-0.015	0	0	-0	0	0	-0.098	0.1	0	-0	0	0	0	0	0	-0	0	0.05595	0	0	0	-0	0	0	0	0	0	-0	0	563.358	563.982	344.361	218.591	-0.0973417	0.478205	0.00815111	-0.00445335	-0.950691
97	0.0328113	-0.0205052	0.00578465	0.000211893	-0.0150505	-0.0409467	0.0216774	0.0285532	-0.000467259	-1.70126	0.151005	0.225772	0.0500123	-0.00295406	0.0229072	-2.1942	-0.00894649	-1.56671	0	0	0	0	-0	0	0	0	-0.1265	0	-0	0	0	0	0	0	-0	0	0.105	-0.015	0	0	-0	0	0	-0.098	0.1	0	-0	0	0	0	0	0	-0	0	0.05595	0	0	0	-0	0	0	0	0	0	-0	0	563.358	563.983	344.375	218.594	-0.0973432	0.478232	0.00815253	-0.00444651	-0.950799
98	0.0309955	-0.0205055	0.00578458	0.000211768	-0.0150507	-0.0409466	0.0216774	0.0285532	-0.000467253	-1.70126	0.151005	0.225773	0.0500539	-0.00295405	0.0228164	-2.19601	-0.00894654	-1.56671	0	0	0	0	-0	0	0	0	-0.1265	0	-0	0	0	0	0	0	-0	0	0.105	-0.015	0	0	-0	0	0	-0.098	0.1	0	-0	0	0	0	0	0	-0	0	0.05595	0	0	0	-0	0	0	0	0	0	-0	0	563.359	563.984	344.381	218.596	-0.0973677	0.478372	0.00815407	-0.00444278	-0.951079
99	0.0298368	-0.020506	0.00578451	0.00021159	-0.0150511	-0.0409465	0.0216774	0.0285532	-0.000467243	-1.70126	0.151004	0.225773	0.0500803	-0.00295406	0.0227585	-2.19718	-0.00895846	-1.56672	0	0	0	0	-0	0	0	0	-0.1265	0	-0	0	0	0	0	0	-0	0	0.105	-0.015	0	0	-0	0	0	-0.098	0.1	0	-0	0	0	0	0	0	-0	0	0.05595	0	0	0	-0	0	0	0	0	0	-0	0	563.36	563.986	344.396	218.599	-0.0973984	0.478617	0.00815537	-0.00443525	-0.95163
100	0.0332792	-0.0205067	0.00578441	0.00021127	-0.0150517	-0.0409462	0.0216774	0.0285532	-0.000467225	-1.70126	0.151004	0.225775	0.0500018	-0.00295407	0.022931	-2.19375	-0.00899688	-1.56677	0	0	0	0	-0	0	0	0	-0.1265	0	-0	0	0	0	0	0	-0	0	0.105	-0.015	0	0	-0	0	0	-0.098	0.1	0	-0	0	0	0	0	0	-0	0	0.05595	0	0	0	-0	0	0	0	0	0	-0	0	563.361	563.989	344.417	218.604	-0.0974384	0.478911	0.00815782	-0.00442407	-0.95229
