Stefan210/kinematic_calibration/src/kinematic_calibration/validation/experiments/experiments/impact_noise/outlier/larm_randomize_12_measurements_rk_true/optimization_intermediate_results.csv
iteration	HeadPitch_offset	HeadYaw_offset	LElbowRoll_offset	LElbowYaw_offset	LShoulderPitch_offset	LShoulderRoll_offset	marker_transform_larm_tx	marker_transform_larm_ty	marker_transform_larm_tz	marker_transform_larm_rr	marker_transform_larm_rp	marker_transform_larm_ry	camera_transform_tx	camera_transform_ty	camera_transform_tz	camera_transform_rr	camera_transform_rp	camera_transform_ry	HeadPitch_transform_tx	HeadPitch_transform_ty	HeadPitch_transform_tz	HeadPitch_transform_rr	HeadPitch_transform_rp	HeadPitch_transform_ry	HeadYaw_transform_tx	HeadYaw_transform_ty	HeadYaw_transform_tz	HeadYaw_transform_rr	HeadYaw_transform_rp	HeadYaw_transform_ry	LElbowRoll_transform_tx	LElbowRoll_transform_ty	LElbowRoll_transform_tz	LElbowRoll_transform_rr	LElbowRoll_transform_rp	LElbowRoll_transform_ry	LElbowYaw_transform_tx	LElbowYaw_transform_ty	LElbowYaw_transform_tz	LElbowYaw_transform_rr	LElbowYaw_transform_rp	LElbowYaw_transform_ry	LShoulderPitch_transform_tx	LShoulderPitch_transform_ty	LShoulderPitch_transform_tz	LShoulderPitch_transform_rr	LShoulderPitch_transform_rp	LShoulderPitch_transform_ry	LShoulderRoll_transform_tx	LShoulderRoll_transform_ty	LShoulderRoll_transform_tz	LShoulderRoll_transform_rr	LShoulderRoll_transform_rp	LShoulderRoll_transform_ry	LWristYaw_transform_tx	LWristYaw_transform_ty	LWristYaw_transform_tz	LWristYaw_transform_rr	LWristYaw_transform_rp	LWristYaw_transform_ry	l_wrist_joint_transform_tx	l_wrist_joint_transform_ty	l_wrist_joint_transform_tz	l_wrist_joint_transform_rr	l_wrist_joint_transform_rp	l_wrist_joint_transform_ry	camera_fx	camera_fy	camera_cx	camera_cy	camera_D0	camera_D1	camera_D2	camera_D3	camera_D4	
0	0.0249164	-0.0307543	0.000853157	4.65819e-06	-0.000318322	-0.00310766	0.05071	0	0.01774	-2.26369	1.66533e-16	-1.5708	545.901	551.038	324.928	201.58	0.0255298	2.61142	-0.0636736	-0.0350419	0.213964
1	-0.0177328	0.0250728	0.0356377	0.0176549	0.0341732	0.00996404	0.0275265	-0.0299143	0.00118736	-3.86053e-05	-0.000342564	-0.00270537	0.0505126	-0.002391	0.0135888	-2.19184	-0.00542827	-1.59682	0	0	0	0	-0	0	0	0	-0.1265	0	-0	0	0	0	0	0	-0	0	0.105	0.015	0	0	-0	0	0	0.098	0.1	0	-0	0	0	0	0	0	-0	0	0.05595	0	0	0	-0	0	0	0	0	0	-0	0	545.901	551.038	324.928	201.58	0.011516	2.60811	-0.061404	0.0527047	0.213375
2	-0.0184265	0.0218773	0.0318194	0.030514	0.0085425	0.0267714	0.0264575	-0.0302359	0.0022453	-0.00015883	-0.000466871	-0.00286815	0.052728	-0.00100493	0.0149021	-2.18917	-0.00743147	-1.56744	0	0	0	0	-0	0	0	0	-0.1265	0	-0	0	0	0	0	0	-0	0	0.105	0.015	0	0	-0	0	0	0.098	0.1	0	-0	0	0	0	0	0	-0	0	0.05595	0	0	0	-0	0	0	0	0	0	-0	0	545.918	551.037	324.917	201.597	-0.312924	2.30297	-0.023238	-0.00059431	0.120849
3	-0.0177425	0.0247434	0.0276542	0.0394903	0.00115758	0.0301112	0.0259313	-0.0302159	0.00296161	-0.000236313	-0.000569508	-0.00294317	0.0545156	-0.00126	0.0145532	-2.19174	-0.00379851	-1.56351	0	0	0	0	-0	0	0	0	-0.1265	0	-0	0	0	0	0	0	-0	0	0.105	0.015	0	0	-0	0	0	0.098	0.1	0	-0	0	0	0	0	0	-0	0	0.05595	0	0	0	-0	0	0	0	0	0	-0	0	545.965	551.028	324.91	201.628	-0.351267	1.65951	-0.0102687	-0.00802624	-0.0978744
4	-0.0170136	0.0201775	0.0237919	0.0452106	0.00145767	0.0323139	0.0256363	-0.0301419	0.00344778	-0.000406621	-0.000717196	-0.00298417	0.0545193	-0.00131454	0.0149536	-2.19465	0.001964	-1.55441	0	0	0	0	-0	0	0	0	-0.1265	0	-0	0	0	0	0	0	-0	0	0.105	0.015	0	0	-0	0	0	0.098	0.1	0	-0	0	0	0	0	0	-0	0	0.05595	0	0	0	-0	0	0	0	0	0	-0	0	546.056	551.004	324.915	201.663	-0.136525	0.713946	-0.0152384	-0.00989987	-0.429509
5	-0.0166154	0.0176316	0.0212538	0.0465694	0.00257239	0.033598	0.0254766	-0.0300682	0.00359343	-0.000144567	-0.0006811	-0.00294298	0.0540734	-0.00120872	0.0155875	-2.19689	0.00456925	-1.55023	0	0	0	0	-0	0	0	0	-0.1265	0	-0	0	0	0	0	0	-0	0	0.105	0.015	0	0	-0	0	0	0.098	0.1	0	-0	0	0	0	0	0	-0	0	0.05595	0	0	0	-0	0	0	0	0	0	-0	0	546.258	550.943	324.936	201.682	0.0526627	0.00534476	-0.0198207	-0.010491	-0.593578
6	-0.0160065	0.0168507	0.0202096	0.0464821	0.00308168	0.0338324	0.0254186	-0.0300346	0.00361839	-0.000135879	-0.00166821	-0.00325169	0.0537897	-0.00115963	0.0160401	-2.19783	0.00512581	-1.54883	0	0	0	0	-0	0	0	0	-0.1265	0	-0	0	0	0	0	0	-0	0	0.105	0.015	0	0	-0	0	0	0.098	0.1	0	-0	0	0	0	0	0	-0	0	0.05595	0	0	0	-0	0	0	0	0	0	-0	0	546.814	550.765	324.932	201.724	0.14101	-0.420989	-0.0205308	-0.010939	-0.346235
7	-0.0158901	0.0171423	0.0197209	0.0463126	0.00308499	0.0338328	0.0253937	-0.0300163	0.00362582	-0.000957245	-0.000890433	-0.00535655	0.053398	-0.00116739	0.0165692	-2.19896	0.00517333	-1.54866	0	0	0	0	-0	0	0	0	-0.1265	0	-0	0	0	0	0	0	-0	0	0.105	0.015	0	0	-0	0	0	0.098	0.1	0	-0	0	0	0	0	0	-0	0	0.05595	0	0	0	-0	0	0	0	0	0	-0	0	548.291	550.309	324.817	201.834	0.190091	-0.888201	-0.0166701	-0.0112859	0.631647
8	-0.019613	0.0175941	0.019469	0.0463076	0.0029569	0.0338052	0.0253809	-0.0300074	0.00365348	-0.00162898	-0.0018659	0.000561798	0.0527125	-0.0012118	0.0173136	-2.20467	0.00556401	-1.54829	0	0	0	0	-0	0	0	0	-0.1265	0	-0	0	0	0	0	0	-0	0	0.105	0.015	0	0	-0	0	0	0.098	0.1	0	-0	0	0	0	0	0	-0	0	0.05595	0	0	0	-0	0	0	0	0	0	-0	0	551.568	549.531	324.432	202.083	0.246858	-1.70295	-0.00731416	-0.0117866	2.85359
9	-0.00301502	0.0180324	0.0193092	0.0466072	0.00281886	0.0337376	0.0253745	-0.030007	0.00371529	-0.00837658	-0.0130242	-0.0129996	0.051379	-0.00129472	0.0195002	-2.19121	0.00641489	-1.54678	0	0	0	0	-0	0	0	0	-0.1265	0	-0	0	0	0	0	0	-0	0	0.105	0.015	0	0	-0	0	0	0.098	0.1	0	-0	0	0	0	0	0	-0	0	0.05595	0	0	0	-0	0	0	0	0	0	-0	0	556.671	549.512	323.373	202.619	0.315207	-2.84109	0.00497974	-0.0127057	6.31415
10	-0.0131264	0.0185314	0.0191616	0.0465903	0.00258699	0.0336645	0.0253718	-0.0300782	0.00375863	-0.0707918	-0.0224379	0.0143859	0.0507008	-0.00135587	0.019947	-2.20532	0.00915453	-1.54415	0	0	0	0	-0	0	0	0	-0.1265	0	-0	0	0	0	0	0	-0	0	0.105	0.015	0	0	-0	0	0	0.098	0.1	0	-0	0	0	0	0	0	-0	0	0.05595	0	0	0	-0	0	0	0	0	0	-0	0	561.709	552.064	321.168	203.884	0.356071	-3.71279	0.0121635	-0.0139044	9.4165
11	-0.00979882	0.0184154	0.0193145	0.0472706	0.00280993	0.0337653	0.0253751	-0.0300412	0.00380946	-0.0883765	-0.0316758	0.025133	0.0504005	-0.0014275	0.0203856	-2.20359	0.0104835	-1.54279	0	0	0	0	-0	0	0	0	-0.1265	0	-0	0	0	0	0	0	-0	0	0.105	0.015	0	0	-0	0	0	0.098	0.1	0	-0	0	0	0	0	0	-0	0	0.05595	0	0	0	-0	0	0	0	0	0	-0	0	563.496	553.486	320.304	204.518	0.376848	-4.04563	0.0120152	-0.0141768	10.7978
12	0.0261973	0.0188725	0.019158	0.0476621	0.00267775	0.0337264	0.0253765	-0.0300639	0.00386416	-0.129353	-0.018399	0.0676352	0.0492859	-0.00146435	0.0225981	-2.17494	0.0130501	-1.53868	0	0	0	0	-0	0	0	0	-0.1265	0	-0	0	0	0	0	0	-0	0	0.105	0.015	0	0	-0	0	0	0.098	0.1	0	-0	0	0	0	0	0	-0	0	0.05595	0	0	0	-0	0	0	0	0	0	-0	0	567.288	558.327	317.123	208.045	0.392616	-4.50811	0.0116409	-0.0157037	12.9828
13	0.0239898	0.0189197	0.0191205	0.0473342	0.00263728	0.0338091	0.0253585	-0.0300322	0.00380827	-0.134524	-0.0313209	0.0531009	0.0492668	-0.00144699	0.0224892	-2.17792	0.0134437	-1.53823	0	0	0	0	-0	0	0	0	-0.1265	0	-0	0	0	0	0	0	-0	0	0.105	0.015	0	0	-0	0	0	0.098	0.1	0	-0	0	0	0	0	0	-0	0	0.05595	0	0	0	-0	0	0	0	0	0	-0	0	567.641	559.145	316.715	208.489	0.401793	-4.58058	0.0102174	-0.0156097	13.3749
14	0.0198986	0.0189328	0.0191018	0.0475231	0.00266212	0.0337657	0.0253475	-0.0300206	0.00381499	-0.126498	-0.0340482	0.0608803	0.0493371	-0.00145425	0.0222888	-2.18233	0.0137304	-1.53806	0	0	0	0	-0	0	0	0	-0.1265	0	-0	0	0	0	0	0	-0	0	0.105	0.015	0	0	-0	0	0	0.098	0.1	0	-0	0	0	0	0	0	-0	0	0.05595	0	0	0	-0	0	0	0	0	0	-0	0	567.761	559.462	316.571	208.648	0.405704	-4.61547	0.00970567	-0.0157383	13.5277
15	0.0199284	0.0190357	0.0190602	0.0476326	0.00261299	0.0337084	0.0253444	-0.0300211	0.00382572	-0.140913	-0.0278443	0.0796049	0.0492775	-0.00146032	0.0223375	-2.18365	0.0143678	-1.5374	0	0	0	0	-0	0	0	0	-0.1265	0	-0	0	0	0	0	0	-0	0	0.105	0.015	0	0	-0	0	0	0.098	0.1	0	-0	0	0	0	0	0	-0	0	0.05595	0	0	0	-0	0	0	0	0	0	-0	0	568.36	560.504	315.981	209.326	0.411388	-4.71939	0.00907463	-0.0160295	14.0353
16	-0.000551837	0.0190387	0.019055	0.0477521	0.00261252	0.0337111	0.0253459	-0.0300201	0.00383096	-0.133253	-0.0236297	0.0619176	0.0497104	-0.00146652	0.021348	-2.20478	0.0154214	-1.53734	0	0	0	0	-0	0	0	0	-0.1265	0	-0	0	0	0	0	0	-0	0	0.105	0.015	0	0	-0	0	0	0.098	0.1	0	-0	0	0	0	0	0	-0	0	0.05595	0	0	0	-0	0	0	0	0	0	-0	0	568.63	561.005	315.693	209.667	0.416053	-4.77214	0.00848573	-0.0161281	14.2833
17	-0.00289216	0.0191549	0.0189982	0.0476313	0.00257771	0.0337172	0.0253444	-0.0300191	0.00381021	-0.126576	-0.0420082	0.0849259	0.0497094	-0.00145867	0.0212684	-2.20864	0.0162032	-1.53668	0	0	0	0	-0	0	0	0	-0.1265	0	-0	0	0	0	0	0	-0	0	0.105	0.015	0	0	-0	0	0	0.098	0.1	0	-0	0	0	0	0	0	-0	0	0.05595	0	0	0	-0	0	0	0	0	0	-0	0	569.209	561.97	315.023	210.452	0.419179	-4.85299	0.00799668	-0.0163761	14.7365
18	-0.0149807	0.0192255	0.0189523	0.0476435	0.00257691	0.0337324	0.025339	-0.0300136	0.00381748	-0.122813	-0.0210964	0.0847213	0.049921	-0.0014564	0.0207078	-2.22292	0.0177035	-1.53582	0	0	0	0	-0	0	0	0	-0.1265	0	-0	0	0	0	0	0	-0	0	0.105	0.015	0	0	-0	0	0	0.098	0.1	0	-0	0	0	0	0	0	-0	0	0.05595	0	0	0	-0	0	0	0	0	0	-0	0	569.943	563.182	314.084	211.612	0.423305	-4.95097	0.00720332	-0.0167354	15.3236
19	-0.0216818	0.019227	0.0189497	0.0477264	0.00255559	0.0337342	0.0253326	-0.0300129	0.0038226	-0.118105	-0.0208057	0.090816	0.050046	-0.0014595	0.0203801	-2.23007	0.0182142	-1.5357	0	0	0	0	-0	0	0	0	-0.1265	0	-0	0	0	0	0	0	-0	0	0.105	0.015	0	0	-0	0	0	0.098	0.1	0	-0	0	0	0	0	0	-0	0	0.05595	0	0	0	-0	0	0	0	0	0	-0	0	570.078	563.469	313.873	211.867	0.426548	-4.97956	0.00676469	-0.0167842	15.4691
20	-0.0107648	0.0192649	0.0189439	0.0477894	0.00251941	0.0337175	0.0253311	-0.0300111	0.0038265	-0.120525	-0.0281104	0.0878651	0.0498077	-0.00146357	0.0209386	-2.21979	0.0181664	-1.53519	0	0	0	0	-0	0	0	0	-0.1265	0	-0	0	0	0	0	0	-0	0	0.105	0.015	0	0	-0	0	0	0.098	0.1	0	-0	0	0	0	0	0	-0	0	0.05595	0	0	0	-0	0	0	0	0	0	-0	0	570.279	563.83	313.588	212.213	0.428205	-5.01448	0.00653857	-0.0169255	15.6661
21	-0.00508994	0.0193024	0.0189288	0.0478202	0.002497	0.0337127	0.025331	-0.0300131	0.00382668	-0.125398	-0.028453	0.07439	0.0496678	-0.00146526	0.0212363	-2.21506	0.018443	-1.53461	0	0	0	0	-0	0	0	0	-0.1265	0	-0	0	0	0	0	0	-0	0	0.105	0.015	0	0	-0	0	0	0.098	0.1	0	-0	0	0	0	0	0	-0	0	0.05595	0	0	0	-0	0	0	0	0	0	-0	0	570.57	564.313	313.173	212.721	0.430238	-5.06302	0.00626495	-0.0171126	15.9487
22	-0.00379557	0.0193055	0.0189238	0.0478357	0.00250347	0.0337211	0.0253308	-0.0300128	0.00382859	-0.117171	-0.021971	0.0679414	0.0496328	-0.00146539	0.0213052	-2.21415	0.0186016	-1.53439	0	0	0	0	-0	0	0	0	-0.1265	0	-0	0	0	0	0	0	-0	0	0.105	0.015	0	0	-0	0	0	0.098	0.1	0	-0	0	0	0	0	0	-0	0	0.05595	0	0	0	-0	0	0	0	0	0	-0	0	570.673	564.515	313.005	212.927	0.432388	-5.08557	0.00599876	-0.0171597	16.0641
23	-0.0191495	0.0193309	0.0189028	0.0479154	0.00249934	0.0337283	0.0253339	-0.0300117	0.00382976	-0.120989	-0.00253919	0.0541377	0.0499365	-0.0014692	0.0205618	-2.23101	0.0199372	-1.5339	0	0	0	0	-0	0	0	0	-0.1265	0	-0	0	0	0	0	0	-0	0	0.105	0.015	0	0	-0	0	0	0.098	0.1	0	-0	0	0	0	0	0	-0	0	0.05595	0	0	0	-0	0	0	0	0	0	-0	0	571.103	565.187	312.357	213.755	0.435211	-5.16239	0.00565806	-0.0174657	16.5197
24	-0.0308869	0.0193771	0.0188747	0.0478208	0.00249573	0.0337402	0.0253268	-0.0300109	0.00382591	-0.113123	-0.00837886	0.048684	0.0501669	-0.00146206	0.0199789	-2.24348	0.0207254	-1.53381	0	0	0	0	-0	0	0	0	-0.1265	0	-0	0	0	0	0	0	-0	0	0.105	0.015	0	0	-0	0	0	0.098	0.1	0	-0	0	0	0	0	0	-0	0	0.05595	0	0	0	-0	0	0	0	0	0	-0	0	571.272	565.525	312.027	214.157	0.437627	-5.19938	0.00535768	-0.0175602	16.7321
25	-0.0320684	0.019388	0.0188643	0.0478602	0.00247354	0.0337349	0.0253256	-0.0300105	0.00382826	-0.119196	-0.00687278	0.0557296	0.0501805	-0.00146324	0.0199231	-2.24494	0.0209306	-1.53369	0	0	0	0	-0	0	0	0	-0.1265	0	-0	0	0	0	0	0	-0	0	0.105	0.015	0	0	-0	0	0	0.098	0.1	0	-0	0	0	0	0	0	-0	0	0.05595	0	0	0	-0	0	0	0	0	0	-0	0	571.34	565.661	311.895	214.317	0.439068	-5.21666	0.00521892	-0.0176207	16.822
26	-0.0405571	0.0193902	0.0188483	0.0479603	0.00247377	0.0337404	0.0253276	-0.0300087	0.00383835	-0.112176	-0.0265728	0.0491695	0.0503333	-0.0014676	0.0195084	-2.25458	0.0218834	-1.53326	0	0	0	0	-0	0	0	0	-0.1265	0	-0	0	0	0	0	0	-0	0	0.105	0.015	0	0	-0	0	0	0.098	0.1	0	-0	0	0	0	0	0	-0	0	0.05595	0	0	0	-0	0	0	0	0	0	-0	0	571.64	566.131	311.391	214.959	0.441858	-5.28002	0.00493997	-0.017872	17.1921
27	-0.0296022	0.0193666	0.0188388	0.0480297	0.00249029	0.0337633	0.0253264	-0.030009	0.00384101	-0.107453	-0.0229258	0.0480744	0.0501098	-0.00147072	0.0200633	-2.24431	0.0218836	-1.53262	0	0	0	0	-0	0	0	0	-0.1265	0	-0	0	0	0	0	0	-0	0	0.105	0.015	0	0	-0	0	0	0.098	0.1	0	-0	0	0	0	0	0	-0	0	0.05595	0	0	0	-0	0	0	0	0	0	-0	0	571.797	566.409	311.086	215.348	0.445208	-5.32405	0.00461156	-0.0180016	17.4282
28	-0.0255325	0.0193976	0.0188308	0.0479967	0.00247114	0.0337622	0.0253272	-0.0300097	0.003837	-0.114101	-0.0329902	0.0511698	0.0500215	-0.001469	0.0202701	-2.24052	0.0218573	-1.53242	0	0	0	0	-0	0	0	0	-0.1265	0	-0	0	0	0	0	0	-0	0	0.105	0.015	0	0	-0	0	0	0.098	0.1	0	-0	0	0	0	0	0	-0	0	0.05595	0	0	0	-0	0	0	0	0	0	-0	0	571.853	566.527	310.957	215.503	0.446491	-5.34239	0.00453229	-0.0180444	17.5223
29	-0.0265054	0.0193853	0.0188263	0.0480046	0.00248589	0.0337725	0.0253262	-0.0300089	0.0038385	-0.114526	-0.0413401	0.0468458	0.0500393	-0.00146864	0.0202209	-2.24169	0.0220124	-1.53232	0	0	0	0	-0	0	0	0	-0.1265	0	-0	0	0	0	0	0	-0	0	0.105	0.015	0	0	-0	0	0	0.098	0.1	0	-0	0	0	0	0	0	-0	0	0.05595	0	0	0	-0	0	0	0	0	0	-0	0	571.889	566.605	310.869	215.609	0.447785	-5.35527	0.00439569	-0.0180737	17.5876
30	-0.0281261	0.0193939	0.0188106	0.0480543	0.00248262	0.0337768	0.0253261	-0.030008	0.00384109	-0.113372	-0.0309939	0.044685	0.050064	-0.00147025	0.0201441	-2.24413	0.0225348	-1.53191	0	0	0	0	-0	0	0	0	-0.1265	0	-0	0	0	0	0	0	-0	0	0.105	0.015	0	0	-0	0	0	0.098	0.1	0	-0	0	0	0	0	0	-0	0	0.05595	0	0	0	-0	0	0	0	0	0	-0	0	572.073	566.9	310.493	216.073	0.449997	-5.40558	0.00424422	-0.0182651	17.8754
31	-0.0375782	0.0194018	0.0187958	0.0480777	0.00248292	0.0337832	0.0253264	-0.0300074	0.00384427	-0.116973	-0.0152868	0.0498126	0.0502473	-0.00147058	0.0196747	-2.25436	0.0233365	-1.5317	0	0	0	0	-0	0	0	0	-0.1265	0	-0	0	0	0	0	0	-0	0	0.105	0.015	0	0	-0	0	0	0.098	0.1	0	-0	0	0	0	0	0	-0	0	0.05595	0	0	0	-0	0	0	0	0	0	-0	0	572.232	567.171	310.138	216.515	0.453055	-5.45775	0.00404474	-0.0184289	18.1583
32	-0.035566	0.0193994	0.0187864	0.0480845	0.00248611	0.0337941	0.0253277	-0.0300085	0.00384201	-0.120024	-0.0289635	0.0573612	0.0502028	-0.00147026	0.0197764	-2.25266	0.0234425	-1.53148	0	0	0	0	-0	0	0	0	-0.1265	0	-0	0	0	0	0	0	-0	0	0.105	0.015	0	0	-0	0	0	0.098	0.1	0	-0	0	0	0	0	0	-0	0	0.05595	0	0	0	-0	0	0	0	0	0	-0	0	572.286	567.283	309.992	216.691	0.455129	-5.48091	0.00388497	-0.0184812	18.2732
33	-0.037008	0.0193962	0.0187819	0.0480722	0.00249835	0.0338034	0.0253251	-0.0300082	0.00384174	-0.116504	-0.023739	0.0540234	0.0502308	-0.00146911	0.0197032	-2.25431	0.0236261	-1.53139	0	0	0	0	-0	0	0	0	-0.1265	0	-0	0	0	0	0	0	-0	0	0.105	0.015	0	0	-0	0	0	0.098	0.1	0	-0	0	0	0	0	0	-0	0	0.05595	0	0	0	-0	0	0	0	0	0	-0	0	572.319	567.359	309.89	216.811	0.456508	-5.49652	0.00376873	-0.0185133	18.3517
34	-0.0429039	0.0194113	0.0187707	0.0480893	0.00248516	0.0338003	0.0253235	-0.0300084	0.00384217	-0.123391	-0.0240022	0.0488656	0.050344	-0.001469	0.0194083	-2.26051	0.024033	-1.53137	0	0	0	0	-0	0	0	0	-0.1265	0	-0	0	0	0	0	0	-0	0	0.105	0.015	0	0	-0	0	0	0.098	0.1	0	-0	0	0	0	0	0	-0	0	0.05595	0	0	0	-0	0	0	0	0	0	-0	0	572.375	567.466	309.74	216.987	0.457735	-5.51846	0.0037003	-0.01859	18.4693
35	-0.0455556	0.0194298	0.0187602	0.04809	0.00247405	0.0337964	0.0253235	-0.0300077	0.00384285	-0.122917	-0.0325966	0.0422305	0.0503912	-0.00146856	0.0192768	-2.26362	0.0243931	-1.5312	0	0	0	0	-0	0	0	0	-0.1265	0	-0	0	0	0	0	0	-0	0	0.105	0.015	0	0	-0	0	0	0.098	0.1	0	-0	0	0	0	0	0	-0	0	0.05595	0	0	0	-0	0	0	0	0	0	-0	0	572.46	567.614	309.523	217.244	0.459423	-5.55099	0.00363114	-0.0186979	18.6442
36	-0.0358516	0.0194236	0.0187484	0.0481294	0.0024814	0.0338042	0.0253257	-0.0300088	0.00384382	-0.126457	-0.0428803	0.0534987	0.0501992	-0.00146977	0.0197673	-2.25457	0.0244012	-1.53058	0	0	0	0	-0	0	0	0	-0.1265	0	-0	0	0	0	0	0	-0	0	0.105	0.015	0	0	-0	0	0	0.098	0.1	0	-0	0	0	0	0	0	-0	0	0.05595	0	0	0	-0	0	0	0	0	0	-0	0	572.582	567.813	309.214	217.616	0.46233	-5.59997	0.00347742	-0.0188504	18.9054
37	-0.014873	0.0194446	0.0187313	0.0481165	0.00248797	0.0338122	0.025325	-0.0300157	0.00385498	-0.10372	-0.0623219	0.0337398	0.049779	-0.0014688	0.0208191	-2.23497	0.0243151	-1.52933	0	0	0	0	-0	0	0	0	-0.1265	0	-0	0	0	0	0	0	-0	0	0.105	0.015	0	0	-0	0	0	0.098	0.1	0	-0	0	0	0	0	0	-0	0	0.05595	0	0	0	-0	0	0	0	0	0	-0	0	572.806	568.166	308.572	218.397	0.467377	-5.70176	0.00335886	-0.0191627	19.4533
38	-0.0175576	0.0194323	0.0187152	0.0481405	0.00249984	0.033841	0.0253235	-0.0300097	0.00384756	-0.108836	-0.0605996	0.040503	0.0498217	-0.0014693	0.0206834	-2.23783	0.0245384	-1.52925	0	0	0	0	-0	0	0	0	-0.1265	0	-0	0	0	0	0	0	-0	0	0.105	0.015	0	0	-0	0	0	0.098	0.1	0	-0	0	0	0	0	0	-0	0	0.05595	0	0	0	-0	0	0	0	0	0	-0	0	572.82	568.222	308.484	218.498	0.47032	-5.72212	0.00314948	-0.0191896	19.5298
39	-0.0226246	0.0194315	0.0187034	0.0481675	0.00249279	0.0338343	0.0253226	-0.030007	0.0038482	-0.111556	-0.0512693	0.0460522	0.049923	-0.00146896	0.0204293	-2.24312	0.024895	-1.52923	0	0	0	0	-0	0	0	0	-0.1265	0	-0	0	0	0	0	0	-0	0	0.105	0.015	0	0	-0	0	0	0.098	0.1	0	-0	0	0	0	0	0	-0	0	0.05595	0	0	0	-0	0	0	0	0	0	-0	0	572.846	568.294	308.364	218.634	0.472122	-5.74374	0.00302914	-0.0192457	19.6365
40	-0.0194304	0.0194311	0.0186963	0.0481908	0.00248939	0.0338331	0.0253233	-0.0300085	0.0038488	-0.112916	-0.0498903	0.0595129	0.0498558	-0.00146918	0.0205871	-2.24027	0.0249776	-1.52895	0	0	0	0	-0	0	0	0	-0.1265	0	-0	0	0	0	0	0	-0	0	0.105	0.015	0	0	-0	0	0	0.098	0.1	0	-0	0	0	0	0	0	-0	0	0.05595	0	0	0	-0	0	0	0	0	0	-0	0	572.89	568.387	308.19	218.832	0.474333	-5.77594	0.00292393	-0.0193299	19.7982
41	-0.0140883	0.0194264	0.0186926	0.0481932	0.00250021	0.0338408	0.0253246	-0.0300086	0.00385012	-0.109989	-0.0396702	0.0703845	0.0497458	-0.00146882	0.0208518	-2.23518	0.0249162	-1.52865	0	0	0	0	-0	0	0	0	-0.1265	0	-0	0	0	0	0	0	-0	0	0.105	0.015	0	0	-0	0	0	0.098	0.1	0	-0	0	0	0	0	0	-0	0	0.05595	0	0	0	-0	0	0	0	0	0	-0	0	572.918	568.454	308.059	218.977	0.476321	-5.80019	0.00280964	-0.0193846	19.9148
42	-0.00528452	0.0194207	0.0186847	0.0482177	0.00251032	0.033851	0.0253236	-0.0300059	0.00385121	-0.111633	-0.0263621	0.0719177	0.0495612	-0.00146946	0.021287	-2.22693	0.0248905	-1.52808	0	0	0	0	-0	0	0	0	-0.1265	0	-0	0	0	0	0	0	-0	0	0.105	0.015	0	0	-0	0	0	0.098	0.1	0	-0	0	0	0	0	0	-0	0	0.05595	0	0	0	-0	0	0	0	0	0	-0	0	572.99	568.583	307.778	219.294	0.479571	-5.85182	0.00269449	-0.0195248	20.1769
43	8.96722e-05	0.0194359	0.0186771	0.0482048	0.00249591	0.0338472	0.0253207	-0.0300055	0.00384854	-0.115621	-0.023688	0.0704022	0.0494434	-0.00146809	0.0215538	-2.22168	0.0247262	-1.52788	0	0	0	0	-0	0	0	0	-0.1265	0	-0	0	0	0	0	0	-0	0	0.105	0.015	0	0	-0	0	0	0.098	0.1	0	-0	0	0	0	0	0	-0	0	0.05595	0	0	0	-0	0	0	0	0	0	-0	0	573	568.618	307.709	219.368	0.480854	-5.866	0.00264854	-0.0195459	20.2394
44	-0.00635975	0.0194514	0.0186692	0.0482035	0.00248097	0.0338379	0.0253195	-0.0300051	0.00384775	-0.111114	-0.0231124	0.0702829	0.0495805	-0.00146727	0.0212349	-2.2283	0.025099	-1.52795	0	0	0	0	-0	0	0	0	-0.1265	0	-0	0	0	0	0	0	-0	0	0.105	0.015	0	0	-0	0	0	0.098	0.1	0	-0	0	0	0	0	0	-0	0	0.05595	0	0	0	-0	0	0	0	0	0	-0	0	573.018	568.664	307.617	219.468	0.481914	-5.88315	0.00262358	-0.019592	20.3242
45	-0.0134488	0.0194624	0.0186599	0.0482125	0.00247448	0.0338337	0.0253201	-0.0300036	0.00384717	-0.0969572	-0.0474968	0.0737516	0.0497291	-0.00146712	0.0208819	-2.2359	0.0257141	-1.52781	0	0	0	0	-0	0	0	0	-0.1265	0	-0	0	0	0	0	0	-0	0	0.105	0.015	0	0	-0	0	0	0.098	0.1	0	-0	0	0	0	0	0	-0	0	0.05595	0	0	0	-0	0	0	0	0	0	-0	0	573.084	568.78	307.35	219.763	0.484798	-5.93342	0.00256775	-0.0197309	20.5793
46	-0.00592299	0.0194644	0.0186535	0.0482056	0.00247639	0.0338357	0.0253186	-0.0300044	0.00384659	-0.100954	-0.044087	0.0703128	0.0495707	-0.00146595	0.0212546	-2.22862	0.0255448	-1.52747	0	0	0	0	-0	0	0	0	-0.1265	0	-0	0	0	0	0	0	-0	0	0.105	0.015	0	0	-0	0	0	0.098	0.1	0	-0	0	0	0	0	0	-0	0	0.05595	0	0	0	-0	0	0	0	0	0	-0	0	573.105	568.842	307.219	219.906	0.487088	-5.96037	0.00245689	-0.019783	20.7046
47	0.0120888	0.0194765	0.0186423	0.0482152	0.00247081	0.033834	0.0253206	-0.0300112	0.00385465	-0.0838667	-0.0563396	0.0521704	0.0491858	-0.00146572	0.0221454	-2.21116	0.0250863	-1.52668	0	0	0	0	-0	0	0	0	-0.1265	0	-0	0	0	0	0	0	-0	0	0.105	0.015	0	0	-0	0	0	0.098	0.1	0	-0	0	0	0	0	0	-0	0	0.05595	0	0	0	-0	0	0	0	0	0	-0	0	573.167	568.955	306.937	220.214	0.490533	-6.01744	0.00239071	-0.0199269	20.9882
48	0.01513	0.0194647	0.0186366	0.0482193	0.0024918	0.0338589	0.0253228	-0.0300102	0.00384958	-0.0752127	-0.0495235	0.0641235	0.0491126	-0.00146616	0.0222901	-2.20837	0.0251261	-1.5264	0	0	0	0	-0	0	0	0	-0.1265	0	-0	0	0	0	0	0	-0	0	0.105	0.015	0	0	-0	0	0	0.098	0.1	0	-0	0	0	0	0	0	-0	0	0.05595	0	0	0	-0	0	0	0	0	0	-0	0	573.181	569.007	306.795	220.363	0.493557	-6.04946	0.0022432	-0.0199915	21.1272
49	0.0147374	0.0194448	0.0186317	0.0482377	0.00251229	0.0338708	0.0253215	-0.0300064	0.00385021	-0.0715169	-0.0415902	0.0602042	0.0491212	-0.00146621	0.0222674	-2.20895	0.0252851	-1.52625	0	0	0	0	-0	0	0	0	-0.1265	0	-0	0	0	0	0	0	-0	0	0.105	0.015	0	0	-0	0	0	0.098	0.1	0	-0	0	0	0	0	0	-0	0	0.05595	0	0	0	-0	0	0	0	0	0	-0	0	573.19	569.044	306.688	220.472	0.495812	-6.07207	0.00210095	-0.0200364	21.2293
50	0.0178353	0.0194479	0.0186253	0.0482555	0.0025029	0.0338664	0.0253199	-0.0300049	0.00385146	-0.0724792	-0.0480574	0.0559339	0.0490507	-0.00146605	0.0224192	-2.20592	0.025197	-1.52612	0	0	0	0	-0	0	0	0	-0.1265	0	-0	0	0	0	0	0	-0	0	0.105	0.015	0	0	-0	0	0	0.098	0.1	0	-0	0	0	0	0	0	-0	0	0.05595	0	0	0	-0	0	0	0	0	0	-0	0	573.194	569.06	306.645	220.516	0.496573	-6.08114	0.00206909	-0.0200567	21.2716
51	0.0185922	0.0194517	0.0186206	0.048275	0.00249436	0.0338628	0.0253201	-0.0300062	0.003851	-0.0670774	-0.0504942	0.0674415	0.0490327	-0.0014665	0.0224555	-2.20536	0.0252943	-1.52597	0	0	0	0	-0	0	0	0	-0.1265	0	-0	0	0	0	0	0	-0	0	0.105	0.015	0	0	-0	0	0	0.098	0.1	0	-0	0	0	0	0	0	-0	0	0.05595	0	0	0	-0	0	0	0	0	0	-0	0	573.212	569.096	306.532	220.63	0.498096	-6.10501	0.0020421	-0.0201191	21.3878
52	0.0243895	0.0194565	0.018619	0.0482592	0.00249636	0.0338629	0.0253188	-0.0300049	0.00385056	-0.0708729	-0.0521613	0.0627716	0.0489031	-0.00146556	0.0227393	-2.19967	0.0250944	-1.52576	0	0	0	0	-0	0	0	0	-0.1265	0	-0	0	0	0	0	0	-0	0	0.105	0.015	0	0	-0	0	0	0.098	0.1	0	-0	0	0	0	0	0	-0	0	0.05595	0	0	0	-0	0	0	0	0	0	-0	0	573.217	569.115	306.475	220.687	0.499144	-6.11773	0.00200911	-0.0201408	21.4442
53	0.024904	0.0194665	0.0186126	0.0482649	0.0024863	0.0338584	0.0253194	-0.0300045	0.00384971	-0.0713028	-0.0605598	0.0708752	0.0488909	-0.00146531	0.0227627	-2.19939	0.0252279	-1.52558	0	0	0	0	-0	0	0	0	-0.1265	0	-0	0	0	0	0	0	-0	0	0.105	0.015	0	0	-0	0	0	0.098	0.1	0	-0	0	0	0	0	0	-0	0	0.05595	0	0	0	-0	0	0	0	0	0	-0	0	573.236	569.16	306.333	220.83	0.500987	-6.14743	0.00198227	-0.0202158	21.5885
54	0.0157898	0.0194619	0.0186099	0.0482663	0.00249219	0.0338612	0.0253178	-0.0300038	0.00385075	-0.0675879	-0.0617737	0.0698896	0.0490985	-0.00146491	0.0223162	-2.20862	0.0257239	-1.52572	0	0	0	0	-0	0	0	0	-0.1265	0	-0	0	0	0	0	0	-0	0	0.105	0.015	0	0	-0	0	0	0.098	0.1	0	-0	0	0	0	0	0	-0	0	0.05595	0	0	0	-0	0	0	0	0	0	-0	0	573.242	569.182	306.263	220.9	0.502471	-6.16391	0.00191531	-0.0202438	21.6619
55	0.0202348	0.0194835	0.018603	0.0482576	0.00247315	0.0338552	0.0253173	-0.0300033	0.00384925	-0.0675602	-0.055714	0.0666545	0.0489963	-0.00146388	0.0225349	-2.20427	0.0255711	-1.52557	0	0	0	0	-0	0	0	0	-0.1265	0	-0	0	0	0	0	0	-0	0	0.105	0.015	0	0	-0	0	0	0.098	0.1	0	-0	0	0	0	0	0	-0	0	0.05595	0	0	0	-0	0	0	0	0	0	-0	0	573.248	569.199	306.209	220.952	0.503263	-6.17579	0.00192369	-0.0202697	21.7151
56	0.0227527	0.0194815	0.0185987	0.0482733	0.00247433	0.033856	0.0253175	-0.0300028	0.00385011	-0.0696775	-0.0461277	0.0632387	0.0489392	-0.00146406	0.0226561	-2.202	0.0256331	-1.52531	0	0	0	0	-0	0	0	0	-0.1265	0	-0	0	0	0	0	0	-0	0	0.105	0.015	0	0	-0	0	0	0.098	0.1	0	-0	0	0	0	0	0	-0	0	0.05595	0	0	0	-0	0	0	0	0	0	-0	0	573.266	569.237	306.06	221.101	0.505468	-6.2081	0.00187464	-0.0203503	21.8699
57	0.0270199	0.0194785	0.0185922	0.0482937	0.00247812	0.0338599	0.0253186	-0.0300051	0.00385295	-0.0666206	-0.0486999	0.0506594	0.0488426	-0.00146436	0.0228625	-2.1981	0.0256889	-1.52493	0	0	0	0	-0	0	0	0	-0.1265	0	-0	0	0	0	0	0	-0	0	0.105	0.015	0	0	-0	0	0	0.098	0.1	0	-0	0	0	0	0	0	-0	0	0.05595	0	0	0	-0	0	0	0	0	0	-0	0	573.292	569.291	305.848	221.315	0.508956	-6.25758	0.00179776	-0.0204597	22.1026
58	0.031185	0.0194635	0.0185885	0.0483132	0.00249455	0.0338736	0.0253191	-0.0300048	0.00385481	-0.0636732	-0.0424578	0.058842	0.0487477	-0.00146501	0.0230638	-2.19411	0.0256329	-1.52467	0	0	0	0	-0	0	0	0	-0.1265	0	-0	0	0	0	0	0	-0	0	0.105	0.015	0	0	-0	0	0	0.098	0.1	0	-0	0	0	0	0	0	-0	0	0.05595	0	0	0	-0	0	0	0	0	0	-0	0	573.295	569.312	305.743	221.418	0.511481	-6.28428	0.00168747	-0.0205082	22.2172
59	0.0325948	0.0194623	0.0185836	0.0483248	0.00249593	0.0338793	0.0253187	-0.0300034	0.00385509	-0.0616565	-0.0341745	0.0576777	0.0487147	-0.00146511	0.0231313	-2.19283	0.0256625	-1.52452	0	0	0	0	-0	0	0	0	-0.1265	0	-0	0	0	0	0	0	-0	0	0.105	0.015	0	0	-0	0	0	0.098	0.1	0	-0	0	0	0	0	0	-0	0	0.05595	0	0	0	-0	0	0	0	0	0	-0	0	573.299	569.331	305.663	221.493	0.51315	-6.30361	0.00162529	-0.0205467	22.3027
60	0.0315597	0.0194669	0.0185789	0.0483319	0.00248975	0.0338791	0.025318	-0.0300035	0.00385548	-0.064424	-0.0381535	0.0516325	0.048738	-0.00146481	0.0230806	-2.19395	0.0257782	-1.52448	0	0	0	0	-0	0	0	0	-0.1265	0	-0	0	0	0	0	0	-0	0	0.105	0.015	0	0	-0	0	0	0.098	0.1	0	-0	0	0	0	0	0	-0	0	0.05595	0	0	0	-0	0	0	0	0	0	-0	0	573.3	569.344	305.602	221.55	0.514398	-6.31848	0.00159167	-0.020577	22.3679
61	0.024266	0.0194714	0.0185738	0.0483418	0.0024858	0.0338795	0.0253176	-0.0300043	0.00385659	-0.0559163	-0.0379893	0.0448035	0.0489065	-0.00146475	0.0227238	-2.20145	0.0262669	-1.52451	0	0	0	0	-0	0	0	0	-0.1265	0	-0	0	0	0	0	0	-0	0	0.105	0.015	0	0	-0	0	0	0.098	0.1	0	-0	0	0	0	0	0	-0	0	0.05595	0	0	0	-0	0	0	0	0	0	-0	0	573.309	569.366	305.469	221.673	0.516613	-6.35003	0.00156231	-0.0206488	22.5131
62	0.0193469	0.0194832	0.0185682	0.0483345	0.0024789	0.0338804	0.0253174	-0.0300046	0.00385535	-0.0458984	-0.0338028	0.0445788	0.0490163	-0.00146383	0.0224834	-2.20647	0.0265646	-1.52457	0	0	0	0	-0	0	0	0	-0.1265	0	-0	0	0	0	0	0	-0	0	0.105	0.015	0	0	-0	0	0	0.098	0.1	0	-0	0	0	0	0	0	-0	0	0.05595	0	0	0	-0	0	0	0	0	0	-0	0	573.31	569.38	305.402	221.734	0.518081	-6.36692	0.00153177	-0.0206807	22.5839
63	0.0176354	0.019486	0.0185648	0.0483317	0.00247921	0.0338817	0.025317	-0.0300033	0.00385513	-0.0477517	-0.0383982	0.0392982	0.0490541	-0.00146329	0.022399	-2.20825	0.0267012	-1.52456	0	0	0	0	-0	0	0	0	-0.1265	0	-0	0	0	0	0	0	-0	0	0.105	0.015	0	0	-0	0	0	0.098	0.1	0	-0	0	0	0	0	0	-0	0	0.05595	0	0	0	-0	0	0	0	0	0	-0	0	573.312	569.388	305.351	221.779	0.519176	-6.37951	0.00150053	-0.0207041	22.6377
64	0.012574	0.0194845	0.0185607	0.0483473	0.00247802	0.033882	0.0253166	-0.030003	0.00385557	-0.0512263	-0.0380921	0.0327583	0.049168	-0.00146352	0.0221487	-2.21347	0.0270667	-1.52455	0	0	0	0	-0	0	0	0	-0.1265	0	-0	0	0	0	0	0	-0	0	0.105	0.015	0	0	-0	0	0	0.098	0.1	0	-0	0	0	0	0	0	-0	0	0.05595	0	0	0	-0	0	0	0	0	0	-0	0	573.316	569.404	305.241	221.878	0.520983	-6.40459	0.00146372	-0.0207632	22.7541
65	0.00822538	0.019496	0.0185563	0.0483399	0.00247007	0.0338805	0.0253155	-0.0300027	0.00385492	-0.0580817	-0.0371645	0.0322004	0.0492631	-0.00146253	0.0219352	-2.2179	0.0273247	-1.52462	0	0	0	0	-0	0	0	0	-0.1265	0	-0	0	0	0	0	0	-0	0	0.105	0.015	0	0	-0	0	0	0.098	0.1	0	-0	0	0	0	0	0	-0	0	0.05595	0	0	0	-0	0	0	0	0	0	-0	0	573.316	569.412	305.185	221.926	0.522202	-6.41875	0.00144422	-0.0207886	22.8131
66	0.0116911	0.0195041	0.018552	0.0483423	0.00246261	0.0338784	0.0253152	-0.030002	0.0038549	-0.059154	-0.0377889	0.0362847	0.0491859	-0.00146207	0.0221061	-2.21449	0.0272112	-1.52448	0	0	0	0	-0	0	0	0	-0.1265	0	-0	0	0	0	0	0	-0	0	0.105	0.015	0	0	-0	0	0	0.098	0.1	0	-0	0	0	0	0	0	-0	0	0.05595	0	0	0	-0	0	0	0	0	0	-0	0	573.316	569.42	305.142	221.963	0.523105	-6.42953	0.00142577	-0.0208114	22.8592
67	0.0126244	0.0195047	0.0185491	0.048351	0.00246115	0.0338787	0.0253152	-0.0300018	0.00385563	-0.0593635	-0.040688	0.0319621	0.0491654	-0.0014621	0.0221505	-2.2137	0.027281	-1.52434	0	0	0	0	-0	0	0	0	-0.1265	0	-0	0	0	0	0	0	-0	0	0.105	0.015	0	0	-0	0	0	0.098	0.1	0	-0	0	0	0	0	0	-0	0	0.05595	0	0	0	-0	0	0	0	0	0	-0	0	573.32	569.433	305.046	222.046	0.524756	-6.45207	0.00139551	-0.0208622	22.9621
68	0.0102467	0.0195017	0.018545	0.0483669	0.00246311	0.0338816	0.0253162	-0.0300035	0.00385682	-0.0689714	-0.046294	0.0300659	0.0492189	-0.00146238	0.0220314	-2.21627	0.0275569	-1.52423	0	0	0	0	-0	0	0	0	-0.1265	0	-0	0	0	0	0	0	-0	0	0.105	0.015	0	0	-0	0	0	0.098	0.1	0	-0	0	0	0	0	0	-0	0	0.05595	0	0	0	-0	0	0	0	0	0	-0	0	573.323	569.448	304.909	222.166	0.527239	-6.48525	0.00134542	-0.0209348	23.1125
69	0.00824184	0.0194962	0.0185432	0.0483694	0.00247228	0.0338897	0.0253164	-0.0300024	0.00385746	-0.0720484	-0.0530416	0.0269267	0.0492635	-0.00146237	0.0219318	-2.21838	0.0277374	-1.52419	0	0	0	0	-0	0	0	0	-0.1265	0	-0	0	0	0	0	0	-0	0	0.105	0.015	0	0	-0	0	0	0.098	0.1	0	-0	0	0	0	0	0	-0	0	0.05595	0	0	0	-0	0	0	0	0	0	-0	0	573.321	569.457	304.84	222.225	0.529005	-6.50353	0.00127788	-0.0209655	23.1881
70	0.00942012	0.0194951	0.0185399	0.0483786	0.00247173	0.0338924	0.0253165	-0.0300017	0.00385801	-0.0734292	-0.0617294	0.0265739	0.0492376	-0.0014624	0.021989	-2.21727	0.0277462	-1.52409	0	0	0	0	-0	0	0	0	-0.1265	0	-0	0	0	0	0	0	-0	0	0.105	0.015	0	0	-0	0	0	0.098	0.1	0	-0	0	0	0	0	0	-0	0	0.05595	0	0	0	-0	0	0	0	0	0	-0	0	573.319	569.463	304.788	222.268	0.530168	-6.51674	0.00123918	-0.0209909	23.2452
71	0.0150717	0.0194945	0.0185378	0.048385	0.00247084	0.0338941	0.0253154	-0.0300015	0.00385826	-0.0694337	-0.0614243	0.026425	0.0491133	-0.00146239	0.0222668	-2.21167	0.0275294	-1.52388	0	0	0	0	-0	0	0	0	-0.1265	0	-0	0	0	0	0	0	-0	0	0.105	0.015	0	0	-0	0	0	0.098	0.1	0	-0	0	0	0	0	0	-0	0	0.05595	0	0	0	-0	0	0	0	0	0	-0	0	573.317	569.467	304.749	222.3	0.531093	-6.52698	0.00120938	-0.0210098	23.2887
72	0.015769	0.0195114	0.0185324	0.0483786	0.00245731	0.0338897	0.0253142	-0.0300021	0.00385688	-0.059658	-0.0654042	0.0288611	0.0490968	-0.00146141	0.0223007	-2.21109	0.0275861	-1.52378	0	0	0	0	-0	0	0	0	-0.1265	0	-0	0	0	0	0	0	-0	0	0.105	0.015	0	0	-0	0	0	0.098	0.1	0	-0	0	0	0	0	0	-0	0	0.05595	0	0	0	-0	0	0	0	0	0	-0	0	573.317	569.474	304.661	222.371	0.532595	-6.54878	0.00121446	-0.0210574	23.3853
73	0.0159203	0.0195196	0.0185279	0.0483765	0.00245228	0.0338875	0.0253142	-0.0300016	0.00385708	-0.0554088	-0.0652258	0.0243166	0.0490926	-0.0014607	0.0223086	-2.211	0.0276243	-1.52373	0	0	0	0	-0	0	0	0	-0.1265	0	-0	0	0	0	0	0	-0	0	0.105	0.015	0	0	-0	0	0	0.098	0.1	0	-0	0	0	0	0	0	-0	0	0.05595	0	0	0	-0	0	0	0	0	0	-0	0	573.316	569.48	304.617	222.405	0.533642	-6.56042	0.00119231	-0.0210797	23.4324
74	0.0177959	0.0195149	0.0185265	0.048386	0.00245511	0.0338896	0.0253144	-0.0300012	0.00385769	-0.0560196	-0.0663173	0.028792	0.0490509	-0.00146098	0.0224	-2.20916	0.0275791	-1.52363	0	0	0	0	-0	0	0	0	-0.1265	0	-0	0	0	0	0	0	-0	0	0.105	0.015	0	0	-0	0	0	0.098	0.1	0	-0	0	0	0	0	0	-0	0	0.05595	0	0	0	-0	0	0	0	0	0	-0	0	573.315	569.482	304.585	222.431	0.53443	-6.56882	0.00115963	-0.0210959	23.4682
75	0.0174088	0.0195159	0.0185246	0.0483907	0.00245409	0.0338904	0.0253148	-0.030001	0.00385813	-0.0541223	-0.0598302	0.0296481	0.0490601	-0.00146095	0.0223798	-2.20965	0.0276816	-1.52355	0	0	0	0	-0	0	0	0	-0.1265	0	-0	0	0	0	0	0	-0	0	0.105	0.015	0	0	-0	0	0	0.098	0.1	0	-0	0	0	0	0	0	-0	0	0.05595	0	0	0	-0	0	0	0	0	0	-0	0	573.314	569.487	304.513	222.489	0.535783	-6.58681	0.00113553	-0.0211336	23.5484
76	0.0123737	0.0195121	0.0185223	0.0484007	0.00245703	0.0338938	0.0253143	-0.030001	0.0038586	-0.0504913	-0.0610341	0.0328031	0.0491739	-0.00146114	0.0221308	-2.21482	0.0280457	-1.52356	0	0	0	0	-0	0	0	0	-0.1265	0	-0	0	0	0	0	0	-0	0	0.105	0.015	0	0	-0	0	0	0.098	0.1	0	-0	0	0	0	0	0	-0	0	0.05595	0	0	0	-0	0	0	0	0	0	-0	0	573.311	569.492	304.408	222.573	0.537845	-6.6133	0.00109286	-0.021188	23.6658
77	0.0111402	0.0195245	0.0185175	0.048393	0.00244846	0.0338926	0.0253146	-0.0300013	0.00385855	-0.0512671	-0.0556704	0.0398226	0.0492	-0.00146014	0.0220706	-2.21611	0.0281573	-1.52354	0	0	0	0	-0	0	0	0	-0.1265	0	-0	0	0	0	0	0	-0	0	0.105	0.015	0	0	-0	0	0	0.098	0.1	0	-0	0	0	0	0	0	-0	0	0.05595	0	0	0	-0	0	0	0	0	0	-0	0	573.308	569.497	304.355	222.614	0.539101	-6.62778	0.00107619	-0.0212133	23.7246
78	0.0106155	0.0195138	0.0185167	0.0484077	0.0024566	0.0338984	0.0253142	-0.0300012	0.00385972	-0.0571944	-0.054572	0.0428993	0.049212	-0.0014608	0.0220437	-2.21669	0.028239	-1.52349	0	0	0	0	-0	0	0	0	-0.1265	0	-0	0	0	0	0	0	-0	0	0.105	0.015	0	0	-0	0	0	0.098	0.1	0	-0	0	0	0	0	0	-0	0	0.05595	0	0	0	-0	0	0	0	0	0	-0	0	573.305	569.499	304.315	222.644	0.54018	-6.6383	0.00102322	-0.0212331	23.7682
79	0.0105719	0.0195175	0.0185129	0.0484162	0.0024529	0.0338984	0.0253143	-0.0300009	0.00385987	-0.0610447	-0.0574978	0.0461309	0.0492135	-0.00146075	0.02204	-2.21684	0.0283421	-1.52339	0	0	0	0	-0	0	0	0	-0.1265	0	-0	0	0	0	0	0	-0	0	0.105	0.015	0	0	-0	0	0	0.098	0.1	0	-0	0	0	0	0	0	-0	0	0.05595	0	0	0	-0	0	0	0	0	0	-0	0	573.301	569.502	304.228	222.711	0.54186	-6.66083	0.000999545	-0.0212815	23.8673
80	0.00682303	0.0195194	0.0185092	0.048421	0.00245176	0.0338997	0.0253161	-0.0300008	0.00386086	-0.0631629	-0.0695804	0.043036	0.049297	-0.00146053	0.0218538	-2.22075	0.0286678	-1.52334	0	0	0	0	-0	0	0	0	-0.1265	0	-0	0	0	0	0	0	-0	0	0.105	0.015	0	0	-0	0	0	0.098	0.1	0	-0	0	0	0	0	0	-0	0	0.05595	0	0	0	-0	0	0	0	0	0	-0	0	573.297	569.504	304.102	222.809	0.544385	-6.6938	0.000963889	-0.0213479	24.0116
81	0.00875987	0.0195055	0.0185079	0.0484371	0.00246353	0.0339104	0.025314	-0.0300068	0.00386388	-0.0851822	-0.0647938	0.0477311	0.0492566	-0.00146129	0.0219458	-2.21904	0.0288	-1.52304	0	0	0	0	-0	0	0	0	-0.1265	0	-0	0	0	0	0	0	-0	0	0.105	0.015	0	0	-0	0	0	0.098	0.1	0	-0	0	0	0	0	0	-0	0	0.05595	0	0	0	-0	0	0	0	0	0	-0	0	573.287	569.506	303.923	222.949	0.548342	-6.74337	0.000879261	-0.0214389	24.228
82	0.0121521	0.0195134	0.0184975	0.0484522	0.00246338	0.0339157	0.0253155	-0.0300012	0.00386288	-0.0824975	-0.0768674	0.0504253	0.0491813	-0.00146109	0.0221128	-2.21576	0.0287415	-1.52283	0	0	0	0	-0	0	0	0	-0.1265	0	-0	0	0	0	0	0	-0	0	0.105	0.015	0	0	-0	0	0	0.098	0.1	0	-0	0	0	0	0	0	-0	0	0.05595	0	0	0	-0	0	0	0	0	0	-0	0	573.28	569.507	303.832	223.016	0.550803	-6.77037	0.000821436	-0.0214935	24.3341
83	0.0105732	0.0195185	0.0184958	0.0484417	0.00245579	0.0339145	0.0253142	-0.0300005	0.00386179	-0.0844029	-0.0771259	0.0540516	0.0492155	-0.00146027	0.0220355	-2.21738	0.0288583	-1.52284	0	0	0	0	-0	0	0	0	-0.1265	0	-0	0	0	0	0	0	-0	0	0.105	0.015	0	0	-0	0	0	0.098	0.1	0	-0	0	0	0	0	0	-0	0	0.05595	0	0	0	-0	0	0	0	0	0	-0	0	573.274	569.509	303.794	223.042	0.55192	-6.7811	0.000788339	-0.0215046	24.3767
84	0.0145281	0.0195283	0.0184907	0.0484447	0.00244549	0.0339108	0.0253142	-0.0300001	0.00386087	-0.085559	-0.0700175	0.0479619	0.0491286	-0.0014595	0.022229	-2.21353	0.0287647	-1.52263	0	0	0	0	-0	0	0	0	-0.1265	0	-0	0	0	0	0	0	-0	0	0.105	0.015	0	0	-0	0	0	0.098	0.1	0	-0	0	0	0	0	0	-0	0	0.05595	0	0	0	-0	0	0	0	0	0	-0	0	573.266	569.509	303.705	223.104	0.553708	-6.80422	0.000766904	-0.0215514	24.4762
85	0.0143579	0.0195359	0.0184897	0.0484306	0.00244127	0.0339108	0.0253133	-0.0299999	0.00386024	-0.0873835	-0.0722003	0.0502618	0.0491314	-0.00145858	0.0222218	-2.21371	0.0287812	-1.52264	0	0	0	0	-0	0	0	0	-0.1265	0	-0	0	0	0	0	0	-0	0	0.105	0.015	0	0	-0	0	0	0.098	0.1	0	-0	0	0	0	0	0	-0	0	0.05595	0	0	0	-0	0	0	0	0	0	-0	0	573.264	569.509	303.693	223.113	0.554261	-6.80844	0.000755341	-0.0215519	24.4894
86	0.0140539	0.0195388	0.0184867	0.0484379	0.00243739	0.0339093	0.0253127	-0.0299996	0.0038608	-0.0863181	-0.0728487	0.0483526	0.0491379	-0.00145841	0.0222065	-2.21404	0.0288244	-1.52262	0	0	0	0	-0	0	0	0	-0.1265	0	-0	0	0	0	0	0	-0	0	0.105	0.015	0	0	-0	0	0	0.098	0.1	0	-0	0	0	0	0	0	-0	0	0.05595	0	0	0	-0	0	0	0	0	0	-0	0	573.261	569.509	303.667	223.13	0.554845	-6.81512	0.000740075	-0.0215668	24.5171
87	0.017914	0.0195407	0.0184844	0.0484448	0.00243464	0.0339083	0.0253131	-0.0300005	0.00386066	-0.0915174	-0.0718465	0.0412566	0.0490524	-0.00145838	0.0223954	-2.21022	0.0286822	-1.52246	0	0	0	0	-0	0	0	0	-0.1265	0	-0	0	0	0	0	0	-0	0	0.105	0.015	0	0	-0	0	0	0.098	0.1	0	-0	0	0	0	0	0	-0	0	0.05595	0	0	0	-0	0	0	0	0	0	-0	0	573.256	569.51	303.63	223.155	0.555672	-6.82493	0.000719851	-0.0215881	24.5582
88	0.0218784	0.0195454	0.0184839	0.0484346	0.00243424	0.0339096	0.0253132	-0.03	0.00386014	-0.0930697	-0.0769747	0.0453126	0.0489642	-0.00145791	0.0225893	-2.20632	0.0285527	-1.52228	0	0	0	0	-0	0	0	0	-0.1265	0	-0	0	0	0	0	0	-0	0	0.105	0.015	0	0	-0	0	0	0.098	0.1	0	-0	0	0	0	0	0	-0	0	0.05595	0	0	0	-0	0	0	0	0	0	-0	0	573.251	569.509	303.573	223.193	0.556892	-6.83989	0.000701963	-0.0216158	24.6207
89	0.0215347	0.0195458	0.0184824	0.0484357	0.00243344	0.0339107	0.0253126	-0.0299999	0.0038606	-0.0972691	-0.0767824	0.0486999	0.0489717	-0.00145773	0.022572	-2.2067	0.0286023	-1.52226	0	0	0	0	-0	0	0	0	-0.1265	0	-0	0	0	0	0	0	-0	0	0.105	0.015	0	0	-0	0	0	0.098	0.1	0	-0	0	0	0	0	0	-0	0	0.05595	0	0	0	-0	0	0	0	0	0	-0	0	573.247	569.509	303.544	223.212	0.557634	-6.84747	0.000678371	-0.0216288	24.651
90	0.0229036	0.0195443	0.0184794	0.0484492	0.00243275	0.0339112	0.0253134	-0.0300001	0.00386169	-0.0929385	-0.0705543	0.0515061	0.0489415	-0.00145795	0.0226375	-2.20539	0.0286105	-1.52214	0	0	0	0	-0	0	0	0	-0.1265	0	-0	0	0	0	0	0	-0	0	0.105	0.015	0	0	-0	0	0	0.098	0.1	0	-0	0	0	0	0	0	-0	0	0.05595	0	0	0	-0	0	0	0	0	0	-0	0	573.24	569.506	303.482	223.253	0.558938	-6.86385	0.000650931	-0.0216643	24.7215
91	0.0224214	0.0195372	0.0184787	0.0484596	0.00243864	0.0339163	0.0253128	-0.0300001	0.00386197	-0.0993569	-0.067252	0.047479	0.0489538	-0.00145841	0.0226118	-2.20597	0.0287453	-1.52203	0	0	0	0	-0	0	0	0	-0.1265	0	-0	0	0	0	0	0	-0	0	0.105	0.015	0	0	-0	0	0	0.098	0.1	0	-0	0	0	0	0	0	-0	0	0.05595	0	0	0	-0	0	0	0	0	0	-0	0	573.231	569.502	303.392	223.313	0.560953	-6.88781	0.000601428	-0.0217118	24.8232
92	0.0212595	0.0195469	0.018475	0.0484545	0.00243154	0.0339148	0.0253123	-0.0299993	0.00386166	-0.0989297	-0.0686726	0.0497423	0.0489789	-0.00145765	0.0225561	-2.20715	0.0288094	-1.52206	0	0	0	0	-0	0	0	0	-0.1265	0	-0	0	0	0	0	0	-0	0	0.105	0.015	0	0	-0	0	0	0.098	0.1	0	-0	0	0	0	0	0	-0	0	0.05595	0	0	0	-0	0	0	0	0	0	-0	0	573.229	569.502	303.379	223.321	0.56145	-6.89209	0.000595639	-0.021717	24.8367
93	0.0206235	0.0195494	0.0184727	0.0484583	0.00242803	0.0339136	0.0253121	-0.0299991	0.00386194	-0.0994979	-0.0693849	0.0469678	0.0489932	-0.00145748	0.0225247	-2.20781	0.0288696	-1.52205	0	0	0	0	-0	0	0	0	-0.1265	0	-0	0	0	0	0	0	-0	0	0.105	0.015	0	0	-0	0	0	0.098	0.1	0	-0	0	0	0	0	0	-0	0	0.05595	0	0	0	-0	0	0	0	0	0	-0	0	573.225	569.502	303.353	223.338	0.562093	-6.89921	0.000578743	-0.0217312	24.8657
94	0.0212393	0.0195498	0.0184713	0.0484631	0.00242693	0.0339138	0.025312	-0.029999	0.00386231	-0.100267	-0.0682239	0.0487603	0.0489796	-0.00145748	0.0225541	-2.20723	0.0288853	-1.52198	0	0	0	0	-0	0	0	0	-0.1265	0	-0	0	0	0	0	0	-0	0	0.105	0.015	0	0	-0	0	0	0.098	0.1	0	-0	0	0	0	0	0	-0	0	0.05595	0	0	0	-0	0	0	0	0	0	-0	0	573.221	569.501	303.314	223.362	0.562948	-6.90929	0.000558884	-0.0217522	24.908
95	0.0196608	0.0195508	0.0184693	0.0484683	0.00242553	0.0339143	0.0253121	-0.0299996	0.0038629	-0.0940732	-0.0680586	0.0450311	0.0490158	-0.00145744	0.0224759	-2.20886	0.0290288	-1.52196	0	0	0	0	-0	0	0	0	-0.1265	0	-0	0	0	0	0	0	-0	0	0.105	0.015	0	0	-0	0	0	0.098	0.1	0	-0	0	0	0	0	0	-0	0	0.05595	0	0	0	-0	0	0	0	0	0	-0	0	573.215	569.498	303.257	223.399	0.564183	-6.92449	0.000536513	-0.0217831	24.9723
96	0.0220563	0.0195492	0.0184682	0.0484721	0.00242756	0.0339171	0.0253123	-0.0299993	0.00386301	-0.0935395	-0.067435	0.0399831	0.048962	-0.00145753	0.0225931	-2.2065	0.0289473	-1.52185	0	0	0	0	-0	0	0	0	-0.1265	0	-0	0	0	0	0	0	-0	0	0.105	0.015	0	0	-0	0	0	0.098	0.1	0	-0	0	0	0	0	0	-0	0	0.05595	0	0	0	-0	0	0	0	0	0	-0	0	573.211	569.497	303.229	223.416	0.565018	-6.93271	0.000507531	-0.0217976	25.0042
97	0.0273426	0.0195511	0.0184667	0.0484724	0.00242632	0.033918	0.0253123	-0.0299993	0.00386308	-0.0947095	-0.0666455	0.0453655	0.0488433	-0.00145736	0.0228507	-2.20128	0.0287609	-1.52162	0	0	0	0	-0	0	0	0	-0.1265	0	-0	0	0	0	0	0	-0	0	0.105	0.015	0	0	-0	0	0	0.098	0.1	0	-0	0	0	0	0	0	-0	0	0.05595	0	0	0	-0	0	0	0	0	0	-0	0	573.202	569.494	303.165	223.456	0.566419	-6.94999	0.0004822	-0.0218307	25.077
98	0.0249434	0.0195567	0.0184636	0.0484703	0.00242244	0.0339185	0.0253131	-0.03	0.00386264	-0.0998553	-0.0715456	0.0520754	0.0488984	-0.00145687	0.0227322	-2.20377	0.0289823	-1.52158	0	0	0	0	-0	0	0	0	-0.1265	0	-0	0	0	0	0	0	-0	0	0.105	0.015	0	0	-0	0	0	0.098	0.1	0	-0	0	0	0	0	0	-0	0	0.05595	0	0	0	-0	0	0	0	0	0	-0	0	573.193	569.49	303.072	223.514	0.568407	-6.9748	0.000454337	-0.0218795	25.1817
99	0.0213214	0.0195496	0.018462	0.0484771	0.00242969	0.0339247	0.0253138	-0.0299993	0.00386465	-0.101733	-0.0604879	0.0576051	0.0489829	-0.00145703	0.0225522	-2.20753	0.0293208	-1.5215	0	0	0	0	-0	0	0	0	-0.1265	0	-0	0	0	0	0	0	-0	0	0.105	0.015	0	0	-0	0	0	0.098	0.1	0	-0	0	0	0	0	0	-0	0	0.05595	0	0	0	-0	0	0	0	0	0	-0	0	573.175	569.475	302.939	223.598	0.571451	-7.01133	0.000396827	-0.0219489	25.3347
100	0.0142404	0.0195387	0.0184589	0.0485008	0.00243555	0.0339323	0.0253132	-0.0299988	0.00386564	-0.102452	-0.066974	0.0578607	0.0491425	-0.00145779	0.0222038	-2.21466	0.0297573	-1.52161	0	0	0	0	-0	0	0	0	-0.1265	0	-0	0	0	0	0	0	-0	0	0.105	0.015	0	0	-0	0	0	0.098	0.1	0	-0	0	0	0	0	0	-0	0	0.05595	0	0	0	-0	0	0	0	0	0	-0	0	573.164	569.471	302.873	223.638	0.573431	-7.03081	0.000318932	-0.021983	25.4121
