Stefan210/kinematic_calibration/src/kinematic_calibration/validation/experiments/experiments/single_point_vs_pose/marker_pose/rarm_100/optimization_intermediate_results.csv
iteration	HeadPitch_offset	HeadYaw_offset	RElbowRoll_offset	RElbowYaw_offset	RShoulderPitch_offset	RShoulderRoll_offset	marker_transform_rarm_tx	marker_transform_rarm_ty	marker_transform_rarm_tz	marker_transform_rarm_rr	marker_transform_rarm_rp	marker_transform_rarm_ry	camera_transform_tx	camera_transform_ty	camera_transform_tz	camera_transform_rr	camera_transform_rp	camera_transform_ry	HeadPitch_transform_tx	HeadPitch_transform_ty	HeadPitch_transform_tz	HeadPitch_transform_rr	HeadPitch_transform_rp	HeadPitch_transform_ry	HeadYaw_transform_tx	HeadYaw_transform_ty	HeadYaw_transform_tz	HeadYaw_transform_rr	HeadYaw_transform_rp	HeadYaw_transform_ry	RElbowRoll_transform_tx	RElbowRoll_transform_ty	RElbowRoll_transform_tz	RElbowRoll_transform_rr	RElbowRoll_transform_rp	RElbowRoll_transform_ry	RElbowYaw_transform_tx	RElbowYaw_transform_ty	RElbowYaw_transform_tz	RElbowYaw_transform_rr	RElbowYaw_transform_rp	RElbowYaw_transform_ry	RShoulderPitch_transform_tx	RShoulderPitch_transform_ty	RShoulderPitch_transform_tz	RShoulderPitch_transform_rr	RShoulderPitch_transform_rp	RShoulderPitch_transform_ry	RShoulderRoll_transform_tx	RShoulderRoll_transform_ty	RShoulderRoll_transform_tz	RShoulderRoll_transform_rr	RShoulderRoll_transform_rp	RShoulderRoll_transform_ry	RWristYaw_transform_tx	RWristYaw_transform_ty	RWristYaw_transform_tz	RWristYaw_transform_rr	RWristYaw_transform_rp	RWristYaw_transform_ry	r_wrist_joint_transform_tx	r_wrist_joint_transform_ty	r_wrist_joint_transform_tz	r_wrist_joint_transform_rr	r_wrist_joint_transform_rp	r_wrist_joint_transform_ry	camera_fx	camera_fy	camera_cx	camera_cy	camera_D0	camera_D1	camera_D2	camera_D3	camera_D4	
0	0.0230449	0.0294606	-0.0013508	-0.00116347	0.000678263	0.00258603	0.05071	0	0.01774	-2.26369	1.66533e-16	-1.5708	545.901	551.038	324.928	201.58	0.0255298	2.61142	-0.0636736	-0.0350419	0.213964
1	-0.0139446	-0.0388126	-0.0187704	-0.0140665	-0.0123064	-0.043321	0.0260093	0.03598	-0.00204946	-0.580839	0.270282	0.177634	0.0518233	0.00215345	0.0230113	-2.20874	0.00694031	-1.53004	0	0	0	0	-0	0	0	0	-0.1265	0	-0	0	0	0	0	0	-0	0	0.105	-0.015	0	0	-0	0	0	-0.098	0.1	0	-0	0	0	0	0	0	-0	0	0.05595	0	0	0	-0	0	0	0	0	0	-0	0	545.902	551.039	324.931	201.582	-0.0772748	2.55519	-0.0838113	-0.0701806	0.196843
2	-0.008613	-0.0630077	-0.0518035	0.0193662	-0.0297579	-0.0330111	0.0232343	0.0297307	-0.000706432	-0.853552	0.288318	0.0696138	0.0493717	0.00407098	0.0302104	-2.2311	0.0227915	-1.52137	0	0	0	0	-0	0	0	0	-0.1265	0	-0	0	0	0	0	0	-0	0	0.105	-0.015	0	0	-0	0	0	-0.098	0.1	0	-0	0	0	0	0	0	-0	0	0.05595	0	0	0	-0	0	0	0	0	0	-0	0	545.905	551.039	324.937	201.589	-0.203209	2.40805	0.0413252	-0.0181823	0.13141
3	-0.0132542	-0.0357546	-0.0413267	0.00861724	-0.00898308	-0.0480942	0.0240354	0.027899	-0.000765039	-1.06675	0.245535	0.0317465	0.0530815	0.00243361	0.0222614	-2.21099	0.0101683	-1.54235	0	0	0	0	-0	0	0	0	-0.1265	0	-0	0	0	0	0	0	-0	0	0.105	-0.015	0	0	-0	0	0	-0.098	0.1	0	-0	0	0	0	0	0	-0	0	0.05595	0	0	0	-0	0	0	0	0	0	-0	0	545.912	551.039	324.948	201.597	-0.553609	2.11702	-0.0296687	-0.000136368	0.0217837
4	-0.0129804	-0.0292142	-0.0316412	-0.00649757	-0.00571608	-0.0547101	0.0238462	0.0285277	0.000196441	-1.26115	0.163536	0.0984851	0.0549677	0.00056758	0.0187721	-2.21125	0.0077005	-1.54757	0	0	0	0	-0	0	0	0	-0.1265	0	-0	0	0	0	0	0	-0	0	0.105	-0.015	0	0	-0	0	0	-0.098	0.1	0	-0	0	0	0	0	0	-0	0	0.05595	0	0	0	-0	0	0	0	0	0	-0	0	545.92	551.039	324.958	201.608	-0.803361	1.71929	0.0267237	0.0325308	-0.17124
5	-0.013538	-0.0178305	-0.0116751	-0.0176543	-0.00514622	-0.0571324	0.0228212	0.030248	0.00133985	-1.5581	0.109219	0.2415	0.0561415	-0.00226269	0.0160824	-2.20834	0.00782247	-1.54717	0	0	0	0	-0	0	0	0	-0.1265	0	-0	0	0	0	0	0	-0	0	0.105	-0.015	0	0	-0	0	0	-0.098	0.1	0	-0	0	0	0	0	0	-0	0	0.05595	0	0	0	-0	0	0	0	0	0	-0	0	545.935	551.035	324.965	201.617	-0.707712	1.26531	0.0206121	0.0228434	-0.439273
6	-0.0137289	-0.0212897	0.00134826	-0.00606196	-0.0153534	-0.0447077	0.0219483	0.028949	0.00012546	-1.69104	0.143748	0.253583	0.0542194	-0.00306625	0.017782	-2.20788	0.0141815	-1.53592	0	0	0	0	-0	0	0	0	-0.1265	0	-0	0	0	0	0	0	-0	0	0.105	-0.015	0	0	-0	0	0	-0.098	0.1	0	-0	0	0	0	0	0	-0	0	0.05595	0	0	0	-0	0	0	0	0	0	-0	0	545.954	551.026	324.968	201.62	-0.397875	0.917093	0.0148899	0.0050787	-0.669956
7	-0.013897	-0.0200316	0.00312876	-0.000948239	-0.0153706	-0.0440435	0.0217559	0.0288286	-0.000381465	-1.69265	0.152655	0.239352	0.0533093	-0.00326906	0.0185817	-2.20743	0.0140959	-1.53629	0	0	0	0	-0	0	0	0	-0.1265	0	-0	0	0	0	0	0	-0	0	0.105	-0.015	0	0	-0	0	0	-0.098	0.1	0	-0	0	0	0	0	0	-0	0	0.05595	0	0	0	-0	0	0	0	0	0	-0	0	545.996	551.003	324.972	201.619	-0.17859	0.611779	0.00205844	-0.00571753	-0.818097
8	-0.0138835	-0.0196284	0.00345954	0.000158148	-0.0152375	-0.0441613	0.0217366	0.0288103	-0.0004332	-1.69254	0.154331	0.235622	0.0528769	-0.00326798	0.0190286	-2.20743	0.0136775	-1.53687	0	0	0	0	-0	0	0	0	-0.1265	0	-0	0	0	0	0	0	-0	0	0.105	-0.015	0	0	-0	0	0	-0.098	0.1	0	-0	0	0	0	0	0	-0	0	0.05595	0	0	0	-0	0	0	0	0	0	-0	0	546.109	550.939	324.987	201.615	-0.0814402	0.418847	-0.00334538	-0.00914575	-0.757173
9	-0.0137899	-0.0194805	0.00353428	0.000249997	-0.0151964	-0.0441833	0.0217313	0.0288085	-0.00043576	-1.69224	0.154416	0.234807	0.0526423	-0.00324023	0.019269	-2.20754	0.0133284	-1.53739	0	0	0	0	-0	0	0	0	-0.1265	0	-0	0	0	0	0	0	-0	0	0.105	-0.015	0	0	-0	0	0	-0.098	0.1	0	-0	0	0	0	0	0	-0	0	0.05595	0	0	0	-0	0	0	0	0	0	-0	0	546.423	550.757	325.031	201.603	-0.0301481	0.188244	-0.00407627	-0.00979732	-0.433616
10	-0.0135571	-0.0192233	0.00366234	0.000110847	-0.0150977	-0.0442198	0.0217232	0.0288095	-0.000426789	-1.69158	0.154096	0.234319	0.0522981	-0.00319448	0.0196042	-2.20759	0.012684	-1.53836	0	0	0	0	-0	0	0	0	-0.1265	0	-0	0	0	0	0	0	-0	0	0.105	-0.015	0	0	-0	0	0	-0.098	0.1	0	-0	0	0	0	0	0	-0	0	0.05595	0	0	0	-0	0	0	0	0	0	-0	0	547.222	550.297	325.139	201.565	0.0386116	-0.200433	-0.00362295	-0.0102116	0.186985
11	-0.0137927	-0.0188897	0.00386659	-6.06198e-05	-0.014937	-0.0441589	0.0217044	0.028813	-0.000418327	-1.69028	0.153623	0.234186	0.0518742	-0.00313408	0.0199687	-2.20789	0.0117559	-1.53974	0	0	0	0	-0	0	0	0	-0.1265	0	-0	0	0	0	0	0	-0	0	0.105	-0.015	0	0	-0	0	0	-0.098	0.1	0	-0	0	0	0	0	0	-0	0	0.05595	0	0	0	-0	0	0	0	0	0	-0	0	548.888	549.397	325.37	201.476	0.101988	-0.594094	-0.00175437	-0.0108156	0.843348
12	-0.0128262	-0.0186	0.00409013	-0.000154717	-0.0147543	-0.0439591	0.0216771	0.0288184	-0.000418105	-1.68852	0.153229	0.234674	0.0515129	-0.00308375	0.0202792	-2.20663	0.0106324	-1.5412	0	0	0	0	-0	0	0	0	-0.1265	0	-0	0	0	0	0	0	-0	0	0.105	-0.015	0	0	-0	0	0	-0.098	0.1	0	-0	0	0	0	0	0	-0	0	0.05595	0	0	0	-0	0	0	0	0	0	-0	0	551.365	548.53	325.81	201.358	0.110036	-0.708787	0.00151591	-0.0113704	1.07415
13	0.00583977	-0.0184082	0.00420581	-0.000137503	-0.014636	-0.043801	0.0216586	0.0288222	-0.000423539	-1.68729	0.153142	0.235052	0.0508911	-0.00304263	0.0214413	-2.18798	0.00862251	-1.54271	0	0	0	0	-0	0	0	0	-0.1265	0	-0	0	0	0	0	0	-0	0	0.105	-0.015	0	0	-0	0	0	-0.098	0.1	0	-0	0	0	0	0	0	-0	0	0.05595	0	0	0	-0	0	0	0	0	0	-0	0	554.034	549.299	326.657	201.259	0.0817695	-0.608809	0.00371823	-0.0113208	0.956168
14	0.00616485	-0.0183073	0.0041899	-4.80142e-05	-0.0146198	-0.0437518	0.0216537	0.0288229	-0.000429812	-1.68697	0.153323	0.234818	0.0506317	-0.00299532	0.0217056	-2.18851	0.00648992	-1.54508	0	0	0	0	-0	0	0	0	-0.1265	0	-0	0	0	0	0	0	-0	0	0.105	-0.015	0	0	-0	0	0	-0.098	0.1	0	-0	0	0	0	0	0	-0	0	0.05595	0	0	0	-0	0	0	0	0	0	-0	0	556.634	552.025	328.114	201.296	0.0549786	-0.492374	0.00390609	-0.0105541	0.80642
15	0.00738852	-0.0182594	0.00410357	6.27304e-05	-0.0146934	-0.0436937	0.0216523	0.0288216	-0.000435421	-1.68704	0.153644	0.234102	0.050237	-0.00291969	0.0221937	-2.19017	0.00149219	-1.5506	0	0	0	0	-0	0	0	0	-0.1265	0	-0	0	0	0	0	0	-0	0	0.105	-0.015	0	0	-0	0	0	-0.098	0.1	0	-0	0	0	0	0	0	-0	0	0.05595	0	0	0	-0	0	0	0	0	0	-0	0	560.539	557.241	331.873	202.054	0.0195963	-0.32945	0.00328844	-0.00856182	0.603177
16	-0.0147277	-0.0182544	0.00408179	5.57028e-05	-0.0147208	-0.0436808	0.0216526	0.0288203	-0.000434498	-1.6871	0.153664	0.233855	0.0506372	-0.00290037	0.0211864	-2.21307	0.000760698	-1.55195	0	0	0	0	-0	0	0	0	-0.1265	0	-0	0	0	0	0	0	-0	0	0.105	-0.015	0	0	-0	0	0	-0.098	0.1	0	-0	0	0	0	0	0	-0	0	0.05595	0	0	0	-0	0	0	0	0	0	-0	0	561.414	558.411	332.796	202.314	0.0140109	-0.297198	0.00309299	-0.0081272	0.558449
17	-0.0300771	-0.0182542	0.00406821	6.07599e-05	-0.0147377	-0.043669	0.0216526	0.0288199	-0.000434533	-1.68714	0.153694	0.233735	0.0509004	-0.00288913	0.020469	-2.22899	0.000183914	-1.55286	0	0	0	0	-0	0	0	0	-0.1265	0	-0	0	0	0	0	0	-0	0	0.105	-0.015	0	0	-0	0	0	-0.098	0.1	0	-0	0	0	0	0	0	-0	0	0.05595	0	0	0	-0	0	0	0	0	0	-0	0	561.968	559.167	333.447	202.515	0.00961323	-0.275138	0.00300382	-0.00780062	0.53014
18	-0.0164243	-0.0182893	0.00402126	6.12066e-05	-0.0148054	-0.0436222	0.0216522	0.0288201	-0.000433607	-1.68717	0.153761	0.233549	0.0504827	-0.0028595	0.0213325	-2.21737	-0.00339534	-1.55637	0	0	0	0	-0	0	0	0	-0.1265	0	-0	0	0	0	0	0	-0	0	0.105	-0.015	0	0	-0	0	0	-0.098	0.1	0	-0	0	0	0	0	0	-0	0	0.05595	0	0	0	-0	0	0	0	0	0	-0	0	563.511	561.36	336.081	203.327	-0.0047939	-0.200229	0.00278901	-0.00653401	0.431782
19	-0.0227081	-0.0183828	0.00396484	1.48166e-05	-0.0149167	-0.0435563	0.0216519	0.0288208	-0.000429531	-1.68719	0.15375	0.233473	0.050492	-0.00283304	0.0211618	-2.22603	-0.00781532	-1.56119	0	0	0	0	-0	0	0	0	-0.1265	0	-0	0	0	0	0	0	-0	0	0.105	-0.015	0	0	-0	0	0	-0.098	0.1	0	-0	0	0	0	0	0	-0	0	0.05595	0	0	0	-0	0	0	0	0	0	-0	0	564.854	563.394	339.795	204.379	-0.0164673	-0.136068	0.00260988	-0.0047876	0.351791
20	-0.0258982	-0.0183856	0.00396024	-1.58519e-06	-0.0149263	-0.0435554	0.0216521	0.0288205	-0.000428459	-1.68721	0.153721	0.233446	0.0505478	-0.00282988	0.0210156	-2.22933	-0.00797134	-1.56135	0	0	0	0	-0	0	0	0	-0.1265	0	-0	0	0	0	0	0	-0	0	0.105	-0.015	0	0	-0	0	0	-0.098	0.1	0	-0	0	0	0	0	0	-0	0	0.05595	0	0	0	-0	0	0	0	0	0	-0	0	564.91	563.461	339.936	204.425	-0.0145261	-0.149287	0.00262956	-0.00468479	0.377946
21	-0.0200133	-0.0183974	0.00395376	-1.04093e-05	-0.0149407	-0.0435464	0.0216521	0.0288207	-0.000427749	-1.68721	0.153713	0.23344	0.050409	-0.00282653	0.0213319	-2.22378	-0.00861402	-1.56202	0	0	0	0	-0	0	0	0	-0.1265	0	-0	0	0	0	0	0	-0	0	0.105	-0.015	0	0	-0	0	0	-0.098	0.1	0	-0	0	0	0	0	0	-0	0	0.05595	0	0	0	-0	0	0	0	0	0	-0	0	565.059	563.684	340.417	204.578	-0.01497	-0.147557	0.002619	-0.00445838	0.379632
22	-0.0132121	-0.0184113	0.0039472	-1.94433e-05	-0.0149554	-0.0435376	0.021652	0.0288208	-0.000427052	-1.68721	0.153705	0.233444	0.0502518	-0.0028239	0.0216889	-2.21728	-0.00922974	-1.56268	0	0	0	0	-0	0	0	0	-0.1265	0	-0	0	0	0	0	0	-0	0	0.105	-0.015	0	0	-0	0	0	-0.098	0.1	0	-0	0	0	0	0	0	-0	0	0.05595	0	0	0	-0	0	0	0	0	0	-0	0	565.185	563.879	340.882	204.721	-0.015749	-0.143648	0.00261698	-0.00423704	0.376924
23	-0.0253512	-0.0184728	0.0039235	-5.08817e-05	-0.015013	-0.0435051	0.0216518	0.0288217	-0.00042465	-1.6872	0.153676	0.233499	0.050486	-0.00281739	0.0211166	-2.23037	-0.0112864	-1.56484	0	0	0	0	-0	0	0	0	-0.1265	0	-0	0	0	0	0	0	-0	0	0.105	-0.015	0	0	-0	0	0	-0.098	0.1	0	-0	0	0	0	0	0	-0	0	0.05595	0	0	0	-0	0	0	0	0	0	-0	0	565.551	564.494	342.688	205.187	-0.0193468	-0.12236	0.00257488	-0.00339427	0.352235
24	-0.034785	-0.0184857	0.0039178	-6.37435e-05	-0.0150281	-0.0434983	0.0216518	0.0288218	-0.00042376	-1.68721	0.153657	0.233509	0.0506723	-0.00281496	0.0206518	-2.24003	-0.0117221	-1.56523	0	0	0	0	-0	0	0	0	-0.1265	0	-0	0	0	0	0	0	-0	0	0.105	-0.015	0	0	-0	0	0	-0.098	0.1	0	-0	0	0	0	0	0	-0	0	0.05595	0	0	0	-0	0	0	0	0	0	-0	0	565.624	564.61	343.082	205.295	-0.0184838	-0.129971	0.00259682	-0.00318937	0.371004
25	-0.0354707	-0.0185385	0.0039004	-9.20803e-05	-0.015075	-0.0434735	0.0216516	0.0288226	-0.000421688	-1.68719	0.153625	0.233574	0.0506714	-0.00281167	0.0206367	-2.24134	-0.0134271	-1.56695	0	0	0	0	-0	0	0	0	-0.1265	0	-0	0	0	0	0	0	-0	0	0.105	-0.015	0	0	-0	0	0	-0.098	0.1	0	-0	0	0	0	0	0	-0	0	0.05595	0	0	0	-0	0	0	0	0	0	-0	0	565.813	564.963	344.496	205.615	-0.0200553	-0.120622	0.00256856	-0.00252698	0.364323
26	-0.0509114	-0.0185848	0.00388557	-0.000120074	-0.0151171	-0.0434533	0.0216515	0.0288233	-0.000419721	-1.68718	0.153587	0.23364	0.0509798	-0.00280894	0.0198708	-2.25727	-0.0148265	-1.5682	0	0	0	0	-0	0	0	0	-0.1265	0	-0	0	0	0	0	0	-0	0	0.105	-0.015	0	0	-0	0	0	-0.098	0.1	0	-0	0	0	0	0	0	-0	0	0.05595	0	0	0	-0	0	0	0	0	0	-0	0	565.938	565.211	345.697	205.864	-0.0200844	-0.122231	0.00256348	-0.00194923	0.377332
27	-0.0662317	-0.0185939	0.00388245	-0.000127854	-0.0151271	-0.0434488	0.0216514	0.0288235	-0.000419215	-1.68719	0.153573	0.233655	0.0512745	-0.00280786	0.0190932	-2.2727	-0.0150898	-1.56826	0	0	0	0	-0	0	0	0	-0.1265	0	-0	0	0	0	0	0	-0	0	0.105	-0.015	0	0	-0	0	0	-0.098	0.1	0	-0	0	0	0	0	0	-0	0	0.05595	0	0	0	-0	0	0	0	0	0	-0	0	565.958	565.249	345.934	205.917	-0.0191279	-0.130373	0.00258529	-0.00182353	0.396158
28	-0.0551768	-0.0185999	0.00388056	-0.000132273	-0.0151329	-0.043446	0.0216514	0.0288236	-0.000418907	-1.68719	0.153567	0.233664	0.051056	-0.00280743	0.0196603	-2.26171	-0.0153174	-1.56861	0	0	0	0	-0	0	0	0	-0.1265	0	-0	0	0	0	0	0	-0	0	0.105	-0.015	0	0	-0	0	0	-0.098	0.1	0	-0	0	0	0	0	0	-0	0	0.05595	0	0	0	-0	0	0	0	0	0	-0	0	565.97	565.275	346.094	205.952	-0.0188111	-0.132907	0.00258823	-0.00174523	0.402563
29	-0.0477745	-0.0186046	0.003879	-0.00013548	-0.0151371	-0.043444	0.0216514	0.0288236	-0.000418687	-1.68719	0.153562	0.233671	0.0509065	-0.00280717	0.0200384	-2.25436	-0.015477	-1.56887	0	0	0	0	-0	0	0	0	-0.1265	0	-0	0	0	0	0	0	-0	0	0.105	-0.015	0	0	-0	0	0	-0.098	0.1	0	-0	0	0	0	0	0	-0	0	0.05595	0	0	0	-0	0	0	0	0	0	-0	0	565.979	565.295	346.213	205.978	-0.0187302	-0.133686	0.00258998	-0.00168763	0.40511
30	-0.05218	-0.0186089	0.00387766	-0.000138303	-0.0151409	-0.0434422	0.0216514	0.0288237	-0.000418488	-1.68718	0.153558	0.233678	0.0509927	-0.00280698	0.0198148	-2.25881	-0.0156003	-1.56893	0	0	0	0	-0	0	0	0	-0.1265	0	-0	0	0	0	0	0	-0	0	0.105	-0.015	0	0	-0	0	0	-0.098	0.1	0	-0	0	0	0	0	0	-0	0	0.05595	0	0	0	-0	0	0	0	0	0	-0	0	565.987	565.313	346.321	206.001	-0.0186378	-0.134443	0.00258945	-0.00163533	0.407484
31	-0.0581014	-0.0186154	0.00387581	-0.000142075	-0.0151465	-0.0434395	0.0216514	0.0288238	-0.000418226	-1.68718	0.153553	0.233688	0.051109	-0.00280679	0.0195139	-2.26479	-0.0157837	-1.56903	0	0	0	0	-0	0	0	0	-0.1265	0	-0	0	0	0	0	0	-0	0	0.105	-0.015	0	0	-0	0	0	-0.098	0.1	0	-0	0	0	0	0	0	-0	0	0.05595	0	0	0	-0	0	0	0	0	0	-0	0	565.998	565.339	346.48	206.035	-0.0186546	-0.134492	0.0025898	-0.00155954	0.408852
32	-0.0693843	-0.0186421	0.00386871	-0.000155893	-0.0151688	-0.0434285	0.0216513	0.0288242	-0.000417258	-1.68717	0.153535	0.233731	0.0513272	-0.00280637	0.0189406	-2.27629	-0.0165563	-1.56961	0	0	0	0	-0	0	0	0	-0.1265	0	-0	0	0	0	0	0	-0	0	0.105	-0.015	0	0	-0	0	0	-0.098	0.1	0	-0	0	0	0	0	0	-0	0	0.05595	0	0	0	-0	0	0	0	0	0	-0	0	566.037	565.435	347.124	206.15	-0.0189704	-0.132582	0.00257883	-0.00125633	0.409908
33	-0.0648398	-0.0186457	0.00386734	-0.000158876	-0.0151729	-0.043427	0.0216512	0.0288243	-0.000417078	-1.68717	0.15353	0.23374	0.0512365	-0.00280594	0.0191748	-2.27178	-0.0166733	-1.56978	0	0	0	0	-0	0	0	0	-0.1265	0	-0	0	0	0	0	0	-0	0	0.105	-0.015	0	0	-0	0	0	-0.098	0.1	0	-0	0	0	0	0	0	-0	0	0.05595	0	0	0	-0	0	0	0	0	0	-0	0	566.042	565.446	347.21	206.167	-0.0185092	-0.136628	0.00259103	-0.00120815	0.419089
34	-0.0727876	-0.0186594	0.00386369	-0.000166777	-0.0151845	-0.0434215	0.0216512	0.0288245	-0.00041652	-1.68717	0.153519	0.233761	0.0513875	-0.00280567	0.0187696	-2.27984	-0.0170799	-1.57004	0	0	0	0	-0	0	0	0	-0.1265	0	-0	0	0	0	0	0	-0	0	0.105	-0.015	0	0	-0	0	0	-0.098	0.1	0	-0	0	0	0	0	0	-0	0	0.05595	0	0	0	-0	0	0	0	0	0	-0	0	566.058	565.49	347.545	206.228	-0.0183564	-0.13777	0.00258402	-0.00104951	0.423852
35	-0.0784495	-0.0186786	0.00385857	-0.000177145	-0.015201	-0.0434138	0.0216511	0.0288248	-0.000415805	-1.68716	0.153505	0.233793	0.051491	-0.00280526	0.0184812	-2.28564	-0.0176497	-1.57048	0	0	0	0	-0	0	0	0	-0.1265	0	-0	0	0	0	0	0	-0	0	0.105	-0.015	0	0	-0	0	0	-0.098	0.1	0	-0	0	0	0	0	0	-0	0	0.05595	0	0	0	-0	0	0	0	0	0	-0	0	566.082	565.553	348.004	206.304	-0.0182416	-0.13904	0.00257846	-0.000829752	0.43004
36	-0.0739285	-0.0186836	0.00385683	-0.000180793	-0.015206	-0.0434119	0.0216511	0.0288249	-0.000415572	-1.68716	0.153498	0.233803	0.0514056	-0.00280491	0.0187156	-2.28116	-0.0178056	-1.5707	0	0	0	0	-0	0	0	0	-0.1265	0	-0	0	0	0	0	0	-0	0	0.105	-0.015	0	0	-0	0	0	-0.098	0.1	0	-0	0	0	0	0	0	-0	0	0.05595	0	0	0	-0	0	0	0	0	0	-0	0	566.087	565.568	348.126	206.325	-0.0178824	-0.142168	0.00258511	-0.000766638	0.437581
37	-0.077047	-0.0186855	0.0038562	-0.000182095	-0.0152078	-0.0434111	0.0216511	0.028825	-0.000415485	-1.68716	0.153496	0.233807	0.0514631	-0.00280479	0.0185557	-2.2843	-0.0178619	-1.5707	0	0	0	0	-0	0	0	0	-0.1265	0	-0	0	0	0	0	0	-0	0	0.105	-0.015	0	0	-0	0	0	-0.098	0.1	0	-0	0	0	0	0	0	-0	0	0.05595	0	0	0	-0	0	0	0	0	0	-0	0	566.089	565.574	348.171	206.333	-0.0177357	-0.143334	0.00258608	-0.000743627	0.440327
38	-0.0791607	-0.0186862	0.00385598	-0.000182586	-0.0152085	-0.0434108	0.0216511	0.028825	-0.000415452	-1.68716	0.153495	0.233808	0.0515019	-0.00280475	0.0184471	-2.28642	-0.0178831	-1.57068	0	0	0	0	-0	0	0	0	-0.1265	0	-0	0	0	0	0	0	-0	0	0.105	-0.015	0	0	-0	0	0	-0.098	0.1	0	-0	0	0	0	0	0	-0	0	0.05595	0	0	0	-0	0	0	0	0	0	-0	0	566.089	565.576	348.188	206.336	-0.0176903	-0.143707	0.00258657	-0.000735024	0.44123
39	-0.0783811	-0.0186875	0.00385566	-0.000183501	-0.0152097	-0.0434102	0.0216511	0.028825	-0.000415387	-1.68716	0.153494	0.23381	0.0514872	-0.0028047	0.0184876	-2.28565	-0.017927	-1.57074	0	0	0	0	-0	0	0	0	-0.1265	0	-0	0	0	0	0	0	-0	0	0.105	-0.015	0	0	-0	0	0	-0.098	0.1	0	-0	0	0	0	0	0	-0	0	0.05595	0	0	0	-0	0	0	0	0	0	-0	0	566.091	565.58	348.223	206.342	-0.0176194	-0.144234	0.00258619	-0.000718354	0.442564
40	-0.0816967	-0.0186896	0.00385513	-0.000184782	-0.0152115	-0.0434094	0.0216511	0.028825	-0.000415298	-1.68716	0.153492	0.233813	0.0515483	-0.00280463	0.0183174	-2.28898	-0.0179916	-1.57074	0	0	0	0	-0	0	0	0	-0.1265	0	-0	0	0	0	0	0	-0	0	0.105	-0.015	0	0	-0	0	0	-0.098	0.1	0	-0	0	0	0	0	0	-0	0	0.05595	0	0	0	-0	0	0	0	0	0	-0	0	566.093	565.586	348.275	206.351	-0.0175373	-0.144868	0.00258583	-0.000693525	0.444256
41	-0.078561	-0.0186929	0.00385434	-0.000186616	-0.0152143	-0.043408	0.0216511	0.0288251	-0.000415173	-1.68716	0.15349	0.233819	0.0514905	-0.00280459	0.0184792	-2.28587	-0.0180872	-1.57088	0	0	0	0	-0	0	0	0	-0.1265	0	-0	0	0	0	0	0	-0	0	0.105	-0.015	0	0	-0	0	0	-0.098	0.1	0	-0	0	0	0	0	0	-0	0	0.05595	0	0	0	-0	0	0	0	0	0	-0	0	566.096	565.594	348.351	206.364	-0.0175186	-0.145086	0.00258636	-0.000656956	0.445298
42	-0.0843497	-0.0186988	0.0038528	-0.000189724	-0.0152192	-0.0434057	0.021651	0.0288252	-0.000414959	-1.68716	0.153485	0.233829	0.0515972	-0.00280455	0.0181816	-2.2917	-0.0182605	-1.57094	0	0	0	0	-0	0	0	0	-0.1265	0	-0	0	0	0	0	0	-0	0	0.105	-0.015	0	0	-0	0	0	-0.098	0.1	0	-0	0	0	0	0	0	-0	0	0.05595	0	0	0	-0	0	0	0	0	0	-0	0	566.101	565.61	348.49	206.387	-0.0174802	-0.145431	0.00258431	-0.000590874	0.447048
43	-0.0775421	-0.0187073	0.00385064	-0.000194289	-0.0152265	-0.0434025	0.021651	0.0288253	-0.000414643	-1.68715	0.153479	0.233843	0.0514724	-0.00280446	0.0185335	-2.28495	-0.0185077	-1.57129	0	0	0	0	-0	0	0	0	-0.1265	0	-0	0	0	0	0	0	-0	0	0.105	-0.015	0	0	-0	0	0	-0.098	0.1	0	-0	0	0	0	0	0	-0	0	0.05595	0	0	0	-0	0	0	0	0	0	-0	0	566.107	565.632	348.688	206.419	-0.0173476	-0.146497	0.00258035	-0.000495864	0.450731
44	-0.0749582	-0.0187086	0.00385014	-0.000195163	-0.0152278	-0.043402	0.021651	0.0288253	-0.000414598	-1.68716	0.153477	0.233847	0.0514232	-0.00280437	0.0186664	-2.28237	-0.0185393	-1.57137	0	0	0	0	-0	0	0	0	-0.1265	0	-0	0	0	0	0	0	-0	0	0.105	-0.015	0	0	-0	0	0	-0.098	0.1	0	-0	0	0	0	0	0	-0	0	0.05595	0	0	0	-0	0	0	0	0	0	-0	0	566.108	565.635	348.715	206.423	-0.0172946	-0.147191	0.00258602	-0.000480757	0.452504
45	-0.0721184	-0.0187131	0.00384901	-0.000197716	-0.0152316	-0.0434002	0.021651	0.0288254	-0.000414417	-1.68715	0.153474	0.233854	0.0513699	-0.00280432	0.0188129	-2.27956	-0.0186719	-1.57155	0	0	0	0	-0	0	0	0	-0.1265	0	-0	0	0	0	0	0	-0	0	0.105	-0.015	0	0	-0	0	0	-0.098	0.1	0	-0	0	0	0	0	0	-0	0	0.05595	0	0	0	-0	0	0	0	0	0	-0	0	566.111	565.646	348.823	206.44	-0.01719	-0.147917	0.00258258	-0.000429466	0.454751
46	-0.0771883	-0.0187167	0.00384799	-0.000199663	-0.0152348	-0.0433989	0.021651	0.0288255	-0.000414284	-1.68715	0.153471	0.23386	0.0514648	-0.00280423	0.0185531	-2.28466	-0.0187802	-1.57155	0	0	0	0	-0	0	0	0	-0.1265	0	-0	0	0	0	0	0	-0	0	0.105	-0.015	0	0	-0	0	0	-0.098	0.1	0	-0	0	0	0	0	0	-0	0	0.05595	0	0	0	-0	0	0	0	0	0	-0	0	566.114	565.656	348.907	206.453	-0.0170816	-0.148792	0.00258122	-0.000388511	0.457215
47	-0.0842405	-0.0187243	0.00384612	-0.00020377	-0.0152412	-0.0433959	0.0216509	0.0288256	-0.000414002	-1.68715	0.153465	0.233873	0.0515949	-0.00280416	0.0181907	-2.29176	-0.0190114	-1.57162	0	0	0	0	-0	0	0	0	-0.1265	0	-0	0	0	0	0	0	-0	0	0.105	-0.015	0	0	-0	0	0	-0.098	0.1	0	-0	0	0	0	0	0	-0	0	0.05595	0	0	0	-0	0	0	0	0	0	-0	0	566.12	565.676	349.088	206.48	-0.0170126	-0.149408	0.00257826	-0.000302297	0.459866
48	-0.0804519	-0.0187255	0.00384567	-0.00020449	-0.0152424	-0.0433954	0.0216509	0.0288256	-0.000413965	-1.68715	0.153464	0.233877	0.0515245	-0.00280407	0.0183861	-2.28798	-0.0190397	-1.57172	0	0	0	0	-0	0	0	0	-0.1265	0	-0	0	0	0	0	0	-0	0	0.105	-0.015	0	0	-0	0	0	-0.098	0.1	0	-0	0	0	0	0	0	-0	0	0.05595	0	0	0	-0	0	0	0	0	0	-0	0	566.121	565.678	349.112	206.484	-0.0169467	-0.150164	0.00258295	-0.000288538	0.461739
49	-0.0792038	-0.018728	0.00384505	-0.00020607	-0.0152446	-0.0433944	0.0216509	0.0288257	-0.000413854	-1.68715	0.153461	0.233881	0.0515009	-0.002804	0.0184507	-2.28675	-0.0191163	-1.57182	0	0	0	0	-0	0	0	0	-0.1265	0	-0	0	0	0	0	0	-0	0	0.105	-0.015	0	0	-0	0	0	-0.098	0.1	0	-0	0	0	0	0	0	-0	0	0.05595	0	0	0	-0	0	0	0	0	0	-0	0	566.123	565.685	349.174	206.494	-0.0168539	-0.150855	0.0025819	-0.000258843	0.463612
50	-0.074727	-0.0187329	0.00384378	-0.000208765	-0.0152488	-0.0433925	0.0216509	0.0288258	-0.000413669	-1.68715	0.153458	0.233889	0.0514181	-0.00280393	0.0186819	-2.2823	-0.019258	-1.57204	0	0	0	0	-0	0	0	0	-0.1265	0	-0	0	0	0	0	0	-0	0	0.105	-0.015	0	0	-0	0	0	-0.098	0.1	0	-0	0	0	0	0	0	-0	0	0.05595	0	0	0	-0	0	0	0	0	0	-0	0	566.128	565.698	349.291	206.511	-0.0167849	-0.151437	0.00257951	-0.000202683	0.465729
51	-0.0691878	-0.0187402	0.00384186	-0.000212393	-0.0152549	-0.0433898	0.0216509	0.0288259	-0.00041342	-1.68714	0.153453	0.233902	0.0513141	-0.00280387	0.0189673	-2.2768	-0.0194586	-1.57234	0	0	0	0	-0	0	0	0	-0.1265	0	-0	0	0	0	0	0	-0	0	0.105	-0.015	0	0	-0	0	0	-0.098	0.1	0	-0	0	0	0	0	0	-0	0	0.05595	0	0	0	-0	0	0	0	0	0	-0	0	566.134	565.718	349.459	206.535	-0.0167386	-0.151876	0.0025751	-0.00012215	0.467935
52	-0.071255	-0.0187412	0.00384141	-0.000213082	-0.0152561	-0.0433894	0.0216509	0.0288259	-0.000413383	-1.68715	0.153451	0.233905	0.0513523	-0.00280378	0.0188613	-2.27888	-0.0194896	-1.57233	0	0	0	0	-0	0	0	0	-0.1265	0	-0	0	0	0	0	0	-0	0	0.105	-0.015	0	0	-0	0	0	-0.098	0.1	0	-0	0	0	0	0	0	-0	0	0.05595	0	0	0	-0	0	0	0	0	0	-0	0	566.134	565.72	349.482	206.538	-0.0166425	-0.152803	0.00257853	-0.000109409	0.470126
53	-0.0715113	-0.0187438	0.00384085	-0.000214719	-0.0152583	-0.0433884	0.0216509	0.0288259	-0.000413268	-1.68714	0.153449	0.233909	0.0513568	-0.00280373	0.0188485	-2.27915	-0.0195677	-1.5724	0	0	0	0	-0	0	0	0	-0.1265	0	-0	0	0	0	0	0	-0	0	0.105	-0.015	0	0	-0	0	0	-0.098	0.1	0	-0	0	0	0	0	0	-0	0	0.05595	0	0	0	-0	0	0	0	0	0	-0	0	566.136	565.725	349.544	206.547	-0.0165211	-0.153693	0.00257743	-7.95568e-05	0.472402
54	-0.0690816	-0.0187453	0.00384045	-0.000215675	-0.0152596	-0.0433878	0.0216509	0.028826	-0.000413206	-1.68714	0.153447	0.233912	0.0513109	-0.00280369	0.0189736	-2.27673	-0.019608	-1.57249	0	0	0	0	-0	0	0	0	-0.1265	0	-0	0	0	0	0	0	-0	0	0.105	-0.015	0	0	-0	0	0	-0.098	0.1	0	-0	0	0	0	0	0	-0	0	0.05595	0	0	0	-0	0	0	0	0	0	-0	0	566.136	565.728	349.58	206.553	-0.016456	-0.154258	0.00257854	-6.19274e-05	0.473861
55	-0.0666481	-0.0187466	0.0038401	-0.000216407	-0.0152607	-0.0433873	0.0216509	0.028826	-0.000413158	-1.68714	0.153446	0.233914	0.0512646	-0.00280367	0.0190985	-2.2743	-0.0196408	-1.57257	0	0	0	0	-0	0	0	0	-0.1265	0	-0	0	0	0	0	0	-0	0	0.105	-0.015	0	0	-0	0	0	-0.098	0.1	0	-0	0	0	0	0	0	-0	0	0.05595	0	0	0	-0	0	0	0	0	0	-0	0	566.137	565.731	349.61	206.557	-0.0164281	-0.154507	0.0025785	-4.73142e-05	0.474621
56	-0.0704556	-0.0187476	0.00383984	-0.000216895	-0.0152616	-0.0433869	0.0216508	0.028826	-0.000413125	-1.68714	0.153445	0.233916	0.0513371	-0.00280366	0.0189033	-2.27812	-0.019675	-1.57252	0	0	0	0	-0	0	0	0	-0.1265	0	-0	0	0	0	0	0	-0	0	0.105	-0.015	0	0	-0	0	0	-0.098	0.1	0	-0	0	0	0	0	0	-0	0	0.05595	0	0	0	-0	0	0	0	0	0	-0	0	566.138	565.733	349.632	206.56	-0.016411	-0.154662	0.0025786	-3.64221e-05	0.475113
57	-0.0724496	-0.0187497	0.00383933	-0.000218029	-0.0152634	-0.0433862	0.0216508	0.028826	-0.000413045	-1.68714	0.153444	0.233919	0.0513745	-0.00280366	0.018801	-2.28012	-0.0197397	-1.57254	0	0	0	0	-0	0	0	0	-0.1265	0	-0	0	0	0	0	0	-0	0	0.105	-0.015	0	0	-0	0	0	-0.098	0.1	0	-0	0	0	0	0	0	-0	0	0.05595	0	0	0	-0	0	0	0	0	0	-0	0	566.138	565.737	349.681	206.568	-0.0163324	-0.155201	0.00257636	-1.28298e-05	0.476559
58	-0.0751284	-0.0187529	0.00383851	-0.000219676	-0.0152661	-0.043385	0.0216508	0.0288261	-0.000412932	-1.68714	0.153441	0.233925	0.0514247	-0.00280362	0.0186637	-2.28282	-0.0198353	-1.57257	0	0	0	0	-0	0	0	0	-0.1265	0	-0	0	0	0	0	0	-0	0	0.105	-0.015	0	0	-0	0	0	-0.098	0.1	0	-0	0	0	0	0	0	-0	0	0.05595	0	0	0	-0	0	0	0	0	0	-0	0	566.14	565.745	349.754	206.578	-0.0162984	-0.155506	0.00257496	2.22918e-05	0.477767
59	-0.0784656	-0.0187545	0.00383805	-0.000220594	-0.0152676	-0.0433844	0.0216508	0.0288261	-0.000412872	-1.68714	0.15344	0.233928	0.0514867	-0.00280359	0.0184923	-2.28617	-0.0198879	-1.57255	0	0	0	0	-0	0	0	0	-0.1265	0	-0	0	0	0	0	0	-0	0	0.105	-0.015	0	0	-0	0	0	-0.098	0.1	0	-0	0	0	0	0	0	-0	0	0.05595	0	0	0	-0	0	0	0	0	0	-0	0	566.141	565.749	349.792	206.583	-0.0162377	-0.156033	0.00257525	4.08545e-05	0.479172
60	-0.0758804	-0.0187557	0.00383774	-0.000221289	-0.0152686	-0.0433839	0.0216508	0.0288262	-0.000412826	-1.68714	0.153439	0.23393	0.0514386	-0.00280357	0.0186254	-2.28359	-0.0199181	-1.57263	0	0	0	0	-0	0	0	0	-0.1265	0	-0	0	0	0	0	0	-0	0	0.105	-0.015	0	0	-0	0	0	-0.098	0.1	0	-0	0	0	0	0	0	-0	0	0.05595	0	0	0	-0	0	0	0	0	0	-0	0	566.141	565.752	349.82	206.587	-0.0162008	-0.156343	0.00257516	5.44682e-05	0.480036
61	-0.0726908	-0.0187566	0.00383751	-0.0002218	-0.0152694	-0.0433836	0.0216508	0.0288262	-0.000412792	-1.68714	0.153438	0.233932	0.051379	-0.00280355	0.0187895	-2.2804	-0.0199379	-1.57272	0	0	0	0	-0	0	0	0	-0.1265	0	-0	0	0	0	0	0	-0	0	0.105	-0.015	0	0	-0	0	0	-0.098	0.1	0	-0	0	0	0	0	0	-0	0	0.05595	0	0	0	-0	0	0	0	0	0	-0	0	566.142	565.753	349.84	206.59	-0.0161738	-0.156577	0.00257554	6.46162e-05	0.480681
62	-0.0677775	-0.0187586	0.00383705	-0.000222859	-0.0152711	-0.0433828	0.0216508	0.0288262	-0.000412719	-1.68714	0.153437	0.233935	0.0512863	-0.00280353	0.0190421	-2.2755	-0.0199851	-1.57287	0	0	0	0	-0	0	0	0	-0.1265	0	-0	0	0	0	0	0	-0	0	0.105	-0.015	0	0	-0	0	0	-0.098	0.1	0	-0	0	0	0	0	0	-0	0	0.05595	0	0	0	-0	0	0	0	0	0	-0	0	566.143	565.757	349.886	206.597	-0.016118	-0.156995	0.00257455	8.65627e-05	0.481882
63	-0.0664256	-0.0187615	0.00383635	-0.000224401	-0.0152735	-0.0433817	0.0216508	0.0288263	-0.000412614	-1.68714	0.153434	0.233941	0.05126	-0.00280353	0.0191114	-2.27417	-0.0200652	-1.57298	0	0	0	0	-0	0	0	0	-0.1265	0	-0	0	0	0	0	0	-0	0	0.105	-0.015	0	0	-0	0	0	-0.098	0.1	0	-0	0	0	0	0	0	-0	0	0.05595	0	0	0	-0	0	0	0	0	0	-0	0	566.144	565.763	349.954	206.606	-0.0160679	-0.157408	0.00257349	0.000118903	0.48325
64	-0.0732246	-0.0187672	0.00383491	-0.000227368	-0.0152783	-0.0433797	0.0216508	0.0288263	-0.000412411	-1.68714	0.15343	0.233951	0.05139	-0.00280352	0.0187632	-2.281	-0.0202415	-1.57299	0	0	0	0	-0	0	0	0	-0.1265	0	-0	0	0	0	0	0	-0	0	0.105	-0.015	0	0	-0	0	0	-0.098	0.1	0	-0	0	0	0	0	0	-0	0	0.05595	0	0	0	-0	0	0	0	0	0	-0	0	566.147	565.776	350.084	206.623	-0.0159924	-0.157998	0.00256945	0.000181617	0.485453
65	-0.0690048	-0.0187752	0.00383301	-0.000231458	-0.015285	-0.0433766	0.0216507	0.0288265	-0.000412136	-1.68713	0.153424	0.233965	0.0513097	-0.00280347	0.0189802	-2.27681	-0.0204594	-1.57329	0	0	0	0	-0	0	0	0	-0.1265	0	-0	0	0	0	0	0	-0	0	0.105	-0.015	0	0	-0	0	0	-0.098	0.1	0	-0	0	0	0	0	0	-0	0	0.05595	0	0	0	-0	0	0	0	0	0	-0	0	566.15	565.792	350.267	206.646	-0.0158582	-0.159154	0.00256656	0.000269674	0.489274
66	-0.0633076	-0.0187806	0.00383142	-0.000234364	-0.0152898	-0.0433746	0.0216507	0.0288266	-0.000411947	-1.68713	0.15342	0.233976	0.0512009	-0.00280335	0.0192732	-2.27115	-0.0206008	-1.57355	0	0	0	0	-0	0	0	0	-0.1265	0	-0	0	0	0	0	0	-0	0	0.105	-0.015	0	0	-0	0	0	-0.098	0.1	0	-0	0	0	0	0	0	-0	0	0.05595	0	0	0	-0	0	0	0	0	0	-0	0	566.156	565.806	350.393	206.662	-0.0157725	-0.160044	0.00256615	0.000331774	0.492218
67	-0.0663736	-0.0187845	0.00383036	-0.000236497	-0.0152933	-0.0433733	0.0216507	0.0288267	-0.0004118	-1.68713	0.153417	0.233982	0.0512588	-0.00280325	0.0191167	-2.27423	-0.0207218	-1.5736	0	0	0	0	-0	0	0	0	-0.1265	0	-0	0	0	0	0	0	-0	0	0.105	-0.015	0	0	-0	0	0	-0.098	0.1	0	-0	0	0	0	0	0	-0	0	0.05595	0	0	0	-0	0	0	0	0	0	-0	0	566.158	565.816	350.485	206.674	-0.0155733	-0.161591	0.00256353	0.000376564	0.49615
68	-0.0626554	-0.018786	0.00382994	-0.000237634	-0.0152948	-0.0433726	0.0216507	0.0288267	-0.000411729	-1.68713	0.153415	0.233986	0.0511873	-0.00280319	0.0193075	-2.27052	-0.0207571	-1.57372	0	0	0	0	-0	0	0	0	-0.1265	0	-0	0	0	0	0	0	-0	0	0.105	-0.015	0	0	-0	0	0	-0.098	0.1	0	-0	0	0	0	0	0	-0	0	0.05595	0	0	0	-0	0	0	0	0	0	-0	0	566.159	565.818	350.522	206.679	-0.01549	-0.162354	0.00256595	0.000395251	0.498066
69	-0.0608695	-0.0187864	0.00382979	-0.000237785	-0.0152951	-0.0433725	0.0216507	0.0288267	-0.000411722	-1.68713	0.153414	0.233987	0.0511525	-0.00280317	0.0193989	-2.26874	-0.0207602	-1.57376	0	0	0	0	-0	0	0	0	-0.1265	0	-0	0	0	0	0	0	-0	0	0.105	-0.015	0	0	-0	0	0	-0.098	0.1	0	-0	0	0	0	0	0	-0	0	0.05595	0	0	0	-0	0	0	0	0	0	-0	0	566.159	565.819	350.529	206.679	-0.0154796	-0.162481	0.00256666	0.000398989	0.498408
70	-0.0624011	-0.018787	0.00382962	-0.00023809	-0.0152956	-0.0433723	0.0216507	0.0288267	-0.0004117	-1.68713	0.153414	0.233988	0.0511821	-0.00280316	0.0193206	-2.27027	-0.0207822	-1.57375	0	0	0	0	-0	0	0	0	-0.1265	0	-0	0	0	0	0	0	-0	0	0.105	-0.015	0	0	-0	0	0	-0.098	0.1	0	-0	0	0	0	0	0	-0	0	0.05595	0	0	0	-0	0	0	0	0	0	-0	0	566.159	565.82	350.543	206.681	-0.0154503	-0.162684	0.00256581	0.000405788	0.498927
71	-0.0631133	-0.0187879	0.0038294	-0.000238589	-0.0152964	-0.043372	0.0216507	0.0288267	-0.000411664	-1.68713	0.153413	0.233989	0.0511958	-0.00280316	0.0192842	-2.27099	-0.0208102	-1.57376	0	0	0	0	-0	0	0	0	-0.1265	0	-0	0	0	0	0	0	-0	0	0.105	-0.015	0	0	-0	0	0	-0.098	0.1	0	-0	0	0	0	0	0	-0	0	0.05595	0	0	0	-0	0	0	0	0	0	-0	0	566.159	565.822	350.564	206.684	-0.0154168	-0.162916	0.00256479	0.000415912	0.499552
72	-0.0642485	-0.0187893	0.00382907	-0.000239304	-0.0152976	-0.0433715	0.0216507	0.0288267	-0.000411616	-1.68713	0.153412	0.233992	0.0512177	-0.00280316	0.0192261	-2.27213	-0.0208519	-1.57377	0	0	0	0	-0	0	0	0	-0.1265	0	-0	0	0	0	0	0	-0	0	0.105	-0.015	0	0	-0	0	0	-0.098	0.1	0	-0	0	0	0	0	0	-0	0	0.05595	0	0	0	-0	0	0	0	0	0	-0	0	566.159	565.825	350.595	206.688	-0.0153866	-0.163147	0.00256407	0.000430915	0.500262
73	-0.0680203	-0.0187913	0.00382857	-0.00024035	-0.0152992	-0.0433707	0.0216507	0.0288268	-0.000411545	-1.68713	0.153411	0.233995	0.0512901	-0.00280314	0.0190332	-2.27592	-0.0209197	-1.57375	0	0	0	0	-0	0	0	0	-0.1265	0	-0	0	0	0	0	0	-0	0	0.105	-0.015	0	0	-0	0	0	-0.098	0.1	0	-0	0	0	0	0	0	-0	0	0.05595	0	0	0	-0	0	0	0	0	0	-0	0	566.161	565.829	350.641	206.694	-0.0153578	-0.163408	0.00256329	0.000453045	0.501176
74	-0.0711641	-0.0187923	0.00382829	-0.000240857	-0.0153002	-0.0433703	0.0216507	0.0288268	-0.000411513	-1.68713	0.15341	0.233997	0.0513496	-0.00280312	0.0188719	-2.27907	-0.0209571	-1.57371	0	0	0	0	-0	0	0	0	-0.1265	0	-0	0	0	0	0	0	-0	0	0.105	-0.015	0	0	-0	0	0	-0.098	0.1	0	-0	0	0	0	0	0	-0	0	0.05595	0	0	0	-0	0	0	0	0	0	-0	0	566.161	565.831	350.664	206.697	-0.0153196	-0.163751	0.00256365	0.000464351	0.50209
75	-0.0699069	-0.0187925	0.00382823	-0.000241018	-0.0153004	-0.0433703	0.0216507	0.0288268	-0.000411503	-1.68713	0.15341	0.233998	0.0513255	-0.0028031	0.0189364	-2.27781	-0.0209592	-1.57374	0	0	0	0	-0	0	0	0	-0.1265	0	-0	0	0	0	0	0	-0	0	0.105	-0.015	0	0	-0	0	0	-0.098	0.1	0	-0	0	0	0	0	0	-0	0	0.05595	0	0	0	-0	0	0	0	0	0	-0	0	566.161	565.832	350.668	206.698	-0.0153042	-0.163896	0.00256426	0.000466821	0.502439
76	-0.0696055	-0.0187929	0.0038281	-0.000241267	-0.0153007	-0.0433701	0.0216507	0.0288268	-0.000411486	-1.68713	0.153409	0.233998	0.0513198	-0.0028031	0.0189519	-2.27751	-0.0209701	-1.57375	0	0	0	0	-0	0	0	0	-0.1265	0	-0	0	0	0	0	0	-0	0	0.105	-0.015	0	0	-0	0	0	-0.098	0.1	0	-0	0	0	0	0	0	-0	0	0.05595	0	0	0	-0	0	0	0	0	0	-0	0	566.162	565.833	350.678	206.699	-0.0152913	-0.163987	0.00256357	0.000471416	0.502702
77	-0.071114	-0.0187931	0.00382806	-0.00024139	-0.0153009	-0.04337	0.0216507	0.0288268	-0.000411478	-1.68713	0.153409	0.233999	0.0513484	-0.00280309	0.0188746	-2.27902	-0.0209805	-1.57373	0	0	0	0	-0	0	0	0	-0.1265	0	-0	0	0	0	0	0	-0	0	0.105	-0.015	0	0	-0	0	0	-0.098	0.1	0	-0	0	0	0	0	0	-0	0	0.05595	0	0	0	-0	0	0	0	0	0	-0	0	566.162	565.833	350.682	206.7	-0.0152795	-0.164093	0.00256389	0.000473787	0.502967
78	-0.0707234	-0.0187935	0.00382797	-0.000241647	-0.0153013	-0.0433699	0.0216507	0.0288268	-0.000411459	-1.68713	0.153409	0.233999	0.0513408	-0.00280307	0.0188947	-2.27863	-0.0209926	-1.57375	0	0	0	0	-0	0	0	0	-0.1265	0	-0	0	0	0	0	0	-0	0	0.105	-0.015	0	0	-0	0	0	-0.098	0.1	0	-0	0	0	0	0	0	-0	0	0.05595	0	0	0	-0	0	0	0	0	0	-0	0	566.162	565.834	350.693	206.701	-0.0152392	-0.164373	0.00256337	0.000478887	0.503609
79	-0.0718218	-0.0187942	0.00382784	-0.00024208	-0.0153019	-0.0433696	0.0216507	0.0288268	-0.000411431	-1.68713	0.153408	0.234001	0.0513616	-0.00280307	0.0188384	-2.27974	-0.0210155	-1.57374	0	0	0	0	-0	0	0	0	-0.1265	0	-0	0	0	0	0	0	-0	0	0.105	-0.015	0	0	-0	0	0	-0.098	0.1	0	-0	0	0	0	0	0	-0	0	0.05595	0	0	0	-0	0	0	0	0	0	-0	0	566.162	565.835	350.709	206.703	-0.0152304	-0.164469	0.00256378	0.000486531	0.503938
80	-0.0752838	-0.0187953	0.00382758	-0.000242602	-0.0153027	-0.0433692	0.0216506	0.0288268	-0.000411398	-1.68713	0.153407	0.234003	0.0514269	-0.00280308	0.0186605	-2.2832	-0.0210546	-1.5737	0	0	0	0	-0	0	0	0	-0.1265	0	-0	0	0	0	0	0	-0	0	0.105	-0.015	0	0	-0	0	0	-0.098	0.1	0	-0	0	0	0	0	0	-0	0	0.05595	0	0	0	-0	0	0	0	0	0	-0	0	566.162	565.836	350.732	206.706	-0.0152417	-0.164441	0.00256434	0.000497891	0.504091
81	-0.0726547	-0.0187968	0.00382724	-0.000243398	-0.015304	-0.0433686	0.0216506	0.0288269	-0.000411345	-1.68713	0.153406	0.234006	0.0513776	-0.00280309	0.0187956	-2.28058	-0.0210899	-1.57379	0	0	0	0	-0	0	0	0	-0.1265	0	-0	0	0	0	0	0	-0	0	0.105	-0.015	0	0	-0	0	0	-0.098	0.1	0	-0	0	0	0	0	0	-0	0	0.05595	0	0	0	-0	0	0	0	0	0	-0	0	566.163	565.839	350.767	206.711	-0.0152225	-0.164619	0.00256442	0.000514561	0.504728
82	-0.0750166	-0.0187976	0.00382699	-0.000243779	-0.0153047	-0.0433683	0.0216506	0.0288269	-0.00041132	-1.68713	0.153406	0.234008	0.0514218	-0.00280308	0.0186743	-2.28295	-0.0211182	-1.57376	0	0	0	0	-0	0	0	0	-0.1265	0	-0	0	0	0	0	0	-0	0	0.105	-0.015	0	0	-0	0	0	-0.098	0.1	0	-0	0	0	0	0	0	-0	0	0.05595	0	0	0	-0	0	0	0	0	0	-0	0	566.163	565.84	350.784	206.713	-0.0151934	-0.164851	0.00256401	0.000523077	0.505344
83	-0.0727879	-0.0187981	0.00382685	-0.000244117	-0.0153052	-0.0433681	0.0216506	0.0288269	-0.000411295	-1.68713	0.153405	0.234008	0.05138	-0.00280307	0.0187889	-2.28072	-0.0211275	-1.57383	0	0	0	0	-0	0	0	0	-0.1265	0	-0	0	0	0	0	0	-0	0	0.105	-0.015	0	0	-0	0	0	-0.098	0.1	0	-0	0	0	0	0	0	-0	0	0.05595	0	0	0	-0	0	0	0	0	0	-0	0	566.163	565.841	350.797	206.715	-0.0151535	-0.165128	0.00256313	0.000529304	0.505999
84	-0.0748142	-0.0187986	0.00382673	-0.000244345	-0.0153055	-0.043368	0.0216506	0.0288269	-0.000411281	-1.68713	0.153405	0.234009	0.051418	-0.00280307	0.0186848	-2.28275	-0.0211454	-1.57379	0	0	0	0	-0	0	0	0	-0.1265	0	-0	0	0	0	0	0	-0	0	0.105	-0.015	0	0	-0	0	0	-0.098	0.1	0	-0	0	0	0	0	0	-0	0	0.05595	0	0	0	-0	0	0	0	0	0	-0	0	566.163	565.842	350.806	206.716	-0.0151435	-0.165226	0.0025633	0.000534011	0.506289
85	-0.0765156	-0.0187995	0.00382653	-0.000244834	-0.0153063	-0.0433676	0.0216506	0.0288269	-0.000411248	-1.68713	0.153404	0.234011	0.0514497	-0.00280307	0.0185973	-2.28446	-0.021177	-1.57378	0	0	0	0	-0	0	0	0	-0.1265	0	-0	0	0	0	0	0	-0	0	0.105	-0.015	0	0	-0	0	0	-0.098	0.1	0	-0	0	0	0	0	0	-0	0	0.05595	0	0	0	-0	0	0	0	0	0	-0	0	566.163	565.844	350.828	206.719	-0.0151171	-0.165427	0.00256292	0.000544238	0.506861
86	-0.0792233	-0.0188008	0.00382618	-0.000245576	-0.0153075	-0.0433672	0.0216506	0.0288269	-0.000411196	-1.68713	0.153403	0.234013	0.0514999	-0.00280306	0.0184582	-2.28717	-0.0212244	-1.57376	0	0	0	0	-0	0	0	0	-0.1265	0	-0	0	0	0	0	0	-0	0	0.105	-0.015	0	0	-0	0	0	-0.098	0.1	0	-0	0	0	0	0	0	-0	0	0.05595	0	0	0	-0	0	0	0	0	0	-0	0	566.164	565.847	350.859	206.723	-0.0150751	-0.165735	0.00256134	0.000559406	0.507743
87	-0.0769385	-0.0188015	0.003826	-0.000245935	-0.0153081	-0.0433669	0.0216506	0.028827	-0.000411173	-1.68713	0.153402	0.234014	0.0514575	-0.00280303	0.0185759	-2.28489	-0.0212372	-1.57383	0	0	0	0	-0	0	0	0	-0.1265	0	-0	0	0	0	0	0	-0	0	0.105	-0.015	0	0	-0	0	0	-0.098	0.1	0	-0	0	0	0	0	0	-0	0	0.05595	0	0	0	-0	0	0	0	0	0	-0	0	566.164	565.848	350.875	206.725	-0.0150386	-0.166056	0.002562	0.000567212	0.508551
88	-0.0749665	-0.018802	0.00382584	-0.000246211	-0.0153086	-0.0433667	0.0216506	0.028827	-0.000411155	-1.68713	0.153402	0.234015	0.0514207	-0.00280303	0.0186774	-2.28292	-0.0212456	-1.57388	0	0	0	0	-0	0	0	0	-0.1265	0	-0	0	0	0	0	0	-0	0	0.105	-0.015	0	0	-0	0	0	-0.098	0.1	0	-0	0	0	0	0	0	-0	0	0.05595	0	0	0	-0	0	0	0	0	0	-0	0	566.164	565.849	350.886	206.726	-0.0150228	-0.166175	0.00256147	0.000572919	0.508886
89	-0.0766221	-0.0188024	0.00382577	-0.000246449	-0.0153089	-0.0433665	0.0216506	0.028827	-0.00041114	-1.68713	0.153402	0.234016	0.0514515	-0.00280302	0.0185923	-2.28458	-0.0212616	-1.57386	0	0	0	0	-0	0	0	0	-0.1265	0	-0	0	0	0	0	0	-0	0	0.105	-0.015	0	0	-0	0	0	-0.098	0.1	0	-0	0	0	0	0	0	-0	0	0.05595	0	0	0	-0	0	0	0	0	0	-0	0	566.165	565.85	350.895	206.727	-0.0150162	-0.166263	0.00256233	0.000577209	0.509152
90	-0.0765701	-0.0188032	0.00382555	-0.000246891	-0.0153096	-0.0433663	0.0216506	0.028827	-0.000411109	-1.68713	0.153401	0.234017	0.0514505	-0.002803	0.018595	-2.28453	-0.0212857	-1.57388	0	0	0	0	-0	0	0	0	-0.1265	0	-0	0	0	0	0	0	-0	0	0.105	-0.015	0	0	-0	0	0	-0.098	0.1	0	-0	0	0	0	0	0	-0	0	0.05595	0	0	0	-0	0	0	0	0	0	-0	0	566.165	565.852	350.915	206.73	-0.014999	-0.166398	0.00256132	0.000586549	0.509594
91	-0.0804995	-0.0188045	0.00382522	-0.000247511	-0.0153107	-0.0433659	0.0216506	0.028827	-0.000411065	-1.68713	0.1534	0.234019	0.0515235	-0.002803	0.018393	-2.28847	-0.0213334	-1.57383	0	0	0	0	-0	0	0	0	-0.1265	0	-0	0	0	0	0	0	-0	0	0.105	-0.015	0	0	-0	0	0	-0.098	0.1	0	-0	0	0	0	0	0	-0	0	0.05595	0	0	0	-0	0	0	0	0	0	-0	0	566.165	565.855	350.943	206.734	-0.0149508	-0.166724	0.00255935	0.000600333	0.510471
92	-0.0800486	-0.0188064	0.00382477	-0.000248413	-0.0153122	-0.0433651	0.0216506	0.028827	-0.000411005	-1.68712	0.153399	0.234023	0.0515149	-0.002803	0.0184161	-2.28803	-0.0213847	-1.57389	0	0	0	0	-0	0	0	0	-0.1265	0	-0	0	0	0	0	0	-0	0	0.105	-0.015	0	0	-0	0	0	-0.098	0.1	0	-0	0	0	0	0	0	-0	0	0.05595	0	0	0	-0	0	0	0	0	0	-0	0	566.166	565.858	350.985	206.739	-0.0149385	-0.166858	0.00255896	0.000620597	0.511086
93	-0.0788641	-0.0188066	0.00382465	-0.000248599	-0.0153125	-0.0433651	0.0216506	0.028827	-0.000410996	-1.68712	0.153398	0.234024	0.0514931	-0.00280299	0.0184772	-2.28684	-0.0213882	-1.57392	0	0	0	0	-0	0	0	0	-0.1265	0	-0	0	0	0	0	0	-0	0	0.105	-0.015	0	0	-0	0	0	-0.098	0.1	0	-0	0	0	0	0	0	-0	0	0.05595	0	0	0	-0	0	0	0	0	0	-0	0	566.166	565.859	350.991	206.739	-0.0149302	-0.166982	0.00256014	0.000623821	0.511412
94	-0.0761523	-0.0188071	0.00382454	-0.000248891	-0.0153129	-0.0433649	0.0216506	0.0288271	-0.000410976	-1.68712	0.153398	0.234024	0.0514429	-0.00280297	0.018617	-2.28413	-0.0213943	-1.57399	0	0	0	0	-0	0	0	0	-0.1265	0	-0	0	0	0	0	0	-0	0	0.105	-0.015	0	0	-0	0	0	-0.098	0.1	0	-0	0	0	0	0	0	-0	0	0.05595	0	0	0	-0	0	0	0	0	0	-0	0	566.167	565.86	351.003	206.741	-0.0148994	-0.167223	0.00255979	0.000629508	0.512014
95	-0.0756091	-0.0188079	0.0038244	-0.000249311	-0.0153136	-0.0433645	0.0216506	0.0288271	-0.000410947	-1.68712	0.153397	0.234026	0.0514326	-0.00280297	0.0186449	-2.28359	-0.0214142	-1.57402	0	0	0	0	-0	0	0	0	-0.1265	0	-0	0	0	0	0	0	-0	0	0.105	-0.015	0	0	-0	0	0	-0.098	0.1	0	-0	0	0	0	0	0	-0	0	0.05595	0	0	0	-0	0	0	0	0	0	-0	0	566.167	565.861	351.02	206.743	-0.0148748	-0.167424	0.00256007	0.000637905	0.512563
96	-0.078032	-0.018809	0.00382412	-0.000249992	-0.0153145	-0.0433641	0.0216506	0.0288271	-0.000410902	-1.68712	0.153396	0.234028	0.0514778	-0.00280298	0.0185203	-2.28602	-0.021454	-1.574	0	0	0	0	-0	0	0	0	-0.1265	0	-0	0	0	0	0	0	-0	0	0.105	-0.015	0	0	-0	0	0	-0.098	0.1	0	-0	0	0	0	0	0	-0	0	0.05595	0	0	0	-0	0	0	0	0	0	-0	0	566.167	565.862	351.046	206.746	-0.0148466	-0.167637	0.00255947	0.000650326	0.513194
97	-0.0828127	-0.0188106	0.00382373	-0.000250797	-0.0153159	-0.0433635	0.0216506	0.0288271	-0.000410848	-1.68712	0.153395	0.234031	0.0515662	-0.00280297	0.0182742	-2.29081	-0.0215164	-1.57394	0	0	0	0	-0	0	0	0	-0.1265	0	-0	0	0	0	0	0	-0	0	0.105	-0.015	0	0	-0	0	0	-0.098	0.1	0	-0	0	0	0	0	0	-0	0	0.05595	0	0	0	-0	0	0	0	0	0	-0	0	566.167	565.865	351.084	206.751	-0.0148214	-0.167872	0.00255945	0.000668574	0.513987
98	-0.0784674	-0.018813	0.00382312	-0.000251942	-0.015318	-0.0433626	0.0216506	0.0288272	-0.000410769	-1.68712	0.153393	0.234035	0.0514862	-0.00280295	0.0184984	-2.28648	-0.0215715	-1.5741	0	0	0	0	-0	0	0	0	-0.1265	0	-0	0	0	0	0	0	-0	0	0.105	-0.015	0	0	-0	0	0	-0.098	0.1	0	-0	0	0	0	0	0	-0	0	0.05595	0	0	0	-0	0	0	0	0	0	-0	0	566.169	565.871	351.139	206.758	-0.0147636	-0.168318	0.00255718	0.000695085	0.51535
99	-0.0801252	-0.0188134	0.00382295	-0.000252182	-0.0153183	-0.0433625	0.0216506	0.0288272	-0.000410757	-1.68712	0.153393	0.234036	0.0515163	-0.00280292	0.0184129	-2.28814	-0.0215862	-1.57407	0	0	0	0	-0	0	0	0	-0.1265	0	-0	0	0	0	0	0	-0	0	0.105	-0.015	0	0	-0	0	0	-0.098	0.1	0	-0	0	0	0	0	0	-0	0	0.05595	0	0	0	-0	0	0	0	0	0	-0	0	566.169	565.872	351.146	206.759	-0.0147471	-0.168528	0.0025586	0.000699316	0.515892
100	-0.0774454	-0.018814	0.00382281	-0.000252593	-0.0153189	-0.0433623	0.0216506	0.0288272	-0.000410729	-1.68712	0.153392	0.234038	0.0514669	-0.00280291	0.0185511	-2.28546	-0.0215965	-1.57415	0	0	0	0	-0	0	0	0	-0.1265	0	-0	0	0	0	0	0	-0	0	0.105	-0.015	0	0	-0	0	0	-0.098	0.1	0	-0	0	0	0	0	0	-0	0	0.05595	0	0	0	-0	0	0	0	0	0	-0	0	566.17	565.873	351.161	206.761	-0.0147329	-0.16865	0.00255844	0.000706711	0.51627
