Stefan210/kinematic_calibration/src/kinematic_calibration/validation/experiments/experiments/impact_noise/bad_precision/larm_noise_8_pixel_rk_false/optimization_intermediate_results.csv
iteration	HeadPitch_offset	HeadYaw_offset	LElbowRoll_offset	LElbowYaw_offset	LShoulderPitch_offset	LShoulderRoll_offset	marker_transform_larm_tx	marker_transform_larm_ty	marker_transform_larm_tz	marker_transform_larm_rr	marker_transform_larm_rp	marker_transform_larm_ry	camera_transform_tx	camera_transform_ty	camera_transform_tz	camera_transform_rr	camera_transform_rp	camera_transform_ry	HeadPitch_transform_tx	HeadPitch_transform_ty	HeadPitch_transform_tz	HeadPitch_transform_rr	HeadPitch_transform_rp	HeadPitch_transform_ry	HeadYaw_transform_tx	HeadYaw_transform_ty	HeadYaw_transform_tz	HeadYaw_transform_rr	HeadYaw_transform_rp	HeadYaw_transform_ry	LElbowRoll_transform_tx	LElbowRoll_transform_ty	LElbowRoll_transform_tz	LElbowRoll_transform_rr	LElbowRoll_transform_rp	LElbowRoll_transform_ry	LElbowYaw_transform_tx	LElbowYaw_transform_ty	LElbowYaw_transform_tz	LElbowYaw_transform_rr	LElbowYaw_transform_rp	LElbowYaw_transform_ry	LShoulderPitch_transform_tx	LShoulderPitch_transform_ty	LShoulderPitch_transform_tz	LShoulderPitch_transform_rr	LShoulderPitch_transform_rp	LShoulderPitch_transform_ry	LShoulderRoll_transform_tx	LShoulderRoll_transform_ty	LShoulderRoll_transform_tz	LShoulderRoll_transform_rr	LShoulderRoll_transform_rp	LShoulderRoll_transform_ry	LWristYaw_transform_tx	LWristYaw_transform_ty	LWristYaw_transform_tz	LWristYaw_transform_rr	LWristYaw_transform_rp	LWristYaw_transform_ry	l_wrist_joint_transform_tx	l_wrist_joint_transform_ty	l_wrist_joint_transform_tz	l_wrist_joint_transform_rr	l_wrist_joint_transform_rp	l_wrist_joint_transform_ry	camera_fx	camera_fy	camera_cx	camera_cy	camera_D0	camera_D1	camera_D2	camera_D3	camera_D4	
0	0.0249164	-0.0307543	0.000853157	4.65819e-06	-0.000318322	-0.00310766	0.05071	0	0.01774	-2.26369	1.66533e-16	-1.5708	545.901	551.038	324.928	201.58	0.0255298	2.61142	-0.0636736	-0.0350419	0.213964
1	-0.0158995	-0.00246596	0.0457166	0.0164257	0.020391	0.021807	0.0269487	-0.030864	0.00112449	-2.82389e-05	-0.000338616	-0.00286982	0.0556798	-0.00312615	0.0135653	-2.1987	0.0093456	-1.534	0	0	0	0	-0	0	0	0	-0.1265	0	-0	0	0	0	0	0	-0	0	0.105	0.015	0	0	-0	0	0	0.098	0.1	0	-0	0	0	0	0	0	-0	0	0.05595	0	0	0	-0	0	0	0	0	0	-0	0	545.901	551.039	324.928	201.581	-0.00507255	2.6022	-0.0892921	0.0186104	0.212121
2	-0.0157123	0.0111024	0.0489265	0.0114945	0.0132427	0.0243726	0.0272784	-0.0311241	0.00102039	-1.29148e-05	-0.000325573	-0.00285725	0.0541514	-0.00339225	0.0167508	-2.20036	0.00502196	-1.54777	0	0	0	0	-0	0	0	0	-0.1265	0	-0	0	0	0	0	0	-0	0	0.105	0.015	0	0	-0	0	0	0.098	0.1	0	-0	0	0	0	0	0	-0	0	0.05595	0	0	0	-0	0	0	0	0	0	-0	0	545.903	551.039	324.926	201.585	-0.138104	2.52192	-0.0582505	-0.0049914	0.187965
3	-0.015891	0.0103702	0.0468783	0.0128952	0.0118964	0.0218487	0.0270922	-0.031034	0.00103387	-1.5888e-05	-0.000329889	-0.00286599	0.0556268	-0.00327428	0.0146685	-2.19909	0.0062062	-1.54855	0	0	0	0	-0	0	0	0	-0.1265	0	-0	0	0	0	0	0	-0	0	0.105	0.015	0	0	-0	0	0	0.098	0.1	0	-0	0	0	0	0	0	-0	0	0.05595	0	0	0	-0	0	0	0	0	0	-0	0	545.908	551.04	324.924	201.593	-0.406313	2.35805	-0.0294295	-0.0109666	0.139988
4	-0.0155789	0.0132362	0.0434764	0.014562	0.00742116	0.0180714	0.0267604	-0.0308569	0.00107642	-2.41793e-05	-0.000335865	-0.00287803	0.0570567	-0.00320762	0.0130924	-2.19993	0.00535902	-1.55203	0	0	0	0	-0	0	0	0	-0.1265	0	-0	0	0	0	0	0	-0	0	0.105	0.015	0	0	-0	0	0	0.098	0.1	0	-0	0	0	0	0	0	-0	0	0.05595	0	0	0	-0	0	0	0	0	0	-0	0	545.918	551.04	324.92	201.605	-0.71268	2.06137	0.0179034	-0.0234612	0.0429605
5	-0.015268	0.0157814	0.0405734	0.0153424	0.00462687	0.0164953	0.026492	-0.0307589	0.00106929	-2.53687e-05	-0.000337568	-0.00293101	0.0574518	-0.00319148	0.0127976	-2.20112	0.00514318	-1.55459	0	0	0	0	-0	0	0	0	-0.1265	0	-0	0	0	0	0	0	-0	0	0.105	0.015	0	0	-0	0	0	0.098	0.1	0	-0	0	0	0	0	0	-0	0	0.05595	0	0	0	-0	0	0	0	0	0	-0	0	545.94	551.037	324.916	201.621	-0.745563	1.61346	0.0351857	-0.0293715	-0.125212
6	-0.0148622	0.0161514	0.0387441	0.0155201	0.00413788	0.0168121	0.0263435	-0.0307334	0.00104885	-3.37672e-05	-0.000365392	-0.00293182	0.0568087	-0.00318719	0.0136467	-2.20264	0.00616945	-1.55452	0	0	0	0	-0	0	0	0	-0.1265	0	-0	0	0	0	0	0	-0	0	0.105	0.015	0	0	-0	0	0	0.098	0.1	0	-0	0	0	0	0	0	-0	0	0.05595	0	0	0	-0	0	0	0	0	0	-0	0	545.981	551.029	324.916	201.64	-0.53245	0.966754	0.0274953	-0.0296544	-0.377319
7	-0.0146578	0.0159975	0.0376163	0.015572	0.00409478	0.0173848	0.0262627	-0.030723	0.00104639	2.91142e-05	-0.000481927	-0.00288067	0.0560626	-0.00318974	0.0146036	-2.20413	0.00706642	-1.55389	0	0	0	0	-0	0	0	0	-0.1265	0	-0	0	0	0	0	0	-0	0	0.105	0.015	0	0	-0	0	0	0.098	0.1	0	-0	0	0	0	0	0	-0	0	0.05595	0	0	0	-0	0	0	0	0	0	-0	0	546.045	551.011	324.93	201.656	-0.304182	0.333125	0.0173704	-0.0290923	-0.599689
8	-0.0139374	0.0160512	0.0371405	0.0156045	0.0040029	0.0177106	0.0262315	-0.0307179	0.00105502	0.000281161	-0.00136604	-0.00265703	0.0556414	-0.0031984	0.0151884	-2.20438	0.00732473	-1.55364	0	0	0	0	-0	0	0	0	-0.1265	0	-0	0	0	0	0	0	-0	0	0.105	0.015	0	0	-0	0	0	0.098	0.1	0	-0	0	0	0	0	0	-0	0	0.05595	0	0	0	-0	0	0	0	0	0	-0	0	546.181	550.964	324.962	201.683	-0.186824	-0.0310002	0.0131138	-0.0289519	-0.638229
9	-0.0136805	0.0161226	0.037027	0.0156344	0.0039338	0.0177921	0.0262241	-0.0307164	0.00106374	-0.00079032	-0.00209902	-0.00427196	0.0554668	-0.00320556	0.0154304	-2.20463	0.00726977	-1.55365	0	0	0	0	-0	0	0	0	-0.1265	0	-0	0	0	0	0	0	-0	0	0.105	0.015	0	0	-0	0	0	0.098	0.1	0	-0	0	0	0	0	0	-0	0	0.05595	0	0	0	-0	0	0	0	0	0	-0	0	546.544	550.832	325.029	201.765	-0.15463	-0.207068	0.0133978	-0.029023	-0.404058
10	-0.0141262	0.016229	0.0370042	0.0156364	0.00386429	0.0177682	0.0262229	-0.0307167	0.00107321	-0.00179969	-0.0164528	-0.0065051	0.0552516	-0.00321612	0.0156828	-2.20592	0.00700521	-1.55388	0	0	0	0	-0	0	0	0	-0.1265	0	-0	0	0	0	0	0	-0	0	0.105	0.015	0	0	-0	0	0	0.098	0.1	0	-0	0	0	0	0	0	-0	0	0.05595	0	0	0	-0	0	0	0	0	0	-0	0	547.505	550.493	325.19	202	-0.138698	-0.461019	0.0166305	-0.0292084	0.272555
11	-0.0244211	0.0164442	0.036982	0.0156185	0.00374004	0.0176949	0.0262219	-0.0307281	0.0010922	-0.00727571	-0.0107005	0.0195257	0.0549628	-0.00323656	0.0156706	-2.21814	0.00659959	-1.55441	0	0	0	0	-0	0	0	0	-0.1265	0	-0	0	0	0	0	0	-0	0	0.105	0.015	0	0	-0	0	0	0.098	0.1	0	-0	0	0	0	0	0	-0	0	0.05595	0	0	0	-0	0	0	0	0	0	-0	0	549.624	549.848	325.515	202.616	-0.115352	-0.950152	0.023759	-0.0296301	1.65314
12	-0.0194192	0.0165276	0.0369701	0.0156116	0.0036876	0.0176524	0.0262164	-0.0307325	0.00108864	0.0106604	-0.0100425	0.0426362	0.0546689	-0.00324612	0.0162218	-2.21411	0.00631388	-1.55448	0	0	0	0	-0	0	0	0	-0.1265	0	-0	0	0	0	0	0	-0	0	0.105	0.015	0	0	-0	0	0	0.098	0.1	0	-0	0	0	0	0	0	-0	0	0.05595	0	0	0	-0	0	0	0	0	0	-0	0	550.754	549.562	325.61	202.942	-0.108381	-1.17237	0.0274027	-0.0298723	2.33692
13	-0.023085	0.0166394	0.036956	0.0156044	0.00362651	0.017617	0.0262103	-0.0307233	0.00109852	0.0102586	0.00155437	0.0272073	0.0544819	-0.00325637	0.0163253	-2.21901	0.0062406	-1.55455	0	0	0	0	-0	0	0	0	-0.1265	0	-0	0	0	0	0	0	-0	0	0.105	0.015	0	0	-0	0	0	0.098	0.1	0	-0	0	0	0	0	0	-0	0	0.05595	0	0	0	-0	0	0	0	0	0	-0	0	552.051	549.337	325.638	203.377	-0.100958	-1.41437	0.0314239	-0.0301578	3.07482
14	-0.033735	0.0167377	0.0369386	0.0156084	0.00357955	0.0175877	0.0262108	-0.0307377	0.00111264	-0.0145288	-0.00802114	0.0439891	0.05442	-0.00326637	0.0160414	-2.23114	0.00649988	-1.55444	0	0	0	0	-0	0	0	0	-0.1265	0	-0	0	0	0	0	0	-0	0	0.105	0.015	0	0	-0	0	0	0.098	0.1	0	-0	0	0	0	0	0	-0	0	0.05595	0	0	0	-0	0	0	0	0	0	-0	0	553.424	549.295	325.499	203.956	-0.0954846	-1.64228	0.0352229	-0.0304704	3.79929
15	-0.0108448	0.016783	0.0369254	0.0156155	0.00356367	0.017576	0.0262067	-0.0307374	0.00110995	-0.0371519	-0.0133268	0.0249305	0.0539222	-0.00327177	0.0174531	-2.20924	0.00635158	-1.55401	0	0	0	0	-0	0	0	0	-0.1265	0	-0	0	0	0	0	0	-0	0	0.105	0.015	0	0	-0	0	0	0.098	0.1	0	-0	0	0	0	0	0	-0	0	0.05595	0	0	0	-0	0	0	0	0	0	-0	0	554.26	549.39	325.283	204.36	-0.0929244	-1.76975	0.0372296	-0.0306534	4.22555
16	-0.00714343	0.0168427	0.0368949	0.0156542	0.00355579	0.0175701	0.0262118	-0.030716	0.00112874	-0.0604029	0.0376517	0.0297404	0.0536698	-0.00327861	0.0178459	-2.20742	0.00704869	-1.55313	0	0	0	0	-0	0	0	0	-0.1265	0	-0	0	0	0	0	0	-0	0	0.105	0.015	0	0	-0	0	0	0.098	0.1	0	-0	0	0	0	0	0	-0	0	0.05595	0	0	0	-0	0	0	0	0	0	-0	0	555.519	549.864	324.622	205.206	-0.0906216	-1.93563	0.0395603	-0.0309584	4.80363
17	-0.021723	0.0168424	0.036881	0.0156724	0.00356955	0.0175701	0.0261962	-0.0307252	0.00112171	-0.0493513	0.0285478	0.0395392	0.0538689	-0.00328123	0.0171294	-2.22282	0.00778858	-1.55271	0	0	0	0	-0	0	0	0	-0.1265	0	-0	0	0	0	0	0	-0	0	0.105	0.015	0	0	-0	0	0	0.098	0.1	0	-0	0	0	0	0	0	-0	0	0.05595	0	0	0	-0	0	0	0	0	0	-0	0	556.021	550.139	324.226	205.592	-0.0892815	-1.99974	0.0401919	-0.0310718	5.0439
18	-0.0284518	0.016848	0.0368743	0.0156771	0.00357029	0.0175698	0.0261952	-0.0307287	0.00112353	-0.0312423	0.0262459	0.047624	0.0539574	-0.00328219	0.0167916	-2.22987	0.00812389	-1.55255	0	0	0	0	-0	0	0	0	-0.1265	0	-0	0	0	0	0	0	-0	0	0.105	0.015	0	0	-0	0	0	0.098	0.1	0	-0	0	0	0	0	0	-0	0	0.05595	0	0	0	-0	0	0	0	0	0	-0	0	556.214	550.253	324.055	205.746	-0.0886782	-2.02711	0.0404642	-0.0311244	5.14163
19	-0.0118508	0.0168543	0.0368538	0.0157138	0.00359019	0.0175777	0.026196	-0.0307482	0.00113881	-0.0701566	0.0300775	0.0604293	0.0536189	-0.00328488	0.0177535	-2.21454	0.00872331	-1.5515	0	0	0	0	-0	0	0	0	-0.1265	0	-0	0	0	0	0	0	-0	0	0.105	0.015	0	0	-0	0	0	0.098	0.1	0	-0	0	0	0	0	0	-0	0	0.05595	0	0	0	-0	0	0	0	0	0	-0	0	556.859	550.743	323.326	206.366	-0.0876649	-2.1027	0.0410473	-0.0312877	5.43531
20	-0.0154838	0.0168403	0.036825	0.0157684	0.00363247	0.017597	0.0261912	-0.0307265	0.00113841	-0.0485905	0.0125331	0.0569626	0.0536201	-0.00328736	0.01761	-2.2199	0.010198	-1.55006	0	0	0	0	-0	0	0	0	-0.1265	0	-0	0	0	0	0	0	-0	0	0.105	0.015	0	0	-0	0	0	0.098	0.1	0	-0	0	0	0	0	0	-0	0	0.05595	0	0	0	-0	0	0	0	0	0	-0	0	557.622	551.452	322.192	207.247	-0.0860198	-2.18787	0.0413563	-0.0314845	5.78209
21	-0.0153075	0.0168329	0.0368203	0.0157667	0.0036359	0.0175974	0.0261933	-0.0307239	0.00113532	-0.0484743	0.0104414	0.049994	0.0536125	-0.00328755	0.017624	-2.21979	0.0102606	-1.54999	0	0	0	0	-0	0	0	0	-0.1265	0	-0	0	0	0	0	0	-0	0	0.105	0.015	0	0	-0	0	0	0.098	0.1	0	-0	0	0	0	0	0	-0	0	0.05595	0	0	0	-0	0	0	0	0	0	-0	0	557.65	551.481	322.144	207.281	-0.084908	-2.19584	0.0413103	-0.0314954	5.80399
22	-0.0184209	0.0168309	0.0368153	0.0157766	0.0036413	0.0175994	0.0261923	-0.0307239	0.00113642	-0.0570753	0.0134356	0.0519472	0.0536598	-0.00328792	0.0174645	-2.22314	0.0105341	-1.54981	0	0	0	0	-0	0	0	0	-0.1265	0	-0	0	0	0	0	0	-0	0	0.105	0.015	0	0	-0	0	0	0.098	0.1	0	-0	0	0	0	0	0	-0	0	0.05595	0	0	0	-0	0	0	0	0	0	-0	0	557.744	551.58	321.977	207.4	-0.0837266	-2.2162	0.0413215	-0.0315207	5.87699
23	-0.00852324	0.0168229	0.0368037	0.0158023	0.00365893	0.0176056	0.0261951	-0.0307337	0.00113987	-0.0814862	0.00883227	0.0551952	0.0534672	-0.00328901	0.0180139	-2.21393	0.0109547	-1.54907	0	0	0	0	-0	0	0	0	-0.1265	0	-0	0	0	0	0	0	-0	0	0.105	0.015	0	0	-0	0	0	0.098	0.1	0	-0	0	0	0	0	0	-0	0	0.05595	0	0	0	-0	0	0	0	0	0	-0	0	558.018	551.865	321.475	207.753	-0.0809103	-2.26982	0.0413553	-0.0315946	6.07495
24	-0.00180749	0.0168162	0.0367965	0.0158137	0.00366913	0.0176112	0.026196	-0.0307277	0.00113983	-0.0938221	0.000812432	0.0656309	0.0533331	-0.0032894	0.0183814	-2.20755	0.0111264	-1.54866	0	0	0	0	-0	0	0	0	-0.1265	0	-0	0	0	0	0	0	-0	0	0.105	0.015	0	0	-0	0	0	0.098	0.1	0	-0	0	0	0	0	0	-0	0	0.05595	0	0	0	-0	0	0	0	0	0	-0	0	558.143	552.004	321.217	207.925	-0.0785864	-2.30079	0.0413179	-0.0316247	6.1812
25	0.0127013	0.0168021	0.0367836	0.0158441	0.00369098	0.0176191	0.0261927	-0.0307218	0.00114108	-0.11018	0.0254508	0.062545	0.0530484	-0.00329041	0.0191684	-2.19378	0.0115334	-1.54772	0	0	0	0	-0	0	0	0	-0.1265	0	-0	0	0	0	0	0	-0	0	0.105	0.015	0	0	-0	0	0	0.098	0.1	0	-0	0	0	0	0	0	-0	0	0.05595	0	0	0	-0	0	0	0	0	0	-0	0	558.415	552.297	320.623	208.313	-0.0750808	-2.36097	0.0412961	-0.0317036	6.40318
26	0.0269921	0.0167924	0.036775	0.0158592	0.00370245	0.0176237	0.0261966	-0.0307282	0.00114374	-0.0943004	0.0370519	0.0613406	0.0527585	-0.0032909	0.0199329	-2.17986	0.0115671	-1.54715	0	0	0	0	-0	0	0	0	-0.1265	0	-0	0	0	0	0	0	-0	0	0.105	0.015	0	0	-0	0	0	0.098	0.1	0	-0	0	0	0	0	0	-0	0	0.05595	0	0	0	-0	0	0	0	0	0	-0	0	558.547	552.44	320.319	208.501	-0.0724391	-2.39672	0.0412602	-0.0317433	6.52673
27	0.0209542	0.0167852	0.0367698	0.0158693	0.00371168	0.0176288	0.0261943	-0.030723	0.00114227	-0.0921035	0.0239712	0.0712401	0.0528663	-0.0032912	0.0196177	-2.18616	0.0119869	-1.54691	0	0	0	0	-0	0	0	0	-0.1265	0	-0	0	0	0	0	0	-0	0	0.105	0.015	0	0	-0	0	0	0.098	0.1	0	-0	0	0	0	0	0	-0	0	0.05595	0	0	0	-0	0	0	0	0	0	-0	0	558.639	552.542	320.088	208.641	-0.0703102	-2.42435	0.0412221	-0.0317666	6.62209
28	0.0150991	0.0167751	0.0367629	0.0158856	0.00372412	0.0176329	0.0261949	-0.0307228	0.00114522	-0.0879356	0.0374867	0.0663725	0.0529728	-0.00329175	0.0193129	-2.1924	0.0125516	-1.54652	0	0	0	0	-0	0	0	0	-0.1265	0	-0	0	0	0	0	0	-0	0	0.105	0.015	0	0	-0	0	0	0.098	0.1	0	-0	0	0	0	0	0	-0	0	0.05595	0	0	0	-0	0	0	0	0	0	-0	0	558.768	552.689	319.739	208.846	-0.0676242	-2.46332	0.0411785	-0.0318076	6.76115
29	0.016703	0.0167686	0.0367592	0.0158918	0.0037305	0.017636	0.0261948	-0.0307266	0.00114588	-0.0781071	0.0418984	0.0804971	0.0529368	-0.00329195	0.0194008	-2.19095	0.0126923	-1.54631	0	0	0	0	-0	0	0	0	-0.1265	0	-0	0	0	0	0	0	-0	0	0.105	0.015	0	0	-0	0	0	0.098	0.1	0	-0	0	0	0	0	0	-0	0	0.05595	0	0	0	-0	0	0	0	0	0	-0	0	558.82	552.747	319.594	208.929	-0.0660223	-2.48166	0.0411384	-0.0318221	6.82206
30	0.019867	0.0167602	0.0367538	0.0159055	0.00374127	0.0176407	0.0261936	-0.0307215	0.00114823	-0.0787297	0.028434	0.0781931	0.052869	-0.00329235	0.0195727	-2.18811	0.0129789	-1.54587	0	0	0	0	-0	0	0	0	-0.1265	0	-0	0	0	0	0	0	-0	0	0.105	0.015	0	0	-0	0	0	0.098	0.1	0	-0	0	0	0	0	0	-0	0	0.05595	0	0	0	-0	0	0	0	0	0	-0	0	558.924	552.863	319.295	209.097	-0.063475	-2.51683	0.0411012	-0.031853	6.946
31	0.0323593	0.0167491	0.036748	0.01592	0.00375299	0.017645	0.0261923	-0.0307245	0.00114596	-0.09028	0.036022	0.0660898	0.0526184	-0.00329277	0.0202368	-2.17592	0.013032	-1.54531	0	0	0	0	-0	0	0	0	-0.1265	0	-0	0	0	0	0	0	-0	0	0.105	0.015	0	0	-0	0	0	0.098	0.1	0	-0	0	0	0	0	0	-0	0	0.05595	0	0	0	-0	0	0	0	0	0	-0	0	559.021	552.971	318.992	209.262	-0.0606541	-2.55324	0.0410462	-0.0318846	7.07236
32	0.0217426	0.0167291	0.0367368	0.0159513	0.00377677	0.0176553	0.026192	-0.0307204	0.00115137	-0.105191	0.0586595	0.0643796	0.0528189	-0.0032935	0.0196822	-2.1872	0.0141199	-1.54454	0	0	0	0	-0	0	0	0	-0.1265	0	-0	0	0	0	0	0	-0	0	0.105	0.015	0	0	-0	0	0	0.098	0.1	0	-0	0	0	0	0	0	-0	0	0.05595	0	0	0	-0	0	0	0	0	0	-0	0	559.233	553.192	318.31	209.623	-0.0554885	-2.62744	0.0409894	-0.031955	7.33823
33	0.0202386	0.0167177	0.0367315	0.0159588	0.0037859	0.0176599	0.0261921	-0.0307213	0.00115171	-0.103803	0.0647451	0.0591976	0.0528406	-0.00329376	0.0196054	-2.18889	0.0144002	-1.5443	0	0	0	0	-0	0	0	0	-0.1265	0	-0	0	0	0	0	0	-0	0	0.105	0.015	0	0	-0	0	0	0.098	0.1	0	-0	0	0	0	0	0	-0	0	0.05595	0	0	0	-0	0	0	0	0	0	-0	0	559.284	553.253	318.119	209.718	-0.0527441	-2.65446	0.0409057	-0.0319712	7.42344
34	0.0204845	0.0167138	0.0367295	0.0159617	0.00378895	0.0176617	0.0261917	-0.0307212	0.00115239	-0.107931	0.0602395	0.0588216	0.0528341	-0.00329384	0.0196195	-2.18871	0.014483	-1.5442	0	0	0	0	-0	0	0	0	-0.1265	0	-0	0	0	0	0	0	-0	0	0.105	0.015	0	0	-0	0	0	0.098	0.1	0	-0	0	0	0	0	0	-0	0	0.05595	0	0	0	-0	0	0	0	0	0	-0	0	559.302	553.275	318.047	209.754	-0.051749	-2.66495	0.040881	-0.0319772	7.45705
35	0.0255566	0.0167042	0.0367252	0.0159754	0.00379949	0.0176659	0.0261914	-0.0307229	0.00115255	-0.0968443	0.0581078	0.0655884	0.0527308	-0.00329417	0.0198892	-2.1839	0.0147092	-1.54373	0	0	0	0	-0	0	0	0	-0.1265	0	-0	0	0	0	0	0	-0	0	0.105	0.015	0	0	-0	0	0	0.098	0.1	0	-0	0	0	0	0	0	-0	0	0.05595	0	0	0	-0	0	0	0	0	0	-0	0	559.38	553.362	317.749	209.898	-0.0488527	-2.7024	0.0408292	-0.0320031	7.58815
36	0.0456766	0.0166748	0.0367131	0.0160143	0.00383078	0.0176793	0.0261988	-0.0307226	0.00115391	-0.0934197	0.0780267	0.0552081	0.0523212	-0.00329499	0.0209527	-2.16454	0.0152253	-1.54225	0	0	0	0	-0	0	0	0	-0.1265	0	-0	0	0	0	0	0	-0	0	0.105	0.015	0	0	-0	0	0	0.098	0.1	0	-0	0	0	0	0	0	-0	0	0.05595	0	0	0	-0	0	0	0	0	0	-0	0	559.603	553.589	316.858	210.315	-0.0411892	-2.80466	0.0407189	-0.0320812	7.95084
37	0.0520917	0.0166543	0.0367022	0.0160368	0.0038491	0.0176893	0.026198	-0.0307279	0.00115939	-0.0911946	0.0773666	0.0324619	0.0521687	-0.00329532	0.0212879	-2.15849	0.0155738	-1.54151	0	0	0	0	-0	0	0	0	-0.1265	0	-0	0	0	0	0	0	-0	0	0.105	0.015	0	0	-0	0	0	0.098	0.1	0	-0	0	0	0	0	0	-0	0	0.05595	0	0	0	-0	0	0	0	0	0	-0	0	559.694	553.702	316.4	210.511	-0.034739	-2.87204	0.0405409	-0.0321121	8.17062
38	0.0460675	0.0166378	0.036697	0.0160492	0.003863	0.0176963	0.0261918	-0.0307222	0.00116507	-0.0733222	0.0592024	0.0236057	0.0522916	-0.00329571	0.0209748	-2.16477	0.0161643	-1.54113	0	0	0	0	-0	0	0	0	-0.1265	0	-0	0	0	0	0	0	-0	0	0.105	0.015	0	0	-0	0	0	0.098	0.1	0	-0	0	0	0	0	0	-0	0	0.05595	0	0	0	-0	0	0	0	0	0	-0	0	559.758	553.778	316.049	210.655	-0.0299575	-2.92396	0.0404225	-0.0321335	8.34253
39	0.0316638	0.0166155	0.0366895	0.0160724	0.00388242	0.017704	0.0261989	-0.0307278	0.00116265	-0.0778277	0.0520544	0.00105915	0.052589	-0.00329621	0.020221	-2.17955	0.0172275	-1.54064	0	0	0	0	-0	0	0	0	-0.1265	0	-0	0	0	0	0	0	-0	0	0.105	0.015	0	0	-0	0	0	0.098	0.1	0	-0	0	0	0	0	0	-0	0	0.05595	0	0	0	-0	0	0	0	0	0	-0	0	559.846	553.885	315.517	210.864	-0.0233388	-2.99893	0.040265	-0.0321703	8.59564
40	0.045898	0.0165721	0.0366743	0.0161231	0.00392278	0.0177241	0.0261977	-0.0307331	0.00115879	-0.0565987	0.0501959	0.0249272	0.0522891	-0.00329691	0.0209662	-2.16609	0.0182308	-1.5388	0	0	0	0	-0	0	0	0	-0.1265	0	-0	0	0	0	0	0	-0	0	0.105	0.015	0	0	-0	0	0	0.098	0.1	0	-0	0	0	0	0	0	-0	0	0.05595	0	0	0	-0	0	0	0	0	0	-0	0	560.037	554.066	314.319	211.303	-0.00977739	-3.15923	0.0400306	-0.0322479	9.1461
41	0.0616999	0.0165431	0.0366618	0.0161488	0.00394517	0.0177371	0.0261905	-0.030721	0.0011705	-0.0765823	0.0648156	0.0297355	0.0519466	-0.00329745	0.0217918	-2.15065	0.0184478	-1.53765	0	0	0	0	-0	0	0	0	-0.1265	0	-0	0	0	0	0	0	-0	0	0.105	0.015	0	0	-0	0	0	0.098	0.1	0	-0	0	0	0	0	0	-0	0	0.05595	0	0	0	-0	0	0	0	0	0	-0	0	560.102	554.149	313.697	211.504	0.000514395	-3.26417	0.0397752	-0.0322809	9.48469
42	0.056767	0.0165236	0.0366562	0.0161616	0.00395781	0.0177423	0.0261949	-0.0307214	0.00116854	-0.0791813	0.0620199	0.0144939	0.0520452	-0.00329776	0.0215329	-2.15572	0.0189171	-1.53736	0	0	0	0	-0	0	0	0	-0.1265	0	-0	0	0	0	0	0	-0	0	0.105	0.015	0	0	-0	0	0	0.098	0.1	0	-0	0	0	0	0	0	-0	0	0.05595	0	0	0	-0	0	0	0	0	0	-0	0	560.119	554.185	313.433	211.583	0.00555238	-3.31109	0.0396099	-0.0322963	9.63119
43	0.0672955	0.0164925	0.0366462	0.016196	0.0039846	0.0177557	0.0261963	-0.0307221	0.00117192	-0.080776	0.0637426	0.0325103	0.0518169	-0.00329818	0.0220758	-2.14561	0.0195513	-1.536	0	0	0	0	-0	0	0	0	-0.1265	0	-0	0	0	0	0	0	-0	0	0.105	0.015	0	0	-0	0	0	0.098	0.1	0	-0	0	0	0	0	0	-0	0	0.05595	0	0	0	-0	0	0	0	0	0	-0	0	560.185	554.269	312.585	211.829	0.0178793	-3.44615	0.0393261	-0.0323342	10.0858
44	0.0727751	0.0164648	0.0366366	0.0162196	0.00400496	0.0177672	0.0261942	-0.0307282	0.00117401	-0.106696	0.0603387	0.033645	0.0516909	-0.00329854	0.0223567	-2.14038	0.0199911	-1.53512	0	0	0	0	-0	0	0	0	-0.1265	0	-0	0	0	0	0	0	-0	0	0.105	0.015	0	0	-0	0	0	0.098	0.1	0	-0	0	0	0	0	0	-0	0	0.05595	0	0	0	-0	0	0	0	0	0	-0	0	560.207	554.315	312.036	211.972	0.027738	-3.54244	0.039039	-0.0323566	10.3945
45	0.0719073	0.0164508	0.036632	0.0162282	0.00401415	0.0177733	0.0261927	-0.0307185	0.0011727	-0.0963677	0.0596645	0.040862	0.051708	-0.00329874	0.0223113	-2.14134	0.0202882	-1.53482	0	0	0	0	-0	0	0	0	-0.1265	0	-0	0	0	0	0	0	-0	0	0.105	0.015	0	0	-0	0	0	0.098	0.1	0	-0	0	0	0	0	0	-0	0	0.05595	0	0	0	-0	0	0	0	0	0	-0	0	560.211	554.333	311.806	212.028	0.0324129	-3.58619	0.0388995	-0.0323651	10.5307
46	0.0671792	0.0164371	0.0366269	0.016243	0.00402408	0.0177779	0.0261969	-0.030721	0.00117192	-0.0999257	0.065896	0.0220713	0.0518137	-0.00329891	0.0220644	-2.14619	0.0208266	-1.53447	0	0	0	0	-0	0	0	0	-0.1265	0	-0	0	0	0	0	0	-0	0	0.105	0.015	0	0	-0	0	0	0.098	0.1	0	-0	0	0	0	0	0	-0	0	0.05595	0	0	0	-0	0	0	0	0	0	-0	0	560.217	554.353	311.488	212.104	0.0380075	-3.64345	0.0387501	-0.0323799	10.7182
47	0.0572401	0.0164103	0.0366181	0.0162724	0.00404583	0.0177902	0.0261933	-0.0307196	0.0011733	-0.115323	0.0729567	0.00918507	0.0520331	-0.00329916	0.0215439	-2.15639	0.0220231	-1.5337	0	0	0	0	-0	0	0	0	-0.1265	0	-0	0	0	0	0	0	-0	0	0.105	0.015	0	0	-0	0	0	0.098	0.1	0	-0	0	0	0	0	0	-0	0	0.05595	0	0	0	-0	0	0	0	0	0	-0	0	560.233	554.385	310.769	212.267	0.0500717	-3.76947	0.0384547	-0.0324051	11.1356
48	0.0483005	0.01639	0.036611	0.016288	0.00405917	0.0177981	0.0261951	-0.0307184	0.00117745	-0.124154	0.068321	-0.00247784	0.0522222	-0.00329945	0.0210759	-2.16545	0.0227972	-1.53339	0	0	0	0	-0	0	0	0	-0.1265	0	-0	0	0	0	0	0	-0	0	0.105	0.015	0	0	-0	0	0	0.098	0.1	0	-0	0	0	0	0	0	-0	0	0.05595	0	0	0	-0	0	0	0	0	0	-0	0	560.229	554.4	310.4	212.344	0.0574835	-3.83951	0.0382324	-0.0324207	11.3564
49	0.0377644	0.0163661	0.0366036	0.0163112	0.00407722	0.0178085	0.026193	-0.0307166	0.00117953	-0.136475	0.0678653	-0.00412144	0.0524432	-0.00329963	0.02052	-2.17616	0.0238582	-1.53287	0	0	0	0	-0	0	0	0	-0.1265	0	-0	0	0	0	0	0	-0	0	0.105	0.015	0	0	-0	0	0	0.098	0.1	0	-0	0	0	0	0	0	-0	0	0.05595	0	0	0	-0	0	0	0	0	0	-0	0	560.223	554.416	309.841	212.454	0.0677754	-3.94235	0.0379457	-0.0324388	11.6922
50	0.0309991	0.0163514	0.0365986	0.0163214	0.00408637	0.0178142	0.026197	-0.0307153	0.0011774	-0.133374	0.0525643	0.00735511	0.0525782	-0.00329987	0.0201632	-2.18299	0.0244029	-1.53272	0	0	0	0	-0	0	0	0	-0.1265	0	-0	0	0	0	0	0	-0	0	0.105	0.015	0	0	-0	0	0	0.098	0.1	0	-0	0	0	0	0	0	-0	0	0.05595	0	0	0	-0	0	0	0	0	0	-0	0	560.214	554.423	309.608	212.497	0.0729893	-3.98959	0.0377774	-0.0324488	11.8381
51	0.029871	0.0163335	0.0365919	0.0163414	0.00410014	0.0178227	0.0261959	-0.0307177	0.00118317	-0.142665	0.0512298	0.0203503	0.0526019	-0.00329993	0.020098	-2.18425	0.0250291	-1.5321	0	0	0	0	-0	0	0	0	-0.1265	0	-0	0	0	0	0	0	-0	0	0.105	0.015	0	0	-0	0	0	0.098	0.1	0	-0	0	0	0	0	0	-0	0	0.05595	0	0	0	-0	0	0	0	0	0	-0	0	560.197	554.429	309.125	212.584	0.0820512	-4.08039	0.03752	-0.0324634	12.1357
52	0.0396412	0.0163141	0.0365863	0.0163566	0.00411366	0.0178311	0.0261934	-0.0307133	0.00118307	-0.146194	0.0533464	0.0230982	0.0524059	-0.00330015	0.0206087	-2.17458	0.0251215	-1.53133	0	0	0	0	-0	0	0	0	-0.1265	0	-0	0	0	0	0	0	-0	0	0.105	0.015	0	0	-0	0	0	0.098	0.1	0	-0	0	0	0	0	0	-0	0	0.05595	0	0	0	-0	0	0	0	0	0	-0	0	560.179	554.432	308.735	212.65	0.0901294	-4.15693	0.0372731	-0.0324756	12.3796
53	0.0401522	0.0163037	0.0365825	0.0163646	0.00411968	0.0178348	0.0261946	-0.0307141	0.00118312	-0.145737	0.0558213	0.0140409	0.0523927	-0.0033003	0.0206336	-2.17411	0.0252948	-1.53109	0	0	0	0	-0	0	0	0	-0.1265	0	-0	0	0	0	0	0	-0	0	0.105	0.015	0	0	-0	0	0	0.098	0.1	0	-0	0	0	0	0	0	-0	0	0.05595	0	0	0	-0	0	0	0	0	0	-0	0	560.169	554.433	308.573	212.676	0.0938385	-4.19034	0.0371532	-0.0324842	12.4823
54	0.0430027	0.0162816	0.0365747	0.0163902	0.0041373	0.0178464	0.026199	-0.0307157	0.00118552	-0.155878	0.0408384	0.0130094	0.0523384	-0.00330032	0.0207742	-2.17141	0.0259707	-1.53013	0	0	0	0	-0	0	0	0	-0.1265	0	-0	0	0	0	0	0	-0	0	0.105	0.015	0	0	-0	0	0	0.098	0.1	0	-0	0	0	0	0	0	-0	0	0.05595	0	0	0	-0	0	0	0	0	0	-0	0	560.134	554.425	307.909	212.781	0.106292	-4.31584	0.0368098	-0.0325042	12.8955
55	0.0324879	0.0162427	0.0365617	0.0164289	0.00416634	0.0178661	0.0262004	-0.0307142	0.0011852	-0.158392	0.0243104	0.0256234	0.0525619	-0.00330048	0.0202124	-2.18213	0.0275932	-1.52906	0	0	0	0	-0	0	0	0	-0.1265	0	-0	0	0	0	0	0	-0	0	0.105	0.015	0	0	-0	0	0	0.098	0.1	0	-0	0	0	0	0	0	-0	0	0.05595	0	0	0	-0	0	0	0	0	0	-0	0	560.074	554.392	306.907	212.928	0.125781	-4.50691	0.0362697	-0.0325393	13.5164
56	0.0293154	0.0162157	0.0365513	0.0164506	0.00418349	0.0178792	0.0261976	-0.0307156	0.00118997	-0.144488	0.0317575	0.0190473	0.0526241	-0.00330083	0.0200399	-2.18539	0.0283577	-1.52845	0	0	0	0	-0	0	0	0	-0.1265	0	-0	0	0	0	0	0	-0	0	0.105	0.015	0	0	-0	0	0	0.098	0.1	0	-0	0	0	0	0	0	-0	0	0.05595	0	0	0	-0	0	0	0	0	0	-0	0	560.022	554.382	306.394	212.995	0.138058	-4.61669	0.0358522	-0.032562	13.8568
57	0.0219856	0.0162011	0.036547	0.0164593	0.00419224	0.0178857	0.0261952	-0.0307116	0.00118981	-0.137545	0.0342098	0.0241444	0.052771	-0.00330105	0.0196524	-2.19275	0.0289328	-1.52837	0	0	0	0	-0	0	0	0	-0.1265	0	-0	0	0	0	0	0	-0	0	0.105	0.015	0	0	-0	0	0	0.098	0.1	0	-0	0	0	0	0	0	-0	0	0.05595	0	0	0	-0	0	0	0	0	0	-0	0	559.996	554.376	306.179	213.021	0.143568	-4.66412	0.0356561	-0.032572	14.0005
58	0.0286611	0.0161901	0.036542	0.016472	0.00419983	0.0178913	0.0261979	-0.0307143	0.00119151	-0.148382	0.0286764	0.0350721	0.0526408	-0.00330106	0.0199997	-2.18613	0.0290089	-1.52778	0	0	0	0	-0	0	0	0	-0.1265	0	-0	0	0	0	0	0	-0	0	0.105	0.015	0	0	-0	0	0	0.098	0.1	0	-0	0	0	0	0	0	-0	0	0.05595	0	0	0	-0	0	0	0	0	0	-0	0	559.962	554.369	305.884	213.056	0.150205	-4.72676	0.0354401	-0.0325836	14.2008
59	0.0102353	0.016151	0.0365261	0.0165204	0.00423152	0.0179157	0.0262123	-0.030713	0.00119991	-0.143627	0.0602328	0.0478197	0.0530196	-0.0033008	0.0190098	-2.20474	0.0313802	-1.52661	0	0	0	0	-0	0	0	0	-0.1265	0	-0	0	0	0	0	0	-0	0	0.105	0.015	0	0	-0	0	0	0.098	0.1	0	-0	0	0	0	0	0	-0	0	0.05595	0	0	0	-0	0	0	0	0	0	-0	0	559.842	554.291	304.578	213.217	0.176352	-4.98626	0.0347223	-0.0326326	15.0526
60	0.00778767	0.0161157	0.0365126	0.0165491	0.00425475	0.0179358	0.0262112	-0.0307229	0.00119629	-0.167287	0.0381602	0.0509567	0.0530587	-0.00330124	0.0188701	-2.20727	0.0323362	-1.52581	0	0	0	0	-0	0	0	0	-0.1265	0	-0	0	0	0	0	0	-0	0	0.105	0.015	0	0	-0	0	0	0.098	0.1	0	-0	0	0	0	0	0	-0	0	0.05595	0	0	0	-0	0	0	0	0	0	-0	0	559.74	554.257	303.91	213.286	0.194252	-5.13951	0.0340606	-0.0326678	15.5216
61	0.0135381	0.0160955	0.036504	0.0165671	0.00426808	0.0179493	0.0262034	-0.0307092	0.00119315	-0.167897	0.058762	0.0378873	0.0529542	-0.00330141	0.0191678	-2.20157	0.0327054	-1.52495	0	0	0	0	-0	0	0	0	-0.1265	0	-0	0	0	0	0	0	-0	0	0.105	0.015	0	0	-0	0	0	0.098	0.1	0	-0	0	0	0	0	0	-0	0	0.05595	0	0	0	-0	0	0	0	0	0	-0	0	559.656	554.225	303.403	213.337	0.207186	-5.25652	0.0336284	-0.0326924	15.8871
62	0.0226607	0.0160761	0.036494	0.0165902	0.00428064	0.01796	0.0261988	-0.0307132	0.00119197	-0.185014	0.0699778	0.0191136	0.0527848	-0.00330147	0.0196404	-2.19251	0.0329593	-1.52392	0	0	0	0	-0	0	0	0	-0.1265	0	-0	0	0	0	0	0	-0	0	0.105	0.015	0	0	-0	0	0	0.098	0.1	0	-0	0	0	0	0	0	-0	0	0.05595	0	0	0	-0	0	0	0	0	0	-0	0	559.563	554.184	302.85	213.392	0.220645	-5.3807	0.0331865	-0.032726	16.2795
63	0.0421506	0.0160606	0.0364869	0.0166056	0.00429089	0.0179708	0.0261971	-0.0307092	0.0012034	-0.200084	0.0802265	0.0286294	0.0524036	-0.00330164	0.0206623	-2.17307	0.0325395	-1.52272	0	0	0	0	-0	0	0	0	-0.1265	0	-0	0	0	0	0	0	-0	0	0.105	0.015	0	0	-0	0	0	0.098	0.1	0	-0	0	0	0	0	0	-0	0	0.05595	0	0	0	-0	0	0	0	0	0	-0	0	559.491	554.153	302.433	213.432	0.231365	-5.47702	0.0328289	-0.0327507	16.5789
64	0.0429396	0.016043	0.0364799	0.0166238	0.00430323	0.0179816	0.0262012	-0.0307112	0.00119642	-0.191451	0.0727517	0.0484109	0.0523819	-0.00330165	0.0206928	-2.17232	0.0330022	-1.52211	0	0	0	0	-0	0	0	0	-0.1265	0	-0	0	0	0	0	0	-0	0	0.105	0.015	0	0	-0	0	0	0.098	0.1	0	-0	0	0	0	0	0	-0	0	0.05595	0	0	0	-0	0	0	0	0	0	-0	0	559.41	554.119	302.008	213.473	0.242518	-5.57594	0.0324344	-0.032777	16.8875
65	0.0457764	0.0160326	0.0364741	0.0166343	0.00431021	0.0179902	0.0262002	-0.0307052	0.0012003	-0.192044	0.0576218	0.0530017	0.0523268	-0.00330177	0.0208361	-2.16952	0.033243	-1.52159	0	0	0	0	-0	0	0	0	-0.1265	0	-0	0	0	0	0	0	-0	0	0.105	0.015	0	0	-0	0	0	0.098	0.1	0	-0	0	0	0	0	0	-0	0	0.05595	0	0	0	-0	0	0	0	0	0	-0	0	559.349	554.095	301.688	213.504	0.250996	-5.65103	0.0321323	-0.0327969	17.1207
66	0.0574869	0.0159977	0.0364553	0.0166841	0.0043397	0.0180196	0.026201	-0.0307109	0.0012037	-0.20979	0.050796	0.0445085	0.0521026	-0.00330102	0.0214216	-2.15796	0.0342846	-1.51932	0	0	0	0	-0	0	0	0	-0.1265	0	-0	0	0	0	0	0	-0	0	0.105	0.015	0	0	-0	0	0	0.098	0.1	0	-0	0	0	0	0	0	-0	0	0.05595	0	0	0	-0	0	0	0	0	0	-0	0	559.106	553.917	300.301	213.654	0.283258	-5.95971	0.0312095	-0.0328862	18.1172
67	0.0581001	0.0159547	0.0364344	0.0167316	0.00437217	0.018057	0.0261955	-0.0307154	0.00122024	-0.246199	0.0757701	0.0563045	0.0521028	-0.00330114	0.0214297	-2.1575	0.0358207	-1.51743	0	0	0	0	-0	0	0	0	-0.1265	0	-0	0	0	0	0	0	-0	0	0.105	0.015	0	0	-0	0	0	0.098	0.1	0	-0	0	0	0	0	0	-0	0	0.05595	0	0	0	-0	0	0	0	0	0	-0	0	558.822	553.735	298.947	213.804	0.319587	-6.28713	0.0300613	-0.0330013	19.1394
68	0.0596058	0.0159281	0.0364292	0.0167418	0.00438765	0.0180746	0.0262001	-0.0307051	0.00120597	-0.257655	0.0782528	0.0463767	0.0520689	-0.00330225	0.0215088	-2.15603	0.0361002	-1.51694	0	0	0	0	-0	0	0	0	-0.1265	0	-0	0	0	0	0	0	-0	0	0.105	0.015	0	0	-0	0	0	0.098	0.1	0	-0	0	0	0	0	0	-0	0	0.05595	0	0	0	-0	0	0	0	0	0	-0	0	558.738	553.707	298.648	213.837	0.331297	-6.3725	0.0295773	-0.0330499	19.37
69	0.0474205	0.0159211	0.0364194	0.0167601	0.00439338	0.0180856	0.0262032	-0.0307055	0.00120864	-0.260708	0.0754365	0.0624991	0.0523394	-0.00330192	0.0208639	-2.16825	0.0372271	-1.51683	0	0	0	0	-0	0	0	0	-0.1265	0	-0	0	0	0	0	0	-0	0	0.105	0.015	0	0	-0	0	0	0.098	0.1	0	-0	0	0	0	0	0	-0	0	0.05595	0	0	0	-0	0	0	0	0	0	-0	0	558.628	553.662	298.241	213.885	0.342851	-6.47524	0.0291588	-0.033091	19.6902
70	0.0400743	0.0159077	0.0364098	0.0167822	0.0044051	0.0181024	0.0262096	-0.0307114	0.00121896	-0.252223	0.0610565	0.0365872	0.0524999	-0.00330163	0.0204634	-2.17567	0.0383324	-1.51629	0	0	0	0	-0	0	0	0	-0.1265	0	-0	0	0	0	0	0	-0	0	0.105	0.015	0	0	-0	0	0	0.098	0.1	0	-0	0	0	0	0	0	-0	0	0.05595	0	0	0	-0	0	0	0	0	0	-0	0	558.467	553.581	297.642	213.96	0.360032	-6.62749	0.0285554	-0.0331495	20.1647
71	0.0155815	0.0158788	0.0363922	0.0168252	0.00443309	0.0181387	0.0262073	-0.0307005	0.00121385	-0.25458	0.0408732	0.0310189	0.0530229	-0.00330085	0.0191471	-2.20035	0.0411953	-1.51555	0	0	0	0	-0	0	0	0	-0.1265	0	-0	0	0	0	0	0	-0	0	0.105	0.015	0	0	-0	0	0	0.098	0.1	0	-0	0	0	0	0	0	-0	0	0.05595	0	0	0	-0	0	0	0	0	0	-0	0	558.137	553.362	296.362	214.153	0.395839	-6.95488	0.0274417	-0.0332861	21.1991
72	0.00289145	0.0158568	0.0363807	0.0168507	0.00444774	0.0181634	0.0262061	-0.0307072	0.00121553	-0.237341	0.0463435	0.0182735	0.0532569	-0.00330153	0.0184571	-2.21315	0.0426864	-1.51526	0	0	0	0	-0	0	0	0	-0.1265	0	-0	0	0	0	0	0	-0	0	0.105	0.015	0	0	-0	0	0	0.098	0.1	0	-0	0	0	0	0	0	-0	0	0.05595	0	0	0	-0	0	0	0	0	0	-0	0	557.942	553.261	295.738	214.253	0.417195	-7.13209	0.0266905	-0.0333879	21.7223
73	0.000586604	0.0158455	0.0363776	0.0168584	0.00445636	0.0181769	0.0262038	-0.0307028	0.00121554	-0.250552	0.0449948	0.0272799	0.0532977	-0.00330196	0.0183292	-2.2155	0.0431417	-1.51502	0	0	0	0	-0	0	0	0	-0.1265	0	-0	0	0	0	0	0	-0	0	0.105	0.015	0	0	-0	0	0	0.098	0.1	0	-0	0	0	0	0	0	-0	0	0.05595	0	0	0	-0	0	0	0	0	0	-0	0	557.855	553.22	295.483	214.298	0.426605	-7.20731	0.0263453	-0.03343	21.9389
74	0.000601447	0.0158383	0.0363719	0.0168712	0.00446342	0.018188	0.0262046	-0.0306992	0.00121346	-0.250938	0.053968	0.0181504	0.0533052	-0.00330176	0.0183195	-2.21556	0.0435706	-1.51457	0	0	0	0	-0	0	0	0	-0.1265	0	-0	0	0	0	0	0	-0	0	0.105	0.015	0	0	-0	0	0	0.098	0.1	0	-0	0	0	0	0	0	-0	0	0.05595	0	0	0	-0	0	0	0	0	0	-0	0	557.739	553.159	295.136	214.363	0.43757	-7.30327	0.0259649	-0.0334798	22.2343
75	-0.00567844	0.0158288	0.0363644	0.0168892	0.00447332	0.0182041	0.0262089	-0.0307017	0.00121414	-0.244212	0.0674839	0.00602157	0.0534316	-0.00330148	0.0179697	-2.22196	0.0445482	-1.51419	0	0	0	0	-0	0	0	0	-0.1265	0	-0	0	0	0	0	0	-0	0	0.105	0.015	0	0	-0	0	0	0.098	0.1	0	-0	0	0	0	0	0	-0	0	0.05595	0	0	0	-0	0	0	0	0	0	-0	0	557.572	553.059	294.633	214.466	0.453466	-7.44528	0.0254491	-0.033554	22.676
76	-0.0133537	0.0158171	0.0363588	0.0169053	0.00448453	0.0182222	0.0262094	-0.0306973	0.00121381	-0.241272	0.0459699	0.0138948	0.0535775	-0.00330147	0.0175469	-2.22976	0.0455628	-1.51393	0	0	0	0	-0	0	0	0	-0.1265	0	-0	0	0	0	0	0	-0	0	0.105	0.015	0	0	-0	0	0	0.098	0.1	0	-0	0	0	0	0	0	-0	0	0.05595	0	0	0	-0	0	0	0	0	0	-0	0	557.415	552.963	294.172	214.568	0.468758	-7.57774	0.0249423	-0.0336293	23.0804
77	-0.0320342	0.0158031	0.0363505	0.0169277	0.0044994	0.0182443	0.0262052	-0.0306961	0.00121836	-0.256297	0.0667506	0.0138399	0.0539173	-0.00330118	0.0165269	-2.24863	0.0474122	-1.514	0	0	0	0	-0	0	0	0	-0.1265	0	-0	0	0	0	0	0	-0	0	0.105	0.015	0	0	-0	0	0	0.098	0.1	0	-0	0	0	0	0	0	-0	0	0.05595	0	0	0	-0	0	0	0	0	0	-0	0	557.205	552.822	293.548	214.723	0.488898	-7.75903	0.0243274	-0.033735	23.6454
78	-0.0285558	0.0157883	0.0363458	0.0169447	0.00451261	0.0182642	0.0262095	-0.0307131	0.00122892	-0.284548	0.0732866	0.032902	0.0538586	-0.00330138	0.0166991	-2.24531	0.0478066	-1.51326	0	0	0	0	-0	0	0	0	-0.1265	0	-0	0	0	0	0	0	-0	0	0.105	0.015	0	0	-0	0	0	0.098	0.1	0	-0	0	0	0	0	0	-0	0	0.05595	0	0	0	-0	0	0	0	0	0	-0	0	557.038	552.715	293.096	214.847	0.504994	-7.89783	0.023819	-0.0338233	24.0651
79	-0.0171367	0.0157761	0.0363446	0.0169538	0.00452535	0.0182823	0.0262081	-0.0306993	0.00121344	-0.29713	0.0885201	0.0182826	0.053674	-0.00330153	0.0173052	-2.23404	0.0475756	-1.51229	0	0	0	0	-0	0	0	0	-0.1265	0	-0	0	0	0	0	0	-0	0	0.105	0.015	0	0	-0	0	0	0.098	0.1	0	-0	0	0	0	0	0	-0	0	0.05595	0	0	0	-0	0	0	0	0	0	-0	0	556.907	552.633	292.763	214.947	0.517366	-8.00202	0.0234075	-0.0338877	24.3781
80	-0.0152712	0.0157709	0.03634	0.0169658	0.00452988	0.0182919	0.0262073	-0.0306984	0.0012207	-0.305793	0.0895329	0.0268877	0.0536446	-0.00330155	0.017396	-2.23227	0.0477725	-1.51188	0	0	0	0	-0	0	0	0	-0.1265	0	-0	0	0	0	0	0	-0	0	0.105	0.015	0	0	-0	0	0	0.098	0.1	0	-0	0	0	0	0	0	-0	0	0.05595	0	0	0	-0	0	0	0	0	0	-0	0	556.812	552.568	292.52	215.023	0.525898	-8.07814	0.0231593	-0.0339411	24.6107
81	-0.0118571	0.0157644	0.0363401	0.0169692	0.00453541	0.0182985	0.0262074	-0.0306965	0.0012199	-0.30845	0.0833192	0.0237028	0.053586	-0.00330181	0.0175778	-2.22891	0.0476998	-1.51158	0	0	0	0	-0	0	0	0	-0.1265	0	-0	0	0	0	0	0	-0	0	0.105	0.015	0	0	-0	0	0	0.098	0.1	0	-0	0	0	0	0	0	-0	0	0.05595	0	0	0	-0	0	0	0	0	0	-0	0	556.772	552.543	292.421	215.056	0.530077	-8.11105	0.0230175	-0.033966	24.7043
82	-0.000980473	0.0157566	0.0363358	0.0169833	0.00454554	0.0183121	0.0262068	-0.0306976	0.00122104	-0.297156	0.0797091	0.0210006	0.0534075	-0.00330124	0.0181434	-2.21822	0.0475462	-1.51056	0	0	0	0	-0	0	0	0	-0.1265	0	-0	0	0	0	0	0	-0	0	0.105	0.015	0	0	-0	0	0	0.098	0.1	0	-0	0	0	0	0	0	-0	0	0.05595	0	0	0	-0	0	0	0	0	0	-0	0	556.619	552.435	292.027	215.193	0.542825	-8.23009	0.0226456	-0.0340424	25.0846
83	-0.0164374	0.0157442	0.0363337	0.016997	0.0045582	0.0183293	0.0262092	-0.030696	0.00121979	-0.299487	0.0899163	0.0148961	0.0536949	-0.00330128	0.0173039	-2.23387	0.0489465	-1.5108	0	0	0	0	-0	0	0	0	-0.1265	0	-0	0	0	0	0	0	-0	0	0.105	0.015	0	0	-0	0	0	0.098	0.1	0	-0	0	0	0	0	0	-0	0	0.05595	0	0	0	-0	0	0	0	0	0	-0	0	556.464	552.319	291.65	215.336	0.556601	-8.35354	0.0222551	-0.0341254	25.4666
84	-0.0270653	0.0157335	0.036332	0.0170084	0.00456859	0.018344	0.0262095	-0.030705	0.00121473	-0.322198	0.0993184	-0.00379597	0.0538788	-0.00330139	0.0167222	-2.24465	0.0499385	-1.51097	0	0	0	0	-0	0	0	0	-0.1265	0	-0	0	0	0	0	0	-0	0	0.105	0.015	0	0	-0	0	0	0.098	0.1	0	-0	0	0	0	0	0	-0	0	0.05595	0	0	0	-0	0	0	0	0	0	-0	0	556.35	552.233	291.376	215.446	0.566969	-8.44449	0.0219591	-0.0341921	25.744
85	-0.0274471	0.0157166	0.0363294	0.017027	0.00458851	0.0183683	0.026214	-0.0306985	0.00123642	-0.296161	0.065316	-0.0165187	0.0539009	-0.0033009	0.016675	-2.2454	0.0507027	-1.51026	0	0	0	0	-0	0	0	0	-0.1265	0	-0	0	0	0	0	0	-0	0	0.105	0.015	0	0	-0	0	0	0.098	0.1	0	-0	0	0	0	0	0	-0	0	0.05595	0	0	0	-0	0	0	0	0	0	-0	0	556.114	552.034	290.804	215.706	0.586786	-8.63502	0.0214809	-0.0343186	26.358
86	-0.0155178	0.0156963	0.0363307	0.0170398	0.00460693	0.0183878	0.0262171	-0.0307067	0.00122462	-0.315172	0.0554315	-0.00458141	0.0537065	-0.00330148	0.017311	-2.23368	0.0503457	-1.50929	0	0	0	0	-0	0	0	0	-0.1265	0	-0	0	0	0	0	0	-0	0	0.105	0.015	0	0	-0	0	0	0.098	0.1	0	-0	0	0	0	0	0	-0	0	0.05595	0	0	0	-0	0	0	0	0	0	-0	0	555.981	551.943	290.525	215.843	0.599362	-8.73638	0.0210682	-0.0344049	26.6536
87	-0.0209349	0.0156904	0.0363296	0.0170486	0.00461396	0.0184008	0.0262207	-0.0307036	0.00122505	-0.302181	0.0740628	0.00725101	0.0538036	-0.00330144	0.01701	-2.23925	0.0509375	-1.5093	0	0	0	0	-0	0	0	0	-0.1265	0	-0	0	0	0	0	0	-0	0	0.105	0.015	0	0	-0	0	0	0.098	0.1	0	-0	0	0	0	0	0	-0	0	0.05595	0	0	0	-0	0	0	0	0	0	-0	0	555.882	551.872	290.323	215.948	0.607439	-8.80961	0.0208495	-0.034457	26.8808
88	-0.0194008	0.0156734	0.036329	0.0170653	0.00463259	0.01842	0.0262156	-0.0307049	0.00121517	-0.282841	0.0614335	0.029074	0.0537943	-0.00330102	0.0170685	-2.23807	0.0513972	-1.50866	0	0	0	0	-0	0	0	0	-0.1265	0	-0	0	0	0	0	0	-0	0	0.105	0.015	0	0	-0	0	0	0.098	0.1	0	-0	0	0	0	0	0	-0	0	0.05595	0	0	0	-0	0	0	0	0	0	-0	0	555.678	551.709	289.895	216.192	0.623326	-8.96143	0.0204371	-0.0345686	27.3727
89	-0.0114884	0.0156628	0.03633	0.0170738	0.00464237	0.0184343	0.0262159	-0.0307004	0.001223	-0.27729	0.0597881	0.0455923	0.0536649	-0.00330146	0.0174866	-2.23036	0.0511714	-1.50799	0	0	0	0	-0	0	0	0	-0.1265	0	-0	0	0	0	0	0	-0	0	0.105	0.015	0	0	-0	0	0	0.098	0.1	0	-0	0	0	0	0	0	-0	0	0.05595	0	0	0	-0	0	0	0	0	0	-0	0	555.576	551.628	289.692	216.317	0.632202	-9.04002	0.0202213	-0.0346308	27.6096
90	-0.0142954	0.0156468	0.0363308	0.0170864	0.00465846	0.0184492	0.0262202	-0.0307018	0.00121864	-0.283706	0.0751216	0.0248057	0.053723	-0.00330132	0.0173213	-2.23342	0.0516881	-1.50778	0	0	0	0	-0	0	0	0	-0.1265	0	-0	0	0	0	0	0	-0	0	0.105	0.015	0	0	-0	0	0	0.098	0.1	0	-0	0	0	0	0	0	-0	0	0.05595	0	0	0	-0	0	0	0	0	0	-0	0	555.442	551.514	289.43	216.487	0.64274	-9.13846	0.0199582	-0.0347099	27.9236
91	-0.00839848	0.0156362	0.0363318	0.017095	0.00466916	0.018462	0.0262146	-0.0306977	0.00122446	-0.276693	0.0714263	0.032838	0.0536277	-0.00330144	0.0176286	-2.22772	0.0515632	-1.50723	0	0	0	0	-0	0	0	0	-0.1265	0	-0	0	0	0	0	0	-0	0	0.105	0.015	0	0	-0	0	0	0.098	0.1	0	-0	0	0	0	0	0	-0	0	0.05595	0	0	0	-0	0	0	0	0	0	-0	0	555.341	551.433	289.241	216.618	0.6509	-9.21283	0.0197509	-0.0347693	28.1563
92	-0.00955947	0.0156189	0.0363335	0.0171074	0.0046859	0.0184766	0.0262178	-0.0307025	0.00122822	-0.291194	0.0700471	0.0447244	0.0536607	-0.00330125	0.0175483	-2.22918	0.0519912	-1.50692	0	0	0	0	-0	0	0	0	-0.1265	0	-0	0	0	0	0	0	-0	0	0.105	0.015	0	0	-0	0	0	0.098	0.1	0	-0	0	0	0	0	0	-0	0	0.05595	0	0	0	-0	0	0	0	0	0	-0	0	555.192	551.309	288.969	216.817	0.661892	-9.31865	0.0194873	-0.0348533	28.4995
93	-0.00536451	0.0156101	0.0363355	0.0171122	0.00469436	0.0184869	0.0262161	-0.0306973	0.00122601	-0.290355	0.0675817	0.0512334	0.0535884	-0.00330161	0.0177714	-2.2251	0.0518475	-1.50657	0	0	0	0	-0	0	0	0	-0.1265	0	-0	0	0	0	0	0	-0	0	0.105	0.015	0	0	-0	0	0	0.098	0.1	0	-0	0	0	0	0	0	-0	0	0.05595	0	0	0	-0	0	0	0	0	0	-0	0	555.14	551.268	288.877	216.887	0.666815	-9.35859	0.0193505	-0.0348888	28.6146
94	-0.0131078	0.0155882	0.0363374	0.0171286	0.00471633	0.0185042	0.0262182	-0.0307019	0.00122052	-0.307101	0.0821678	0.0347027	0.0537462	-0.00330107	0.0173294	-2.23327	0.0528089	-1.5065	0	0	0	0	-0	0	0	0	-0.1265	0	-0	0	0	0	0	0	-0	0	0.105	0.015	0	0	-0	0	0	0.098	0.1	0	-0	0	0	0	0	0	-0	0	0.05595	0	0	0	-0	0	0	0	0	0	-0	0	554.946	551.092	288.519	217.178	0.68056	-9.50008	0.0190703	-0.0350003	29.0913
95	-0.0202067	0.0155752	0.0363402	0.0171373	0.00472881	0.0185193	0.0262213	-0.0307018	0.00122699	-0.30442	0.0827257	0.0521245	0.053873	-0.00330151	0.0169396	-2.2406	0.0534921	-1.50665	0	0	0	0	-0	0	0	0	-0.1265	0	-0	0	0	0	0	0	-0	0	0.105	0.015	0	0	-0	0	0	0.098	0.1	0	-0	0	0	0	0	0	-0	0	0.05595	0	0	0	-0	0	0	0	0	0	-0	0	554.848	551.009	288.352	217.326	0.688958	-9.5757	0.0188755	-0.0350627	29.3243
96	-0.0170949	0.0155614	0.0363423	0.0171461	0.00474247	0.0185311	0.02622	-0.0306993	0.00122988	-0.300281	0.0750533	0.0410641	0.0538258	-0.00330151	0.0170971	-2.23771	0.0534984	-1.50628	0	0	0	0	-0	0	0	0	-0.1265	0	-0	0	0	0	0	0	-0	0	0.105	0.015	0	0	-0	0	0	0.098	0.1	0	-0	0	0	0	0	0	-0	0	0.05595	0	0	0	-0	0	0	0	0	0	-0	0	554.757	550.931	288.199	217.465	0.696027	-9.64214	0.0187054	-0.0351199	29.5382
97	-0.0160996	0.0155542	0.0363434	0.0171506	0.00474906	0.0185376	0.0262202	-0.0306995	0.00122759	-0.300633	0.0779282	0.0296938	0.0538103	-0.0033017	0.0171481	-2.23681	0.0535191	-1.50614	0	0	0	0	-0	0	0	0	-0.1265	0	-0	0	0	0	0	0	-0	0	0.105	0.015	0	0	-0	0	0	0.098	0.1	0	-0	0	0	0	0	0	-0	0	0.05595	0	0	0	-0	0	0	0	0	0	-0	0	554.718	550.9	288.137	217.523	0.699396	-9.67071	0.0186196	-0.035147	29.6228
98	-0.0194836	0.0155412	0.0363453	0.0171595	0.00476202	0.0185478	0.0262202	-0.0306996	0.00122893	-0.293689	0.0799501	0.0222503	0.0538803	-0.00330143	0.0169501	-2.24046	0.0539799	-1.50608	0	0	0	0	-0	0	0	0	-0.1265	0	-0	0	0	0	0	0	-0	0	0.105	0.015	0	0	-0	0	0	0.098	0.1	0	-0	0	0	0	0	0	-0	0	0.05595	0	0	0	-0	0	0	0	0	0	-0	0	554.609	550.806	287.956	217.7	0.706799	-9.74741	0.0184622	-0.0352094	29.8837
99	-0.0142098	0.0155256	0.0363487	0.0171687	0.0047767	0.0185601	0.0262256	-0.030703	0.00122575	-0.292758	0.0699168	0.0409737	0.0538003	-0.00330148	0.0172208	-2.23546	0.0538727	-1.50556	0	0	0	0	-0	0	0	0	-0.1265	0	-0	0	0	0	0	0	-0	0	0.105	0.015	0	0	-0	0	0	0.098	0.1	0	-0	0	0	0	0	0	-0	0	0.05595	0	0	0	-0	0	0	0	0	0	-0	0	554.5	550.711	287.783	217.877	0.714818	-9.82599	0.0182868	-0.0352749	30.1421
100	-0.00538075	0.0154934	0.0363553	0.0171868	0.0048075	0.0185828	0.026216	-0.030709	0.00122531	-0.328398	0.0930496	0.0312047	0.0536712	-0.00330119	0.0176638	-2.22725	0.053767	-1.50461	0	0	0	0	-0	0	0	0	-0.1265	0	-0	0	0	0	0	0	-0	0	0.105	0.015	0	0	-0	0	0	0.098	0.1	0	-0	0	0	0	0	0	-0	0	0.05595	0	0	0	-0	0	0	0	0	0	-0	0	554.279	550.499	287.432	218.27	0.730272	-9.99017	0.0180145	-0.0354066	30.7069
