Stefan210/kinematic_calibration/src/kinematic_calibration/validation/experiments/experiments/single_point_vs_pose/marker_single_point/rarm_50/optimization_intermediate_results.csv
iteration	HeadPitch_offset	HeadYaw_offset	RElbowRoll_offset	RElbowYaw_offset	RShoulderPitch_offset	RShoulderRoll_offset	marker_transform_rarm_tx	marker_transform_rarm_ty	marker_transform_rarm_tz	marker_transform_rarm_rr	marker_transform_rarm_rp	marker_transform_rarm_ry	camera_transform_tx	camera_transform_ty	camera_transform_tz	camera_transform_rr	camera_transform_rp	camera_transform_ry	HeadPitch_transform_tx	HeadPitch_transform_ty	HeadPitch_transform_tz	HeadPitch_transform_rr	HeadPitch_transform_rp	HeadPitch_transform_ry	HeadYaw_transform_tx	HeadYaw_transform_ty	HeadYaw_transform_tz	HeadYaw_transform_rr	HeadYaw_transform_rp	HeadYaw_transform_ry	RElbowRoll_transform_tx	RElbowRoll_transform_ty	RElbowRoll_transform_tz	RElbowRoll_transform_rr	RElbowRoll_transform_rp	RElbowRoll_transform_ry	RElbowYaw_transform_tx	RElbowYaw_transform_ty	RElbowYaw_transform_tz	RElbowYaw_transform_rr	RElbowYaw_transform_rp	RElbowYaw_transform_ry	RShoulderPitch_transform_tx	RShoulderPitch_transform_ty	RShoulderPitch_transform_tz	RShoulderPitch_transform_rr	RShoulderPitch_transform_rp	RShoulderPitch_transform_ry	RShoulderRoll_transform_tx	RShoulderRoll_transform_ty	RShoulderRoll_transform_tz	RShoulderRoll_transform_rr	RShoulderRoll_transform_rp	RShoulderRoll_transform_ry	RWristYaw_transform_tx	RWristYaw_transform_ty	RWristYaw_transform_tz	RWristYaw_transform_rr	RWristYaw_transform_rp	RWristYaw_transform_ry	r_wrist_joint_transform_tx	r_wrist_joint_transform_ty	r_wrist_joint_transform_tz	r_wrist_joint_transform_rr	r_wrist_joint_transform_rp	r_wrist_joint_transform_ry	camera_fx	camera_fy	camera_cx	camera_cy	camera_D0	camera_D1	camera_D2	camera_D3	camera_D4	
0	0.0230449	0.0294606	-0.0013508	-0.00116347	0.000678263	0.00258603	0.05071	0	0.01774	-2.26369	1.66533e-16	-1.5708	545.901	551.038	324.928	201.58	0.0255298	2.61142	-0.0636736	-0.0350419	0.213964
1	-0.0165267	-0.0222945	0.00725286	0.0137596	-0.0135242	-0.0251421	0.021079	0.0282325	-0.000857685	-0.0011121	0.000643449	0.00270393	0.052282	-0.00217914	0.0178054	-2.19717	0.0138347	-1.52955	0	0	0	0	-0	0	0	0	-0.1265	0	-0	0	0	0	0	0	-0	0	0.105	-0.015	0	0	-0	0	0	-0.098	0.1	0	-0	0	0	0	0	0	-0	0	0.05595	0	0	0	-0	0	0	0	0	0	-0	0	545.901	551.039	324.929	201.581	-0.0104783	2.60031	-0.0713832	-0.0727909	0.211669
2	-0.0154827	-0.0389703	-0.00215085	0.0152074	-0.0258892	-0.0223387	0.0212305	0.028391	-0.000946358	-0.00112197	0.000650481	0.00269979	0.0517758	-0.000582989	0.02056	-2.2017	0.0197126	-1.51975	0	0	0	0	-0	0	0	0	-0.1265	0	-0	0	0	0	0	0	-0	0	0.105	-0.015	0	0	-0	0	0	-0.098	0.1	0	-0	0	0	0	0	0	-0	0	0.05595	0	0	0	-0	0	0	0	0	0	-0	0	545.902	551.039	324.933	201.584	-0.141737	2.51884	-0.0364215	-0.0495126	0.185698
3	-0.0161904	-0.034837	0.000534147	0.0176458	-0.0228763	-0.0251822	0.0211874	0.0284788	-0.00130102	-0.00116293	0.000680836	0.00271045	0.052888	-0.00160332	0.0181355	-2.19822	0.0205872	-1.52016	0	0	0	0	-0	0	0	0	-0.1265	0	-0	0	0	0	0	0	-0	0	0.105	-0.015	0	0	-0	0	0	-0.098	0.1	0	-0	0	0	0	0	0	-0	0	0.05595	0	0	0	-0	0	0	0	0	0	-0	0	545.904	551.04	324.939	201.589	-0.360557	2.38225	-0.0196294	-0.0378356	0.143258
4	-0.016497	-0.0304426	0.00187764	0.0212213	-0.020421	-0.0290652	0.0211708	0.0287042	-0.00182085	-0.00121716	0.000725486	0.00273603	0.0538489	-0.00264972	0.0159919	-2.19642	0.0217868	-1.52328	0	0	0	0	-0	0	0	0	-0.1265	0	-0	0	0	0	0	0	-0	0	0.105	-0.015	0	0	-0	0	0	-0.098	0.1	0	-0	0	0	0	0	0	-0	0	0.05595	0	0	0	-0	0	0	0	0	0	-0	0	545.91	551.041	324.95	201.597	-0.60102	2.13693	0.0108193	-0.0145418	0.0580704
5	-0.0166141	-0.0267305	0.00308969	0.0237703	-0.0187137	-0.0321009	0.0211386	0.0288499	-0.00212583	-0.00124565	0.000748895	0.00274323	0.0538766	-0.00335679	0.0153957	-2.19583	0.0218246	-1.52627	0	0	0	0	-0	0	0	0	-0.1265	0	-0	0	0	0	0	0	-0	0	0.105	-0.015	0	0	-0	0	0	-0.098	0.1	0	-0	0	0	0	0	0	-0	0	0.05595	0	0	0	-0	0	0	0	0	0	-0	0	545.924	551.04	324.965	201.608	-0.5976	1.75196	0.0195314	-0.00487979	-0.0951144
6	-0.0164918	-0.0234875	0.00424829	0.0251007	-0.0175798	-0.0342735	0.0211041	0.0289144	-0.00219293	-0.00123224	0.000697209	0.00275424	0.0528412	-0.00374497	0.0164176	-2.19667	0.0206493	-1.52966	0	0	0	0	-0	0	0	0	-0.1265	0	-0	0	0	0	0	0	-0	0	0.105	-0.015	0	0	-0	0	0	-0.098	0.1	0	-0	0	0	0	0	0	-0	0	0.05595	0	0	0	-0	0	0	0	0	0	-0	0	545.954	551.034	324.986	201.623	-0.35013	1.10384	0.00975908	-0.00553253	-0.363163
7	-0.0163374	-0.0207739	0.00517235	0.0258703	-0.0167929	-0.0360859	0.0210774	0.0289604	-0.00219115	-0.00124483	0.000698608	0.00282826	0.0515599	-0.0040015	0.0178196	-2.19786	0.0193736	-1.53294	0	0	0	0	-0	0	0	0	-0.1265	0	-0	0	0	0	0	0	-0	0	0.105	-0.015	0	0	-0	0	0	-0.098	0.1	0	-0	0	0	0	0	0	-0	0	0.05595	0	0	0	-0	0	0	0	0	0	-0	0	546.007	551.02	325.004	201.631	-0.0350542	0.302804	-0.00364254	-0.00784284	-0.677689
8	-0.0160087	-0.0194067	0.00551803	0.0260792	-0.0165443	-0.0370662	0.021066	0.0289876	-0.00216757	-0.00092017	0.000809147	0.00273909	0.0506779	-0.00409365	0.0188455	-2.19862	0.0185876	-1.53498	0	0	0	0	-0	0	0	0	-0.1265	0	-0	0	0	0	0	0	-0	0	0.105	-0.015	0	0	-0	0	0	-0.098	0.1	0	-0	0	0	0	0	0	-0	0	0.05595	0	0	0	-0	0	0	0	0	0	-0	0	546.113	550.991	325.022	201.63	0.186498	-0.313832	-0.0120394	-0.00903748	-0.858164
9	-0.0152662	-0.0189905	0.00552597	0.0260311	-0.0165592	-0.037303	0.0210625	0.0289979	-0.00215248	-0.00136898	0.000835275	0.0026999	0.050314	-0.00409513	0.019306	-2.19845	0.0181879	-1.53583	0	0	0	0	-0	0	0	0	-0.1265	0	-0	0	0	0	0	0	-0	0	0.105	-0.015	0	0	-0	0	0	-0.098	0.1	0	-0	0	0	0	0	0	-0	0	0.05595	0	0	0	-0	0	0	0	0	0	-0	0	546.366	550.929	325.073	201.632	0.272204	-0.61491	-0.0143331	-0.00924491	-0.764593
10	-0.0141991	-0.0188509	0.00538136	0.0259134	-0.0166537	-0.0372205	0.0210609	0.0290039	-0.00214944	-0.00483939	-0.000539224	0.000535346	0.0501468	-0.0040627	0.0195449	-2.19781	0.0177761	-1.53637	0	0	0	0	-0	0	0	0	-0.1265	0	-0	0	0	0	0	0	-0	0	0.105	-0.015	0	0	-0	0	0	-0.098	0.1	0	-0	0	0	0	0	0	-0	0	0.05595	0	0	0	-0	0	0	0	0	0	-0	0	546.946	550.84	325.216	201.658	0.299132	-0.834261	-0.0134836	-0.00905232	-0.313361
11	-0.0120972	-0.0187237	0.00509436	0.0257717	-0.0167997	-0.0370168	0.0210607	0.0290125	-0.00215012	-0.00979897	-0.00952545	0.00335306	0.0499252	-0.00400069	0.0198837	-2.19655	0.0170066	-1.5372	0	0	0	0	-0	0	0	0	-0.1265	0	-0	0	0	0	0	0	-0	0	0.105	-0.015	0	0	-0	0	0	-0.098	0.1	0	-0	0	0	0	0	0	-0	0	0.05595	0	0	0	-0	0	0	0	0	0	-0	0	547.938	550.956	325.541	201.775	0.331313	-1.19904	-0.0117577	-0.00860673	0.602941
12	0.00368215	-0.018644	0.00477115	0.025706	-0.0169219	-0.0367878	0.021063	0.0290229	-0.00215193	-0.0144602	-0.000622243	0.00198908	0.049396	-0.00392611	0.0209538	-2.18245	0.0151394	-1.53845	0	0	0	0	-0	0	0	0	-0.1265	0	-0	0	0	0	0	0	-0	0	0.105	-0.015	0	0	-0	0	0	-0.098	0.1	0	-0	0	0	0	0	0	-0	0	0.05595	0	0	0	-0	0	0	0	0	0	-0	0	549.15	551.974	326.355	202.205	0.376204	-1.66236	-0.0110419	-0.00785101	1.76797
13	0.0106523	-0.0186289	0.00468779	0.0256913	-0.0169437	-0.0367209	0.0210647	0.0290283	-0.00215022	-0.00663642	-0.00273071	-0.0125272	0.0491711	-0.00390384	0.0213788	-2.17617	0.0142887	-1.53908	0	0	0	0	-0	0	0	0	-0.1265	0	-0	0	0	0	0	0	-0	0	0.105	-0.015	0	0	-0	0	0	-0.098	0.1	0	-0	0	0	0	0	0	-0	0	0.05595	0	0	0	-0	0	0	0	0	0	-0	0	549.566	552.524	326.807	202.413	0.390837	-1.81299	-0.011154	-0.00753022	2.16661
14	-0.00754614	-0.0186657	0.00455768	0.0257115	-0.0169891	-0.0365842	0.0210561	0.0290337	-0.0021445	0.0289965	0.0329012	-0.0170675	0.0494141	-0.00386394	0.0206682	-2.19686	0.0122123	-1.54228	0	0	0	0	-0	0	0	0	-0.1265	0	-0	0	0	0	0	0	-0	0	0.105	-0.015	0	0	-0	0	0	-0.098	0.1	0	-0	0	0	0	0	0	-0	0	0.05595	0	0	0	-0	0	0	0	0	0	-0	0	550.774	554.631	328.891	203.357	0.409868	-1.99615	-0.0121247	-0.0062151	2.61272
15	-0.0110059	-0.0186744	0.00453813	0.0257148	-0.0169957	-0.0365486	0.0210635	0.0290335	-0.00214506	0.0445748	0.0245886	-0.0140357	0.0494459	-0.0038553	0.0205426	-2.20095	0.011518	-1.54313	0	0	0	0	-0	0	0	0	-0.1265	0	-0	0	0	0	0	0	-0	0	0.105	-0.015	0	0	-0	0	0	-0.098	0.1	0	-0	0	0	0	0	0	-0	0	0.05595	0	0	0	-0	0	0	0	0	0	-0	0	551.057	555.177	329.503	203.611	0.41675	-2.0535	-0.0125739	-0.00588979	2.75795
16	-0.0165579	-0.0187375	0.00448798	0.0257092	-0.0170376	-0.0364381	0.0210636	0.0290713	-0.00212512	0.000623668	0.0211895	0.0162482	0.0494733	-0.00383485	0.0203855	-2.20877	0.00862555	-1.54648	0	0	0	0	-0	0	0	0	-0.1265	0	-0	0	0	0	0	0	-0	0	0.105	-0.015	0	0	-0	0	0	-0.098	0.1	0	-0	0	0	0	0	0	-0	0	0.05595	0	0	0	-0	0	0	0	0	0	-0	0	552.019	556.996	331.978	204.566	0.423882	-2.12151	-0.0135446	-0.00441411	2.90426
17	-0.0174494	-0.0187662	0.00445951	0.0257167	-0.0170538	-0.0363781	0.021064	0.0290334	-0.00212864	-0.00490438	-0.00300244	0.031988	0.0494471	-0.00382443	0.0204026	-2.21075	0.00708241	-1.54814	0	0	0	0	-0	0	0	0	-0.1265	0	-0	0	0	0	0	0	-0	0	0.105	-0.015	0	0	-0	0	0	-0.098	0.1	0	-0	0	0	0	0	0	-0	0	0.05595	0	0	0	-0	0	0	0	0	0	-0	0	552.42	557.834	333.243	205.029	0.433279	-2.19351	-0.0142444	-0.00369256	3.0647
18	-0.0155946	-0.0189108	0.00441185	0.0256659	-0.0171542	-0.0361822	0.0210399	0.0290438	-0.00213359	-0.0544653	-0.0475528	0.0280964	0.0493177	-0.0038042	0.0206247	-2.21211	0.00165492	-1.55388	0	0	0	0	-0	0	0	0	-0.1265	0	-0	0	0	0	0	0	-0	0	0.105	-0.015	0	0	-0	0	0	-0.098	0.1	0	-0	0	0	0	0	0	-0	0	0.05595	0	0	0	-0	0	0	0	0	0	-0	0	553.569	560.191	337.708	206.468	0.445363	-2.29388	-0.0157579	-0.00105398	3.24831
19	-0.0259815	-0.0189331	0.00439628	0.0256677	-0.0171722	-0.0361449	0.0210486	0.0290334	-0.00211918	-0.0508169	-0.0376536	0.025892	0.0495076	-0.00379897	0.0201463	-2.22295	0.00105407	-1.55472	0	0	0	0	-0	0	0	0	-0.1265	0	-0	0	0	0	0	0	-0	0	0.105	-0.015	0	0	-0	0	0	-0.098	0.1	0	-0	0	0	0	0	0	-0	0	0.05595	0	0	0	-0	0	0	0	0	0	-0	0	553.679	560.493	338.354	206.666	0.457598	-2.38208	-0.0163215	-0.000703092	3.44859
20	-0.030705	-0.0189644	0.00437176	0.0256628	-0.017197	-0.0360918	0.0210495	0.0290373	-0.00211802	-0.0447175	-0.0485488	0.0158982	0.0495796	-0.00379274	0.0199423	-2.22828	3.68635e-05	-1.55585	0	0	0	0	-0	0	0	0	-0.1265	0	-0	0	0	0	0	0	-0	0	0.105	-0.015	0	0	-0	0	0	-0.098	0.1	0	-0	0	0	0	0	0	-0	0	0.05595	0	0	0	-0	0	0	0	0	0	-0	0	553.811	560.865	339.244	206.936	0.468381	-2.47764	-0.0167174	-0.000166914	3.69013
21	-0.0134765	-0.019014	0.00434136	0.0256568	-0.0172345	-0.0360173	0.0210452	0.029038	-0.00211426	-0.0347606	-0.0533474	0.0208056	0.0492115	-0.00378573	0.0208329	-2.21191	-0.00181347	-1.55752	0	0	0	0	-0	0	0	0	-0.1265	0	-0	0	0	0	0	0	-0	0	0.105	-0.015	0	0	-0	0	0	-0.098	0.1	0	-0	0	0	0	0	0	-0	0	0.05595	0	0	0	-0	0	0	0	0	0	-0	0	553.981	561.354	340.564	207.329	0.482283	-2.60041	-0.0172433	0.000621817	3.9979
22	-0.0273157	-0.0190509	0.00431939	0.0256498	-0.017264	-0.0359615	0.02105	0.029047	-0.00211416	-0.0366323	-0.0589864	-0.00578249	0.049474	-0.00378087	0.0201748	-2.22637	-0.00281112	-1.55877	0	0	0	0	-0	0	0	0	-0.1265	0	-0	0	0	0	0	0	-0	0	0.105	-0.015	0	0	-0	0	0	-0.098	0.1	0	-0	0	0	0	0	0	-0	0	0.05595	0	0	0	-0	0	0	0	0	0	-0	0	554.086	561.683	341.562	207.619	0.493973	-2.70335	-0.0176458	0.00121705	4.25879
23	-0.0304249	-0.0190786	0.00430347	0.0256448	-0.017286	-0.0359198	0.021047	0.0290435	-0.002108	-0.0448693	-0.0463121	-0.0224492	0.0495201	-0.00377756	0.0200379	-2.22993	-0.00369034	-1.5597	0	0	0	0	-0	0	0	0	-0.1265	0	-0	0	0	0	0	0	-0	0	0.105	-0.015	0	0	-0	0	0	-0.098	0.1	0	-0	0	0	0	0	0	-0	0	0.05595	0	0	0	-0	0	0	0	0	0	-0	0	554.149	561.907	342.314	207.833	0.50325	-2.78532	-0.017945	0.00166864	4.46783
24	-0.0220447	-0.0191011	0.004291	0.025639	-0.0173045	-0.0358858	0.0210416	0.0290409	-0.00210812	-0.0512541	-0.0415068	-0.00991121	0.049343	-0.00377503	0.0204668	-2.22191	-0.00450362	-1.56048	0	0	0	0	-0	0	0	0	-0.1265	0	-0	0	0	0	0	0	-0	0	0.105	-0.015	0	0	-0	0	0	-0.098	0.1	0	-0	0	0	0	0	0	-0	0	0.05595	0	0	0	-0	0	0	0	0	0	-0	0	554.19	562.071	342.913	208.002	0.510814	-2.85241	-0.0181765	0.00202627	4.64004
25	-0.0236512	-0.0191108	0.00428581	0.0256359	-0.017313	-0.0358722	0.0210397	0.0290387	-0.00210744	-0.0559288	-0.0349079	-0.00875627	0.0493699	-0.00377394	0.0203931	-2.22366	-0.00478039	-1.56079	0	0	0	0	-0	0	0	0	-0.1265	0	-0	0	0	0	0	0	-0	0	0.105	-0.015	0	0	-0	0	0	-0.098	0.1	0	-0	0	0	0	0	0	-0	0	0.05595	0	0	0	-0	0	0	0	0	0	-0	0	554.207	562.137	343.161	208.071	0.514209	-2.88228	-0.0182758	0.00217559	4.71652
26	-0.0244058	-0.0191504	0.00426658	0.0256274	-0.0173448	-0.0358145	0.0210388	0.0290472	-0.00209629	-0.0354192	-0.0181329	-0.0298741	0.0493739	-0.00377048	0.0203738	-2.22499	-0.00594969	-1.56202	0	0	0	0	-0	0	0	0	-0.1265	0	-0	0	0	0	0	0	-0	0	0.105	-0.015	0	0	-0	0	0	-0.098	0.1	0	-0	0	0	0	0	0	-0	0	0.05595	0	0	0	-0	0	0	0	0	0	-0	0	554.267	562.384	344.147	208.351	0.525551	-2.98626	-0.0186078	0.00275883	4.9889
27	-0.0210177	-0.0192048	0.00424136	0.0256134	-0.0173883	-0.035735	0.0210266	0.0290577	-0.00210102	-0.0762222	-0.0355161	-0.0240137	0.0492906	-0.00376652	0.0205638	-2.22242	-0.00767277	-1.56382	0	0	0	0	-0	0	0	0	-0.1265	0	-0	0	0	0	0	0	-0	0	0.105	-0.015	0	0	-0	0	0	-0.098	0.1	0	-0	0	0	0	0	0	-0	0	0.05595	0	0	0	-0	0	0	0	0	0	-0	0	554.327	562.691	345.573	208.761	0.542403	-3.13882	-0.0190713	0.00360651	5.38553
28	-0.0359038	-0.0192364	0.00422595	0.025605	-0.017416	-0.0356915	0.0210337	0.029041	-0.00209818	-0.0721665	-0.0194595	-0.0317925	0.0495872	-0.00376433	0.0198444	-2.23777	-0.00852632	-1.56471	0	0	0	0	-0	0	0	0	-0.1265	0	-0	0	0	0	0	0	-0	0	0.105	-0.015	0	0	-0	0	0	-0.098	0.1	0	-0	0	0	0	0	0	-0	0	0.05595	0	0	0	-0	0	0	0	0	0	-0	0	554.348	562.836	346.379	208.992	0.553505	-3.23964	-0.0193292	0.00409071	5.6504
29	-0.0369653	-0.0192498	0.00422181	0.0255954	-0.0174279	-0.0356738	0.021033	0.0290461	-0.00209969	-0.0880606	-0.0152097	-0.0392426	0.0495991	-0.0037634	0.0197959	-2.23901	-0.00892922	-1.56511	0	0	0	0	-0	0	0	0	-0.1265	0	-0	0	0	0	0	0	-0	0	0.105	-0.015	0	0	-0	0	0	-0.098	0.1	0	-0	0	0	0	0	0	-0	0	0.05595	0	0	0	-0	0	0	0	0	0	-0	0	554.354	562.895	346.713	209.086	0.558437	-3.28443	-0.019446	0.00429393	5.76841
30	-0.0308917	-0.019259	0.00421675	0.0255932	-0.0174361	-0.0356606	0.0210306	0.0290414	-0.00209859	-0.0901487	-0.0208983	-0.0434805	0.0494763	-0.00376271	0.0201014	-2.23307	-0.00925092	-1.56546	0	0	0	0	-0	0	0	0	-0.1265	0	-0	0	0	0	0	0	-0	0	0.105	-0.015	0	0	-0	0	0	-0.098	0.1	0	-0	0	0	0	0	0	-0	0	0.05595	0	0	0	-0	0	0	0	0	0	-0	0	554.357	562.934	346.952	209.153	0.561897	-3.31661	-0.0195173	0.00443805	5.85455
31	-0.0376363	-0.0193001	0.00419993	0.0255802	-0.0174703	-0.0355999	0.0210319	0.0290466	-0.00209538	-0.098326	-0.0133193	-0.0584248	0.0496042	-0.00376055	0.0197789	-2.2404	-0.0104364	-1.56666	0	0	0	0	-0	0	0	0	-0.1265	0	-0	0	0	0	0	0	-0	0	0.105	-0.015	0	0	-0	0	0	-0.098	0.1	0	-0	0	0	0	0	0	-0	0	0.05595	0	0	0	-0	0	0	0	0	0	-0	0	554.361	563.083	347.975	209.454	0.575369	-3.44384	-0.0198061	0.00503685	6.20065
32	-0.0378929	-0.0193194	0.00419053	0.025573	-0.0174874	-0.0355733	0.0210321	0.0290482	-0.00209755	-0.0961627	-0.0246645	-0.0778734	0.0496033	-0.00375942	0.0197739	-2.24094	-0.0110571	-1.56729	0	0	0	0	-0	0	0	0	-0.1265	0	-0	0	0	0	0	0	-0	0	0.105	-0.015	0	0	-0	0	0	-0.098	0.1	0	-0	0	0	0	0	0	-0	0	0.05595	0	0	0	-0	0	0	0	0	0	-0	0	554.36	563.149	348.49	209.604	0.583133	-3.5157	-0.0199537	0.00534963	6.39292
33	-0.0344034	-0.0193346	0.00418371	0.0255674	-0.0175009	-0.0355521	0.0210283	0.0290433	-0.00209275	-0.0993599	-0.0109616	-0.082841	0.0495311	-0.00375861	0.0199524	-2.23767	-0.0115291	-1.5678	0	0	0	0	-0	0	0	0	-0.1265	0	-0	0	0	0	0	0	-0	0	0.105	-0.015	0	0	-0	0	0	-0.098	0.1	0	-0	0	0	0	0	0	-0	0	0.05595	0	0	0	-0	0	0	0	0	0	-0	0	554.356	563.195	348.874	209.717	0.588904	-3.57029	-0.0200572	0.00557968	6.5417
34	-0.0264306	-0.0193567	0.00417414	0.0255593	-0.0175202	-0.035519	0.0210259	0.0290436	-0.00209183	-0.0958595	-0.0216355	-0.0791895	0.0493678	-0.00375744	0.0203539	-2.23002	-0.0122219	-1.56859	0	0	0	0	-0	0	0	0	-0.1265	0	-0	0	0	0	0	0	-0	0	0.105	-0.015	0	0	-0	0	0	-0.098	0.1	0	-0	0	0	0	0	0	-0	0	0.05595	0	0	0	-0	0	0	0	0	0	-0	0	554.349	563.258	349.437	209.887	0.597301	-3.65021	-0.0202118	0.00591075	6.76235
35	-0.0104095	-0.0193886	0.00416117	0.0255475	-0.0175476	-0.0354722	0.0210309	0.029045	-0.00208771	-0.0995988	0.00461158	-0.0882748	0.0490358	-0.00375619	0.0211518	-2.21447	-0.0132082	-1.5698	0	0	0	0	-0	0	0	0	-0.1265	0	-0	0	0	0	0	0	-0	0	0.105	-0.015	0	0	-0	0	0	-0.098	0.1	0	-0	0	0	0	0	0	-0	0	0.05595	0	0	0	-0	0	0	0	0	0	-0	0	554.329	563.331	350.253	210.141	0.609293	-3.76558	-0.0204082	0.00639059	7.08248
36	-0.000157718	-0.0194112	0.00415139	0.0255376	-0.0175673	-0.0354398	0.0210225	0.0290477	-0.00208826	-0.0923797	0.00307123	-0.101605	0.0488086	-0.00375528	0.0216582	-2.20457	-0.0139066	-1.57071	0	0	0	0	-0	0	0	0	-0.1265	0	-0	0	0	0	0	0	-0	0	0.105	-0.015	0	0	-0	0	0	-0.098	0.1	0	-0	0	0	0	0	0	-0	0	0.05595	0	0	0	-0	0	0	0	0	0	-0	0	554.312	563.378	350.856	210.332	0.618778	-3.85669	-0.0205497	0.00675231	7.33481
37	0.00205559	-0.0194442	0.00413778	0.0255248	-0.0175964	-0.0353903	0.0210185	0.0290473	-0.00208103	-0.0749355	0.0284398	-0.113466	0.048754	-0.00375422	0.0217719	-2.20289	-0.0148941	-1.57184	0	0	0	0	-0	0	0	0	-0.1265	0	-0	0	0	0	0	0	-0	0	0.105	-0.015	0	0	-0	0	0	-0.098	0.1	0	-0	0	0	0	0	0	-0	0	0.05595	0	0	0	-0	0	0	0	0	0	-0	0	554.281	563.427	351.722	210.619	0.632161	-3.98749	-0.0207257	0.00726043	7.70299
38	0.0018141	-0.0194567	0.00413113	0.0255176	-0.0176088	-0.0353734	0.0210182	0.0290462	-0.0020859	-0.0825919	0.0329395	-0.117278	0.0487561	-0.00375372	0.0217647	-2.20335	-0.0153006	-1.5723	0	0	0	0	-0	0	0	0	-0.1265	0	-0	0	0	0	0	0	-0	0	0.105	-0.015	0	0	-0	0	0	-0.098	0.1	0	-0	0	0	0	0	0	-0	0	0.05595	0	0	0	-0	0	0	0	0	0	-0	0	554.266	563.438	352.078	210.738	0.638276	-4.04597	-0.0207871	0.00748117	7.86292
39	-0.00885389	-0.0194751	0.00412455	0.0255087	-0.0176252	-0.0353467	0.0210163	0.029045	-0.00208513	-0.0858996	0.0219987	-0.118756	0.0489866	-0.00375331	0.0212475	-2.21431	-0.0158632	-1.57274	0	0	0	0	-0	0	0	0	-0.1265	0	-0	0	0	0	0	0	-0	0	0.105	-0.015	0	0	-0	0	0	-0.098	0.1	0	-0	0	0	0	0	0	-0	0	0.05595	0	0	0	-0	0	0	0	0	0	-0	0	554.244	563.453	352.554	210.902	0.645845	-4.12144	-0.0208671	0.00776047	8.07849
40	0.00800368	-0.0194999	0.00411462	0.0254962	-0.0176472	-0.035308	0.0210151	0.0290461	-0.00208252	-0.0843557	0.0142993	-0.112778	0.0486236	-0.00375273	0.0220759	-2.19789	-0.0166152	-1.57387	0	0	0	0	-0	0	0	0	-0.1265	0	-0	0	0	0	0	0	-0	0	0.105	-0.015	0	0	-0	0	0	-0.098	0.1	0	-0	0	0	0	0	0	-0	0	0.05595	0	0	0	-0	0	0	0	0	0	-0	0	554.208	563.464	353.239	211.147	0.656954	-4.2331	-0.0209699	0.00816136	8.39979
41	0.00344458	-0.0195175	0.00410668	0.0254866	-0.0176634	-0.0352822	0.0210122	0.0290501	-0.00208304	-0.0671781	0.018923	-0.108444	0.0487153	-0.00375239	0.0218545	-2.20278	-0.0171937	-1.57444	0	0	0	0	-0	0	0	0	-0.1265	0	-0	0	0	0	0	0	-0	0	0.105	-0.015	0	0	-0	0	0	-0.098	0.1	0	-0	0	0	0	0	0	-0	0	0.05595	0	0	0	-0	0	0	0	0	0	-0	0	554.179	563.463	353.742	211.332	0.665516	-4.31868	-0.0210307	0.00846351	8.64344
42	0.00262445	-0.0195248	0.00410265	0.0254828	-0.0176707	-0.0352731	0.0210138	0.0290468	-0.00208083	-0.0636617	0.00932524	-0.102764	0.0487312	-0.00375221	0.0218166	-2.20374	-0.0174332	-1.57469	0	0	0	0	-0	0	0	0	-0.1265	0	-0	0	0	0	0	0	-0	0	0.105	-0.015	0	0	-0	0	0	-0.098	0.1	0	-0	0	0	0	0	0	-0	0	0.05595	0	0	0	-0	0	0	0	0	0	-0	0	554.167	563.46	353.948	211.409	0.669248	-4.35547	-0.0210479	0.00859237	8.74582
43	-0.00596161	-0.0195507	0.0040934	0.0254665	-0.0176933	-0.0352278	0.0210106	0.029053	-0.00207592	-0.0808191	0.00191585	-0.0879999	0.0489183	-0.00375201	0.0213993	-2.21288	-0.0183682	-1.57554	0	0	0	0	-0	0	0	0	-0.1265	0	-0	0	0	0	0	0	-0	0	0.105	-0.015	0	0	-0	0	0	-0.098	0.1	0	-0	0	0	0	0	0	-0	0	0.05595	0	0	0	-0	0	0	0	0	0	-0	0	554.112	563.439	354.736	211.723	0.682413	-4.49168	-0.0211212	0.0090473	9.14718
44	-0.0225135	-0.0195714	0.00408355	0.0254547	-0.0177119	-0.0351948	0.0210121	0.0290536	-0.00207857	-0.0621497	-0.00686464	-0.0838601	0.0492694	-0.00375191	0.0205913	-2.22991	-0.0192083	-1.57606	0	0	0	0	-0	0	0	0	-0.1265	0	-0	0	0	0	0	0	-0	0	0.105	-0.015	0	0	-0	0	0	-0.098	0.1	0	-0	0	0	0	0	0	-0	0	0.05595	0	0	0	-0	0	0	0	0	0	-0	0	554.06	563.408	355.391	211.995	0.694244	-4.6125	-0.0211631	0.00943947	9.49772
45	-0.014291	-0.0195868	0.00407698	0.0254435	-0.0177261	-0.0351715	0.0210095	0.0290509	-0.0020781	-0.0592163	-0.00342446	-0.0675183	0.0490929	-0.00375194	0.0209949	-2.22204	-0.0197272	-1.57681	0	0	0	0	-0	0	0	0	-0.1265	0	-0	0	0	0	0	0	-0	0	0.105	-0.015	0	0	-0	0	0	-0.098	0.1	0	-0	0	0	0	0	0	-0	0	0.05595	0	0	0	-0	0	0	0	0	0	-0	0	554.02	563.376	355.868	212.2	0.702937	-4.70338	-0.0211665	0.00972642	9.76433
46	-0.0189468	-0.0195999	0.00407073	0.0254319	-0.0177391	-0.0351487	0.0210107	0.0290548	-0.00207532	-0.0604139	-0.00354138	-0.044717	0.0491886	-0.00375194	0.0207664	-2.22706	-0.0202821	-1.57729	0	0	0	0	-0	0	0	0	-0.1265	0	-0	0	0	0	0	0	-0	0	0.105	-0.015	0	0	-0	0	0	-0.098	0.1	0	-0	0	0	0	0	0	-0	0	0.05595	0	0	0	-0	0	0	0	0	0	-0	0	553.981	563.334	356.323	212.404	0.711298	-4.7919	-0.0211513	0.00999776	10.0263
47	-0.0159568	-0.0196089	0.0040658	0.0254246	-0.0177475	-0.0351333	0.0210065	0.0290499	-0.0020757	-0.0598641	0.000578818	-0.0315196	0.0491256	-0.00375201	0.020914	-2.22433	-0.0206525	-1.57778	0	0	0	0	-0	0	0	0	-0.1265	0	-0	0	0	0	0	0	-0	0	0.105	-0.015	0	0	-0	0	0	-0.098	0.1	0	-0	0	0	0	0	0	-0	0	0.05595	0	0	0	-0	0	0	0	0	0	-0	0	553.951	563.304	356.657	212.558	0.717598	-4.85821	-0.0211393	0.0102002	10.2213
48	0.00760702	-0.0196407	0.00405458	0.0253949	-0.0177727	-0.0350633	0.0210006	0.029057	-0.00206258	-0.08476	-0.0186178	-0.0120954	0.0486375	-0.00375293	0.0220651	-2.20191	-0.0219307	-1.57987	0	0	0	0	-0	0	0	0	-0.1265	0	-0	0	0	0	0	0	-0	0	0.105	-0.015	0	0	-0	0	0	-0.098	0.1	0	-0	0	0	0	0	0	-0	0	0.05595	0	0	0	-0	0	0	0	0	0	-0	0	553.811	563.153	357.921	213.227	0.741741	-5.12258	-0.021064	0.0109274	11.0324
49	0.0144023	-0.0196437	0.00404726	0.0253913	-0.0177783	-0.0350646	0.0210014	0.0290491	-0.00207199	-0.083735	-0.0137837	-0.00305201	0.0484707	-0.00375289	0.0223946	-2.19528	-0.0220533	-1.58028	0	0	0	0	-0	0	0	0	-0.1265	0	-0	0	0	0	0	0	-0	0	0.105	-0.015	0	0	-0	0	0	-0.098	0.1	0	-0	0	0	0	0	0	-0	0	0.05595	0	0	0	-0	0	0	0	0	0	-0	0	553.797	563.123	358.101	213.32	0.74624	-5.16682	-0.0210114	0.0110672	11.148
50	0.0147575	-0.0196493	0.00404585	0.0253811	-0.0177849	-0.0350534	0.021001	0.0290482	-0.0020704	-0.081031	-0.0232227	-0.00179153	0.048462	-0.0037531	0.0224105	-2.19514	-0.0223178	-1.5806	0	0	0	0	-0	0	0	0	-0.1265	0	-0	0	0	0	0	0	-0	0	0.105	-0.015	0	0	-0	0	0	-0.098	0.1	0	-0	0	0	0	0	0	-0	0	0.05595	0	0	0	-0	0	0	0	0	0	-0	0	553.773	563.081	358.34	213.449	0.75082	-5.21888	-0.0209544	0.0112084	11.308
51	0.0169509	-0.0196557	0.00404219	0.0253711	-0.017791	-0.0350372	0.0209997	0.0290495	-0.00206956	-0.074774	-0.0272056	-0.00899707	0.0484142	-0.00375343	0.022515	-2.19328	-0.0226808	-1.58109	0	0	0	0	-0	0	0	0	-0.1265	0	-0	0	0	0	0	0	-0	0	0.105	-0.015	0	0	-0	0	0	-0.098	0.1	0	-0	0	0	0	0	0	-0	0	0.05595	0	0	0	-0	0	0	0	0	0	-0	0	553.734	563.021	358.683	213.641	0.757473	-5.29398	-0.0208843	0.0114111	11.5399
52	0.00638033	-0.0196641	0.0040373	0.0253582	-0.0177982	-0.0350147	0.0209954	0.0290497	-0.00206934	-0.0500421	0.000950036	-0.00985185	0.0486543	-0.00375398	0.0220003	-2.20433	-0.0233284	-1.58148	0	0	0	0	-0	0	0	0	-0.1265	0	-0	0	0	0	0	0	-0	0	0.105	-0.015	0	0	-0	0	0	-0.098	0.1	0	-0	0	0	0	0	0	-0	0	0.05595	0	0	0	-0	0	0	0	0	0	-0	0	553.675	562.932	359.162	213.927	0.767266	-5.40496	-0.0207828	0.0116942	11.885
53	0.002715	-0.0196661	0.00403419	0.0253551	-0.0178015	-0.0350136	0.020997	0.0290489	-0.00206823	-0.0577727	7.83813e-05	-0.0107697	0.0487311	-0.003754	0.0218221	-2.2081	-0.0234839	-1.58152	0	0	0	0	-0	0	0	0	-0.1265	0	-0	0	0	0	0	0	-0	0	0.105	-0.015	0	0	-0	0	0	-0.098	0.1	0	-0	0	0	0	0	0	-0	0	0.05595	0	0	0	-0	0	0	0	0	0	-0	0	553.665	562.91	359.262	213.986	0.76966	-5.4303	-0.0207409	0.0117656	11.9554
54	-0.0033851	-0.0196677	0.00403329	0.0253504	-0.0178032	-0.035008	0.0209968	0.0290483	-0.00206769	-0.0596077	0.00139595	-0.00817348	0.0488645	-0.00375423	0.0215238	-2.21434	-0.023702	-1.58155	0	0	0	0	-0	0	0	0	-0.1265	0	-0	0	0	0	0	0	-0	0	0.105	-0.015	0	0	-0	0	0	-0.098	0.1	0	-0	0	0	0	0	0	-0	0	0.05595	0	0	0	-0	0	0	0	0	0	-0	0	553.647	562.881	359.395	214.067	0.772404	-5.46145	-0.0207051	0.0118457	12.0515
55	-0.0118216	-0.0196704	0.00403156	0.0253445	-0.0178056	-0.0349994	0.020996	0.0290525	-0.00206774	-0.0418794	0.00237066	-0.00655365	0.0490461	-0.0037545	0.0211098	-2.22299	-0.0240165	-1.5816	0	0	0	0	-0	0	0	0	-0.1265	0	-0	0	0	0	0	0	-0	0	0.105	-0.015	0	0	-0	0	0	-0.098	0.1	0	-0	0	0	0	0	0	-0	0	0.05595	0	0	0	-0	0	0	0	0	0	-0	0	553.623	562.842	359.59	214.188	0.776403	-5.50734	-0.0206542	0.0119608	12.195
56	-0.0159082	-0.0196747	0.00402803	0.0253332	-0.0178089	-0.034981	0.0209958	0.0290487	-0.00206472	-0.0474346	-0.00807156	0.000927649	0.0491335	-0.00375517	0.0209044	-2.22753	-0.0245325	-1.58202	0	0	0	0	-0	0	0	0	-0.1265	0	-0	0	0	0	0	0	-0	0	0.105	-0.015	0	0	-0	0	0	-0.098	0.1	0	-0	0	0	0	0	0	-0	0	0.05595	0	0	0	-0	0	0	0	0	0	-0	0	553.569	562.748	359.995	214.458	0.784838	-5.60643	-0.0205258	0.0121987	12.5097
57	-0.0139103	-0.0196757	0.00402577	0.0253285	-0.0178111	-0.0349793	0.0209952	0.0290494	-0.00206572	-0.0400791	-0.0109269	-0.00252186	0.0490906	-0.0037553	0.0210032	-2.22566	-0.0246407	-1.58221	0	0	0	0	-0	0	0	0	-0.1265	0	-0	0	0	0	0	0	-0	0	0.105	-0.015	0	0	-0	0	0	-0.098	0.1	0	-0	0	0	0	0	0	-0	0	0.05595	0	0	0	-0	0	0	0	0	0	-0	0	553.554	562.719	360.106	214.531	0.787543	-5.63576	-0.0204755	0.0122765	12.5935
58	-0.00838516	-0.0196772	0.00402477	0.0253237	-0.0178124	-0.0349732	0.0209949	0.0290503	-0.00206609	-0.030101	-0.0114975	0.00388564	0.0489754	-0.00375561	0.0212729	-2.2203	-0.0247494	-1.58254	0	0	0	0	-0	0	0	0	-0.1265	0	-0	0	0	0	0	0	-0	0	0.105	-0.015	0	0	-0	0	0	-0.098	0.1	0	-0	0	0	0	0	0	-0	0	0.05595	0	0	0	-0	0	0	0	0	0	-0	0	553.533	562.683	360.255	214.632	0.790758	-5.67329	-0.0204248	0.0123651	12.7119
59	-0.00971139	-0.01968	0.00402331	0.0253142	-0.0178137	-0.0349594	0.020994	0.0290487	-0.0020642	-0.0300751	-0.00821792	-0.00263603	0.0490058	-0.00375635	0.0212033	-2.222	-0.0251267	-1.58291	0	0	0	0	-0	0	0	0	-0.1265	0	-0	0	0	0	0	0	-0	0	0.105	-0.015	0	0	-0	0	0	-0.098	0.1	0	-0	0	0	0	0	0	-0	0	0.05595	0	0	0	-0	0	0	0	0	0	-0	0	553.486	562.604	360.569	214.856	0.79746	-5.75256	-0.0203184	0.0125491	12.9655
60	-0.0093487	-0.0196802	0.00402132	0.0253109	-0.0178151	-0.0349585	0.0209941	0.0290489	-0.00206416	-0.0254052	-0.0142873	0.000599787	0.0489975	-0.00375647	0.0212218	-2.22175	-0.0252223	-1.58303	0	0	0	0	-0	0	0	0	-0.1265	0	-0	0	0	0	0	0	-0	0	0.105	-0.015	0	0	-0	0	0	-0.098	0.1	0	-0	0	0	0	0	0	-0	0	0.05595	0	0	0	-0	0	0	0	0	0	-0	0	553.473	562.578	360.654	214.917	0.799681	-5.7768	-0.0202723	0.0126101	13.0348
61	-0.0152296	-0.019681	0.00402014	0.0253009	-0.017815	-0.0349456	0.0209946	0.0290483	-0.00206586	-0.0195129	0.00301902	0.00733278	0.0491254	-0.00375717	0.020929	-2.228	-0.0256362	-1.58326	0	0	0	0	-0	0	0	0	-0.1265	0	-0	0	0	0	0	0	-0	0	0.105	-0.015	0	0	-0	0	0	-0.098	0.1	0	-0	0	0	0	0	0	-0	0	0.05595	0	0	0	-0	0	0	0	0	0	-0	0	553.426	562.493	360.949	215.139	0.806187	-5.85584	-0.0201475	0.0127817	13.2918
62	-0.0174551	-0.0196813	0.00401826	0.0252953	-0.017816	-0.0349421	0.0209929	0.029051	-0.00206252	-0.0309734	0.00556749	0.0142506	0.0491714	-0.00375749	0.0208186	-2.23041	-0.0258349	-1.58339	0	0	0	0	-0	0	0	0	-0.1265	0	-0	0	0	0	0	0	-0	0	0.105	-0.015	0	0	-0	0	0	-0.098	0.1	0	-0	0	0	0	0	0	-0	0	0.05595	0	0	0	-0	0	0	0	0	0	-0	0	553.405	562.449	361.095	215.249	0.809629	-5.896	-0.0200689	0.0128763	13.4147
63	-0.0270622	-0.0196796	0.00401709	0.0252772	-0.0178109	-0.034918	0.0209897	0.029049	-0.00206052	-0.0175658	0.0162132	0.0105391	0.0493789	-0.00375923	0.0203344	-2.24082	-0.0266148	-1.58386	0	0	0	0	-0	0	0	0	-0.1265	0	-0	0	0	0	0	0	-0	0	0.105	-0.015	0	0	-0	0	0	-0.098	0.1	0	-0	0	0	0	0	0	-0	0	0.05595	0	0	0	-0	0	0	0	0	0	-0	0	553.299	562.262	361.657	215.723	0.82282	-6.05851	-0.0197938	0.013204	13.9489
64	-0.0303744	-0.0196784	0.00401373	0.0252712	-0.017812	-0.0349176	0.0209911	0.0290492	-0.00206085	-0.0194344	0.0177726	0.00112579	0.0494429	-0.00375952	0.020171	-2.24434	-0.0268385	-1.58396	0	0	0	0	-0	0	0	0	-0.1265	0	-0	0	0	0	0	0	-0	0	0.105	-0.015	0	0	-0	0	0	-0.098	0.1	0	-0	0	0	0	0	0	-0	0	0.05595	0	0	0	-0	0	0	0	0	0	-0	0	553.276	562.21	361.805	215.847	0.827029	-6.1058	-0.0196927	0.0133121	14.0873
65	-0.0329665	-0.0196763	0.00401325	0.0252632	-0.0178101	-0.0349116	0.0209936	0.0290514	-0.00205916	-0.0252107	0.0281225	-0.012638	0.0494967	-0.00376017	0.0200395	-2.24722	-0.0271045	-1.58414	0	0	0	0	-0	0	0	0	-0.1265	0	-0	0	0	0	0	0	-0	0	0.105	-0.015	0	0	-0	0	0	-0.098	0.1	0	-0	0	0	0	0	0	-0	0	0.05595	0	0	0	-0	0	0	0	0	0	-0	0	553.241	562.139	362	216.015	0.831799	-6.16447	-0.0195749	0.0134308	14.277
66	-0.034068	-0.0196741	0.00401185	0.0252579	-0.0178084	-0.0349083	0.0209921	0.0290517	-0.00206047	-0.0230722	0.0239629	-0.0285152	0.0495196	-0.00376057	0.0199831	-2.24853	-0.0272893	-1.5843	0	0	0	0	-0	0	0	0	-0.1265	0	-0	0	0	0	0	0	-0	0	0.105	-0.015	0	0	-0	0	0	-0.098	0.1	0	-0	0	0	0	0	0	-0	0	0.05595	0	0	0	-0	0	0	0	0	0	-0	0	553.216	562.085	362.142	216.141	0.835445	-6.20913	-0.0194797	0.0135213	14.4197
67	-0.0275448	-0.0196728	0.00401105	0.0252536	-0.0178076	-0.0349058	0.0209893	0.0290483	-0.00205934	-0.0250424	0.0235552	-0.0229289	0.04939	-0.0037609	0.0203047	-2.24217	-0.027325	-1.58461	0	0	0	0	-0	0	0	0	-0.1265	0	-0	0	0	0	0	0	-0	0	0.105	-0.015	0	0	-0	0	0	-0.098	0.1	0	-0	0	0	0	0	0	-0	0	0.05595	0	0	0	-0	0	0	0	0	0	-0	0	553.198	562.044	362.246	216.235	0.83806	-6.24143	-0.0194047	0.0135873	14.5232
68	-0.0280686	-0.0196711	0.00401096	0.0252471	-0.0178057	-0.0349008	0.0209885	0.0290501	-0.00205943	-0.0120726	0.0244661	-0.0205595	0.0494016	-0.00376145	0.0202752	-2.24292	-0.0275099	-1.58479	0	0	0	0	-0	0	0	0	-0.1265	0	-0	0	0	0	0	0	-0	0	0.105	-0.015	0	0	-0	0	0	-0.098	0.1	0	-0	0	0	0	0	0	-0	0	0.05595	0	0	0	-0	0	0	0	0	0	-0	0	553.168	561.985	362.396	216.374	0.841761	-6.28783	-0.0193064	0.013678	14.6755
69	-0.0364556	-0.0196676	0.0040103	0.0252391	-0.0178018	-0.0348942	0.0209891	0.0290479	-0.00205922	-0.0110343	0.0342348	-0.0154337	0.0495743	-0.00376219	0.0198564	-2.25165	-0.0278793	-1.58483	0	0	0	0	-0	0	0	0	-0.1265	0	-0	0	0	0	0	0	-0	0	0.105	-0.015	0	0	-0	0	0	-0.098	0.1	0	-0	0	0	0	0	0	-0	0	0.05595	0	0	0	-0	0	0	0	0	0	-0	0	553.128	561.902	362.608	216.578	0.847089	-6.35561	-0.0191581	0.0138067	14.9
70	-0.0413144	-0.0196651	0.00400992	0.0252325	-0.0177992	-0.0348907	0.0209901	0.0290507	-0.00205884	-0.0111079	0.0390414	-0.000661136	0.0496706	-0.00376278	0.0196121	-2.25677	-0.0281332	-1.58489	0	0	0	0	-0	0	0	0	-0.1265	0	-0	0	0	0	0	0	-0	0	0.105	-0.015	0	0	-0	0	0	-0.098	0.1	0	-0	0	0	0	0	0	-0	0	0.05595	0	0	0	-0	0	0	0	0	0	-0	0	553.097	561.84	362.762	216.728	0.85124	-6.40689	-0.0190497	0.0139044	15.0658
71	-0.0474638	-0.0196624	0.00400931	0.0252284	-0.0177968	-0.0348887	0.02099	0.0290487	-0.00205719	-0.00554244	0.0267629	0.00314287	0.0497913	-0.00376322	0.0193049	-2.26311	-0.0283562	-1.58486	0	0	0	0	-0	0	0	0	-0.1265	0	-0	0	0	0	0	0	-0	0	0.105	-0.015	0	0	-0	0	0	-0.098	0.1	0	-0	0	0	0	0	0	-0	0	0.05595	0	0	0	-0	0	0	0	0	0	-0	0	553.074	561.794	362.874	216.839	0.854407	-6.44552	-0.0189677	0.0139772	15.1892
72	-0.0453119	-0.0196603	0.00400907	0.0252243	-0.0177952	-0.0348871	0.0209874	0.0290493	-0.00205723	-0.0164258	0.0283776	0.00263674	0.0497495	-0.00376353	0.0194104	-2.26109	-0.028427	-1.58503	0	0	0	0	-0	0	0	0	-0.1265	0	-0	0	0	0	0	0	-0	0	0.105	-0.015	0	0	-0	0	0	-0.098	0.1	0	-0	0	0	0	0	0	-0	0	0.05595	0	0	0	-0	0	0	0	0	0	-0	0	553.058	561.758	362.957	216.923	0.856693	-6.4738	-0.0189023	0.0140307	15.2801
73	-0.0558422	-0.0196577	0.00400884	0.0252197	-0.0177924	-0.0348836	0.0209874	0.0290492	-0.00205684	-0.0265426	0.0316178	0.00210308	0.0499553	-0.00376398	0.0188837	-2.27184	-0.0287208	-1.58488	0	0	0	0	-0	0	0	0	-0.1265	0	-0	0	0	0	0	0	-0	0	0.105	-0.015	0	0	-0	0	0	-0.098	0.1	0	-0	0	0	0	0	0	-0	0	0.05595	0	0	0	-0	0	0	0	0	0	-0	0	553.033	561.707	363.076	217.046	0.859903	-6.51505	-0.0188118	0.0141031	15.4182
74	-0.0601816	-0.0196554	0.0040084	0.025216	-0.0177903	-0.0348819	0.0209871	0.029049	-0.00205821	-0.0177268	0.038222	0.0112397	0.0500352	-0.00376429	0.0186644	-2.27633	-0.0288906	-1.58487	0	0	0	0	-0	0	0	0	-0.1265	0	-0	0	0	0	0	0	-0	0	0.105	-0.015	0	0	-0	0	0	-0.098	0.1	0	-0	0	0	0	0	0	-0	0	0.05595	0	0	0	-0	0	0	0	0	0	-0	0	553.016	561.67	363.164	217.137	0.862382	-6.54619	-0.0187419	0.0141594	15.5198
75	-0.0608987	-0.0196536	0.00400814	0.0252128	-0.0177889	-0.0348808	0.0209871	0.0290478	-0.00205591	-0.0190927	0.0429025	0.00551557	0.0500487	-0.00376455	0.0186271	-2.27716	-0.028981	-1.58493	0	0	0	0	-0	0	0	0	-0.1265	0	-0	0	0	0	0	0	-0	0	0.105	-0.015	0	0	-0	0	0	-0.098	0.1	0	-0	0	0	0	0	0	-0	0	0.05595	0	0	0	-0	0	0	0	0	0	-0	0	553.003	561.639	363.229	217.206	0.864174	-6.56917	-0.0186812	0.0142011	15.5949
76	-0.0675503	-0.0196506	0.0040081	0.0252085	-0.017786	-0.0348785	0.020987	0.0290497	-0.00205664	-0.00829007	0.0416682	0.0131348	0.0501738	-0.00376491	0.018292	-2.28399	-0.029191	-1.58486	0	0	0	0	-0	0	0	0	-0.1265	0	-0	0	0	0	0	0	-0	0	0.105	-0.015	0	0	-0	0	0	-0.098	0.1	0	-0	0	0	0	0	0	-0	0	0.05595	0	0	0	-0	0	0	0	0	0	-0	0	552.984	561.597	363.322	217.307	0.866721	-6.60234	-0.0186022	0.014259	15.7061
77	-0.0723923	-0.0196488	0.00400797	0.0252059	-0.017784	-0.0348773	0.0209862	0.0290479	-0.00205587	-0.00186106	0.041261	0.0164316	0.050262	-0.00376524	0.0180471	-2.28896	-0.0293453	-1.5848	0	0	0	0	-0	0	0	0	-0.1265	0	-0	0	0	0	0	0	-0	0	0.105	-0.015	0	0	-0	0	0	-0.098	0.1	0	-0	0	0	0	0	0	-0	0	0.05595	0	0	0	-0	0	0	0	0	0	-0	0	552.968	561.566	363.392	217.382	0.868691	-6.62714	-0.0185457	0.0143034	15.7872
78	-0.0730111	-0.0196479	0.00400779	0.0252043	-0.0177835	-0.0348772	0.0209862	0.0290474	-0.00205555	-0.0041389	0.0449406	0.0181634	0.0502725	-0.00376534	0.0180157	-2.28963	-0.0293898	-1.58482	0	0	0	0	-0	0	0	0	-0.1265	0	-0	0	0	0	0	0	-0	0	0.105	-0.015	0	0	-0	0	0	-0.098	0.1	0	-0	0	0	0	0	0	-0	0	0.05595	0	0	0	-0	0	0	0	0	0	-0	0	552.963	561.553	363.42	217.412	0.869612	-6.63796	-0.018522	0.0143234	15.8205
79	-0.075309	-0.0196462	0.00400818	0.0252017	-0.0177815	-0.0348755	0.0209858	0.0290471	-0.00205528	-0.00271196	0.0472599	0.0183355	0.0503149	-0.00376563	0.0178984	-2.29204	-0.0294958	-1.58483	0	0	0	0	-0	0	0	0	-0.1265	0	-0	0	0	0	0	0	-0	0	0.105	-0.015	0	0	-0	0	0	-0.098	0.1	0	-0	0	0	0	0	0	-0	0	0.05595	0	0	0	-0	0	0	0	0	0	-0	0	552.949	561.526	363.479	217.477	0.871222	-6.65904	-0.0184743	0.0143589	15.8921
80	-0.0755651	-0.0196451	0.00400792	0.0252001	-0.0177806	-0.0348752	0.0209857	0.0290474	-0.00205555	0.00244613	0.0510331	0.0219407	0.0503196	-0.00376577	0.0178849	-2.29235	-0.0295407	-1.58486	0	0	0	0	-0	0	0	0	-0.1265	0	-0	0	0	0	0	0	-0	0	0.105	-0.015	0	0	-0	0	0	-0.098	0.1	0	-0	0	0	0	0	0	-0	0	0.05595	0	0	0	-0	0	0	0	0	0	-0	0	552.942	561.51	363.512	217.514	0.872179	-6.6711	-0.0184418	0.014381	15.9308
81	-0.0669109	-0.0196427	0.00400828	0.025197	-0.0177781	-0.0348734	0.0209857	0.0290472	-0.002055	-9.36198e-05	0.050786	0.0183565	0.0501659	-0.00376612	0.0183184	-2.28383	-0.0295075	-1.5852	0	0	0	0	-0	0	0	0	-0.1265	0	-0	0	0	0	0	0	-0	0	0.105	-0.015	0	0	-0	0	0	-0.098	0.1	0	-0	0	0	0	0	0	-0	0	0.05595	0	0	0	-0	0	0	0	0	0	-0	0	552.926	561.477	363.583	217.594	0.874207	-6.69745	-0.0183822	0.0144245	16.0197
82	-0.0612925	-0.0196391	0.00400844	0.0251923	-0.0177743	-0.0348709	0.0209862	0.0290482	-0.00205464	-0.007488	0.0557148	0.014384	0.0500628	-0.0037666	0.0185965	-2.27841	-0.0295537	-1.5855	0	0	0	0	-0	0	0	0	-0.1265	0	-0	0	0	0	0	0	-0	0	0.105	-0.015	0	0	-0	0	0	-0.098	0.1	0	-0	0	0	0	0	0	-0	0	0.05595	0	0	0	-0	0	0	0	0	0	-0	0	552.902	561.425	363.687	217.712	0.877126	-6.73633	-0.0182857	0.0144877	16.1521
83	-0.0616422	-0.0196337	0.00400875	0.0251859	-0.0177682	-0.0348677	0.0209851	0.0290467	-0.0020541	-0.0108607	0.0496672	0.0140447	0.0500711	-0.00376731	0.018574	-2.27905	-0.0297388	-1.58568	0	0	0	0	-0	0	0	0	-0.1265	0	-0	0	0	0	0	0	-0	0	0.105	-0.015	0	0	-0	0	0	-0.098	0.1	0	-0	0	0	0	0	0	-0	0	0.05595	0	0	0	-0	0	0	0	0	0	-0	0	552.866	561.35	363.832	217.885	0.881293	-6.79211	-0.0181447	0.0145774	16.3426
84	-0.0653528	-0.0196319	0.00400817	0.0251837	-0.0177674	-0.0348683	0.020985	0.0290481	-0.00205458	-0.0196576	0.0475522	0.00836291	0.0501396	-0.00376746	0.0183886	-2.28284	-0.029844	-1.58562	0	0	0	0	-0	0	0	0	-0.1265	0	-0	0	0	0	0	0	-0	0	0.105	-0.015	0	0	-0	0	0	-0.098	0.1	0	-0	0	0	0	0	0	-0	0	0.05595	0	0	0	-0	0	0	0	0	0	-0	0	552.858	561.33	363.872	217.931	0.882806	-6.80947	-0.0181053	0.0146083	16.3944
85	-0.0684338	-0.0196289	0.00400867	0.0251805	-0.017764	-0.0348664	0.0209855	0.0290479	-0.00205359	-0.0129614	0.0430535	0.00420646	0.0501972	-0.00376788	0.0182316	-2.28608	-0.0299889	-1.58563	0	0	0	0	-0	0	0	0	-0.1265	0	-0	0	0	0	0	0	-0	0	0.105	-0.015	0	0	-0	0	0	-0.098	0.1	0	-0	0	0	0	0	0	-0	0	0.05595	0	0	0	-0	0	0	0	0	0	-0	0	552.838	561.291	363.952	218.027	0.885233	-6.84127	-0.0180362	0.0146567	16.503
86	-0.0646023	-0.0196268	0.00400838	0.0251785	-0.0177625	-0.0348665	0.0209854	0.0290486	-0.00205312	-0.0211734	0.0458541	0.0108822	0.050127	-0.00376803	0.0184236	-2.28233	-0.0299819	-1.58579	0	0	0	0	-0	0	0	0	-0.1265	0	-0	0	0	0	0	0	-0	0	0.105	-0.015	0	0	-0	0	0	-0.098	0.1	0	-0	0	0	0	0	0	-0	0	0.05595	0	0	0	-0	0	0	0	0	0	-0	0	552.83	561.271	363.991	218.074	0.886602	-6.8579	-0.0179973	0.0146848	16.5553
87	-0.065018	-0.0196231	0.00400856	0.0251746	-0.0177585	-0.0348645	0.020985	0.0290475	-0.00205284	-0.0246024	0.0460418	0.0182445	0.050136	-0.00376841	0.0183997	-2.28292	-0.0300943	-1.58589	0	0	0	0	-0	0	0	0	-0.1265	0	-0	0	0	0	0	0	-0	0	0.105	-0.015	0	0	-0	0	0	-0.098	0.1	0	-0	0	0	0	0	0	-0	0	0.05595	0	0	0	-0	0	0	0	0	0	-0	0	552.81	561.227	364.076	218.179	0.88903	-6.89174	-0.0179078	0.014736	16.6739
88	-0.0617516	-0.0196175	0.00400914	0.0251687	-0.0177524	-0.0348615	0.0209832	0.0290486	-0.00205022	-0.00764166	0.059995	0.0117145	0.050078	-0.00376904	0.0185594	-2.27993	-0.0302055	-1.58615	0	0	0	0	-0	0	0	0	-0.1265	0	-0	0	0	0	0	0	-0	0	0.105	-0.015	0	0	-0	0	0	-0.098	0.1	0	-0	0	0	0	0	0	-0	0	0.05595	0	0	0	-0	0	0	0	0	0	-0	0	552.777	561.159	364.205	218.342	0.89312	-6.94646	-0.01778	0.0148152	16.8626
89	-0.0572488	-0.0196163	0.00400809	0.0251685	-0.0177519	-0.0348626	0.0209841	0.0290466	-0.00205255	-0.00742529	0.0593886	0.00888135	0.0499936	-0.00376907	0.0187856	-2.27546	-0.0301586	-1.58632	0	0	0	0	-0	0	0	0	-0.1265	0	-0	0	0	0	0	0	-0	0	0.105	-0.015	0	0	-0	0	0	-0.098	0.1	0	-0	0	0	0	0	0	-0	0	0.05595	0	0	0	-0	0	0	0	0	0	-0	0	552.773	561.149	364.223	218.364	0.894016	-6.95574	-0.0177619	0.0148326	16.8875
90	-0.059987	-0.0196145	0.00400881	0.0251657	-0.0177504	-0.0348621	0.0209839	0.0290466	-0.00205231	-0.011726	0.0576701	0.00919678	0.0500449	-0.0037693	0.0186477	-2.27828	-0.030246	-1.58628	0	0	0	0	-0	0	0	0	-0.1265	0	-0	0	0	0	0	0	-0	0	0.105	-0.015	0	0	-0	0	0	-0.098	0.1	0	-0	0	0	0	0	0	-0	0	0.05595	0	0	0	-0	0	0	0	0	0	-0	0	552.764	561.13	364.26	218.41	0.895193	-6.97105	-0.0177249	0.0148553	16.9387
91	-0.0584836	-0.0196121	0.00400904	0.0251633	-0.0177478	-0.0348611	0.020984	0.0290465	-0.00205214	-0.00910467	0.05548	0.00955889	0.0500176	-0.00376957	0.0187212	-2.27689	-0.0302887	-1.58639	0	0	0	0	-0	0	0	0	-0.1265	0	-0	0	0	0	0	0	-0	0	0.105	-0.015	0	0	-0	0	0	-0.098	0.1	0	-0	0	0	0	0	0	-0	0	0.05595	0	0	0	-0	0	0	0	0	0	-0	0	552.751	561.101	364.313	218.477	0.896837	-6.99319	-0.0176703	0.0148881	17.0151
92	-0.0650764	-0.0196082	0.00400929	0.0251596	-0.0177439	-0.0348598	0.0209844	0.0290492	-0.0020514	-0.0210131	0.0576607	0.0152584	0.0501421	-0.00376994	0.0183891	-2.28365	-0.0304869	-1.58629	0	0	0	0	-0	0	0	0	-0.1265	0	-0	0	0	0	0	0	-0	0	0.105	-0.015	0	0	-0	0	0	-0.098	0.1	0	-0	0	0	0	0	0	-0	0	0.05595	0	0	0	-0	0	0	0	0	0	-0	0	552.732	561.06	364.39	218.577	0.899304	-7.02649	-0.0175878	0.0149361	17.1299
93	-0.0685131	-0.0196024	0.00400943	0.0251551	-0.0177376	-0.0348578	0.0209831	0.0290486	-0.00205079	-0.0346297	0.0549728	0.0190958	0.0502061	-0.00377045	0.0182128	-2.28733	-0.0306771	-1.58633	0	0	0	0	-0	0	0	0	-0.1265	0	-0	0	0	0	0	0	-0	0	0.105	-0.015	0	0	-0	0	0	-0.098	0.1	0	-0	0	0	0	0	0	-0	0	0.05595	0	0	0	-0	0	0	0	0	0	-0	0	552.705	561	364.498	218.722	0.902831	-7.07482	-0.0174689	0.0150035	17.2985
94	-0.0643315	-0.0195909	0.00401042	0.0251457	-0.0177256	-0.0348539	0.0209833	0.0290538	-0.00205076	-0.0575428	0.056407	0.0203132	0.0501335	-0.00377148	0.0184153	-2.28361	-0.0308573	-1.58671	0	0	0	0	-0	0	0	0	-0.1265	0	-0	0	0	0	0	0	-0	0	0.105	-0.015	0	0	-0	0	0	-0.098	0.1	0	-0	0	0	0	0	0	-0	0	0.05595	0	0	0	-0	0	0	0	0	0	-0	0	552.649	560.881	364.694	218.995	0.909548	-7.16744	-0.0172382	0.0151232	17.6239
95	-0.0646117	-0.0195887	0.00400911	0.0251455	-0.0177244	-0.0348561	0.0209835	0.0290461	-0.00205082	-0.0565208	0.050148	0.0185021	0.0501372	-0.00377161	0.0184024	-2.28396	-0.0308965	-1.58674	0	0	0	0	-0	0	0	0	-0.1265	0	-0	0	0	0	0	0	-0	0	0.105	-0.015	0	0	-0	0	0	-0.098	0.1	0	-0	0	0	0	0	0	-0	0	0.05595	0	0	0	-0	0	0	0	0	0	-0	0	552.641	560.865	364.721	219.032	0.911093	-7.18358	-0.0172097	0.0151508	17.6679
96	-0.0676269	-0.0195867	0.0040103	0.0251416	-0.0177228	-0.0348555	0.0209829	0.0290464	-0.00205041	-0.0500017	0.0498384	0.0195628	0.0501931	-0.00377184	0.0182504	-2.28706	-0.0309913	-1.58669	0	0	0	0	-0	0	0	0	-0.1265	0	-0	0	0	0	0	0	-0	0	0.105	-0.015	0	0	-0	0	0	-0.098	0.1	0	-0	0	0	0	0	0	-0	0	0.05595	0	0	0	-0	0	0	0	0	0	-0	0	552.631	560.844	364.758	219.083	0.912457	-7.20126	-0.0171705	0.0151744	17.7276
97	-0.0713408	-0.0195848	0.00401016	0.0251402	-0.0177211	-0.0348554	0.0209827	0.0290462	-0.00205035	-0.0441384	0.0514305	0.0209859	0.050261	-0.00377197	0.0180631	-2.29084	-0.0310872	-1.58662	0	0	0	0	-0	0	0	0	-0.1265	0	-0	0	0	0	0	0	-0	0	0.105	-0.015	0	0	-0	0	0	-0.098	0.1	0	-0	0	0	0	0	0	-0	0	0.05595	0	0	0	-0	0	0	0	0	0	-0	0	552.623	560.826	364.788	219.123	0.913445	-7.21474	-0.017133	0.0151935	17.7739
98	-0.0732735	-0.0195834	0.00401025	0.025139	-0.0177199	-0.0348553	0.0209829	0.0290459	-0.00205032	-0.0427902	0.0542587	0.0246273	0.0502958	-0.0037721	0.0179653	-2.29283	-0.0311453	-1.58658	0	0	0	0	-0	0	0	0	-0.1265	0	-0	0	0	0	0	0	-0	0	0.105	-0.015	0	0	-0	0	0	-0.098	0.1	0	-0	0	0	0	0	0	-0	0	0.05595	0	0	0	-0	0	0	0	0	0	-0	0	552.617	560.813	364.809	219.153	0.914266	-7.22528	-0.0171084	0.015208	17.8091
99	-0.0696721	-0.0195824	0.00401033	0.0251381	-0.017719	-0.0348553	0.020983	0.0290458	-0.00204988	-0.0427006	0.0588001	0.0219352	0.0502311	-0.00377218	0.0181461	-2.28926	-0.0311088	-1.58672	0	0	0	0	-0	0	0	0	-0.1265	0	-0	0	0	0	0	0	-0	0	0.105	-0.015	0	0	-0	0	0	-0.098	0.1	0	-0	0	0	0	0	0	-0	0	0.05595	0	0	0	-0	0	0	0	0	0	-0	0	552.613	560.804	364.825	219.175	0.914879	-7.23321	-0.017091	0.0152188	17.8357
100	-0.0722811	-0.0195804	0.00401071	0.0251364	-0.0177167	-0.0348546	0.0209834	0.0290467	-0.00204985	-0.0404611	0.0566108	0.0298625	0.0502789	-0.00377239	0.0180135	-2.29195	-0.0311949	-1.58668	0	0	0	0	-0	0	0	0	-0.1265	0	-0	0	0	0	0	0	-0	0	0.105	-0.015	0	0	-0	0	0	-0.098	0.1	0	-0	0	0	0	0	0	-0	0	0.05595	0	0	0	-0	0	0	0	0	0	-0	0	552.603	560.783	364.861	219.224	0.916066	-7.24959	-0.017052	0.0152403	17.8936
