Stefan210/kinematic_calibration/src/kinematic_calibration/validation/experiments/experiments/single_point_vs_pose/marker_single_point/rarm_60/optimization_intermediate_results.csv
iteration	HeadPitch_offset	HeadYaw_offset	RElbowRoll_offset	RElbowYaw_offset	RShoulderPitch_offset	RShoulderRoll_offset	marker_transform_rarm_tx	marker_transform_rarm_ty	marker_transform_rarm_tz	marker_transform_rarm_rr	marker_transform_rarm_rp	marker_transform_rarm_ry	camera_transform_tx	camera_transform_ty	camera_transform_tz	camera_transform_rr	camera_transform_rp	camera_transform_ry	HeadPitch_transform_tx	HeadPitch_transform_ty	HeadPitch_transform_tz	HeadPitch_transform_rr	HeadPitch_transform_rp	HeadPitch_transform_ry	HeadYaw_transform_tx	HeadYaw_transform_ty	HeadYaw_transform_tz	HeadYaw_transform_rr	HeadYaw_transform_rp	HeadYaw_transform_ry	RElbowRoll_transform_tx	RElbowRoll_transform_ty	RElbowRoll_transform_tz	RElbowRoll_transform_rr	RElbowRoll_transform_rp	RElbowRoll_transform_ry	RElbowYaw_transform_tx	RElbowYaw_transform_ty	RElbowYaw_transform_tz	RElbowYaw_transform_rr	RElbowYaw_transform_rp	RElbowYaw_transform_ry	RShoulderPitch_transform_tx	RShoulderPitch_transform_ty	RShoulderPitch_transform_tz	RShoulderPitch_transform_rr	RShoulderPitch_transform_rp	RShoulderPitch_transform_ry	RShoulderRoll_transform_tx	RShoulderRoll_transform_ty	RShoulderRoll_transform_tz	RShoulderRoll_transform_rr	RShoulderRoll_transform_rp	RShoulderRoll_transform_ry	RWristYaw_transform_tx	RWristYaw_transform_ty	RWristYaw_transform_tz	RWristYaw_transform_rr	RWristYaw_transform_rp	RWristYaw_transform_ry	r_wrist_joint_transform_tx	r_wrist_joint_transform_ty	r_wrist_joint_transform_tz	r_wrist_joint_transform_rr	r_wrist_joint_transform_rp	r_wrist_joint_transform_ry	camera_fx	camera_fy	camera_cx	camera_cy	camera_D0	camera_D1	camera_D2	camera_D3	camera_D4	
0	0.0230449	0.0294606	-0.0013508	-0.00116347	0.000678263	0.00258603	0.05071	0	0.01774	-2.26369	1.66533e-16	-1.5708	545.901	551.038	324.928	201.58	0.0255298	2.61142	-0.0636736	-0.0350419	0.213964
1	-0.0158657	-0.0272754	0.00489135	0.0125063	-0.0150594	-0.0277817	0.021188	0.0281978	-0.000900494	-0.00111736	0.000646769	0.00268797	0.0534298	-0.00191546	0.0178808	-2.19973	0.0123465	-1.52211	0	0	0	0	-0	0	0	0	-0.1265	0	-0	0	0	0	0	0	-0	0	0.105	-0.015	0	0	-0	0	0	-0.098	0.1	0	-0	0	0	0	0	0	-0	0	0.05595	0	0	0	-0	0	0	0	0	0	-0	0	545.901	551.039	324.929	201.581	-0.0194013	2.59736	-0.0872065	-0.0766991	0.211045
2	-0.0146632	-0.0452271	-0.00550602	0.0143123	-0.0285468	-0.0228559	0.0213159	0.0283545	-0.00100731	-0.00112749	0.000656195	0.00268656	0.0528071	-2.27364e-05	0.0209215	-2.20492	0.0183686	-1.51187	0	0	0	0	-0	0	0	0	-0.1265	0	-0	0	0	0	0	0	-0	0	0.105	-0.015	0	0	-0	0	0	-0.098	0.1	0	-0	0	0	0	0	0	-0	0	0.05595	0	0	0	-0	0	0	0	0	0	-0	0	545.903	551.039	324.934	201.585	-0.175892	2.49326	-0.0415001	-0.0458593	0.176906
3	-0.0155506	-0.0385655	-0.0015669	0.0161736	-0.0240257	-0.0261553	0.0212426	0.0284733	-0.00130167	-0.00115845	0.000682892	0.00270446	0.0540922	-0.00135337	0.0180222	-2.20057	0.0195059	-1.51356	0	0	0	0	-0	0	0	0	-0.1265	0	-0	0	0	0	0	0	-0	0	0.105	-0.015	0	0	-0	0	0	-0.098	0.1	0	-0	0	0	0	0	0	-0	0	0.05595	0	0	0	-0	0	0	0	0	0	-0	0	545.905	551.04	324.94	201.59	-0.39117	2.3546	-0.0284214	-0.037861	0.13313
4	-0.0158208	-0.032932	0.00143993	0.0183613	-0.0216983	-0.0298994	0.0211523	0.0287757	-0.0017157	-0.00119985	0.00072116	0.0027457	0.0548793	-0.00268927	0.0158642	-2.19886	0.0219152	-1.51824	0	0	0	0	-0	0	0	0	-0.1265	0	-0	0	0	0	0	0	-0	0	0.105	-0.015	0	0	-0	0	0	-0.098	0.1	0	-0	0	0	0	0	0	-0	0	0.05595	0	0	0	-0	0	0	0	0	0	-0	0	545.911	551.04	324.95	201.599	-0.639073	2.10348	0.00713168	-0.0123165	0.0443224
5	-0.0160292	-0.028327	0.00430449	0.0198868	-0.0199121	-0.0332098	0.0210665	0.0289478	-0.00195337	-0.00121298	0.000738955	0.00277358	0.0548319	-0.00364814	0.0151217	-2.19785	0.0228788	-1.52207	0	0	0	0	-0	0	0	0	-0.1265	0	-0	0	0	0	0	0	-0	0	0.105	-0.015	0	0	-0	0	0	-0.098	0.1	0	-0	0	0	0	0	0	-0	0	0.05595	0	0	0	-0	0	0	0	0	0	-0	0	545.926	551.038	324.963	201.609	-0.650773	1.7399	0.0186282	-0.00221887	-0.10216
6	-0.0160289	-0.0254593	0.00665739	0.0200674	-0.019157	-0.0358469	0.0210136	0.0289754	-0.0019499	-0.00122366	0.000771184	0.00278373	0.053721	-0.00412424	0.0161099	-2.19818	0.0222986	-1.52539	0	0	0	0	-0	0	0	0	-0.1265	0	-0	0	0	0	0	0	-0	0	0.105	-0.015	0	0	-0	0	0	-0.098	0.1	0	-0	0	0	0	0	0	-0	0	0.05595	0	0	0	-0	0	0	0	0	0	-0	0	545.956	551.03	324.981	201.621	-0.421592	1.16843	0.0106082	-0.00323028	-0.340881
7	-0.0160156	-0.0234819	0.00850146	0.0197333	-0.0188706	-0.0379043	0.0209767	0.0289714	-0.00188271	-0.00120621	0.000806192	0.00273881	0.052443	-0.00440743	0.0174238	-2.19886	0.0215074	-1.52815	0	0	0	0	-0	0	0	0	-0.1265	0	-0	0	0	0	0	0	-0	0	0.105	-0.015	0	0	-0	0	0	-0.098	0.1	0	-0	0	0	0	0	0	-0	0	0.05595	0	0	0	-0	0	0	0	0	0	-0	0	546.014	551.01	324.998	201.625	-0.140443	0.498306	-0.000821421	-0.00618839	-0.594613
8	-0.0158742	-0.0226703	0.0093279	0.0194219	-0.0189737	-0.0388711	0.020957	0.028969	-0.001834	-0.00108499	0.000789701	0.00273586	0.0516255	-0.0045051	0.0183242	-2.19936	0.021014	-1.52964	0	0	0	0	-0	0	0	0	-0.1265	0	-0	0	0	0	0	0	-0	0	0.105	-0.015	0	0	-0	0	0	-0.098	0.1	0	-0	0	0	0	0	0	-0	0	0.05595	0	0	0	-0	0	0	0	0	0	-0	0	546.139	550.967	325.018	201.614	0.0443273	0.00453866	-0.00732928	-0.00776565	-0.687155
9	-0.0160159	-0.0224899	0.00946237	0.0193371	-0.0191152	-0.038997	0.0209476	0.0289695	-0.001822	-0.000713786	0.000198772	0.00299648	0.051312	-0.00450236	0.0186814	-2.19987	0.020748	-1.53021	0	0	0	0	-0	0	0	0	-0.1265	0	-0	0	0	0	0	0	-0	0	0.105	-0.015	0	0	-0	0	0	-0.098	0.1	0	-0	0	0	0	0	0	-0	0	0.05595	0	0	0	-0	0	0	0	0	0	-0	0	546.452	550.869	325.059	201.589	0.11318	-0.265741	-0.00859545	-0.00809462	-0.464418
10	-0.0158079	-0.0224324	0.00932862	0.019344	-0.0192293	-0.0387403	0.020939	0.0289721	-0.00182783	-0.00096731	-0.000825653	0.0016219	0.0511215	-0.00445543	0.0189114	-2.2	0.0203899	-1.53066	0	0	0	0	-0	0	0	0	-0.1265	0	-0	0	0	0	0	0	-0	0	0.105	-0.015	0	0	-0	0	0	-0.098	0.1	0	-0	0	0	0	0	0	-0	0	0.05595	0	0	0	-0	0	0	0	0	0	-0	0	547.183	550.696	325.151	201.534	0.146817	-0.578226	-0.00723923	-0.00790651	0.254859
11	-0.0204488	-0.0223569	0.00900856	0.0193986	-0.0193846	-0.0382605	0.0209286	0.0289779	-0.00184118	-0.00275798	-0.00388097	-0.000925968	0.0509223	-0.00436337	0.0190195	-2.20526	0.0199352	-1.5315	0	0	0	0	-0	0	0	0	-0.1265	0	-0	0	0	0	0	0	-0	0	0.105	-0.015	0	0	-0	0	0	-0.098	0.1	0	-0	0	0	0	0	0	-0	0	0.05595	0	0	0	-0	0	0	0	0	0	-0	0	548.442	550.686	325.315	201.409	0.203346	-1.17113	-0.00500882	-0.00745784	1.72896
12	-0.0195477	-0.0222821	0.00855008	0.0195436	-0.0195478	-0.0377692	0.0209284	0.0289932	-0.00185649	-0.00877318	-0.00122522	-0.0212805	0.0505523	-0.00424404	0.0195218	-2.20521	0.0188374	-1.53254	0	0	0	0	-0	0	0	0	-0.1265	0	-0	0	0	0	0	0	-0	0	0.105	-0.015	0	0	-0	0	0	-0.098	0.1	0	-0	0	0	0	0	0	-0	0	0.05595	0	0	0	-0	0	0	0	0	0	-0	0	549.919	551.65	325.67	201.167	0.285179	-1.96537	-0.0041191	-0.00684981	3.72045
13	-0.051939	-0.0222361	0.00816521	0.0196859	-0.0196752	-0.0375042	0.0209282	0.0290005	-0.0018637	-0.0249873	0.00331502	-0.0311911	0.0508598	-0.00414363	0.0183235	-2.2385	0.0175595	-1.53556	0	0	0	0	-0	0	0	0	-0.1265	0	-0	0	0	0	0	0	-0	0	0.105	-0.015	0	0	-0	0	0	-0.098	0.1	0	-0	0	0	0	0	0	-0	0	0.05595	0	0	0	-0	0	0	0	0	0	-0	0	551.842	554.414	327.191	200.856	0.338969	-2.48519	-0.00545662	-0.00585513	5.10117
14	-0.0525514	-0.0222294	0.00805273	0.0196982	-0.0197316	-0.0374324	0.0209336	0.0290032	-0.00187034	-0.0345732	-0.0183258	-0.0531575	0.0507447	-0.00410981	0.0184624	-2.23955	0.0157413	-1.53724	0	0	0	0	-0	0	0	0	-0.1265	0	-0	0	0	0	0	0	-0	0	0.105	-0.015	0	0	-0	0	0	-0.098	0.1	0	-0	0	0	0	0	0	-0	0	0.05595	0	0	0	-0	0	0	0	0	0	-0	0	552.869	556.013	328.46	200.749	0.346989	-2.59228	-0.00630476	-0.00523588	5.46357
15	-0.0436419	-0.0222343	0.00802601	0.0197025	-0.0197464	-0.0374119	0.0209269	0.028997	-0.00186064	-0.0309057	-0.0174339	-0.0536065	0.0505606	-0.00410266	0.0189448	-2.23073	0.0150685	-1.53746	0	0	0	0	-0	0	0	0	-0.1265	0	-0	0	0	0	0	0	-0	0	0.105	-0.015	0	0	-0	0	0	-0.098	0.1	0	-0	0	0	0	0	0	-0	0	0.05595	0	0	0	-0	0	0	0	0	0	-0	0	553.069	556.323	328.731	200.729	0.348077	-2.61272	-0.00644505	-0.00510285	5.53967
16	-0.0417242	-0.022238	0.00797304	0.0197174	-0.0197849	-0.0373859	0.0209343	0.0290013	-0.00185647	-0.0344663	0.00289696	-0.0674754	0.0504524	-0.00408621	0.0191415	-2.22911	0.0134757	-1.53894	0	0	0	0	-0	0	0	0	-0.1265	0	-0	0	0	0	0	0	-0	0	0.105	-0.015	0	0	-0	0	0	-0.098	0.1	0	-0	0	0	0	0	0	-0	0	0.05595	0	0	0	-0	0	0	0	0	0	-0	0	553.783	557.464	329.872	200.685	0.347962	-2.62817	-0.00710471	-0.00458729	5.63261
17	-0.0282835	-0.0222541	0.00792288	0.0197264	-0.0198369	-0.037357	0.0209316	0.028999	-0.00186712	-0.0150442	0.0448245	-0.0583305	0.0501186	-0.00406974	0.0199297	-2.21608	0.0108507	-1.54096	0	0	0	0	-0	0	0	0	-0.1265	0	-0	0	0	0	0	0	-0	0	0.105	-0.015	0	0	-0	0	0	-0.098	0.1	0	-0	0	0	0	0	0	-0	0	0.05595	0	0	0	-0	0	0	0	0	0	-0	0	554.696	558.927	331.57	200.658	0.343168	-2.61214	-0.0079183	-0.00383518	5.67272
18	-0.0494585	-0.0222739	0.00788949	0.0197348	-0.0198704	-0.0373314	0.0209376	0.0290133	-0.00184962	-0.0177626	0.0278515	-0.0278894	0.0505004	-0.0040608	0.0189151	-2.23743	0.0104178	-1.54228	0	0	0	0	-0	0	0	0	-0.1265	0	-0	0	0	0	0	0	-0	0	0.105	-0.015	0	0	-0	0	0	-0.098	0.1	0	-0	0	0	0	0	0	-0	0	0.05595	0	0	0	-0	0	0	0	0	0	-0	0	555.11	559.591	332.409	200.65	0.341856	-2.61678	-0.00827592	-0.00346251	5.72965
19	-0.0465218	-0.0222817	0.00786839	0.0197393	-0.0198885	-0.0373146	0.0209323	0.0290104	-0.00186427	-0.00729605	0.0390101	-0.00311361	0.0504104	-0.00405462	0.0190958	-2.23464	0.00951159	-1.54304	0	0	0	0	-0	0	0	0	-0.1265	0	-0	0	0	0	0	0	-0	0	0.105	-0.015	0	0	-0	0	0	-0.098	0.1	0	-0	0	0	0	0	0	-0	0	0.05595	0	0	0	-0	0	0	0	0	0	-0	0	555.395	560.063	333.035	200.647	0.341475	-2.62286	-0.00855572	-0.0031823	5.77536
20	-0.0314687	-0.0223104	0.00783607	0.0197432	-0.0199348	-0.037288	0.0209332	0.0290163	-0.00185697	-0.033289	0.0533959	-0.000866454	0.0500784	-0.00404527	0.0199202	-2.21987	0.00734966	-1.54464	0	0	0	0	-0	0	0	0	-0.1265	0	-0	0	0	0	0	0	-0	0	0.105	-0.015	0	0	-0	0	0	-0.098	0.1	0	-0	0	0	0	0	0	-0	0	0.05595	0	0	0	-0	0	0	0	0	0	-0	0	555.947	560.989	334.413	200.652	0.339669	-2.62227	-0.00914704	-0.0025837	5.83213
21	-0.0195575	-0.0223571	0.00779279	0.0197473	-0.019999	-0.0372436	0.0209395	0.0290064	-0.00184876	-0.034237	0.0881641	-0.015383	0.0497818	-0.00403369	0.0205908	-2.20832	0.00461214	-1.54708	0	0	0	0	-0	0	0	0	-0.1265	0	-0	0	0	0	0	0	-0	0	0.105	-0.015	0	0	-0	0	0	-0.098	0.1	0	-0	0	0	0	0	0	-0	0	0.05595	0	0	0	-0	0	0	0	0	0	-0	0	556.616	562.154	336.386	200.673	0.338429	-2.63181	-0.00994391	-0.00172482	5.93826
22	-0.0170836	-0.0223696	0.00777661	0.0197514	-0.0200126	-0.0372262	0.0209283	0.0290099	-0.00185547	-0.0267572	0.0819898	-0.032038	0.049721	-0.00403038	0.0207208	-2.2059	0.00424662	-1.54742	0	0	0	0	-0	0	0	0	-0.1265	0	-0	0	0	0	0	0	-0	0	0.105	-0.015	0	0	-0	0	0	-0.098	0.1	0	-0	0	0	0	0	0	-0	0	0.05595	0	0	0	-0	0	0	0	0	0	-0	0	556.708	562.301	336.651	200.674	0.338542	-2.64258	-0.00999615	-0.00160131	5.98756
23	-0.00970331	-0.0223902	0.00775522	0.0197549	-0.0200402	-0.0372035	0.0209277	0.0290076	-0.0018527	-0.0302241	0.0945552	-0.0458843	0.0495466	-0.00402522	0.021118	-2.19866	0.00319472	-1.54832	0	0	0	0	-0	0	0	0	-0.1265	0	-0	0	0	0	0	0	-0	0	0.105	-0.015	0	0	-0	0	0	-0.098	0.1	0	-0	0	0	0	0	0	-0	0	0.05595	0	0	0	-0	0	0	0	0	0	-0	0	556.926	562.689	337.373	200.684	0.340437	-2.66594	-0.010291	-0.00128607	6.07775
24	-0.00720013	-0.0224211	0.00772876	0.0197582	-0.0200782	-0.0371723	0.0209233	0.0290063	-0.00185222	-0.0379967	0.0830314	-0.0385703	0.0494673	-0.00401919	0.0212768	-2.19635	0.00187257	-1.54967	0	0	0	0	-0	0	0	0	-0.1265	0	-0	0	0	0	0	0	-0	0	0.105	-0.015	0	0	-0	0	0	-0.098	0.1	0	-0	0	0	0	0	0	-0	0	0.05595	0	0	0	-0	0	0	0	0	0	-0	0	557.205	563.21	338.429	200.707	0.342619	-2.69474	-0.0107091	-0.000826824	6.19607
25	0.000738493	-0.0224329	0.0077169	0.0197602	-0.0200913	-0.0371591	0.0209238	0.0290069	-0.00185405	-0.0309988	0.0762065	-0.0360932	0.0492923	-0.00401682	0.0216783	-2.18846	0.00136714	-1.55002	0	0	0	0	-0	0	0	0	-0.1265	0	-0	0	0	0	0	0	-0	0	0.105	-0.015	0	0	-0	0	0	-0.098	0.1	0	-0	0	0	0	0	0	-0	0	0.05595	0	0	0	-0	0	0	0	0	0	-0	0	557.28	563.343	338.714	200.713	0.343268	-2.70701	-0.0107833	-0.000696086	6.24506
26	0.0045949	-0.022445	0.00770565	0.0197624	-0.020106	-0.0371455	0.0209249	0.0290085	-0.00185435	-0.0403435	0.0867257	-0.0328913	0.0491978	-0.00401444	0.0218807	-2.18468	0.000828336	-1.55052	0	0	0	0	-0	0	0	0	-0.1265	0	-0	0	0	0	0	0	-0	0	0.105	-0.015	0	0	-0	0	0	-0.098	0.1	0	-0	0	0	0	0	0	-0	0	0.05595	0	0	0	-0	0	0	0	0	0	-0	0	557.375	563.519	339.103	200.723	0.344602	-2.72305	-0.0109244	-0.00052517	6.30382
27	0.01356	-0.0224799	0.00768228	0.0197654	-0.0201452	-0.0371135	0.0209211	0.0290126	-0.00185952	-0.0604926	0.0713016	-0.0474372	0.0489801	-0.00400972	0.0223512	-2.1759	-0.000631793	-1.55193	0	0	0	0	-0	0	0	0	-0.1265	0	-0	0	0	0	0	0	-0	0	0.105	-0.015	0	0	-0	0	0	-0.098	0.1	0	-0	0	0	0	0	0	-0	0	0.05595	0	0	0	-0	0	0	0	0	0	-0	0	557.607	563.982	340.199	200.758	0.347676	-2.75784	-0.0113489	-5.17043e-05	6.43753
28	0.00894863	-0.0225008	0.00766475	0.0197695	-0.020168	-0.037092	0.0209264	0.029008	-0.00185371	-0.0635029	0.0930897	-0.0481823	0.0490711	-0.00400658	0.0221384	-2.18061	-0.00115976	-1.55263	0	0	0	0	-0	0	0	0	-0.1265	0	-0	0	0	0	0	0	-0	0	0.105	-0.015	0	0	-0	0	0	-0.098	0.1	0	-0	0	0	0	0	0	-0	0	0.05595	0	0	0	-0	0	0	0	0	0	-0	0	557.719	564.193	340.734	200.778	0.349562	-2.78336	-0.0114985	0.000190493	6.53159
29	0.00586921	-0.0225044	0.00766022	0.0197698	-0.0201721	-0.0370861	0.0209207	0.0290082	-0.00185377	-0.0585333	0.0954971	-0.0428889	0.0491372	-0.00400569	0.0219895	-2.18371	-0.0012332	-1.55277	0	0	0	0	-0	0	0	0	-0.1265	0	-0	0	0	0	0	0	-0	0	0.105	-0.015	0	0	-0	0	0	-0.098	0.1	0	-0	0	0	0	0	0	-0	0	0.05595	0	0	0	-0	0	0	0	0	0	-0	0	557.741	564.234	340.843	200.782	0.349869	-2.78928	-0.011515	0.000241922	6.55442
30	0.0130692	-0.02252	0.00764916	0.019771	-0.0201895	-0.0370703	0.0209249	0.0290107	-0.0018544	-0.0503859	0.0798998	-0.0490891	0.0489701	-0.00400352	0.0223553	-2.17659	-0.00187982	-1.55335	0	0	0	0	-0	0	0	0	-0.1265	0	-0	0	0	0	0	0	-0	0	0.105	-0.015	0	0	-0	0	0	-0.098	0.1	0	-0	0	0	0	0	0	-0	0	0.05595	0	0	0	-0	0	0	0	0	0	-0	0	557.821	564.397	341.287	200.801	0.35203	-2.81167	-0.0116794	0.00043385	6.63131
31	-0.00232016	-0.0225427	0.00763334	0.0197746	-0.0202139	-0.0370477	0.0209193	0.0290106	-0.00185206	-0.0618609	0.0762285	-0.0439001	0.0493022	-0.00400083	0.021616	-2.1921	-0.00236554	-1.55416	0	0	0	0	-0	0	0	0	-0.1265	0	-0	0	0	0	0	0	-0	0	0.105	-0.015	0	0	-0	0	0	-0.098	0.1	0	-0	0	0	0	0	0	-0	0	0.05595	0	0	0	-0	0	0	0	0	0	-0	0	557.927	564.627	341.937	200.831	0.35502	-2.8439	-0.0119086	0.00071855	6.7436
32	0.00221557	-0.0225557	0.00762346	0.0197754	-0.0202275	-0.0370341	0.0209209	0.0290109	-0.00185223	-0.0599614	0.0712904	-0.0318733	0.0491941	-0.00399909	0.0218442	-2.18762	-0.00282206	-1.55458	0	0	0	0	-0	0	0	0	-0.1265	0	-0	0	0	0	0	0	-0	0	0.105	-0.015	0	0	-0	0	0	-0.098	0.1	0	-0	0	0	0	0	0	-0	0	0.05595	0	0	0	-0	0	0	0	0	0	-0	0	557.979	564.732	342.257	200.847	0.356446	-2.86173	-0.0119911	0.000863055	6.80707
33	0.00313722	-0.0225605	0.00761913	0.0197763	-0.0202328	-0.0370283	0.0209198	0.0290105	-0.00185255	-0.0644087	0.0716404	-0.0229584	0.0491714	-0.00399836	0.0218923	-2.18673	-0.00298807	-1.55475	0	0	0	0	-0	0	0	0	-0.1265	0	-0	0	0	0	0	0	-0	0	0.105	-0.015	0	0	-0	0	0	-0.098	0.1	0	-0	0	0	0	0	0	-0	0	0.05595	0	0	0	-0	0	0	0	0	0	-0	0	558.001	564.774	342.388	200.854	0.357043	-2.86959	-0.0120176	0.00092331	6.83482
34	-0.00441823	-0.0225671	0.00761437	0.0197769	-0.0202401	-0.0370211	0.0209202	0.0290106	-0.0018523	-0.0618278	0.0656961	-0.0132748	0.0493338	-0.00399751	0.021525	-2.19431	-0.003075	-1.55495	0	0	0	0	-0	0	0	0	-0.1265	0	-0	0	0	0	0	0	-0	0	0.105	-0.015	0	0	-0	0	0	-0.098	0.1	0	-0	0	0	0	0	0	-0	0	0.05595	0	0	0	-0	0	0	0	0	0	-0	0	558.028	564.831	342.566	200.864	0.358031	-2.88033	-0.012073	0.00100143	6.8713
35	-0.0134688	-0.0225817	0.0076049	0.0197785	-0.0202555	-0.0370063	0.020921	0.0290133	-0.00185115	-0.0587503	0.0700711	-0.0295955	0.0495214	-0.00399595	0.0210865	-2.20344	-0.00340633	-1.55543	0	0	0	0	-0	0	0	0	-0.1265	0	-0	0	0	0	0	0	-0	0	0.105	-0.015	0	0	-0	0	0	-0.098	0.1	0	-0	0	0	0	0	0	-0	0	0.05595	0	0	0	-0	0	0	0	0	0	-0	0	558.084	564.957	342.968	200.888	0.36023	-2.9033	-0.0122099	0.00117654	6.94929
36	-0.0170243	-0.0226037	0.00759207	0.0197807	-0.0202776	-0.0369854	0.0209186	0.0290134	-0.00185737	-0.0726433	0.0561116	-0.0434071	0.0495878	-0.00399407	0.0209201	-2.20711	-0.0040479	-1.55616	0	0	0	0	-0	0	0	0	-0.1265	0	-0	0	0	0	0	0	-0	0	0.105	-0.015	0	0	-0	0	0	-0.098	0.1	0	-0	0	0	0	0	0	-0	0	0.05595	0	0	0	-0	0	0	0	0	0	-0	0	558.156	565.129	343.556	200.926	0.363225	-2.93508	-0.0124008	0.00143393	7.05879
37	-0.0262192	-0.0226166	0.00758348	0.0197826	-0.0202906	-0.0369735	0.0209182	0.0290118	-0.00185227	-0.0714522	0.0574936	-0.0537072	0.0497768	-0.0039929	0.0204692	-2.21636	-0.00425678	-1.55648	0	0	0	0	-0	0	0	0	-0.1265	0	-0	0	0	0	0	0	-0	0	0.105	-0.015	0	0	-0	0	0	-0.098	0.1	0	-0	0	0	0	0	0	-0	0	0.05595	0	0	0	-0	0	0	0	0	0	-0	0	558.192	565.208	343.845	200.945	0.364674	-2.95291	-0.0124636	0.00156544	7.12114
38	-0.0233881	-0.022663	0.00756186	0.0197836	-0.0203356	-0.0369308	0.0209167	0.0290212	-0.00185731	-0.0481421	0.0640853	-0.0370286	0.0497063	-0.00399008	0.0206267	-2.21377	-0.00575332	-1.55801	0	0	0	0	-0	0	0	0	-0.1265	0	-0	0	0	0	0	0	-0	0	0.105	-0.015	0	0	-0	0	0	-0.098	0.1	0	-0	0	0	0	0	0	-0	0	0.05595	0	0	0	-0	0	0	0	0	0	-0	0	558.31	565.518	345.07	201.041	0.371184	-3.01929	-0.0128613	0.00209392	7.34834
39	-0.021299	-0.0226881	0.00754495	0.0197882	-0.0203607	-0.0369058	0.0209168	0.0290138	-0.0018522	-0.0399137	0.0567368	-0.0297874	0.0496578	-0.00398802	0.0207392	-2.21181	-0.00646712	-1.55875	0	0	0	0	-0	0	0	0	-0.1265	0	-0	0	0	0	0	0	-0	0	0.105	-0.015	0	0	-0	0	0	-0.098	0.1	0	-0	0	0	0	0	0	-0	0	0.05595	0	0	0	-0	0	0	0	0	0	-0	0	558.368	565.648	345.654	201.093	0.374686	-3.06146	-0.0129615	0.00236482	7.49281
40	-0.0301172	-0.0226975	0.00753767	0.0197882	-0.0203708	-0.0368943	0.0209155	0.0290132	-0.00185075	-0.0444672	0.0497133	-0.0200595	0.0498382	-0.00398686	0.0203051	-2.22069	-0.00664011	-1.55899	0	0	0	0	-0	0	0	0	-0.1265	0	-0	0	0	0	0	0	-0	0	0.105	-0.015	0	0	-0	0	0	-0.098	0.1	0	-0	0	0	0	0	0	-0	0	0.05595	0	0	0	-0	0	0	0	0	0	-0	0	558.391	565.699	345.89	201.115	0.376217	-3.08002	-0.0129966	0.0024729	7.55617
41	-0.0317917	-0.0227096	0.00752965	0.019789	-0.0203835	-0.0368801	0.0209152	0.0290139	-0.00185228	-0.0388941	0.0467794	-0.0110001	0.049867	-0.00398569	0.0202261	-2.22244	-0.00700099	-1.55937	0	0	0	0	-0	0	0	0	-0.1265	0	-0	0	0	0	0	0	-0	0	0.105	-0.015	0	0	-0	0	0	-0.098	0.1	0	-0	0	0	0	0	0	-0	0	0.05595	0	0	0	-0	0	0	0	0	0	-0	0	558.417	565.762	346.207	201.147	0.378623	-3.10594	-0.0130688	0.00261402	7.64162
42	-0.0286059	-0.0227623	0.00750758	0.0197908	-0.0204323	-0.0368316	0.0209146	0.0290151	-0.00186097	-0.0185333	0.0778516	0.00258076	0.0497957	-0.00398373	0.0203976	-2.21957	-0.00859623	-1.56101	0	0	0	0	-0	0	0	0	-0.1265	0	-0	0	0	0	0	0	-0	0	0.105	-0.015	0	0	-0	0	0	-0.098	0.1	0	-0	0	0	0	0	0	-0	0	0.05595	0	0	0	-0	0	0	0	0	0	-0	0	558.488	566.01	347.523	201.298	0.387318	-3.19459	-0.0134483	0.00318498	7.93883
43	-0.0129219	-0.0227895	0.00748947	0.0197956	-0.0204597	-0.0368033	0.0209121	0.0290196	-0.00184326	-0.0398522	0.0554957	0.0188811	0.0494717	-0.00398191	0.0211853	-2.20406	-0.00946388	-1.56191	0	0	0	0	-0	0	0	0	-0.1265	0	-0	0	0	0	0	0	-0	0	0.105	-0.015	0	0	-0	0	0	-0.098	0.1	0	-0	0	0	0	0	0	-0	0	0.05595	0	0	0	-0	0	0	0	0	0	-0	0	558.521	566.095	348.137	201.382	0.39211	-3.25158	-0.0135016	0.00347287	8.13005
44	-0.00123514	-0.0228131	0.00747506	0.0197962	-0.020483	-0.0367744	0.020915	0.029013	-0.00184935	-0.0502432	0.0276749	0.0244579	0.0492138	-0.00398019	0.0217676	-2.19258	-0.0103213	-1.56286	0	0	0	0	-0	0	0	0	-0.1265	0	-0	0	0	0	0	0	-0	0	0.105	-0.015	0	0	-0	0	0	-0.098	0.1	0	-0	0	0	0	0	0	-0	0	0.05595	0	0	0	-0	0	0	0	0	0	-0	0	558.544	566.188	348.794	201.483	0.397788	-3.31203	-0.0136349	0.00376868	8.329
45	-0.00245715	-0.0228199	0.00746943	0.0197974	-0.0204905	-0.0367674	0.0209109	0.0290153	-0.00185123	-0.0496883	0.0331234	0.0163147	0.0492361	-0.00397963	0.0217074	-2.19385	-0.0104567	-1.56302	0	0	0	0	-0	0	0	0	-0.1265	0	-0	0	0	0	0	0	-0	0	0.105	-0.015	0	0	-0	0	0	-0.098	0.1	0	-0	0	0	0	0	0	-0	0	0.05595	0	0	0	-0	0	0	0	0	0	-0	0	558.553	566.2	348.926	201.504	0.398791	-3.3266	-0.0136082	0.00383635	8.37887
46	0.00444275	-0.0228401	0.00745942	0.0197982	-0.0205098	-0.0367441	0.0209083	0.0290158	-0.00185294	-0.0631841	0.0216398	0.0132837	0.0490839	-0.00397877	0.022051	-2.18712	-0.0111023	-1.56375	0	0	0	0	-0	0	0	0	-0.1265	0	-0	0	0	0	0	0	-0	0	0.105	-0.015	0	0	-0	0	0	-0.098	0.1	0	-0	0	0	0	0	0	-0	0	0.05595	0	0	0	-0	0	0	0	0	0	-0	0	558.558	566.246	349.446	201.597	0.403626	-3.37788	-0.0136962	0.00406633	8.54678
47	0.00537317	-0.022844	0.00745614	0.0197987	-0.0205139	-0.036741	0.0209093	0.0290156	-0.00185229	-0.0668986	0.0201323	0.00703232	0.0490621	-0.00397852	0.0220966	-2.18622	-0.0111851	-1.56385	0	0	0	0	-0	0	0	0	-0.1265	0	-0	0	0	0	0	0	-0	0	0.105	-0.015	0	0	-0	0	0	-0.098	0.1	0	-0	0	0	0	0	0	-0	0	0.05595	0	0	0	-0	0	0	0	0	0	-0	0	558.561	566.251	349.515	201.61	0.404104	-3.38539	-0.0136741	0.00410599	8.57253
48	0.00054219	-0.0228471	0.00745389	0.019799	-0.0205173	-0.0367362	0.0209088	0.0290153	-0.00185192	-0.0717302	0.0210644	0.00725706	0.049168	-0.00397824	0.0218607	-2.19108	-0.0112569	-1.56392	0	0	0	0	-0	0	0	0	-0.1265	0	-0	0	0	0	0	0	-0	0	0.105	-0.015	0	0	-0	0	0	-0.098	0.1	0	-0	0	0	0	0	0	-0	0	0.05595	0	0	0	-0	0	0	0	0	0	-0	0	558.563	566.258	349.608	201.627	0.405088	-3.39626	-0.0136813	0.00414823	8.6078
49	-0.00153279	-0.0228523	0.00745088	0.0197992	-0.0205225	-0.0367297	0.0209093	0.0290172	-0.00185102	-0.0635857	0.0219742	-0.00195771	0.0492122	-0.00397795	0.0217594	-2.19321	-0.0113993	-1.56407	0	0	0	0	-0	0	0	0	-0.1265	0	-0	0	0	0	0	0	-0	0	0.105	-0.015	0	0	-0	0	0	-0.098	0.1	0	-0	0	0	0	0	0	-0	0	0.05595	0	0	0	-0	0	0	0	0	0	-0	0	558.564	566.268	349.745	201.654	0.406417	-3.4109	-0.0136962	0.00420996	8.65595
50	0.00301141	-0.0228559	0.00744841	0.0197997	-0.0205261	-0.0367251	0.0209088	0.0290159	-0.00185204	-0.0683398	0.0239063	-0.00722085	0.0491127	-0.00397774	0.0219838	-2.1887	-0.0115456	-1.56425	0	0	0	0	-0	0	0	0	-0.1265	0	-0	0	0	0	0	0	-0	0	0.105	-0.015	0	0	-0	0	0	-0.098	0.1	0	-0	0	0	0	0	0	-0	0	0.05595	0	0	0	-0	0	0	0	0	0	-0	0	558.564	566.275	349.846	201.675	0.407462	-3.42245	-0.0137041	0.0042576	8.69349
51	0.0108331	-0.0228673	0.00744259	0.0198008	-0.0205368	-0.0367121	0.0209094	0.0290161	-0.00184989	-0.0734739	0.010936	0.00159492	0.0489393	-0.00397736	0.0223694	-2.18099	-0.0119219	-1.56471	0	0	0	0	-0	0	0	0	-0.1265	0	-0	0	0	0	0	0	-0	0	0.105	-0.015	0	0	-0	0	0	-0.098	0.1	0	-0	0	0	0	0	0	-0	0	0.05595	0	0	0	-0	0	0	0	0	0	-0	0	558.56	566.296	350.135	201.735	0.410527	-3.4544	-0.0137601	0.00438477	8.79741
52	0.0147056	-0.0228725	0.00743894	0.0198013	-0.0205421	-0.0367056	0.0209083	0.0290172	-0.00185116	-0.0663282	0.0119049	-0.00695004	0.0488507	-0.00397706	0.0225591	-2.17718	-0.0121026	-1.56494	0	0	0	0	-0	0	0	0	-0.1265	0	-0	0	0	0	0	0	-0	0	0.105	-0.015	0	0	-0	0	0	-0.098	0.1	0	-0	0	0	0	0	0	-0	0	0.05595	0	0	0	-0	0	0	0	0	0	-0	0	558.56	566.304	350.276	201.766	0.411939	-3.47061	-0.0137635	0.00445236	8.85069
53	0.00950783	-0.0228795	0.00743526	0.0198019	-0.0205486	-0.0366976	0.0209073	0.0290156	-0.00185205	-0.0598962	0.0210647	-0.0066372	0.0489672	-0.00397685	0.0223057	-2.18245	-0.0122679	-1.5651	0	0	0	0	-0	0	0	0	-0.1265	0	-0	0	0	0	0	0	-0	0	0.105	-0.015	0	0	-0	0	0	-0.098	0.1	0	-0	0	0	0	0	0	-0	0	0.05595	0	0	0	-0	0	0	0	0	0	-0	0	558.557	566.312	350.452	201.805	0.413763	-3.49047	-0.0137818	0.0045321	8.91572
54	0.0125152	-0.0228892	0.00743039	0.0198021	-0.0205579	-0.0366861	0.0209097	0.0290195	-0.0018519	-0.0501401	0.0137775	0.00421055	0.048899	-0.00397657	0.0224537	-2.17955	-0.0125718	-1.56547	0	0	0	0	-0	0	0	0	-0.1265	0	-0	0	0	0	0	0	-0	0	0.105	-0.015	0	0	-0	0	0	-0.098	0.1	0	-0	0	0	0	0	0	-0	0	0.05595	0	0	0	-0	0	0	0	0	0	-0	0	558.553	566.323	350.707	201.865	0.416331	-3.51864	-0.0138063	0.00464734	9.00865
55	0.00720578	-0.0228958	0.00742663	0.0198031	-0.0205641	-0.0366783	0.0209095	0.029016	-0.00185063	-0.0482139	0.0312108	-0.00138172	0.0490178	-0.00397647	0.0221944	-2.18494	-0.0127513	-1.56564	0	0	0	0	-0	0	0	0	-0.1265	0	-0	0	0	0	0	0	-0	0	0.105	-0.015	0	0	-0	0	0	-0.098	0.1	0	-0	0	0	0	0	0	-0	0	0.05595	0	0	0	-0	0	0	0	0	0	-0	0	558.55	566.33	350.893	201.911	0.41817	-3.5395	-0.0138114	0.00473562	9.07741
56	0.0120624	-0.022901	0.00742375	0.0198029	-0.0205693	-0.0366717	0.0209079	0.0290161	-0.00185238	-0.0480636	0.0189069	-0.00331902	0.0489091	-0.00397627	0.0224325	-2.18015	-0.0129308	-1.56588	0	0	0	0	-0	0	0	0	-0.1265	0	-0	0	0	0	0	0	-0	0	0.105	-0.015	0	0	-0	0	0	-0.098	0.1	0	-0	0	0	0	0	0	-0	0	0.05595	0	0	0	-0	0	0	0	0	0	-0	0	558.547	566.332	351.03	201.946	0.419558	-3.55538	-0.0138131	0.00479911	9.13006
57	0.00596883	-0.0229052	0.00742148	0.0198031	-0.0205732	-0.0366672	0.0209072	0.0290171	-0.00185185	-0.0423489	0.0121695	-0.000505041	0.0490451	-0.00397616	0.0221346	-2.18629	-0.0130137	-1.56593	0	0	0	0	-0	0	0	0	-0.1265	0	-0	0	0	0	0	0	-0	0	0.105	-0.015	0	0	-0	0	0	-0.098	0.1	0	-0	0	0	0	0	0	-0	0	0.05595	0	0	0	-0	0	0	0	0	0	-0	0	558.545	566.334	351.132	201.972	0.420624	-3.56743	-0.0138152	0.00484656	9.16978
58	0.0144934	-0.0229131	0.00741781	0.0198033	-0.0205805	-0.0366572	0.0209059	0.0290163	-0.00185384	-0.0260026	0.0355416	0.00239094	0.0488556	-0.00397607	0.0225524	-2.17787	-0.0133034	-1.56632	0	0	0	0	-0	0	0	0	-0.1265	0	-0	0	0	0	0	0	-0	0	0.105	-0.015	0	0	-0	0	0	-0.098	0.1	0	-0	0	0	0	0	0	-0	0	0.05595	0	0	0	-0	0	0	0	0	0	-0	0	558.537	566.336	351.354	202.032	0.422997	-3.59331	-0.0138327	0.00494679	9.25502
59	0.0081919	-0.0229178	0.00741525	0.0198036	-0.0205849	-0.0366524	0.0209056	0.0290165	-0.00185187	-0.0233055	0.0334035	0.00309556	0.0489961	-0.00397601	0.0222437	-2.18422	-0.0133949	-1.56638	0	0	0	0	-0	0	0	0	-0.1265	0	-0	0	0	0	0	0	-0	0	0.105	-0.015	0	0	-0	0	0	-0.098	0.1	0	-0	0	0	0	0	0	-0	0	0.05595	0	0	0	-0	0	0	0	0	0	-0	0	558.533	566.334	351.463	202.062	0.424083	-3.60632	-0.0138234	0.00499937	9.2983
60	0.0150423	-0.0229233	0.00741274	0.0198035	-0.0205899	-0.0366452	0.0209056	0.0290177	-0.00185213	-0.0156336	0.0318452	0.00789023	0.048843	-0.00397598	0.0225787	-2.17745	-0.0136034	-1.56668	0	0	0	0	-0	0	0	0	-0.1265	0	-0	0	0	0	0	0	-0	0	0.105	-0.015	0	0	-0	0	0	-0.098	0.1	0	-0	0	0	0	0	0	-0	0	0.05595	0	0	0	-0	0	0	0	0	0	-0	0	558.524	566.33	351.622	202.108	0.425865	-3.62581	-0.0138303	0.00507247	9.36221
61	0.00222094	-0.0229357	0.00740791	0.0198038	-0.0206004	-0.0366303	0.0209055	0.0290177	-0.00184702	0.00329118	0.0581021	-0.00110994	0.0491329	-0.00397622	0.0219503	-2.19045	-0.0139305	-1.56694	0	0	0	0	-0	0	0	0	-0.1265	0	-0	0	0	0	0	0	-0	0	0.105	-0.015	0	0	-0	0	0	-0.098	0.1	0	-0	0	0	0	0	0	-0	0	0.05595	0	0	0	-0	0	0	0	0	0	-0	0	558.5	566.318	351.965	202.21	0.429618	-3.66689	-0.0138478	0.00522749	9.49769
62	0.00474446	-0.0229409	0.00740429	0.0198037	-0.0206058	-0.0366226	0.0209063	0.0290208	-0.00185158	0.0157282	0.0519392	-0.00847568	0.0490733	-0.00397602	0.0220728	-2.18802	-0.0141297	-1.56719	0	0	0	0	-0	0	0	0	-0.1265	0	-0	0	0	0	0	0	-0	0	0.105	-0.015	0	0	-0	0	0	-0.098	0.1	0	-0	0	0	0	0	0	-0	0	0.05595	0	0	0	-0	0	0	0	0	0	-0	0	558.494	566.314	352.13	202.262	0.431436	-3.6884	-0.0138295	0.00530888	9.56886
63	0.0067819	-0.0229454	0.00740196	0.0198046	-0.02061	-0.0366175	0.0209039	0.0290174	-0.00185243	0.0095612	0.0469009	-0.0129476	0.0490282	-0.00397609	0.0221726	-2.18605	-0.0142722	-1.56737	0	0	0	0	-0	0	0	0	-0.1265	0	-0	0	0	0	0	0	-0	0	0.105	-0.015	0	0	-0	0	0	-0.098	0.1	0	-0	0	0	0	0	0	-0	0	0.05595	0	0	0	-0	0	0	0	0	0	-0	0	558.488	566.309	352.252	202.302	0.432811	-3.70436	-0.0138187	0.00536766	9.62143
64	0.00314448	-0.0229476	0.00740073	0.019804	-0.0206124	-0.0366151	0.0209039	0.0290171	-0.0018518	0.00673946	0.048122	-0.0145382	0.0491087	-0.00397601	0.0219944	-2.18971	-0.0143148	-1.56738	0	0	0	0	-0	0	0	0	-0.1265	0	-0	0	0	0	0	0	-0	0	0.105	-0.015	0	0	-0	0	0	-0.098	0.1	0	-0	0	0	0	0	0	-0	0	0.05595	0	0	0	-0	0	0	0	0	0	-0	0	558.486	566.306	352.301	202.318	0.433417	-3.71135	-0.0138121	0.00539161	9.64422
65	0.00545063	-0.0229487	0.00739999	0.019804	-0.0206134	-0.0366134	0.0209039	0.0290171	-0.0018519	0.00452734	0.0474119	-0.0179195	0.0490577	-0.00397597	0.0221075	-2.18743	-0.0143606	-1.56746	0	0	0	0	-0	0	0	0	-0.1265	0	-0	0	0	0	0	0	-0	0	0.105	-0.015	0	0	-0	0	0	-0.098	0.1	0	-0	0	0	0	0	0	-0	0	0.05595	0	0	0	-0	0	0	0	0	0	-0	0	558.484	566.304	352.334	202.329	0.433787	-3.71587	-0.0138071	0.00540768	9.65939
66	0.00500063	-0.0229512	0.00739892	0.019804	-0.0206156	-0.03661	0.0209044	0.0290172	-0.00185248	0.00294839	0.0387974	-0.0225224	0.0490678	-0.00397599	0.0220851	-2.18792	-0.0144429	-1.56755	0	0	0	0	-0	0	0	0	-0.1265	0	-0	0	0	0	0	0	-0	0	0.105	-0.015	0	0	-0	0	0	-0.098	0.1	0	-0	0	0	0	0	0	-0	0	0.05595	0	0	0	-0	0	0	0	0	0	-0	0	558.48	566.301	352.409	202.354	0.434631	-3.7254	-0.0138066	0.0054418	9.69114
67	0.00556623	-0.0229548	0.00739718	0.0198042	-0.0206188	-0.036605	0.0209049	0.0290189	-0.0018515	0.00166082	0.0413082	-0.0339588	0.0490556	-0.00397603	0.0221125	-2.18742	-0.014568	-1.5677	0	0	0	0	-0	0	0	0	-0.1265	0	-0	0	0	0	0	0	-0	0	0.105	-0.015	0	0	-0	0	0	-0.098	0.1	0	-0	0	0	0	0	0	-0	0	0.05595	0	0	0	-0	0	0	0	0	0	-0	0	558.473	566.295	352.519	202.393	0.435914	-3.74002	-0.0138011	0.00549286	9.73964
68	0.00832304	-0.0229563	0.00739612	0.0198042	-0.0206204	-0.0366027	0.0209034	0.0290173	-0.00185192	0.00411235	0.0429278	-0.0308043	0.0489945	-0.00397603	0.0222478	-2.1847	-0.0146373	-1.56781	0	0	0	0	-0	0	0	0	-0.1265	0	-0	0	0	0	0	0	-0	0	0.105	-0.015	0	0	-0	0	0	-0.098	0.1	0	-0	0	0	0	0	0	-0	0	0.05595	0	0	0	-0	0	0	0	0	0	-0	0	558.47	566.292	352.574	202.412	0.43657	-3.74763	-0.0137934	0.00552041	9.76439
69	0.0108332	-0.022959	0.00739499	0.0198041	-0.0206227	-0.0365997	0.0209034	0.0290185	-0.0018518	0.0136103	0.0418433	-0.0305626	0.0489389	-0.00397604	0.0223703	-2.18223	-0.0147181	-1.56793	0	0	0	0	-0	0	0	0	-0.1265	0	-0	0	0	0	0	0	-0	0	0.105	-0.015	0	0	-0	0	0	-0.098	0.1	0	-0	0	0	0	0	0	-0	0	0.05595	0	0	0	-0	0	0	0	0	0	-0	0	558.465	566.289	352.64	202.435	0.437369	-3.75647	-0.0137962	0.00555019	9.79386
70	0.00864538	-0.0229635	0.00739293	0.0198043	-0.0206266	-0.0365933	0.0209041	0.0290181	-0.00185248	0.0126663	0.0490399	-0.0232281	0.0489882	-0.00397613	0.0222626	-2.18451	-0.0148731	-1.56809	0	0	0	0	-0	0	0	0	-0.1265	0	-0	0	0	0	0	0	-0	0	0.105	-0.015	0	0	-0	0	0	-0.098	0.1	0	-0	0	0	0	0	0	-0	0	0.05595	0	0	0	-0	0	0	0	0	0	-0	0	558.455	566.281	352.785	202.488	0.439082	-3.77575	-0.0137943	0.00561675	9.85799
71	0.0123942	-0.0229659	0.00739161	0.0198043	-0.020629	-0.0365902	0.0209028	0.0290174	-0.001852	0.0159426	0.0526931	-0.0200263	0.0489047	-0.00397617	0.022446	-2.1808	-0.0149623	-1.56823	0	0	0	0	-0	0	0	0	-0.1265	0	-0	0	0	0	0	0	-0	0	0.105	-0.015	0	0	-0	0	0	-0.098	0.1	0	-0	0	0	0	0	0	-0	0	0.05595	0	0	0	-0	0	0	0	0	0	-0	0	558.451	566.275	352.856	202.515	0.439901	-3.78557	-0.0137795	0.00565242	9.89036
72	0.00789532	-0.022968	0.00739045	0.0198041	-0.020631	-0.0365871	0.0209028	0.0290176	-0.00185152	0.0150651	0.0505287	-0.015502	0.0490055	-0.00397614	0.0222257	-2.18535	-0.015023	-1.56825	0	0	0	0	-0	0	0	0	-0.1265	0	-0	0	0	0	0	0	-0	0	0.105	-0.015	0	0	-0	0	0	-0.098	0.1	0	-0	0	0	0	0	0	-0	0	0.05595	0	0	0	-0	0	0	0	0	0	-0	0	558.446	566.27	352.921	202.54	0.440713	-3.79488	-0.0137739	0.00568308	9.92122
73	0.0141798	-0.0229723	0.00738844	0.019804	-0.0206348	-0.0365805	0.0209015	0.0290188	-0.00185139	0.00201722	0.0426235	-0.0141105	0.0488659	-0.00397622	0.0225327	-2.17915	-0.0151975	-1.56853	0	0	0	0	-0	0	0	0	-0.1265	0	-0	0	0	0	0	0	-0	0	0.105	-0.015	0	0	-0	0	0	-0.098	0.1	0	-0	0	0	0	0	0	-0	0	0.05595	0	0	0	-0	0	0	0	0	0	-0	0	558.435	566.26	353.064	202.595	0.442486	-3.81491	-0.0137683	0.00574859	9.98781
74	0.0143161	-0.0229732	0.00738768	0.019804	-0.0206357	-0.03658	0.0209024	0.0290175	-0.00185176	0.00176545	0.0453523	-0.011868	0.0488618	-0.00397621	0.022539	-2.17903	-0.0152184	-1.56856	0	0	0	0	-0	0	0	0	-0.1265	0	-0	0	0	0	0	0	-0	0	0.105	-0.015	0	0	-0	0	0	-0.098	0.1	0	-0	0	0	0	0	0	-0	0	0.05595	0	0	0	-0	0	0	0	0	0	-0	0	558.434	566.258	353.083	202.603	0.442697	-3.81773	-0.0137574	0.00576102	9.99682
75	0.014695	-0.0229744	0.00738715	0.019804	-0.0206368	-0.036578	0.0209023	0.0290175	-0.00185172	0.00226109	0.0464533	-0.00960294	0.0488535	-0.00397624	0.0225572	-2.17868	-0.0152629	-1.56861	0	0	0	0	-0	0	0	0	-0.1265	0	-0	0	0	0	0	0	-0	0	0.105	-0.015	0	0	-0	0	0	-0.098	0.1	0	-0	0	0	0	0	0	-0	0	0.05595	0	0	0	-0	0	0	0	0	0	-0	0	558.431	566.254	353.122	202.618	0.443173	-3.82338	-0.0137522	0.0057791	10.0159
76	0.00924682	-0.0229761	0.00738637	0.0198038	-0.0206384	-0.0365753	0.0209021	0.0290174	-0.00185167	0.00103067	0.0455243	-0.010175	0.0489766	-0.00397628	0.0222908	-2.18417	-0.0153157	-1.56861	0	0	0	0	-0	0	0	0	-0.1265	0	-0	0	0	0	0	0	-0	0	0.105	-0.015	0	0	-0	0	0	-0.098	0.1	0	-0	0	0	0	0	0	-0	0	0.05595	0	0	0	-0	0	0	0	0	0	-0	0	558.427	566.247	353.181	202.642	0.443883	-3.83169	-0.0137431	0.00580673	10.0435
77	0.00662574	-0.022977	0.00738583	0.0198037	-0.0206393	-0.0365741	0.0209025	0.0290179	-0.00185154	-0.00151509	0.0493028	-0.0149467	0.0490344	-0.0039763	0.0221619	-2.18681	-0.0153425	-1.56861	0	0	0	0	-0	0	0	0	-0.1265	0	-0	0	0	0	0	0	-0	0	0.105	-0.015	0	0	-0	0	0	-0.098	0.1	0	-0	0	0	0	0	0	-0	0	0.05595	0	0	0	-0	0	0	0	0	0	-0	0	558.425	566.245	353.21	202.654	0.444234	-3.83585	-0.0137381	0.00582126	10.0573
78	0.00128883	-0.0229788	0.00738525	0.0198036	-0.0206407	-0.0365713	0.0209025	0.0290184	-0.00185157	0.000360767	0.0485599	-0.0224117	0.049153	-0.00397642	0.0218995	-2.19219	-0.0154026	-1.56861	0	0	0	0	-0	0	0	0	-0.1265	0	-0	0	0	0	0	0	-0	0	0.105	-0.015	0	0	-0	0	0	-0.098	0.1	0	-0	0	0	0	0	0	-0	0	0.05595	0	0	0	-0	0	0	0	0	0	-0	0	558.419	566.237	353.275	202.681	0.444985	-3.84453	-0.0137314	0.00585131	10.0863
79	0.00184296	-0.0229798	0.00738468	0.0198036	-0.0206417	-0.03657	0.020902	0.0290178	-0.00185162	-0.00144605	0.0495231	-0.0183767	0.0491403	-0.00397645	0.0219263	-2.19166	-0.0154398	-1.56866	0	0	0	0	-0	0	0	0	-0.1265	0	-0	0	0	0	0	0	-0	0	0.105	-0.015	0	0	-0	0	0	-0.098	0.1	0	-0	0	0	0	0	0	-0	0	0.05595	0	0	0	-0	0	0	0	0	0	-0	0	558.416	566.234	353.307	202.694	0.445385	-3.84921	-0.013725	0.00586752	10.1017
80	0.000721119	-0.022982	0.00738375	0.0198035	-0.0206436	-0.0365666	0.0209023	0.0290183	-0.00185157	-0.00462751	0.0523748	-0.0247815	0.0491652	-0.00397651	0.0218707	-2.19283	-0.0155171	-1.56873	0	0	0	0	-0	0	0	0	-0.1265	0	-0	0	0	0	0	0	-0	0	0.105	-0.015	0	0	-0	0	0	-0.098	0.1	0	-0	0	0	0	0	0	-0	0	0.05595	0	0	0	-0	0	0	0	0	0	-0	0	558.409	566.226	353.378	202.724	0.446285	-3.85959	-0.0137179	0.0059002	10.1364
81	-0.000960196	-0.0229851	0.00738213	0.0198038	-0.0206461	-0.0365619	0.0209026	0.0290194	-0.0018525	-9.47916e-06	0.0548406	-0.0139579	0.0492026	-0.00397661	0.0217873	-2.19459	-0.0156309	-1.56884	0	0	0	0	-0	0	0	0	-0.1265	0	-0	0	0	0	0	0	-0	0	0.105	-0.015	0	0	-0	0	0	-0.098	0.1	0	-0	0	0	0	0	0	-0	0	0.05595	0	0	0	-0	0	0	0	0	0	-0	0	558.399	566.217	353.482	202.769	0.447703	-3.87551	-0.0137138	0.00594871	10.1892
82	0.00547235	-0.0229867	0.0073812	0.0198039	-0.0206477	-0.0365598	0.0209016	0.0290185	-0.00185202	0.0065262	0.0554145	-0.00874746	0.0490625	-0.00397668	0.0221035	-2.1882	-0.0157006	-1.569	0	0	0	0	-0	0	0	0	-0.1265	0	-0	0	0	0	0	0	-0	0	0.105	-0.015	0	0	-0	0	0	-0.098	0.1	0	-0	0	0	0	0	0	-0	0	0.05595	0	0	0	-0	0	0	0	0	0	-0	0	558.395	566.21	353.534	202.791	0.448356	-3.88342	-0.0136988	0.00597517	10.2152
83	0.00629985	-0.0229899	0.00737978	0.0198035	-0.0206504	-0.0365545	0.0209023	0.0290184	-0.00185176	0.00168518	0.0631461	-0.00706733	0.0490439	-0.00397679	0.0221427	-2.18745	-0.015828	-1.56916	0	0	0	0	-0	0	0	0	-0.1265	0	-0	0	0	0	0	0	-0	0	0.105	-0.015	0	0	-0	0	0	-0.098	0.1	0	-0	0	0	0	0	0	-0	0	0.05595	0	0	0	-0	0	0	0	0	0	-0	0	558.384	566.197	353.647	202.842	0.449839	-3.90034	-0.0136891	0.00602725	10.2717
84	0.00470551	-0.0229915	0.00737887	0.0198035	-0.020652	-0.0365522	0.0209014	0.0290185	-0.00185136	0.00551582	0.062715	-0.0130044	0.0490793	-0.00397685	0.0220643	-2.18909	-0.0158874	-1.56921	0	0	0	0	-0	0	0	0	-0.1265	0	-0	0	0	0	0	0	-0	0	0.105	-0.015	0	0	-0	0	0	-0.098	0.1	0	-0	0	0	0	0	0	-0	0	0.05595	0	0	0	-0	0	0	0	0	0	-0	0	558.378	566.19	353.702	202.867	0.450584	-3.90906	-0.0136764	0.00605564	10.3003
85	0.00509406	-0.0229927	0.00737818	0.0198033	-0.0206531	-0.0365503	0.0209011	0.0290179	-0.00185144	0.00658136	0.0596901	-0.00991637	0.0490709	-0.00397687	0.0220831	-2.18874	-0.0159342	-1.56927	0	0	0	0	-0	0	0	0	-0.1265	0	-0	0	0	0	0	0	-0	0	0.105	-0.015	0	0	-0	0	0	-0.098	0.1	0	-0	0	0	0	0	0	-0	0	0.05595	0	0	0	-0	0	0	0	0	0	-0	0	558.375	566.186	353.744	202.886	0.45113	-3.91546	-0.0136694	0.00607571	10.3216
86	0.00222949	-0.0229936	0.00737773	0.0198032	-0.0206539	-0.0365489	0.0209009	0.0290178	-0.00185153	0.0069038	0.0596674	-0.00740289	0.0491344	-0.0039769	0.0219423	-2.19163	-0.0159641	-1.56926	0	0	0	0	-0	0	0	0	-0.1265	0	-0	0	0	0	0	0	-0	0	0.105	-0.015	0	0	-0	0	0	-0.098	0.1	0	-0	0	0	0	0	0	-0	0	0.05595	0	0	0	-0	0	0	0	0	0	-0	0	558.372	566.181	353.774	202.9	0.451509	-3.92006	-0.0136622	0.00609067	10.3371
87	0.00183118	-0.0229954	0.00737696	0.019803	-0.0206555	-0.0365458	0.020901	0.0290182	-0.00185147	0.00438419	0.0610109	-0.0030439	0.0491433	-0.00397699	0.0219221	-2.19208	-0.0160399	-1.56934	0	0	0	0	-0	0	0	0	-0.1265	0	-0	0	0	0	0	0	-0	0	0.105	-0.015	0	0	-0	0	0	-0.098	0.1	0	-0	0	0	0	0	0	-0	0	0.05595	0	0	0	-0	0	0	0	0	0	-0	0	558.366	566.173	353.843	202.932	0.452403	-3.93038	-0.0136534	0.00612247	10.3716
88	0.000713816	-0.0229981	0.00737576	0.0198028	-0.0206577	-0.0365414	0.0209011	0.0290183	-0.00185107	0.00475925	0.0559188	0.00291041	0.0491684	-0.00397713	0.0218663	-2.19328	-0.0161501	-1.56946	0	0	0	0	-0	0	0	0	-0.1265	0	-0	0	0	0	0	0	-0	0	0.105	-0.015	0	0	-0	0	0	-0.098	0.1	0	-0	0	0	0	0	0	-0	0	0.05595	0	0	0	-0	0	0	0	0	0	-0	0	558.356	566.161	353.943	202.98	0.453723	-3.94575	-0.0136388	0.00616974	10.4231
89	0.000641024	-0.0229995	0.00737497	0.0198028	-0.0206589	-0.0365394	0.0209008	0.0290184	-0.00185157	0.00611215	0.0536036	-0.00279451	0.0491702	-0.00397721	0.0218624	-2.19339	-0.0162051	-1.56952	0	0	0	0	-0	0	0	0	-0.1265	0	-0	0	0	0	0	0	-0	0	0.105	-0.015	0	0	-0	0	0	-0.098	0.1	0	-0	0	0	0	0	0	-0	0	0.05595	0	0	0	-0	0	0	0	0	0	-0	0	558.351	566.155	353.992	203.004	0.454385	-3.95348	-0.0136289	0.00619478	10.4486
90	0.00369079	-0.0230004	0.00737455	0.0198025	-0.0206599	-0.0365379	0.0209004	0.0290179	-0.00185157	0.00454223	0.0493068	-0.00440398	0.0491036	-0.00397727	0.0220121	-2.19037	-0.0162497	-1.56961	0	0	0	0	-0	0	0	0	-0.1265	0	-0	0	0	0	0	0	-0	0	0.105	-0.015	0	0	-0	0	0	-0.098	0.1	0	-0	0	0	0	0	0	-0	0	0.05595	0	0	0	-0	0	0	0	0	0	-0	0	558.348	566.15	354.028	203.022	0.454871	-3.95921	-0.0136195	0.006213	10.4675
91	0.00382403	-0.0230011	0.00737417	0.0198023	-0.0206606	-0.0365366	0.0209004	0.0290181	-0.0018514	0.00270676	0.0512342	-0.00760165	0.0491006	-0.00397729	0.0220183	-2.19026	-0.0162801	-1.56965	0	0	0	0	-0	0	0	0	-0.1265	0	-0	0	0	0	0	0	-0	0	0.105	-0.015	0	0	-0	0	0	-0.098	0.1	0	-0	0	0	0	0	0	-0	0	0.05595	0	0	0	-0	0	0	0	0	0	-0	0	558.345	566.145	354.055	203.035	0.455193	-3.96333	-0.0136103	0.00622634	10.4816
92	0.00259715	-0.0230016	0.00737389	0.0198023	-0.020661	-0.0365357	0.0209002	0.0290183	-0.00185162	-0.00222614	0.050007	-0.0103274	0.0491278	-0.00397732	0.0219579	-2.1915	-0.0163013	-1.56966	0	0	0	0	-0	0	0	0	-0.1265	0	-0	0	0	0	0	0	-0	0	0.105	-0.015	0	0	-0	0	0	-0.098	0.1	0	-0	0	0	0	0	0	-0	0	0.05595	0	0	0	-0	0	0	0	0	0	-0	0	558.343	566.141	354.076	203.045	0.45544	-3.96641	-0.0136037	0.00623641	10.492
93	0.00377751	-0.0230028	0.00737334	0.0198022	-0.0206619	-0.0365337	0.0209004	0.0290184	-0.00185137	-0.00663635	0.0519661	-0.00731026	0.0491022	-0.00397739	0.0220154	-2.19036	-0.016353	-1.56974	0	0	0	0	-0	0	0	0	-0.1265	0	-0	0	0	0	0	0	-0	0	0.105	-0.015	0	0	-0	0	0	-0.098	0.1	0	-0	0	0	0	0	0	-0	0	0.05595	0	0	0	-0	0	0	0	0	0	-0	0	558.338	566.135	354.121	203.068	0.456079	-3.97379	-0.0135977	0.00625749	10.5167
94	0.00685377	-0.0230033	0.00737297	0.0198022	-0.0206625	-0.0365327	0.0209	0.0290179	-0.00185141	-0.00544288	0.0523855	-0.00666533	0.0490345	-0.00397741	0.0221663	-2.1873	-0.0163812	-1.56982	0	0	0	0	-0	0	0	0	-0.1265	0	-0	0	0	0	0	0	-0	0	0.105	-0.015	0	0	-0	0	0	-0.098	0.1	0	-0	0	0	0	0	0	-0	0	0.05595	0	0	0	-0	0	0	0	0	0	-0	0	558.336	566.132	354.143	203.08	0.456387	-3.97748	-0.0135915	0.00626898	10.5289
95	0.00532835	-0.0230046	0.00737238	0.019802	-0.0206636	-0.0365303	0.0209	0.029018	-0.00185138	-0.00385121	0.0512013	-0.0073547	0.0490684	-0.00397747	0.022091	-2.18887	-0.0164351	-1.56986	0	0	0	0	-0	0	0	0	-0.1265	0	-0	0	0	0	0	0	-0	0	0.105	-0.015	0	0	-0	0	0	-0.098	0.1	0	-0	0	0	0	0	0	-0	0	0.05595	0	0	0	-0	0	0	0	0	0	-0	0	558.331	566.125	354.193	203.105	0.457099	-3.98572	-0.0135833	0.0062923	10.5564
96	0.0001955	-0.0230064	0.0073716	0.0198018	-0.020665	-0.0365271	0.0209004	0.0290188	-0.00185149	-0.000702704	0.0502182	-0.000248991	0.0491824	-0.00397761	0.0218382	-2.19407	-0.0165119	-1.56987	0	0	0	0	-0	0	0	0	-0.1265	0	-0	0	0	0	0	0	-0	0	0.105	-0.015	0	0	-0	0	0	-0.098	0.1	0	-0	0	0	0	0	0	-0	0	0.05595	0	0	0	-0	0	0	0	0	0	-0	0	558.323	566.113	354.267	203.143	0.458029	-3.99695	-0.0135677	0.00632715	10.5946
97	-0.00141854	-0.023009	0.00737048	0.0198017	-0.0206669	-0.0365225	0.020899	0.0290192	-0.001851	0.0105453	0.0556464	-0.00198542	0.0492179	-0.00397785	0.0217572	-2.19578	-0.0166303	-1.56998	0	0	0	0	-0	0	0	0	-0.1265	0	-0	0	0	0	0	0	-0	0	0.105	-0.015	0	0	-0	0	0	-0.098	0.1	0	-0	0	0	0	0	0	-0	0	0.05595	0	0	0	-0	0	0	0	0	0	-0	0	558.311	566.098	354.374	203.2	0.459488	-4.01403	-0.0135495	0.00637808	10.652
98	0.000523047	-0.0230095	0.00737007	0.0198014	-0.0206676	-0.0365221	0.0208995	0.029018	-0.00185132	0.00871135	0.0548215	-0.00270811	0.0491755	-0.00397785	0.0218529	-2.19385	-0.0166481	-1.57003	0	0	0	0	-0	0	0	0	-0.1265	0	-0	0	0	0	0	0	-0	0	0.105	-0.015	0	0	-0	0	0	-0.098	0.1	0	-0	0	0	0	0	0	-0	0	0.05595	0	0	0	-0	0	0	0	0	0	-0	0	558.31	566.095	354.388	203.208	0.459689	-4.01656	-0.0135384	0.00638803	10.6599
99	2.08346e-05	-0.0230101	0.00736983	0.0198012	-0.0206682	-0.0365208	0.0208997	0.0290182	-0.00185144	0.008027	0.0584999	0.000288987	0.0491866	-0.00397791	0.0218278	-2.19438	-0.0166809	-1.57006	0	0	0	0	-0	0	0	0	-0.1265	0	-0	0	0	0	0	0	-0	0	0.105	-0.015	0	0	-0	0	0	-0.098	0.1	0	-0	0	0	0	0	0	-0	0	0.05595	0	0	0	-0	0	0	0	0	0	-0	0	558.307	566.09	354.418	203.224	0.460104	-4.02145	-0.0135324	0.00640186	10.6763
100	0.00200665	-0.0230112	0.00736939	0.0198012	-0.020669	-0.0365188	0.0208993	0.0290181	-0.00185119	0.0115726	0.0626473	-0.000685606	0.0491436	-0.00397801	0.0219249	-2.19244	-0.0167311	-1.57015	0	0	0	0	-0	0	0	0	-0.1265	0	-0	0	0	0	0	0	-0	0	0.105	-0.015	0	0	-0	0	0	-0.098	0.1	0	-0	0	0	0	0	0	-0	0	0.05595	0	0	0	-0	0	0	0	0	0	-0	0	558.301	566.082	354.461	203.248	0.460713	-4.0287	-0.0135217	0.00642289	10.7007
