Stefan210/kinematic_calibration/src/kinematic_calibration/validation/experiments/experiments/anzahl_messungen/AB_C/larm_47/optimization_intermediate_results.csv
iteration	HeadPitch_offset	HeadYaw_offset	LElbowRoll_offset	LElbowYaw_offset	LShoulderPitch_offset	LShoulderRoll_offset	marker_transform_larm_tx	marker_transform_larm_ty	marker_transform_larm_tz	marker_transform_larm_rr	marker_transform_larm_rp	marker_transform_larm_ry	camera_transform_tx	camera_transform_ty	camera_transform_tz	camera_transform_rr	camera_transform_rp	camera_transform_ry	HeadPitch_transform_tx	HeadPitch_transform_ty	HeadPitch_transform_tz	HeadPitch_transform_rr	HeadPitch_transform_rp	HeadPitch_transform_ry	HeadYaw_transform_tx	HeadYaw_transform_ty	HeadYaw_transform_tz	HeadYaw_transform_rr	HeadYaw_transform_rp	HeadYaw_transform_ry	LElbowRoll_transform_tx	LElbowRoll_transform_ty	LElbowRoll_transform_tz	LElbowRoll_transform_rr	LElbowRoll_transform_rp	LElbowRoll_transform_ry	LElbowYaw_transform_tx	LElbowYaw_transform_ty	LElbowYaw_transform_tz	LElbowYaw_transform_rr	LElbowYaw_transform_rp	LElbowYaw_transform_ry	LShoulderPitch_transform_tx	LShoulderPitch_transform_ty	LShoulderPitch_transform_tz	LShoulderPitch_transform_rr	LShoulderPitch_transform_rp	LShoulderPitch_transform_ry	LShoulderRoll_transform_tx	LShoulderRoll_transform_ty	LShoulderRoll_transform_tz	LShoulderRoll_transform_rr	LShoulderRoll_transform_rp	LShoulderRoll_transform_ry	LWristYaw_transform_tx	LWristYaw_transform_ty	LWristYaw_transform_tz	LWristYaw_transform_rr	LWristYaw_transform_rp	LWristYaw_transform_ry	l_wrist_joint_transform_tx	l_wrist_joint_transform_ty	l_wrist_joint_transform_tz	l_wrist_joint_transform_rr	l_wrist_joint_transform_rp	l_wrist_joint_transform_ry	camera_fx	camera_fy	camera_cx	camera_cy	camera_D0	camera_D1	camera_D2	camera_D3	camera_D4	
0	0.0249164	-0.0307543	0.000853157	4.65819e-06	-0.000318322	-0.00310766	0.05071	0	0.01774	-2.26369	1.66533e-16	-1.5708	545.901	551.038	324.928	201.58	0.0255298	2.61142	-0.0636736	-0.0350419	0.213964
1	-0.0158079	0.00820728	0.0293877	0.0133881	0.00125184	0.0287402	0.0249162	-0.0294492	0.00162153	-9.39033e-05	-0.000394508	-0.00297811	0.0568425	-0.000215434	0.0158834	-2.19957	0.00502889	-1.54675	0	0	0	0	-0	0	0	0	-0.1265	0	-0	0	0	0	0	0	-0	0	0.105	0.015	0	0	-0	0	0	0.098	0.1	0	-0	0	0	0	0	0	-0	0	0.05595	0	0	0	-0	0	0	0	0	0	-0	0	545.901	551.039	324.928	201.581	-0.0236835	2.59667	-0.104725	0.0357071	0.211015
2	-0.0148999	0.0288663	0.0367933	0.019168	-0.0130027	0.0311369	0.0252226	-0.0296432	0.00190313	-0.000125317	-0.000421704	-0.0029612	0.0543534	-0.000971704	0.0211221	-2.20464	-0.00188017	-1.5701	0	0	0	0	-0	0	0	0	-0.1265	0	-0	0	0	0	0	0	-0	0	0.105	0.015	0	0	-0	0	0	0.098	0.1	0	-0	0	0	0	0	0	-0	0	0.05595	0	0	0	-0	0	0	0	0	0	-0	0	545.903	551.039	324.925	201.586	-0.193356	2.48882	-0.0461412	0.000747087	0.177278
3	-0.0158343	0.0263484	0.0333967	0.0153099	-0.0106789	0.0305858	0.0249942	-0.0296948	0.00147214	-7.56732e-05	-0.000380144	-0.00299456	0.0559449	-0.00026126	0.0178553	-2.20005	-0.00172094	-1.5696	0	0	0	0	-0	0	0	0	-0.1265	0	-0	0	0	0	0	0	-0	0	0.105	0.015	0	0	-0	0	0	0.098	0.1	0	-0	0	0	0	0	0	-0	0	0.05595	0	0	0	-0	0	0	0	0	0	-0	0	545.907	551.04	324.923	201.593	-0.435813	2.3438	-0.0275892	-0.00381154	0.134239
4	-0.0158967	0.0322751	0.0313085	0.0138776	-0.0139452	0.027626	0.0247897	-0.0297309	0.00108332	-2.91833e-05	-0.000345421	-0.00303098	0.057473	9.71202e-06	0.0154614	-2.19914	-0.00537572	-1.57782	0	0	0	0	-0	0	0	0	-0.1265	0	-0	0	0	0	0	0	-0	0	0.105	0.015	0	0	-0	0	0	0.098	0.1	0	-0	0	0	0	0	0	-0	0	0.05595	0	0	0	-0	0	0	0	0	0	-0	0	545.915	551.04	324.918	201.604	-0.730751	2.07346	0.0175983	-0.0182734	0.0434155
5	-0.0156869	0.0355912	0.0278921	0.0157043	-0.0153769	0.0255851	0.0245808	-0.0297291	0.00109975	-4.4284e-05	-0.000332556	-0.00305331	0.0580263	0.000108262	0.0145865	-2.19964	-0.00696808	-1.5824	0	0	0	0	-0	0	0	0	-0.1265	0	-0	0	0	0	0	0	-0	0	0.105	0.015	0	0	-0	0	0	0.098	0.1	0	-0	0	0	0	0	0	-0	0	0.05595	0	0	0	-0	0	0	0	0	0	-0	0	545.934	551.035	324.915	201.619	-0.764673	1.67896	0.033006	-0.0234237	-0.112506
6	-0.0151456	0.0358262	0.0249303	0.0186971	-0.0149186	0.025003	0.0244599	-0.0296951	0.00138246	-1.14874e-05	-0.000423069	-0.00304151	0.0574258	1.66997e-05	0.0154656	-2.20209	-0.00579814	-1.58187	0	0	0	0	-0	0	0	0	-0.1265	0	-0	0	0	0	0	0	-0	0	0.105	0.015	0	0	-0	0	0	0.098	0.1	0	-0	0	0	0	0	0	-0	0	0.05595	0	0	0	-0	0	0	0	0	0	-0	0	545.972	551.017	324.919	201.639	-0.562173	1.11179	0.025821	-0.0222371	-0.349544
7	-0.0146281	0.0355883	0.0231729	0.0207421	-0.0143875	0.0248671	0.024399	-0.0296656	0.00160216	-8.12034e-06	-0.000500158	-0.00312548	0.0566954	-0.000103222	0.0165396	-2.20429	-0.00461114	-1.58053	0	0	0	0	-0	0	0	0	-0.1265	0	-0	0	0	0	0	0	-0	0	0.105	0.015	0	0	-0	0	0	0.098	0.1	0	-0	0	0	0	0	0	-0	0	0.05595	0	0	0	-0	0	0	0	0	0	-0	0	546.046	550.963	324.943	201.656	-0.347811	0.550315	0.0168393	-0.0205949	-0.561802
8	-0.0144246	0.0355196	0.0224623	0.0218771	-0.0141447	0.0248478	0.0243843	-0.0296505	0.0017194	6.18317e-05	0.000335974	-0.00384078	0.0562554	-0.000182269	0.0171694	-2.20547	-0.00418376	-1.57975	0	0	0	0	-0	0	0	0	-0.1265	0	-0	0	0	0	0	0	-0	0	0.105	0.015	0	0	-0	0	0	0.098	0.1	0	-0	0	0	0	0	0	-0	0	0.05595	0	0	0	-0	0	0	0	0	0	-0	0	546.225	550.799	324.989	201.654	-0.232336	0.212411	0.0129364	-0.0199935	-0.606191
9	-0.0134282	0.0354828	0.0221656	0.0224654	-0.0140882	0.0246677	0.0243743	-0.0296405	0.00176627	-0.00041145	0.000405011	-0.00181059	0.0560218	-0.00020353	0.0174993	-2.20493	-0.00424937	-1.57953	0	0	0	0	-0	0	0	0	-0.1265	0	-0	0	0	0	0	0	-0	0	0.105	0.015	0	0	-0	0	0	0.098	0.1	0	-0	0	0	0	0	0	-0	0	0.05595	0	0	0	-0	0	0	0	0	0	-0	0	546.715	550.322	325.061	201.6	-0.197556	0.0351985	0.0136083	-0.0199592	-0.394416
10	-0.0120626	0.0355387	0.0218054	0.0231451	-0.0142151	0.0240291	0.0243429	-0.0296178	0.00179939	-0.00354802	0.000431689	-0.000450919	0.0557	-0.00020074	0.0179211	-2.20391	-0.0047338	-1.57976	0	0	0	0	-0	0	0	0	-0.1265	0	-0	0	0	0	0	0	-0	0	0.105	0.015	0	0	-0	0	0	0.098	0.1	0	-0	0	0	0	0	0	-0	0	0.05595	0	0	0	-0	0	0	0	0	0	-0	0	547.97	549.041	325.231	201.424	-0.181238	-0.220289	0.0183366	-0.0201131	0.22817
11	-0.0107023	0.0356953	0.0211253	0.0244166	-0.0145426	0.0226334	0.0242748	-0.0295708	0.00185362	-0.01126	-0.00278489	-0.00361805	0.0550956	-0.000189276	0.0186659	-2.20305	-0.00597296	-1.58061	0	0	0	0	-0	0	0	0	-0.1265	0	-0	0	0	0	0	0	-0	0	0.105	0.015	0	0	-0	0	0	0.098	0.1	0	-0	0	0	0	0	0	-0	0	0.05595	0	0	0	-0	0	0	0	0	0	-0	0	550.429	546.167	325.741	201.013	-0.156707	-0.714516	0.0286805	-0.0204262	1.48898
12	-0.00243509	0.0358327	0.0202892	0.0260133	-0.014949	0.020743	0.024205	-0.0295376	0.00192557	0.0145903	0.0199283	0.018688	0.0542326	-0.000176089	0.0199305	-2.19487	-0.00851997	-1.5828	0	0	0	0	-0	0	0	0	-0.1265	0	-0	0	0	0	0	0	-0	0	0.105	0.015	0	0	-0	0	0	0.098	0.1	0	-0	0	0	0	0	0	-0	0	0.05595	0	0	0	-0	0	0	0	0	0	-0	0	552.856	541.47	327.258	200.307	-0.11856	-1.39051	0.0425311	-0.0207353	3.18399
13	0.00640474	0.0358902	0.0199985	0.0266666	-0.0151324	0.019833	0.0241765	-0.0295215	0.00193917	0.00628729	0.0045533	0.0670562	0.0537674	-0.000176408	0.0207179	-2.18571	-0.010542	-1.58488	0	0	0	0	-0	0	0	0	-0.1265	0	-0	0	0	0	0	0	-0	0	0.105	0.015	0	0	-0	0	0	0.098	0.1	0	-0	0	0	0	0	0	-0	0	0.05595	0	0	0	-0	0	0	0	0	0	-0	0	553.258	538.619	328.755	199.903	-0.0939979	-1.71909	0.048894	-0.0208138	3.94997
14	-0.0169579	0.035878	0.019925	0.026876	-0.0151909	0.0194405	0.0241497	-0.0295008	0.00195143	-0.0256541	-0.0171706	0.0513387	0.0541747	-0.000177063	0.0195278	-2.20859	-0.0122194	-1.58593	0	0	0	0	-0	0	0	0	-0.1265	0	-0	0	0	0	0	0	-0	0	0.105	0.015	0	0	-0	0	0	0.098	0.1	0	-0	0	0	0	0	0	-0	0	0.05595	0	0	0	-0	0	0	0	0	0	-0	0	553.047	537.076	329.764	199.636	-0.0844203	-1.83383	0.0513982	-0.0208095	4.19335
15	-0.0136912	0.035846	0.0199035	0.0269559	-0.0152104	0.0192446	0.0241358	-0.0294894	0.00195508	-0.0306598	-0.0161862	0.0849433	0.0540899	-0.000176874	0.0196986	-2.20484	-0.013097	-1.58682	0	0	0	0	-0	0	0	0	-0.1265	0	-0	0	0	0	0	0	-0	0	0.105	0.015	0	0	-0	0	0	0.098	0.1	0	-0	0	0	0	0	0	-0	0	0.05595	0	0	0	-0	0	0	0	0	0	-0	0	552.745	536.14	330.458	199.437	-0.0812713	-1.87	0.0525254	-0.0207793	4.25718
16	-0.0136266	0.0357711	0.0199157	0.0269613	-0.0152033	0.0190356	0.0241285	-0.0294737	0.00193388	-0.0161842	-0.0536318	0.106433	0.0541224	-0.000179412	0.0196443	-2.2036	-0.0148585	-1.58858	0	0	0	0	-0	0	0	0	-0.1265	0	-0	0	0	0	0	0	-0	0	0.105	0.015	0	0	-0	0	0	0.098	0.1	0	-0	0	0	0	0	0	-0	0	0.05595	0	0	0	-0	0	0	0	0	0	-0	0	551.802	534.612	331.874	198.96	-0.0697088	-1.92185	0.0531905	-0.0206119	4.28953
17	-0.0289802	0.0357192	0.0199512	0.0269346	-0.0151951	0.0189562	0.0241221	-0.0294817	0.00194287	-0.0285897	-0.0566211	0.0848809	0.0544672	-0.000179332	0.0187505	-2.21824	-0.0158957	-1.58911	0	0	0	0	-0	0	0	0	-0.1265	0	-0	0	0	0	0	0	-0	0	0.105	0.015	0	0	-0	0	0	0.098	0.1	0	-0	0	0	0	0	0	-0	0	0.05595	0	0	0	-0	0	0	0	0	0	-0	0	551.354	533.946	332.486	198.688	-0.0721659	-1.89487	0.0534862	-0.020568	4.20547
18	-0.0482955	0.0356566	0.019995	0.0268859	-0.0151828	0.0188592	0.0241109	-0.0295075	0.00197412	0.0227689	-0.0942856	0.0531838	0.0548849	-0.000182938	0.0176064	-2.23607	-0.017886	-1.59042	0	0	0	0	-0	0	0	0	-0.1265	0	-0	0	0	0	0	0	-0	0	0.105	0.015	0	0	-0	0	0	0.098	0.1	0	-0	0	0	0	0	0	-0	0	0.05595	0	0	0	-0	0	0	0	0	0	-0	0	550.371	532.774	333.803	198.064	-0.0655988	-1.88592	0.0533531	-0.0203789	4.09154
19	-0.0271878	0.0356233	0.0200098	0.0269109	-0.0151866	0.0188101	0.0241153	-0.0294785	0.00193788	0.0139201	-0.0917127	0.0422487	0.0545458	-0.000183013	0.0186943	-2.21411	-0.018195	-1.59148	0	0	0	0	-0	0	0	0	-0.1265	0	-0	0	0	0	0	0	-0	0	0.105	0.015	0	0	-0	0	0	0.098	0.1	0	-0	0	0	0	0	0	-0	0	0.05595	0	0	0	-0	0	0	0	0	0	-0	0	549.953	532.245	334.369	197.712	-0.0702607	-1.84026	0.0534936	-0.0203656	3.96576
20	-0.0312288	0.0355884	0.0200419	0.0268538	-0.0151766	0.0187818	0.0241177	-0.0294771	0.00193335	0.0155297	-0.110243	0.049346	0.0546389	-0.000183712	0.018432	-2.21755	-0.018782	-1.59195	0	0	0	0	-0	0	0	0	-0.1265	0	-0	0	0	0	0	0	-0	0	0.105	0.015	0	0	-0	0	0	0.098	0.1	0	-0	0	0	0	0	0	-0	0	0.05595	0	0	0	-0	0	0	0	0	0	-0	0	549.647	531.884	334.794	197.456	-0.0711227	-1.81511	0.053397	-0.0202833	3.88538
21	-0.0373819	0.035579	0.0200527	0.0268433	-0.0151783	0.0187684	0.0241147	-0.0294783	0.00193354	0.012931	-0.116974	0.0552591	0.0547658	-0.000183573	0.0180761	-2.22344	-0.0191247	-1.59205	0	0	0	0	-0	0	0	0	-0.1265	0	-0	0	0	0	0	0	-0	0	0.105	0.015	0	0	-0	0	0	0.098	0.1	0	-0	0	0	0	0	0	-0	0	0.05595	0	0	0	-0	0	0	0	0	0	-0	0	549.528	531.742	334.964	197.35	-0.0726757	-1.80019	0.0534126	-0.0202718	3.84626
22	-0.033424	0.0355511	0.0200756	0.0268178	-0.0151749	0.0187399	0.0241193	-0.0294822	0.0019341	0.00678777	-0.133438	0.0459192	0.0547225	-0.000185756	0.0182523	-2.21852	-0.0198728	-1.59299	0	0	0	0	-0	0	0	0	-0.1265	0	-0	0	0	0	0	0	-0	0	0.105	0.015	0	0	-0	0	0	0.098	0.1	0	-0	0	0	0	0	0	-0	0	0.05595	0	0	0	-0	0	0	0	0	0	-0	0	549.058	531.23	335.65	196.915	-0.0703953	-1.78266	0.0531846	-0.0201478	3.76065
23	-0.0227888	0.0355359	0.0200902	0.0268111	-0.0151762	0.0187239	0.0241137	-0.0294804	0.001931	0.0114289	-0.133863	0.043742	0.054549	-0.000186164	0.0188057	-2.20738	-0.0200193	-1.59361	0	0	0	0	-0	0	0	0	-0.1265	0	-0	0	0	0	0	0	-0	0	0.105	0.015	0	0	-0	0	0	0.098	0.1	0	-0	0	0	0	0	0	-0	0	0.05595	0	0	0	-0	0	0	0	0	0	-0	0	548.844	530.989	335.966	196.688	-0.0719749	-1.7617	0.0531569	-0.0201205	3.70049
24	-0.0321481	0.0355284	0.0200975	0.0268069	-0.0151764	0.0187172	0.024114	-0.0294808	0.00193062	0.0118549	-0.13628	0.039537	0.0547313	-0.000186421	0.0182824	-2.21653	-0.0203847	-1.59359	0	0	0	0	-0	0	0	0	-0.1265	0	-0	0	0	0	0	0	-0	0	0.105	0.015	0	0	-0	0	0	0.098	0.1	0	-0	0	0	0	0	0	-0	0	0.05595	0	0	0	-0	0	0	0	0	0	-0	0	548.76	530.893	336.095	196.596	-0.0728376	-1.75152	0.0531413	-0.0201048	3.67306
25	-0.0215573	0.0355113	0.0201137	0.0267905	-0.0151773	0.0187002	0.024118	-0.0294892	0.00192989	-0.00729756	-0.145755	0.0444332	0.0545544	-0.000188061	0.018836	-2.20514	-0.0207642	-1.59447	0	0	0	0	-0	0	0	0	-0.1265	0	-0	0	0	0	0	0	-0	0	0.105	0.015	0	0	-0	0	0	0.098	0.1	0	-0	0	0	0	0	0	-0	0	0.05595	0	0	0	-0	0	0	0	0	0	-0	0	548.427	530.536	336.614	196.22	-0.0713536	-1.73659	0.0529475	-0.020005	3.60681
26	-0.0101113	0.0354941	0.0201396	0.0267734	-0.0151819	0.0186845	0.0241179	-0.0294921	0.0019274	-0.028317	-0.152222	0.04164	0.0543603	-0.00019063	0.0194298	-2.1925	-0.0213335	-1.59564	0	0	0	0	-0	0	0	0	-0.1265	0	-0	0	0	0	0	0	-0	0	0.105	0.015	0	0	-0	0	0	0.098	0.1	0	-0	0	0	0	0	0	-0	0	0.05595	0	0	0	-0	0	0	0	0	0	-0	0	547.978	530.067	337.331	195.651	-0.0689984	-1.7206	0.0526762	-0.0198775	3.52953
27	0.0027993	0.0354816	0.0201545	0.0267702	-0.015185	0.0186749	0.0241235	-0.0294951	0.00192857	-0.0226748	-0.151232	0.0148393	0.054123	-0.000191535	0.0201098	-2.17898	-0.0213851	-1.59635	0	0	0	0	-0	0	0	0	-0.1265	0	-0	0	0	0	0	0	-0	0	0.105	0.015	0	0	-0	0	0	0.098	0.1	0	-0	0	0	0	0	0	-0	0	0.05595	0	0	0	-0	0	0	0	0	0	-0	0	547.778	529.85	337.657	195.36	-0.0701394	-1.70103	0.0526005	-0.0198366	3.47268
28	-0.0112666	0.0354772	0.0201627	0.0267656	-0.0151895	0.0186676	0.0241153	-0.0294853	0.00192675	-0.0238063	-0.148289	0.0143626	0.054412	-0.000192167	0.0193352	-2.1926	-0.0220199	-1.59638	0	0	0	0	-0	0	0	0	-0.1265	0	-0	0	0	0	0	0	-0	0	0.105	0.015	0	0	-0	0	0	0.098	0.1	0	-0	0	0	0	0	0	-0	0	0.05595	0	0	0	-0	0	0	0	0	0	-0	0	547.636	529.697	337.898	195.144	-0.0705328	-1.68819	0.0525273	-0.0198007	3.43188
29	-0.0209575	0.0354672	0.0201698	0.0267622	-0.0151909	0.0186617	0.0241197	-0.0294915	0.00192736	-0.0215585	-0.149568	-0.00526779	0.0546021	-0.00019268	0.0187956	-2.20192	-0.0224923	-1.59641	0	0	0	0	-0	0	0	0	-0.1265	0	-0	0	0	0	0	0	-0	0	0.105	0.015	0	0	-0	0	0	0.098	0.1	0	-0	0	0	0	0	0	-0	0	0.05595	0	0	0	-0	0	0	0	0	0	-0	0	547.526	529.573	338.091	194.967	-0.0711288	-1.67591	0.0524617	-0.0197598	3.39669
30	-0.0422604	0.0354619	0.0201815	0.0267573	-0.0151982	0.0186535	0.0241139	-0.0294898	0.00192864	0.000554993	-0.16543	-0.0125877	0.0550096	-0.000194186	0.0176207	-2.22243	-0.0235364	-1.59648	0	0	0	0	-0	0	0	0	-0.1265	0	-0	0	0	0	0	0	-0	0	0.105	0.015	0	0	-0	0	0	0.098	0.1	0	-0	0	0	0	0	0	-0	0	0.05595	0	0	0	-0	0	0	0	0	0	-0	0	547.283	529.315	338.513	194.577	-0.0697976	-1.66525	0.0522915	-0.0196757	3.34879
31	-0.0327136	0.0354553	0.020188	0.0267619	-0.0152016	0.0186476	0.0241149	-0.0294901	0.00192747	-0.0161097	-0.158674	-0.00699045	0.054836	-0.000194971	0.0181325	-2.21248	-0.0235309	-1.59695	0	0	0	0	-0	0	0	0	-0.1265	0	-0	0	0	0	0	0	-0	0	0.105	0.015	0	0	-0	0	0	0.098	0.1	0	-0	0	0	0	0	0	-0	0	0.05595	0	0	0	-0	0	0	0	0	0	-0	0	547.172	529.188	338.71	194.38	-0.0703379	-1.65404	0.0522408	-0.0196449	3.31602
32	-0.034164	0.03545	0.0201972	0.0267577	-0.0152067	0.0186432	0.0241191	-0.0294942	0.00192441	-0.0289494	-0.161216	-0.019878	0.0548668	-0.000195932	0.0180445	-2.21335	-0.023909	-1.5973	0	0	0	0	-0	0	0	0	-0.1265	0	-0	0	0	0	0	0	-0	0	0.105	0.015	0	0	-0	0	0	0.098	0.1	0	-0	0	0	0	0	0	-0	0	0.05595	0	0	0	-0	0	0	0	0	0	-0	0	547.012	529.017	338.999	194.089	-0.0698726	-1.64396	0.0521196	-0.019584	3.27886
33	-0.0448354	0.0354476	0.0202049	0.0267559	-0.0152111	0.01864	0.0241207	-0.029489	0.00192379	-0.0315754	-0.142972	-0.0272811	0.0550644	-0.000196782	0.0174536	-2.22359	-0.0244381	-1.59732	0	0	0	0	-0	0	0	0	-0.1265	0	-0	0	0	0	0	0	-0	0	0.105	0.015	0	0	-0	0	0	0.098	0.1	0	-0	0	0	0	0	0	-0	0	0.05595	0	0	0	-0	0	0	0	0	0	-0	0	546.896	528.894	339.206	193.871	-0.069649	-1.63638	0.0520402	-0.0195476	3.25153
34	-0.0519843	0.0354446	0.0202107	0.026752	-0.0152142	0.0186378	0.0241192	-0.0294914	0.00192576	-0.0402863	-0.153045	-0.0284406	0.0551896	-0.000197328	0.0170549	-2.23041	-0.0248086	-1.59734	0	0	0	0	-0	0	0	0	-0.1265	0	-0	0	0	0	0	0	-0	0	0.105	0.015	0	0	-0	0	0	0.098	0.1	0	-0	0	0	0	0	0	-0	0	0.05595	0	0	0	-0	0	0	0	0	0	-0	0	546.813	528.805	339.357	193.709	-0.0695131	-1.63059	0.0519759	-0.0195159	3.2317
35	-0.0506362	0.0354438	0.0202124	0.0267554	-0.0152161	0.0186364	0.0241173	-0.0294895	0.00192525	-0.0420704	-0.147283	-0.0331266	0.0551673	-0.000197589	0.0171263	-2.22893	-0.0248466	-1.59745	0	0	0	0	-0	0	0	0	-0.1265	0	-0	0	0	0	0	0	-0	0	0.105	0.015	0	0	-0	0	0	0.098	0.1	0	-0	0	0	0	0	0	-0	0	0.05595	0	0	0	-0	0	0	0	0	0	-0	0	546.78	528.769	339.418	193.643	-0.0697416	-1.62685	0.0519613	-0.0195089	3.22105
36	-0.052326	0.0354392	0.0202188	0.0267539	-0.0152209	0.0186341	0.0241213	-0.0294954	0.00192604	-0.0307734	-0.13874	-0.0477873	0.0552	-0.000198493	0.0170294	-2.23009	-0.025183	-1.59772	0	0	0	0	-0	0	0	0	-0.1265	0	-0	0	0	0	0	0	-0	0	0.105	0.015	0	0	-0	0	0	0.098	0.1	0	-0	0	0	0	0	0	-0	0	0.05595	0	0	0	-0	0	0	0	0	0	-0	0	546.646	528.625	339.662	193.373	-0.069081	-1.61914	0.0518425	-0.0194483	3.19093
37	-0.0637921	0.0354399	0.0202226	0.0267566	-0.0152248	0.0186325	0.0241216	-0.0294918	0.00192624	-0.0256225	-0.122672	-0.0478247	0.0553978	-0.000199085	0.0163939	-2.24129	-0.0256331	-1.59759	0	0	0	0	-0	0	0	0	-0.1265	0	-0	0	0	0	0	0	-0	0	0.105	0.015	0	0	-0	0	0	0.098	0.1	0	-0	0	0	0	0	0	-0	0	0.05595	0	0	0	-0	0	0	0	0	0	-0	0	546.581	528.556	339.78	193.238	-0.0689958	-1.61479	0.0518023	-0.019433	3.17538
38	-0.0583278	0.0354384	0.0202258	0.0267548	-0.0152266	0.0186321	0.0241176	-0.0294918	0.00192459	-0.0347415	-0.118426	-0.0539184	0.0553061	-0.000199461	0.016694	-2.23562	-0.0255907	-1.59784	0	0	0	0	-0	0	0	0	-0.1265	0	-0	0	0	0	0	0	-0	0	0.105	0.015	0	0	-0	0	0	0.098	0.1	0	-0	0	0	0	0	0	-0	0	0.05595	0	0	0	-0	0	0	0	0	0	-0	0	546.534	528.508	339.866	193.137	-0.0688439	-1.61171	0.0517589	-0.0194131	3.16441
39	-0.0586712	0.0354358	0.0202295	0.0267565	-0.0152293	0.0186309	0.0241197	-0.0294948	0.00192561	-0.0221525	-0.111679	-0.0486199	0.0553125	-0.000200058	0.0166737	-2.23567	-0.0257508	-1.59799	0	0	0	0	-0	0	0	0	-0.1265	0	-0	0	0	0	0	0	-0	0	0.105	0.015	0	0	-0	0	0	0.098	0.1	0	-0	0	0	0	0	0	-0	0	0.05595	0	0	0	-0	0	0	0	0	0	-0	0	546.466	528.432	339.993	192.986	-0.0685103	-1.60782	0.0517012	-0.0193817	3.14941
40	-0.0693571	0.0354352	0.0202376	0.0267562	-0.0152368	0.0186319	0.0241242	-0.0294927	0.00193518	-0.0383742	-0.0841141	-0.0330478	0.055493	-0.000201301	0.0160819	-2.24572	-0.0263705	-1.59807	0	0	0	0	-0	0	0	0	-0.1265	0	-0	0	0	0	0	0	-0	0	0.105	0.015	0	0	-0	0	0	0.098	0.1	0	-0	0	0	0	0	0	-0	0	0.05595	0	0	0	-0	0	0	0	0	0	-0	0	546.315	528.278	340.268	192.655	-0.0672556	-1.60245	0.0515536	-0.0193159	3.12225
41	-0.0722623	0.0354372	0.0202374	0.0267609	-0.0152401	0.0186294	0.024119	-0.0294917	0.0019255	-0.0362417	-0.0914835	-0.0277732	0.0555381	-0.000201406	0.0159179	-2.24853	-0.026497	-1.59804	0	0	0	0	-0	0	0	0	-0.1265	0	-0	0	0	0	0	0	-0	0	0.105	0.015	0	0	-0	0	0	0.098	0.1	0	-0	0	0	0	0	0	-0	0	0.05595	0	0	0	-0	0	0	0	0	0	-0	0	546.296	528.255	340.303	192.609	-0.0675495	-1.60031	0.0515631	-0.0193216	3.11702
42	-0.0637781	0.0354323	0.0202441	0.0267572	-0.0152414	0.0186303	0.0241241	-0.0294914	0.00192469	-0.0402593	-0.0683415	-0.032258	0.0554038	-0.000202238	0.0163889	-2.23969	-0.0264354	-1.59845	0	0	0	0	-0	0	0	0	-0.1265	0	-0	0	0	0	0	0	-0	0	0.105	0.015	0	0	-0	0	0	0.098	0.1	0	-0	0	0	0	0	0	-0	0	0.05595	0	0	0	-0	0	0	0	0	0	-0	0	546.216	528.169	340.447	192.423	-0.066922	-1.59628	0.0514733	-0.0192767	3.09996
43	-0.0608202	0.0354326	0.0202517	0.026754	-0.015248	0.0186318	0.0241212	-0.0294925	0.00192582	-0.0397208	-0.0819439	-0.0310743	0.0553547	-0.000203239	0.0165528	-2.2362	-0.0266001	-1.5988	0	0	0	0	-0	0	0	0	-0.1265	0	-0	0	0	0	0	0	-0	0	0.105	0.015	0	0	-0	0	0	0.098	0.1	0	-0	0	0	0	0	0	-0	0	0.05595	0	0	0	-0	0	0	0	0	0	-0	0	546.1	528.052	340.655	192.148	-0.0659518	-1.59184	0.0513521	-0.0192251	3.07836
44	-0.0628093	0.0354318	0.0202534	0.0267591	-0.0152495	0.0186309	0.0241199	-0.0294928	0.00192611	-0.0389824	-0.0752854	-0.034316	0.0553885	-0.000203692	0.0164417	-2.23806	-0.0267131	-1.59881	0	0	0	0	-0	0	0	0	-0.1265	0	-0	0	0	0	0	0	-0	0	0.105	0.015	0	0	-0	0	0	0.098	0.1	0	-0	0	0	0	0	0	-0	0	0.05595	0	0	0	-0	0	0	0	0	0	-0	0	546.073	528.021	340.704	192.08	-0.0660399	-1.58927	0.0513377	-0.0192197	3.0707
45	-0.0644113	0.0354309	0.0202548	0.0267611	-0.0152516	0.0186299	0.0241187	-0.0294945	0.0019277	-0.0526104	-0.0692102	-0.0295894	0.0554149	-0.000204035	0.0163532	-2.23948	-0.0268367	-1.59885	0	0	0	0	-0	0	0	0	-0.1265	0	-0	0	0	0	0	0	-0	0	0.105	0.015	0	0	-0	0	0	0.098	0.1	0	-0	0	0	0	0	0	-0	0	0.05595	0	0	0	-0	0	0	0	0	0	-0	0	546.036	527.977	340.771	191.986	-0.0658231	-1.58725	0.0513081	-0.0192024	3.06258
46	-0.064984	0.0354304	0.0202571	0.0267645	-0.015255	0.0186298	0.02412	-0.0294952	0.00192856	-0.0419864	-0.0730354	-0.0391268	0.0554248	-0.000204572	0.0163218	-2.23978	-0.0269682	-1.59897	0	0	0	0	-0	0	0	0	-0.1265	0	-0	0	0	0	0	0	-0	0	0.105	0.015	0	0	-0	0	0	0.098	0.1	0	-0	0	0	0	0	0	-0	0	0.05595	0	0	0	-0	0	0	0	0	0	-0	0	545.98	527.916	340.868	191.846	-0.065467	-1.58442	0.051258	-0.0191781	3.05077
47	-0.0586409	0.0354305	0.0202583	0.0267659	-0.0152564	0.0186291	0.0241197	-0.0294931	0.00192673	-0.0404819	-0.0779577	-0.0369855	0.0553217	-0.000204856	0.0166732	-2.23333	-0.026835	-1.59919	0	0	0	0	-0	0	0	0	-0.1265	0	-0	0	0	0	0	0	-0	0	0.105	0.015	0	0	-0	0	0	0.098	0.1	0	-0	0	0	0	0	0	-0	0	0.05595	0	0	0	-0	0	0	0	0	0	-0	0	545.957	527.89	340.907	191.789	-0.0653905	-1.58294	0.0512418	-0.0191716	3.04521
48	-0.0631147	0.0354294	0.0202601	0.0267643	-0.0152569	0.0186291	0.0241198	-0.0294936	0.00192686	-0.0451055	-0.0808741	-0.0369293	0.0553954	-0.000205069	0.0164255	-2.23771	-0.0269981	-1.59911	0	0	0	0	-0	0	0	0	-0.1265	0	-0	0	0	0	0	0	-0	0	0.105	0.015	0	0	-0	0	0	0.098	0.1	0	-0	0	0	0	0	0	-0	0	0.05595	0	0	0	-0	0	0	0	0	0	-0	0	545.939	527.87	340.939	191.742	-0.065252	-1.58197	0.0512207	-0.0191616	3.04126
49	-0.0739013	0.0354287	0.0202645	0.0267648	-0.0152616	0.01863	0.0241231	-0.0294966	0.00192719	-0.0350894	-0.0694477	-0.0351769	0.0555721	-0.000205765	0.0158293	-2.2481	-0.027467	-1.599	0	0	0	0	-0	0	0	0	-0.1265	0	-0	0	0	0	0	0	-0	0	0.105	0.015	0	0	-0	0	0	0.098	0.1	0	-0	0	0	0	0	0	-0	0	0.05595	0	0	0	-0	0	0	0	0	0	-0	0	545.857	527.781	341.078	191.533	-0.06444	-1.57959	0.0511383	-0.0191217	3.02772
50	-0.0863726	0.0354299	0.0202671	0.0267663	-0.0152641	0.0186302	0.0241204	-0.0294939	0.00192752	-0.0370239	-0.0644887	-0.03108	0.0557665	-0.000206361	0.0151363	-2.26038	-0.0278974	-1.59874	0	0	0	0	-0	0	0	0	-0.1265	0	-0	0	0	0	0	0	-0	0	0.105	0.015	0	0	-0	0	0	0.098	0.1	0	-0	0	0	0	0	0	-0	0	0.05595	0	0	0	-0	0	0	0	0	0	-0	0	545.814	527.737	341.145	191.429	-0.0640042	-1.57854	0.0510997	-0.0191089	3.02068
