Stefan210/kinematic_calibration/src/kinematic_calibration/validation/experiments/experiments/anzahl_messungen/BC_A/larm_37/optimization_intermediate_results.csv
iteration	HeadPitch_offset	HeadYaw_offset	LElbowRoll_offset	LElbowYaw_offset	LShoulderPitch_offset	LShoulderRoll_offset	marker_transform_larm_tx	marker_transform_larm_ty	marker_transform_larm_tz	marker_transform_larm_rr	marker_transform_larm_rp	marker_transform_larm_ry	camera_transform_tx	camera_transform_ty	camera_transform_tz	camera_transform_rr	camera_transform_rp	camera_transform_ry	HeadPitch_transform_tx	HeadPitch_transform_ty	HeadPitch_transform_tz	HeadPitch_transform_rr	HeadPitch_transform_rp	HeadPitch_transform_ry	HeadYaw_transform_tx	HeadYaw_transform_ty	HeadYaw_transform_tz	HeadYaw_transform_rr	HeadYaw_transform_rp	HeadYaw_transform_ry	LElbowRoll_transform_tx	LElbowRoll_transform_ty	LElbowRoll_transform_tz	LElbowRoll_transform_rr	LElbowRoll_transform_rp	LElbowRoll_transform_ry	LElbowYaw_transform_tx	LElbowYaw_transform_ty	LElbowYaw_transform_tz	LElbowYaw_transform_rr	LElbowYaw_transform_rp	LElbowYaw_transform_ry	LShoulderPitch_transform_tx	LShoulderPitch_transform_ty	LShoulderPitch_transform_tz	LShoulderPitch_transform_rr	LShoulderPitch_transform_rp	LShoulderPitch_transform_ry	LShoulderRoll_transform_tx	LShoulderRoll_transform_ty	LShoulderRoll_transform_tz	LShoulderRoll_transform_rr	LShoulderRoll_transform_rp	LShoulderRoll_transform_ry	LWristYaw_transform_tx	LWristYaw_transform_ty	LWristYaw_transform_tz	LWristYaw_transform_rr	LWristYaw_transform_rp	LWristYaw_transform_ry	l_wrist_joint_transform_tx	l_wrist_joint_transform_ty	l_wrist_joint_transform_tz	l_wrist_joint_transform_rr	l_wrist_joint_transform_rp	l_wrist_joint_transform_ry	camera_fx	camera_fy	camera_cx	camera_cy	camera_D0	camera_D1	camera_D2	camera_D3	camera_D4	
0	0.0249164	-0.0307543	0.000853157	4.65819e-06	-0.000318322	-0.00310766	0.05071	0	0.01774	-2.26369	1.66533e-16	-1.5708	545.901	551.038	324.928	201.58	0.0255298	2.61142	-0.0636736	-0.0350419	0.213964
1	-0.0145765	0.0250914	0.00832039	0.0212788	-0.00893802	0.0295318	0.0240707	-0.0295716	0.00229837	-0.000175523	-0.00046471	-0.00309387	0.0575334	0.000456085	0.0172189	-2.20481	-0.00633609	-1.56343	0	0	0	0	-0	0	0	0	-0.1265	0	-0	0	0	0	0	0	-0	0	0.105	0.015	0	0	-0	0	0	0.098	0.1	0	-0	0	0	0	0	0	-0	0	0.05595	0	0	0	-0	0	0	0	0	0	-0	0	545.901	551.039	324.927	201.581	-0.0172984	2.59543	-0.0875078	0.063147	0.21016
2	-0.0123484	0.0339876	0.00760709	0.0250411	-0.0153937	0.0353874	0.024003	-0.0296454	0.00262483	-0.000212615	-0.000494906	-0.00310917	0.0550928	1.90189e-05	0.0224403	-2.21511	-0.00880301	-1.56447	0	0	0	0	-0	0	0	0	-0.1265	0	-0	0	0	0	0	0	-0	0	0.105	0.015	0	0	-0	0	0	0.098	0.1	0	-0	0	0	0	0	0	-0	0	0.05595	0	0	0	-0	0	0	0	0	0	-0	0	545.903	551.039	324.923	201.585	-0.143352	2.50157	-0.037441	0.0208204	0.176095
3	-0.013963	0.0297463	0.00557658	0.026729	-0.0125967	0.0362788	0.0240246	-0.0295766	0.00266649	-0.000218045	-0.000500642	-0.0031001	0.0563211	0.00074628	0.0194396	-2.20788	-0.00846517	-1.56533	0	0	0	0	-0	0	0	0	-0.1265	0	-0	0	0	0	0	0	-0	0	0.105	0.015	0	0	-0	0	0	0.098	0.1	0	-0	0	0	0	0	0	-0	0	0.05595	0	0	0	-0	0	0	0	0	0	-0	0	545.904	551.039	324.919	201.589	-0.310111	2.39419	-0.0350816	0.0211828	0.140105
4	-0.0147601	0.0267998	0.00645163	0.0292772	-0.0105865	0.03398	0.0242913	-0.0294642	0.00286427	-0.000238654	-0.000519662	-0.00305598	0.057131	0.000491214	0.0170243	-2.20408	-0.00606527	-1.55972	0	0	0	0	-0	0	0	0	-0.1265	0	-0	0	0	0	0	0	-0	0	0.105	0.015	0	0	-0	0	0	0.098	0.1	0	-0	0	0	0	0	0	-0	0	0.05595	0	0	0	-0	0	0	0	0	0	-0	0	545.908	551.038	324.912	201.596	-0.580746	2.18164	0.00200432	-0.00489261	0.0625162
5	-0.0155099	0.0242841	0.00710684	0.0310576	-0.00870468	0.0320077	0.024489	-0.0293922	0.00296203	-0.000253416	-0.000519033	-0.00302707	0.0576349	0.00038693	0.0151803	-2.20061	-0.00486794	-1.55648	0	0	0	0	-0	0	0	0	-0.1265	0	-0	0	0	0	0	0	-0	0	0.105	0.015	0	0	-0	0	0	0.098	0.1	0	-0	0	0	0	0	0	-0	0	0.05595	0	0	0	-0	0	0	0	0	0	-0	0	545.916	551.036	324.904	201.603	-0.722417	1.93295	0.0229804	-0.0187359	-0.0404868
6	-0.015547	0.0244815	0.00784853	0.0307968	-0.00846123	0.0312377	0.0245433	-0.0294115	0.00283956	-0.000259082	-0.000533116	-0.00301653	0.0568286	0.000359065	0.0157339	-2.20064	-0.00583455	-1.55759	0	0	0	0	-0	0	0	0	-0.1265	0	-0	0	0	0	0	0	-0	0	0.105	0.015	0	0	-0	0	0	0.098	0.1	0	-0	0	0	0	0	0	-0	0	0.05595	0	0	0	-0	0	0	0	0	0	-0	0	545.938	551.025	324.897	201.611	-0.588016	1.59675	0.019053	-0.0175077	-0.201382
7	-0.0155247	0.0249688	0.00830375	0.0299117	-0.00846097	0.0309952	0.0245407	-0.0294586	0.00263583	-0.000201231	-0.000466484	-0.00303457	0.055467	0.000453263	0.0170387	-2.20133	-0.00755988	-1.55993	0	0	0	0	-0	0	0	0	-0.1265	0	-0	0	0	0	0	0	-0	0	0.105	0.015	0	0	-0	0	0	0.098	0.1	0	-0	0	0	0	0	0	-0	0	0.05595	0	0	0	-0	0	0	0	0	0	-0	0	545.988	550.997	324.889	201.616	-0.317672	1.11391	0.00335063	-0.00988354	-0.435208
8	-0.0153661	0.0254225	0.00865096	0.0292075	-0.00853743	0.0308305	0.0245369	-0.0294971	0.00247952	-0.000341555	-0.000474926	-0.00295637	0.0543255	0.000519968	0.0181844	-2.20185	-0.00887994	-1.56166	0	0	0	0	-0	0	0	0	-0.1265	0	-0	0	0	0	0	0	-0	0	0.105	0.015	0	0	-0	0	0	0.098	0.1	0	-0	0	0	0	0	0	-0	0	0.05595	0	0	0	-0	0	0	0	0	0	-0	0	546.107	550.92	324.879	201.603	-0.0796048	0.67356	-0.0101606	-0.00328525	-0.638808
9	-0.0153314	0.0256965	0.00883133	0.0288891	-0.00866889	0.0307968	0.0245386	-0.0295158	0.00241593	0.000103634	-0.000671888	-0.00293087	0.0538046	0.000530561	0.0187401	-2.20212	-0.00931842	-1.56227	0	0	0	0	-0	0	0	0	-0.1265	0	-0	0	0	0	0	0	-0	0	0.105	0.015	0	0	-0	0	0	0.098	0.1	0	-0	0	0	0	0	0	-0	0	0.05595	0	0	0	-0	0	0	0	0	0	-0	0	546.432	550.696	324.844	201.546	0.0236851	0.459618	-0.0149311	-0.000606587	-0.706528
10	-0.0155454	0.0259242	0.00894058	0.0287094	-0.0089129	0.0308837	0.0245441	-0.0295275	0.00239963	3.41927e-05	-0.00129531	-0.0053329	0.0536108	0.000500509	0.0189976	-2.20227	-0.00910487	-1.56222	0	0	0	0	-0	0	0	0	-0.1265	0	-0	0	0	0	0	0	-0	0	0.105	0.015	0	0	-0	0	0	0.098	0.1	0	-0	0	0	0	0	0	-0	0	0.05595	0	0	0	-0	0	0	0	0	0	-0	0	547.349	550.069	324.733	201.379	0.0356925	0.394481	-0.0128026	-0.000255751	-0.645831
11	-0.0117267	0.0264163	0.0091331	0.0283497	-0.00950263	0.0311138	0.024555	-0.0295504	0.00238511	-0.00771967	-0.00329753	3.07415e-06	0.0532568	0.000416444	0.019659	-2.1981	-0.00839821	-1.56195	0	0	0	0	-0	0	0	0	-0.1265	0	-0	0	0	0	0	0	-0	0	0.105	0.015	0	0	-0	0	0	0.098	0.1	0	-0	0	0	0	0	0	-0	0	0.05595	0	0	0	-0	0	0	0	0	0	-0	0	549.73	548.493	324.488	200.934	0.0141756	0.349548	-0.004716	-0.000449135	-0.495753
12	-0.0068107	0.0273324	0.00947199	0.0276399	-0.010606	0.031558	0.0245745	-0.0295897	0.00235753	0.00215089	-0.00158586	-0.0088838	0.0525931	0.000245892	0.0208174	-2.19219	-0.00719836	-1.56164	0	0	0	0	-0	0	0	0	-0.1265	0	-0	0	0	0	0	0	-0	0	0.105	0.015	0	0	-0	0	0	0.098	0.1	0	-0	0	0	0	0	0	-0	0	0.05595	0	0	0	-0	0	0	0	0	0	-0	0	554.741	545.553	324.255	199.897	-0.0459547	0.35532	0.0118491	-0.000816593	-0.380534
13	-0.0119551	0.028246	0.00975698	0.0268106	-0.0117657	0.0320812	0.0245844	-0.0296603	0.00234499	-0.0589447	0.0223836	-0.00230919	0.0518816	1.37941e-05	0.021733	-2.19438	-0.00622448	-1.56188	0	0	0	0	-0	0	0	0	-0.1265	0	-0	0	0	0	0	0	-0	0	0.105	0.015	0	0	-0	0	0	0.098	0.1	0	-0	0	0	0	0	0	-0	0	0.05595	0	0	0	-0	0	0	0	0	0	-0	0	562.135	543.023	324.767	197.555	-0.155398	0.562876	0.0326365	-0.00129366	-0.655336
14	-0.0130733	0.0284538	0.00975921	0.0265304	-0.0120986	0.0323011	0.0245973	-0.0296517	0.00233161	-0.00571547	-0.00122764	-0.00517683	0.0514586	-0.000105117	0.0222795	-2.19228	-0.00591732	-1.56219	0	0	0	0	-0	0	0	0	-0.1265	0	-0	0	0	0	0	0	-0	0	0.105	0.015	0	0	-0	0	0	0.098	0.1	0	-0	0	0	0	0	0	-0	0	0.05595	0	0	0	-0	0	0	0	0	0	-0	0	566.344	542.826	325.364	195.343	-0.22563	0.779564	0.0413978	-0.0017743	-1.03706
15	-0.0182362	0.0284737	0.00973533	0.0264515	-0.0121593	0.0323693	0.0246065	-0.0296377	0.00232129	-0.0401293	0.0117323	-0.00698457	0.0514304	-0.000140561	0.0221955	-2.19607	-0.00577488	-1.56225	0	0	0	0	-0	0	0	0	-0.1265	0	-0	0	0	0	0	0	-0	0	0.105	0.015	0	0	-0	0	0	0.098	0.1	0	-0	0	0	0	0	0	-0	0	0.05595	0	0	0	-0	0	0	0	0	0	-0	0	567.726	542.965	325.58	194.439	-0.249517	0.862985	0.0436727	-0.00197767	-1.18545
16	-0.0333392	0.0283076	0.00954142	0.0264201	-0.0121266	0.0324793	0.0246201	-0.0296177	0.00233071	-0.0434599	0.0276007	0.00914631	0.0514107	-0.000216551	0.0218238	-2.20604	-0.00564225	-1.56262	0	0	0	0	-0	0	0	0	-0.1265	0	-0	0	0	0	0	0	-0	0	0.105	0.015	0	0	-0	0	0	0.098	0.1	0	-0	0	0	0	0	0	-0	0	0.05595	0	0	0	-0	0	0	0	0	0	-0	0	571.184	544.644	326.387	191.181	-0.306201	1.1043	0.0458787	-0.00252516	-1.64562
17	-0.0400765	0.0282601	0.00948445	0.0264177	-0.012103	0.0325176	0.0246225	-0.0296226	0.00232693	-0.0623624	0.0167109	-0.00670669	0.0514804	-0.000232429	0.0215677	-2.21145	-0.0056003	-1.56271	0	0	0	0	-0	0	0	0	-0.1265	0	-0	0	0	0	0	0	-0	0	0.105	0.015	0	0	-0	0	0	0.098	0.1	0	-0	0	0	0	0	0	-0	0	0.05595	0	0	0	-0	0	0	0	0	0	-0	0	572.026	545.118	326.596	190.335	-0.320519	1.15998	0.0463069	-0.00267373	-1.7352
18	-0.0356575	0.0282219	0.00944549	0.0264244	-0.0120846	0.0325346	0.0246178	-0.0296122	0.00232928	-0.0728951	0.011485	0.00213568	0.0513324	-0.000242919	0.0218538	-2.20614	-0.00565248	-1.56281	0	0	0	0	-0	0	0	0	-0.1265	0	-0	0	0	0	0	0	-0	0	0.105	0.015	0	0	-0	0	0	0.098	0.1	0	-0	0	0	0	0	0	-0	0	0.05595	0	0	0	-0	0	0	0	0	0	-0	0	572.556	545.45	326.738	189.773	-0.328858	1.19393	0.0464781	-0.00276881	-1.79527
19	-0.0322385	0.0281621	0.00938854	0.0264354	-0.0120528	0.0325533	0.0246183	-0.0296073	0.00232986	-0.071217	0.01714	-0.00985828	0.0511854	-0.000256878	0.022107	-2.20145	-0.00571757	-1.56296	0	0	0	0	-0	0	0	0	-0.1265	0	-0	0	0	0	0	0	-0	0	0.105	0.015	0	0	-0	0	0	0.098	0.1	0	-0	0	0	0	0	0	-0	0	0.05595	0	0	0	-0	0	0	0	0	0	-0	0	573.274	545.955	326.948	188.971	-0.339711	1.24005	0.0465441	-0.00288993	-1.87739
20	-0.0625389	0.0279075	0.00917102	0.0265091	-0.0118932	0.0325962	0.0246271	-0.029599	0.00232981	-0.0669016	-0.00210393	0.0161679	0.0516153	-0.000300134	0.0208013	-2.22711	-0.005882	-1.56349	0	0	0	0	-0	0	0	0	-0.1265	0	-0	0	0	0	0	0	-0	0	0.105	0.015	0	0	-0	0	0	0.098	0.1	0	-0	0	0	0	0	0	-0	0	0.05595	0	0	0	-0	0	0	0	0	0	-0	0	575.643	547.939	327.885	186.057	-0.373392	1.3867	0.0459214	-0.00323189	-2.13692
21	-0.0567101	0.0278066	0.00907735	0.026537	-0.0118258	0.0326236	0.0246266	-0.0295893	0.00234927	-0.0631783	-0.0274004	-0.00273269	0.0513821	-0.000317214	0.021202	-2.21926	-0.00619836	-1.56391	0	0	0	0	-0	0	0	0	-0.1265	0	-0	0	0	0	0	0	-0	0	0.105	0.015	0	0	-0	0	0	0.098	0.1	0	-0	0	0	0	0	0	-0	0	0.05595	0	0	0	-0	0	0	0	0	0	-0	0	576.662	548.833	328.356	184.78	-0.387323	1.43999	0.0456507	-0.00335854	-2.2177
22	-0.0403259	0.0277355	0.00901241	0.0265602	-0.0117772	0.032639	0.0246178	-0.029582	0.00234545	-0.0699639	-0.0168376	0.00862905	0.0509635	-0.000329716	0.022117	-2.20145	-0.00652436	-1.56432	0	0	0	0	-0	0	0	0	-0.1265	0	-0	0	0	0	0	0	-0	0	0.105	0.015	0	0	-0	0	0	0.098	0.1	0	-0	0	0	0	0	0	-0	0	0.05595	0	0	0	-0	0	0	0	0	0	-0	0	577.364	549.456	328.713	183.886	-0.396104	1.4736	0.0454008	-0.00342864	-2.26954
23	-0.0463909	0.0277089	0.00898701	0.0265673	-0.0117596	0.0326457	0.0246167	-0.0295946	0.00235187	-0.0379128	-0.0237342	-0.00753265	0.0510627	-0.000334384	0.0218313	-2.20696	-0.00657373	-1.56441	0	0	0	0	-0	0	0	0	-0.1265	0	-0	0	0	0	0	0	-0	0	0.105	0.015	0	0	-0	0	0	0.098	0.1	0	-0	0	0	0	0	0	-0	0	0.05595	0	0	0	-0	0	0	0	0	0	-0	0	577.638	549.703	328.859	183.535	-0.399621	1.48676	0.0453047	-0.00345554	-2.28925
24	-0.0395097	0.0276508	0.00893642	0.0265911	-0.01172	0.0326533	0.0246193	-0.0295775	0.00234652	-0.0393972	-0.0323033	-0.0200814	0.05086	-0.000343472	0.0222352	-2.19901	-0.00681579	-1.56472	0	0	0	0	-0	0	0	0	-0.1265	0	-0	0	0	0	0	0	-0	0	0.105	0.015	0	0	-0	0	0	0.098	0.1	0	-0	0	0	0	0	0	-0	0	0.05595	0	0	0	-0	0	0	0	0	0	-0	0	578.154	550.177	329.157	182.862	-0.405986	1.51081	0.0450854	-0.00349945	-2.32583
25	-0.0652158	0.0275318	0.00883612	0.0266179	-0.0116379	0.0326668	0.0246167	-0.0295682	0.00234691	-0.0367368	-0.0282898	-0.0260206	0.051317	-0.000362326	0.0210401	-2.2224	-0.0072435	-1.56528	0	0	0	0	-0	0	0	0	-0.1265	0	-0	0	0	0	0	0	-0	0	0.105	0.015	0	0	-0	0	0	0.098	0.1	0	-0	0	0	0	0	0	-0	0	0.05595	0	0	0	-0	0	0	0	0	0	-0	0	579.241	551.201	329.92	181.403	-0.418107	1.55465	0.0445094	-0.00352616	-2.38969
26	-0.0718662	0.0275218	0.00882407	0.0266188	-0.0116299	0.032673	0.0246178	-0.0295699	0.00234728	-0.0249094	-0.0211218	-0.0279687	0.0514291	-0.000364592	0.0207091	-2.22874	-0.00729934	-1.56533	0	0	0	0	-0	0	0	0	-0.1265	0	-0	0	0	0	0	0	-0	0	0.105	0.015	0	0	-0	0	0	0.098	0.1	0	-0	0	0	0	0	0	-0	0	0.05595	0	0	0	-0	0	0	0	0	0	-0	0	579.386	551.336	330.023	181.212	-0.419777	1.55987	0.0444552	-0.00353105	-2.39571
27	-0.0848293	0.0275013	0.00880669	0.026626	-0.0116148	0.032676	0.0246193	-0.0295659	0.00234804	-0.0260924	-0.0363183	-0.029412	0.0516772	-0.000367935	0.0200626	-2.2413	-0.00734386	-1.56537	0	0	0	0	-0	0	0	0	-0.1265	0	-0	0	0	0	0	0	-0	0	0.105	0.015	0	0	-0	0	0	0.098	0.1	0	-0	0	0	0	0	0	-0	0	0.05595	0	0	0	-0	0	0	0	0	0	-0	0	579.576	551.517	330.165	180.958	-0.421808	1.56677	0.0443563	-0.00353363	-2.40505
28	-0.0714151	0.027459	0.00877094	0.0266354	-0.0115849	0.0326796	0.024613	-0.0295714	0.00235033	0.00303523	-0.0461782	-0.0332312	0.0513652	-0.000374644	0.0207964	-2.22705	-0.00768554	-1.56577	0	0	0	0	-0	0	0	0	-0.1265	0	-0	0	0	0	0	0	-0	0	0.105	0.015	0	0	-0	0	0	0.098	0.1	0	-0	0	0	0	0	0	-0	0	0.05595	0	0	0	-0	0	0	0	0	0	-0	0	579.964	551.891	330.48	180.429	-0.425855	1.58025	0.0441337	-0.00352952	-2.42282
29	-0.0673465	0.0274398	0.00875277	0.0266443	-0.0115712	0.0326824	0.0246225	-0.0295608	0.00234638	-0.00281554	-0.0212038	-0.0394886	0.0512568	-0.000377954	0.0210226	-2.22258	-0.00783787	-1.56596	0	0	0	0	-0	0	0	0	-0.1265	0	-0	0	0	0	0	0	-0	0	0.105	0.015	0	0	-0	0	0	0.098	0.1	0	-0	0	0	0	0	0	-0	0	0.05595	0	0	0	-0	0	0	0	0	0	-0	0	580.151	552.07	330.637	180.176	-0.427807	1.58608	0.04404	-0.00352943	-2.42948
30	-0.0539081	0.0274003	0.00872079	0.0266482	-0.0115423	0.0326861	0.0246263	-0.0295642	0.00235418	-0.00147887	0.000689589	-0.0227875	0.0509339	-0.00038451	0.0217528	-2.20831	-0.00821076	-1.56642	0	0	0	0	-0	0	0	0	-0.1265	0	-0	0	0	0	0	0	-0	0	0.105	0.015	0	0	-0	0	0	0.098	0.1	0	-0	0	0	0	0	0	-0	0	0.05595	0	0	0	-0	0	0	0	0	0	-0	0	580.53	552.435	330.987	179.654	-0.431329	1.59677	0.0438094	-0.00350576	-2.44223
31	-0.0519744	0.0273823	0.00870441	0.0266541	-0.0115285	0.0326884	0.0246218	-0.0295589	0.00234515	-0.0065187	0.021017	-0.0352353	0.0508682	-0.000387594	0.0218674	-2.20597	-0.00837154	-1.56662	0	0	0	0	-0	0	0	0	-0.1265	0	-0	0	0	0	0	0	-0	0	0.105	0.015	0	0	-0	0	0	0.098	0.1	0	-0	0	0	0	0	0	-0	0	0.05595	0	0	0	-0	0	0	0	0	0	-0	0	580.706	552.606	331.16	179.405	-0.433025	1.60147	0.0437055	-0.00349505	-2.44701
32	-0.0438556	0.0273697	0.00869377	0.0266553	-0.0115192	0.0326902	0.0246167	-0.0295572	0.00234847	-0.00439021	0.0155485	-0.0305177	0.0506766	-0.000389813	0.0222944	-2.19757	-0.00852114	-1.56682	0	0	0	0	-0	0	0	0	-0.1265	0	-0	0	0	0	0	0	-0	0	0.105	0.015	0	0	-0	0	0	0.098	0.1	0	-0	0	0	0	0	0	-0	0	0.05595	0	0	0	-0	0	0	0	0	0	-0	0	580.836	552.732	331.29	179.225	-0.434209	1.60494	0.0436241	-0.00348303	-2.4509
33	-0.0414461	0.0273505	0.0086765	0.0266604	-0.0115051	0.0326912	0.0246196	-0.0295562	0.0023508	-0.00431003	0.00014992	-0.0362127	0.0506021	-0.000392965	0.0224343	-2.19474	-0.00870282	-1.56705	0	0	0	0	-0	0	0	0	-0.1265	0	-0	0	0	0	0	0	-0	0	0.105	0.015	0	0	-0	0	0	0.098	0.1	0	-0	0	0	0	0	0	-0	0	0.05595	0	0	0	-0	0	0	0	0	0	-0	0	581.02	552.913	331.482	178.967	-0.436011	1.61028	0.0435053	-0.00346586	-2.45666
34	-0.0464767	0.0273377	0.00866533	0.0266627	-0.0114952	0.0326926	0.0246177	-0.0295564	0.00234945	0.00180334	0.00453594	-0.0438259	0.0507003	-0.000395273	0.022194	-2.19948	-0.00881486	-1.56716	0	0	0	0	-0	0	0	0	-0.1265	0	-0	0	0	0	0	0	-0	0	0.105	0.015	0	0	-0	0	0	0.098	0.1	0	-0	0	0	0	0	0	-0	0	0.05595	0	0	0	-0	0	0	0	0	0	-0	0	581.151	553.039	331.625	178.781	-0.43712	1.61306	0.0434227	-0.00345007	-2.45904
35	-0.0503871	0.0273183	0.00864882	0.0266669	-0.0114809	0.0326934	0.0246176	-0.0295549	0.00234925	0.00460021	0.00586122	-0.0340096	0.0507662	-0.000398603	0.0220155	-2.20297	-0.00899949	-1.56735	0	0	0	0	-0	0	0	0	-0.1265	0	-0	0	0	0	0	0	-0	0	0.105	0.015	0	0	-0	0	0	0.098	0.1	0	-0	0	0	0	0	0	-0	0	0.05595	0	0	0	-0	0	0	0	0	0	-0	0	581.34	553.225	331.839	178.517	-0.438716	1.61687	0.043301	-0.00342715	-2.46189
36	-0.0540076	0.0273113	0.00864255	0.0266679	-0.0114752	0.0326943	0.0246172	-0.0295543	0.0023506	0.0114499	0.00260742	-0.0424555	0.0508377	-0.000399852	0.0218394	-2.20642	-0.00906961	-1.56741	0	0	0	0	-0	0	0	0	-0.1265	0	-0	0	0	0	0	0	-0	0	0.105	0.015	0	0	-0	0	0	0.098	0.1	0	-0	0	0	0	0	0	-0	0	0.05595	0	0	0	-0	0	0	0	0	0	-0	0	581.414	553.298	331.926	178.411	-0.439376	1.6187	0.0432498	-0.00341613	-2.46371
37	-0.0614858	0.0273052	0.00863695	0.026669	-0.0114707	0.0326949	0.0246169	-0.0295528	0.00234949	0.0147538	0.00702408	-0.0403717	0.0509937	-0.00040102	0.0214663	-2.21375	-0.00911819	-1.56743	0	0	0	0	-0	0	0	0	-0.1265	0	-0	0	0	0	0	0	-0	0	0.105	0.015	0	0	-0	0	0	0.098	0.1	0	-0	0	0	0	0	0	-0	0	0.05595	0	0	0	-0	0	0	0	0	0	-0	0	581.48	553.36	332.003	178.318	-0.439938	1.62	0.0432114	-0.0034062	-2.46459
38	-0.0610309	0.0273005	0.00863299	0.0266693	-0.011467	0.0326951	0.0246168	-0.029553	0.00235065	0.0226011	0.00170979	-0.0470154	0.0509773	-0.00040186	0.0214943	-2.21318	-0.00917605	-1.56749	0	0	0	0	-0	0	0	0	-0.1265	0	-0	0	0	0	0	0	-0	0	0.105	0.015	0	0	-0	0	0	0.098	0.1	0	-0	0	0	0	0	0	-0	0	0.05595	0	0	0	-0	0	0	0	0	0	-0	0	581.528	553.409	332.062	178.25	-0.440302	1.62079	0.0431761	-0.00339868	-2.46502
39	-0.070493	0.0272899	0.00862391	0.0266714	-0.0114589	0.0326954	0.0246173	-0.0295516	0.00235122	0.0143935	0.0129674	-0.041062	0.0511696	-0.000403672	0.0210231	-2.22241	-0.00927114	-1.56755	0	0	0	0	-0	0	0	0	-0.1265	0	-0	0	0	0	0	0	-0	0	0.105	0.015	0	0	-0	0	0	0.098	0.1	0	-0	0	0	0	0	0	-0	0	0.05595	0	0	0	-0	0	0	0	0	0	-0	0	581.632	553.511	332.192	178.101	-0.441167	1.6228	0.043105	-0.00338077	-2.46636
40	-0.072779	0.0272846	0.00861915	0.0266716	-0.0114548	0.0326958	0.0246169	-0.0295514	0.0023494	0.0180744	0.0166576	-0.0377866	0.0512093	-0.000404664	0.0209117	-2.22456	-0.00933804	-1.56761	0	0	0	0	-0	0	0	0	-0.1265	0	-0	0	0	0	0	0	-0	0	0.105	0.015	0	0	-0	0	0	0.098	0.1	0	-0	0	0	0	0	0	-0	0	0.05595	0	0	0	-0	0	0	0	0	0	-0	0	581.689	553.566	332.266	178.017	-0.441633	1.62382	0.0430661	-0.00336958	-2.46695
41	-0.079795	0.0272761	0.00861213	0.0266729	-0.0114481	0.032696	0.0246167	-0.0295504	0.00234884	0.0234891	0.0102866	-0.0341691	0.0513469	-0.000406114	0.0205616	-2.23138	-0.00942676	-1.56766	0	0	0	0	-0	0	0	0	-0.1265	0	-0	0	0	0	0	0	-0	0	0.105	0.015	0	0	-0	0	0	0.098	0.1	0	-0	0	0	0	0	0	-0	0	0.05595	0	0	0	-0	0	0	0	0	0	-0	0	581.773	553.65	332.378	177.894	-0.442274	1.62514	0.0430041	-0.00335285	-2.46747
42	-0.0900338	0.0272705	0.00860717	0.0266732	-0.0114437	0.0326963	0.0246181	-0.0295501	0.00234926	0.0250907	0.0202399	-0.035171	0.0515497	-0.000407183	0.0200423	-2.24147	-0.00947901	-1.56765	0	0	0	0	-0	0	0	0	-0.1265	0	-0	0	0	0	0	0	-0	0	0.105	0.015	0	0	-0	0	0	0.098	0.1	0	-0	0	0	0	0	0	-0	0	0.05595	0	0	0	-0	0	0	0	0	0	-0	0	581.834	553.709	332.461	177.805	-0.442719	1.62589	0.0429618	-0.00333962	-2.46745
43	-0.078648	0.0272579	0.00859644	0.0266742	-0.0114341	0.0326963	0.0246166	-0.0295528	0.00235068	0.00883755	0.0215868	-0.0303271	0.0513048	-0.000409506	0.0206433	-2.22977	-0.00970474	-1.56796	0	0	0	0	-0	0	0	0	-0.1265	0	-0	0	0	0	0	0	-0	0	0.105	0.015	0	0	-0	0	0	0.098	0.1	0	-0	0	0	0	0	0	-0	0	0.05595	0	0	0	-0	0	0	0	0	0	-0	0	581.965	553.836	332.647	177.612	-0.443674	1.62742	0.042872	-0.00330883	-2.46718
44	-0.0851534	0.0272397	0.00858069	0.0266775	-0.0114194	0.0326957	0.0246193	-0.0295503	0.00234924	0.0171445	0.0295201	-0.0385185	0.0514166	-0.000412603	0.0203275	-2.23585	-0.0099702	-1.56819	0	0	0	0	-0	0	0	0	-0.1265	0	-0	0	0	0	0	0	-0	0	0.105	0.015	0	0	-0	0	0	0.098	0.1	0	-0	0	0	0	0	0	-0	0	0.05595	0	0	0	-0	0	0	0	0	0	-0	0	582.145	554.018	332.923	177.344	-0.445017	1.62975	0.0427298	-0.00326089	-2.46702
45	-0.0946165	0.0272178	0.00856253	0.0266773	-0.0114011	0.0326951	0.0246185	-0.0295508	0.00234642	0.0031564	0.0300106	-0.0519028	0.0515817	-0.000416716	0.019868	-2.24472	-0.0103809	-1.56854	0	0	0	0	-0	0	0	0	-0.1265	0	-0	0	0	0	0	0	-0	0	0.105	0.015	0	0	-0	0	0	0.098	0.1	0	-0	0	0	0	0	0	-0	0	0.05595	0	0	0	-0	0	0	0	0	0	-0	0	582.381	554.252	333.33	176.981	-0.446354	1.63029	0.0425312	-0.00317736	-2.46226
46	-0.0984154	0.0272157	0.00856042	0.0266776	-0.0113988	0.0326958	0.0246174	-0.0295469	0.00234901	0.0110835	0.032089	-0.0560603	0.0516515	-0.000417247	0.0196751	-2.24844	-0.0104344	-1.56856	0	0	0	0	-0	0	0	0	-0.1265	0	-0	0	0	0	0	0	-0	0	0.105	0.015	0	0	-0	0	0	0.098	0.1	0	-0	0	0	0	0	0	-0	0	0.05595	0	0	0	-0	0	0	0	0	0	-0	0	582.412	554.283	333.385	176.932	-0.44653	1.63041	0.042505	-0.00316623	-2.46182
47	-0.105775	0.0272122	0.00855733	0.0266771	-0.0113958	0.0326957	0.0246175	-0.029545	0.002349	0.0166029	0.0220937	-0.0578086	0.0517911	-0.000418073	0.0193003	-2.25569	-0.0104995	-1.56856	0	0	0	0	-0	0	0	0	-0.1265	0	-0	0	0	0	0	0	-0	0	0.105	0.015	0	0	-0	0	0	0.098	0.1	0	-0	0	0	0	0	0	-0	0	0.05595	0	0	0	-0	0	0	0	0	0	-0	0	582.455	554.327	333.461	176.867	-0.446691	1.63006	0.0424661	-0.00314998	-2.46005
48	-0.108612	0.0272096	0.00855507	0.0266764	-0.0113935	0.0326956	0.0246172	-0.0295454	0.00234849	0.0197732	0.0225587	-0.0624679	0.051841	-0.000418623	0.0191566	-2.25845	-0.0105552	-1.5686	0	0	0	0	-0	0	0	0	-0.1265	0	-0	0	0	0	0	0	-0	0	0.105	0.015	0	0	-0	0	0	0.098	0.1	0	-0	0	0	0	0	0	-0	0	0.05595	0	0	0	-0	0	0	0	0	0	-0	0	582.487	554.358	333.517	176.818	-0.446875	1.63021	0.0424388	-0.00313771	-2.45957
49	-0.107519	0.0272076	0.00855328	0.0266766	-0.0113918	0.0326957	0.0246173	-0.029545	0.00234829	0.0172064	0.0187767	-0.0621223	0.0518172	-0.000419067	0.0192162	-2.2573	-0.0106057	-1.56865	0	0	0	0	-0	0	0	0	-0.1265	0	-0	0	0	0	0	0	-0	0	0.105	0.015	0	0	-0	0	0	0.098	0.1	0	-0	0	0	0	0	0	-0	0	0.05595	0	0	0	-0	0	0	0	0	0	-0	0	582.511	554.381	333.561	176.781	-0.447025	1.63026	0.042422	-0.00312861	-2.45904
50	-0.104251	0.0272063	0.00855208	0.0266763	-0.0113907	0.0326957	0.024617	-0.0295447	0.00234822	0.0169503	0.020688	-0.0622015	0.0517524	-0.000419389	0.0193877	-2.25399	-0.0106486	-1.56872	0	0	0	0	-0	0	0	0	-0.1265	0	-0	0	0	0	0	0	-0	0	0.105	0.015	0	0	-0	0	0	0.098	0.1	0	-0	0	0	0	0	0	-0	0	0.05595	0	0	0	-0	0	0	0	0	0	-0	0	582.529	554.398	333.594	176.753	-0.44711	1.6302	0.0424087	-0.00312108	-2.45851
