Stefan210/kinematic_calibration/src/kinematic_calibration/validation/experiments/experiments/impact_noise/outlier/larm_randomize_16_measurements_rk_false/optimization_intermediate_results.csv
iteration	HeadPitch_offset	HeadYaw_offset	LElbowRoll_offset	LElbowYaw_offset	LShoulderPitch_offset	LShoulderRoll_offset	marker_transform_larm_tx	marker_transform_larm_ty	marker_transform_larm_tz	marker_transform_larm_rr	marker_transform_larm_rp	marker_transform_larm_ry	camera_transform_tx	camera_transform_ty	camera_transform_tz	camera_transform_rr	camera_transform_rp	camera_transform_ry	HeadPitch_transform_tx	HeadPitch_transform_ty	HeadPitch_transform_tz	HeadPitch_transform_rr	HeadPitch_transform_rp	HeadPitch_transform_ry	HeadYaw_transform_tx	HeadYaw_transform_ty	HeadYaw_transform_tz	HeadYaw_transform_rr	HeadYaw_transform_rp	HeadYaw_transform_ry	LElbowRoll_transform_tx	LElbowRoll_transform_ty	LElbowRoll_transform_tz	LElbowRoll_transform_rr	LElbowRoll_transform_rp	LElbowRoll_transform_ry	LElbowYaw_transform_tx	LElbowYaw_transform_ty	LElbowYaw_transform_tz	LElbowYaw_transform_rr	LElbowYaw_transform_rp	LElbowYaw_transform_ry	LShoulderPitch_transform_tx	LShoulderPitch_transform_ty	LShoulderPitch_transform_tz	LShoulderPitch_transform_rr	LShoulderPitch_transform_rp	LShoulderPitch_transform_ry	LShoulderRoll_transform_tx	LShoulderRoll_transform_ty	LShoulderRoll_transform_tz	LShoulderRoll_transform_rr	LShoulderRoll_transform_rp	LShoulderRoll_transform_ry	LWristYaw_transform_tx	LWristYaw_transform_ty	LWristYaw_transform_tz	LWristYaw_transform_rr	LWristYaw_transform_rp	LWristYaw_transform_ry	l_wrist_joint_transform_tx	l_wrist_joint_transform_ty	l_wrist_joint_transform_tz	l_wrist_joint_transform_rr	l_wrist_joint_transform_rp	l_wrist_joint_transform_ry	camera_fx	camera_fy	camera_cx	camera_cy	camera_D0	camera_D1	camera_D2	camera_D3	camera_D4	
0	0.0249164	-0.0307543	0.000853157	4.65819e-06	-0.000318322	-0.00310766	0.05071	0	0.01774	-2.26369	1.66533e-16	-1.5708	545.901	551.038	324.928	201.58	0.0255298	2.61142	-0.0636736	-0.0350419	0.213964
1	-0.0350972	-0.00456847	0.141052	0.184533	0.110948	-0.00104947	0.0324454	-0.0388606	0.0159498	-0.00180818	-0.00179314	-0.00298538	0.0236071	-0.000652929	0.0126651	-2.12295	-0.022506	-1.65946	0	0	0	0	-0	0	0	0	-0.1265	0	-0	0	0	0	0	0	-0	0	0.105	0.015	0	0	-0	0	0	0.098	0.1	0	-0	0	0	0	0	0	-0	0	0.05595	0	0	0	-0	0	0	0	0	0	-0	0	545.901	551.037	324.928	201.578	0.0716747	2.63392	0.0241967	-0.0831175	0.21889
2	-0.0371341	0.110871	0.139498	0.330345	0.109551	0.083551	0.0294532	-0.0408043	0.0406756	-0.00547144	-0.00517135	-0.00368527	0.0186508	0.0165845	0.02422	-2.10576	-0.0831216	-1.81831	0	0	0	0	-0	0	0	0	-0.1265	0	-0	0	0	0	0	0	-0	0	0.105	0.015	0	0	-0	0	0	0.098	0.1	0	-0	0	0	0	0	0	-0	0	0.05595	0	0	0	-0	0	0	0	0	0	-0	0	545.9	551.037	324.926	201.577	0.000884988	2.62695	0.0802471	-0.054902	0.217529
3	-0.0378938	0.300789	0.11944	0.325403	0.0690168	0.0934959	0.0261652	-0.0388405	0.044835	-0.00646646	-0.00615199	-0.00398239	0.0306581	0.0371408	0.0285233	-2.0586	-0.185765	-2.1099	0	0	0	0	-0	0	0	0	-0.1265	0	-0	0	0	0	0	0	-0	0	0.105	0.015	0	0	-0	0	0	0.098	0.1	0	-0	0	0	0	0	0	-0	0	0.05595	0	0	0	-0	0	0	0	0	0	-0	0	545.899	551.036	324.925	201.577	-0.241743	2.58152	0.130704	0.0486372	0.209554
4	-0.0401282	0.463285	0.0769426	0.367807	0.0316075	0.0931912	0.0218384	-0.0358495	0.0481464	-0.00749489	-0.00725793	-0.00432539	0.0495282	0.0364237	0.0182396	-1.99451	-0.249544	-2.30658	0	0	0	0	-0	0	0	0	-0.1265	0	-0	0	0	0	0	0	-0	0	0.105	0.015	0	0	-0	0	0	0.098	0.1	0	-0	0	0	0	0	0	-0	0	0.05595	0	0	0	-0	0	0	0	0	0	-0	0	545.899	551.036	324.925	201.578	-0.304725	2.56829	0.116242	0.109328	0.207305
5	-0.0468583	0.651432	-0.015255	0.388389	-0.0282084	0.124426	0.0158829	-0.0324265	0.0463684	-0.00788744	-0.00824138	-0.00486405	0.0671187	0.0321981	0.00307816	-1.87027	-0.311458	-2.55198	0	0	0	0	-0	0	0	0	-0.1265	0	-0	0	0	0	0	0	-0	0	0.105	0.015	0	0	-0	0	0	0.098	0.1	0	-0	0	0	0	0	0	-0	0	0.05595	0	0	0	-0	0	0	0	0	0	-0	0	545.898	551.036	324.925	201.581	-0.460419	2.53148	0.0682572	0.167856	0.20054
6	-0.0462964	0.708721	-0.041291	0.418345	-0.0410082	0.122097	0.0143615	-0.0314459	0.0476371	-0.00823562	-0.00859365	-0.00498971	0.0724805	0.0196648	-0.00205641	-1.83321	-0.334083	-2.62584	0	0	0	0	-0	0	0	0	-0.1265	0	-0	0	0	0	0	0	-0	0	0.105	0.015	0	0	-0	0	0	0.098	0.1	0	-0	0	0	0	0	0	-0	0	0.05595	0	0	0	-0	0	0	0	0	0	-0	0	545.898	551.037	324.925	201.588	-0.738663	2.4545	0.051126	0.155925	0.184327
7	-0.0459008	0.751018	-0.0643333	0.410811	-0.0592607	0.132167	0.0137901	-0.0310146	0.0461988	-0.00814339	-0.00862426	-0.00503603	0.0766409	0.0160467	-0.0057091	-1.80168	-0.350534	-2.68095	0	0	0	0	-0	0	0	0	-0.1265	0	-0	0	0	0	0	0	-0	0	0.105	0.015	0	0	-0	0	0	0.098	0.1	0	-0	0	0	0	0	0	-0	0	0.05595	0	0	0	-0	0	0	0	0	0	-0	0	545.897	551.037	324.921	201.608	-1.47235	2.18599	0.14728	0.0785	0.114473
8	-0.046364	0.751978	-0.0601208	0.410906	-0.0547736	0.131407	0.0141823	-0.0314266	0.0460789	-0.00803754	-0.00851638	-0.00510891	0.0800379	0.00919116	-0.0102871	-1.78978	-0.352623	-2.69889	0	0	0	0	-0	0	0	0	-0.1265	0	-0	0	0	0	0	0	-0	0	0.105	0.015	0	0	-0	0	0	0.098	0.1	0	-0	0	0	0	0	0	-0	0	0.05595	0	0	0	-0	0	0	0	0	0	-0	0	545.891	551.033	324.948	201.636	-2.07828	2.00082	0.182739	0.0179351	0.0823147
9	-0.0456369	0.783982	-0.0727923	0.3944	-0.0552421	0.138852	0.0142676	-0.0317301	0.0442899	-0.00804806	-0.00836782	-0.00488415	0.0828689	0.00817455	-0.0132333	-1.7602	-0.367455	-2.75455	0	0	0	0	-0	0	0	0	-0.1265	0	-0	0	0	0	0	0	-0	0	0.105	0.015	0	0	-0	0	0	0.098	0.1	0	-0	0	0	0	0	0	-0	0	0.05595	0	0	0	-0	0	0	0	0	0	-0	0	545.88	551.013	325.061	201.683	-2.15605	2.03657	0.195246	0.00576832	0.240822
10	-0.046424	0.780975	-0.0726689	0.40331	-0.0553411	0.140432	0.0141901	-0.031485	0.0449503	-0.00828456	-0.0090405	-0.00455602	0.0830796	0.00556146	-0.0133556	-1.76639	-0.3621	-2.74723	0	0	0	0	-0	0	0	0	-0.1265	0	-0	0	0	0	0	0	-0	0	0.105	0.015	0	0	-0	0	0	0.098	0.1	0	-0	0	0	0	0	0	-0	0	0.05595	0	0	0	-0	0	0	0	0	0	-0	0	545.85	550.988	325.24	201.741	-2.20864	2.00906	0.189395	0.00284401	0.410025
11	-0.0463964	0.795065	-0.0786522	0.394073	-0.0571211	0.143023	0.0141666	-0.0315645	0.0440298	-0.00830567	-0.00997524	-0.00448426	0.0840441	0.00563863	-0.0143664	-1.75307	-0.369183	-2.77061	0	0	0	0	-0	0	0	0	-0.1265	0	-0	0	0	0	0	0	-0	0	0.105	0.015	0	0	-0	0	0	0.098	0.1	0	-0	0	0	0	0	0	-0	0	0.05595	0	0	0	-0	0	0	0	0	0	-0	0	545.81	550.947	325.514	201.821	-2.23317	1.94038	0.194764	-0.000121068	0.772928
12	-0.0476646	0.790358	-0.0767157	0.400192	-0.0571073	0.142496	0.0141363	-0.0314758	0.0445097	-0.00853349	-0.0101372	-0.00464092	0.08376	0.00482524	-0.0141824	-1.75901	-0.366556	-2.76247	0	0	0	0	-0	0	0	0	-0.1265	0	-0	0	0	0	0	0	-0	0	0.105	0.015	0	0	-0	0	0	0.098	0.1	0	-0	0	0	0	0	0	-0	0	0.05595	0	0	0	-0	0	0	0	0	0	-0	0	545.733	550.892	325.932	201.933	-2.20203	1.70589	0.190089	-0.000741628	1.13355
13	-0.0468707	0.798083	-0.0802055	0.395362	-0.058394	0.144082	0.0141165	-0.0315183	0.0440263	-0.009675	-0.010585	-0.0050143	0.0841794	0.00500866	-0.0145081	-1.75197	-0.369446	-2.77561	0	0	0	0	-0	0	0	0	-0.1265	0	-0	0	0	0	0	0	-0	0	0.105	0.015	0	0	-0	0	0	0.098	0.1	0	-0	0	0	0	0	0	-0	0	0.05595	0	0	0	-0	0	0	0	0	0	-0	0	545.614	550.797	326.604	202.111	-2.15689	1.34242	0.191991	-0.00279166	1.81852
14	-0.0486092	0.795303	-0.0786285	0.39913	-0.0584224	0.14324	0.0140924	-0.0315058	0.0443223	-0.00810545	-0.00592308	-0.00535927	0.0838138	0.00499477	-0.0143427	-1.75582	-0.369871	-2.77273	0	0	0	0	-0	0	0	0	-0.1265	0	-0	0	0	0	0	0	-0	0	0.105	0.015	0	0	-0	0	0	0.098	0.1	0	-0	0	0	0	0	0	-0	0	0.05595	0	0	0	-0	0	0	0	0	0	-0	0	545.328	550.602	328.023	202.474	-2.04054	0.611209	0.188684	-0.00523995	2.97025
15	-0.0496658	0.800653	-0.0810197	0.397133	-0.0599671	0.144131	0.0140419	-0.0315337	0.0440852	-0.0174995	-0.0197998	-0.01029	0.0837234	0.00591437	-0.0142658	-1.75263	-0.375366	-2.78669	0	0	0	0	-0	0	0	0	-0.1265	0	-0	0	0	0	0	0	-0	0	0.105	0.015	0	0	-0	0	0	0.098	0.1	0	-0	0	0	0	0	0	-0	0	0.05595	0	0	0	-0	0	0	0	0	0	-0	0	544.481	549.955	332.14	203.561	-1.75684	-1.21428	0.187283	-0.0132983	5.96415
16	-0.0776005	0.799266	-0.0799011	0.401432	-0.0612357	0.143054	0.0139611	-0.031556	0.0444176	-0.0215772	-0.0127199	-0.0273015	0.0825605	0.00719221	-0.0157963	-1.76553	-0.40905	-2.79666	0	0	0	0	-0	0	0	0	-0.1265	0	-0	0	0	0	0	0	-0	0	0.105	0.015	0	0	-0	0	0	0.098	0.1	0	-0	0	0	0	0	0	-0	0	0.05595	0	0	0	-0	0	0	0	0	0	-0	0	541.855	547.815	343.202	206.974	-1.24205	-4.38211	0.17831	-0.0349819	10.9094
17	-0.0533734	0.800586	-0.0823192	0.404221	-0.0651112	0.143769	0.0140838	-0.0319132	0.0448641	-0.0326163	0.0452143	0.0954312	0.0824455	0.00843409	-0.0128795	-1.759	-0.405762	-2.83319	0	0	0	0	-0	0	0	0	-0.1265	0	-0	0	0	0	0	0	-0	0	0.105	0.015	0	0	-0	0	0	0.098	0.1	0	-0	0	0	0	0	0	-0	0	0.05595	0	0	0	-0	0	0	0	0	0	-0	0	535.009	540.286	364.895	216.642	-0.638961	-7.83278	0.163339	-0.081097	15.5466
18	-0.037774	0.796593	-0.0847601	0.409643	-0.0715299	0.145726	0.0138253	-0.0317634	0.045128	0.0110605	0.0523056	0.194752	0.0822931	0.00781047	-0.01102	-1.76147	-0.39582	-2.8213	0	0	0	0	-0	0	0	0	-0.1265	0	-0	0	0	0	0	0	-0	0	0.105	0.015	0	0	-0	0	0	0.098	0.1	0	-0	0	0	0	0	0	-0	0	0.05595	0	0	0	-0	0	0	0	0	0	-0	0	533.208	535.103	365.47	219.125	-0.971477	-6.83406	0.19047	-0.101795	14.1144
19	-0.103006	0.792858	-0.085356	0.407005	-0.0674981	0.146234	0.0139428	-0.0315086	0.044848	0.0150495	0.0708954	0.17192	0.0818422	0.00864347	-0.0168188	-1.7838	-0.464377	-2.82347	0	0	0	0	-0	0	0	0	-0.1265	0	-0	0	0	0	0	0	-0	0	0.105	0.015	0	0	-0	0	0	0.098	0.1	0	-0	0	0	0	0	0	-0	0	0.05595	0	0	0	-0	0	0	0	0	0	-0	0	530.447	527.527	371.693	222.318	-0.823388	-6.96834	0.182676	-0.102443	13.7566
20	-0.000313391	0.794583	-0.0893249	0.411256	-0.0725079	0.148939	0.0135635	-0.0313903	0.0453285	0.0877835	0.018216	0.212141	0.0840647	0.00592769	-0.00902208	-1.74552	-0.370671	-2.83837	0	0	0	0	-0	0	0	0	-0.1265	0	-0	0	0	0	0	0	-0	0	0.105	0.015	0	0	-0	0	0	0.098	0.1	0	-0	0	0	0	0	0	-0	0	0.05595	0	0	0	-0	0	0	0	0	0	-0	0	522.175	513.096	373.439	223.949	-1.1672	-4.14101	0.193781	-0.108967	8.01242
21	-0.0232794	0.787556	-0.0874153	0.410893	-0.0627319	0.147944	0.0137942	-0.0313927	0.0454637	0.105394	-0.02524	0.162754	0.0837861	0.00674472	-0.0116645	-1.75279	-0.398853	-2.85327	0	0	0	0	-0	0	0	0	-0.1265	0	-0	0	0	0	0	0	-0	0	0.105	0.015	0	0	-0	0	0	0.098	0.1	0	-0	0	0	0	0	0	-0	0	0.05595	0	0	0	-0	0	0	0	0	0	-0	0	518.189	506.152	382.537	227.924	-0.962272	-4.34903	0.174203	-0.107197	8.049
22	-0.0110046	0.802004	-0.0992361	0.412372	-0.0759918	0.156211	0.0133711	-0.0308468	0.0453455	0.106765	-0.0330109	0.167696	0.0847935	0.00434624	-0.0104065	-1.74228	-0.390466	-2.85999	0	0	0	0	-0	0	0	0	-0.1265	0	-0	0	0	0	0	0	-0	0	0.105	0.015	0	0	-0	0	0	0.098	0.1	0	-0	0	0	0	0	0	-0	0	0.05595	0	0	0	-0	0	0	0	0	0	-0	0	517.265	504.772	382.168	227.679	-1.40962	-2.33466	0.196536	-0.123503	4.9395
23	0.00545234	0.786941	-0.0890156	0.41392	-0.0634415	0.150746	0.013543	-0.0312	0.0457073	0.116517	-0.0347192	0.190015	0.0849432	0.00388889	-0.0104284	-1.73725	-0.376959	-2.8633	0	0	0	0	-0	0	0	0	-0.1265	0	-0	0	0	0	0	0	-0	0	0.105	0.015	0	0	-0	0	0	0.098	0.1	0	-0	0	0	0	0	0	-0	0	0.05595	0	0	0	-0	0	0	0	0	0	-0	0	515.069	502.233	386.582	228.805	-1.55505	-0.83184	0.181413	-0.11472	2.65347
24	0.00292553	0.804976	-0.100842	0.410663	-0.0693404	0.159796	0.0132257	-0.0308493	0.0453715	0.119402	-0.0373996	0.177764	0.0862987	0.00137911	-0.0113682	-1.72667	-0.381153	-2.88413	0	0	0	0	-0	0	0	0	-0.1265	0	-0	0	0	0	0	0	-0	0	0.105	0.015	0	0	-0	0	0	0.098	0.1	0	-0	0	0	0	0	0	-0	0	0.05595	0	0	0	-0	0	0	0	0	0	-0	0	514.257	501.647	387.969	228.883	-1.8203	0.442815	0.186874	-0.120315	0.913977
25	-0.0110553	0.798634	-0.0950241	0.414208	-0.0623609	0.157571	0.0132296	-0.031052	0.0458549	0.0962528	-0.0360383	0.223604	0.0862541	-8.84785e-05	-0.0137691	-1.72548	-0.398194	-2.89169	0	0	0	0	-0	0	0	0	-0.1265	0	-0	0	0	0	0	0	-0	0	0.105	0.015	0	0	-0	0	0	0.098	0.1	0	-0	0	0	0	0	0	-0	0	0.05595	0	0	0	-0	0	0	0	0	0	-0	0	511.662	500.351	393.895	229.574	-2.00672	1.58267	0.176593	-0.122434	-0.504272
26	-0.0290634	0.813482	-0.103853	0.412204	-0.0646778	0.165645	0.0129634	-0.0308228	0.045801	0.0587891	-0.0905191	0.219712	0.0872345	-0.00295334	-0.0165385	-1.70451	-0.429127	-2.95021	0	0	0	0	-0	0	0	0	-0.1265	0	-0	0	0	0	0	0	-0	0	0.105	0.015	0	0	-0	0	0	0.098	0.1	0	-0	0	0	0	0	0	-0	0	0.05595	0	0	0	-0	0	0	0	0	0	-0	0	502.042	498.022	415.127	231.45	-2.04753	1.9073	0.158272	-0.152329	-0.974489
27	-0.028433	0.812072	-0.0998193	0.418058	-0.0585951	0.165697	0.0126589	-0.0310142	0.0468142	-0.0108456	-0.052874	0.246932	0.0874044	-0.00514146	-0.0180867	-1.68389	-0.447474	-2.99681	0	0	0	0	-0	0	0	0	-0.1265	0	-0	0	0	0	0	0	-0	0	0.105	0.015	0	0	-0	0	0	0.098	0.1	0	-0	0	0	0	0	0	-0	0	0.05595	0	0	0	-0	0	0	0	0	0	-0	0	491.237	498.17	437.601	234.809	-2.34118	2.30024	0.156747	-0.20424	-1.02925
28	-0.0460287	0.838636	-0.113851	0.404695	-0.0642789	0.187475	0.0126077	-0.0308249	0.0462009	-0.0104583	-0.0481302	0.242985	0.0889987	-0.00911857	-0.0207766	-1.66013	-0.472013	-3.03729	0	0	0	0	-0	0	0	0	-0.1265	0	-0	0	0	0	0	0	-0	0	0.105	0.015	0	0	-0	0	0	0.098	0.1	0	-0	0	0	0	0	0	-0	0	0.05595	0	0	0	-0	0	0	0	0	0	-0	0	487.158	498.951	446.038	235.49	-2.50367	2.29666	0.162988	-0.231151	-0.945072
29	-0.0466833	0.823206	-0.101793	0.416752	-0.0538249	0.176335	0.0120477	-0.0314023	0.0477383	-0.0722061	-0.00664632	0.224627	0.0872501	-0.00583265	-0.020815	-1.65017	-0.488283	-3.05895	0	0	0	0	-0	0	0	0	-0.1265	0	-0	0	0	0	0	0	-0	0	0.105	0.015	0	0	-0	0	0	0.098	0.1	0	-0	0	0	0	0	0	-0	0	0.05595	0	0	0	-0	0	0	0	0	0	-0	0	477.051	502.292	465.055	236.905	-2.48292	1.94051	0.159202	-0.283254	-0.699172
30	-0.0123701	0.846747	-0.121541	0.402306	-0.0566071	0.196079	0.01222	-0.0311833	0.0463414	-0.0365678	0.0462644	0.230208	0.0898012	-0.008615	-0.0192358	-1.61437	-0.463827	-3.13708	0	0	0	0	-0	0	0	0	-0.1265	0	-0	0	0	0	0	0	-0	0	0.105	0.015	0	0	-0	0	0	0.098	0.1	0	-0	0	0	0	0	0	-0	0	0.05595	0	0	0	-0	0	0	0	0	0	-0	0	462.286	507.467	488.401	238.514	-2.44671	1.62186	0.141918	-0.325373	-0.476104
31	-0.0125611	0.855749	-0.119733	0.39953	-0.0559425	0.201414	0.0118305	-0.0316079	0.046847	-0.122874	0.0942229	0.179173	0.0889623	-0.00582892	-0.0184875	-1.58614	-0.479303	3.08597	0	0	0	0	-0	0	0	0	-0.1265	0	-0	0	0	0	0	0	-0	0	0.105	0.015	0	0	-0	0	0	0.098	0.1	0	-0	0	0	0	0	0	-0	0	0.05595	0	0	0	-0	0	0	0	0	0	-0	0	438.075	516.598	517.208	238.164	-2.47592	1.30616	0.1413	-0.411259	-0.321151
32	0.0360497	0.867372	-0.128232	0.392276	-0.0487785	0.212655	0.0118458	-0.0318302	0.045809	-0.152606	0.00628419	0.210092	0.0905323	-0.00672508	-0.0165875	-1.56558	-0.430336	3.04197	0	0	0	0	-0	0	0	0	-0.1265	0	-0	0	0	0	0	0	-0	0	0.105	0.015	0	0	-0	0	0	0.098	0.1	0	-0	0	0	0	0	0	-0	0	0.05595	0	0	0	-0	0	0	0	0	0	-0	0	423.563	522.936	530.043	238.634	-2.49887	1.24893	0.130799	-0.444115	-0.293253
33	0.00387422	0.866972	-0.125301	0.392142	-0.0431405	0.207484	0.0110115	-0.0323585	0.0463266	-0.0339445	-0.069946	0.226498	0.0883857	-0.00012331	-0.0186072	-1.55286	-0.479426	2.99305	0	0	0	0	-0	0	0	0	-0.1265	0	-0	0	0	0	0	0	-0	0	0.105	0.015	0	0	-0	0	0	0.098	0.1	0	-0	0	0	0	0	0	-0	0	0.05595	0	0	0	-0	0	0	0	0	0	-0	0	393.491	540.95	555.188	243.657	-2.75737	1.27392	0.128132	-0.564791	-0.297027
34	0.0224654	0.840394	-0.114209	0.386216	-0.0248004	0.205288	0.0116739	-0.0322221	0.0463545	-0.0457806	-0.214656	0.30544	0.0884027	0.00242363	-0.0177937	-1.56644	-0.459526	2.99218	0	0	0	0	-0	0	0	0	-0.1265	0	-0	0	0	0	0	0	-0	0	0.105	0.015	0	0	-0	0	0	0.098	0.1	0	-0	0	0	0	0	0	-0	0	0.05595	0	0	0	-0	0	0	0	0	0	-0	0	381.569	550.616	565.622	248.946	-2.78587	1.262	0.109429	-0.592223	-0.286831
35	0.0222011	0.840887	-0.106641	0.378476	-0.0176165	0.20413	0.0112939	-0.0330755	0.0463549	0.00916214	-0.357523	0.365583	0.0863903	0.00937538	-0.0173227	-1.57232	-0.465616	2.9706	0	0	0	0	-0	0	0	0	-0.1265	0	-0	0	0	0	0	0	-0	0	0.105	0.015	0	0	-0	0	0	0.098	0.1	0	-0	0	0	0	0	0	-0	0	0.05595	0	0	0	-0	0	0	0	0	0	-0	0	365.478	569.144	579.042	263.287	-3.16853	1.53121	0.0991639	-0.697337	-0.385126
36	0.00413521	0.83477	-0.108033	0.373849	-0.0138555	0.212073	0.0121206	-0.0329406	0.0462846	-0.039402	-0.43806	0.356713	0.0872259	0.00691163	-0.0190966	-1.57232	-0.478185	2.95269	0	0	0	0	-0	0	0	0	-0.1265	0	-0	0	0	0	0	0	-0	0	0.105	0.015	0	0	-0	0	0	0.098	0.1	0	-0	0	0	0	0	0	-0	0	0.05595	0	0	0	-0	0	0	0	0	0	-0	0	360.621	575.532	583.925	266.772	-2.8978	1.32499	0.0769957	-0.646221	-0.302126
37	0.00436372	0.824308	-0.0892278	0.367519	-0.00574695	0.205291	0.0121741	-0.0337008	0.0461885	-0.0392239	-0.438042	0.356659	0.0852212	0.0113098	-0.0191542	-1.57173	-0.478818	2.97176	0	0	0	0	-0	0	0	0	-0.1265	0	-0	0	0	0	0	0	-0	0	0.105	0.015	0	0	-0	0	0	0.098	0.1	0	-0	0	0	0	0	0	-0	0	0.05595	0	0	0	-0	0	0	0	0	0	-0	0	360.608	575.545	583.939	266.784	-3.05742	1.46948	0.0857377	-0.679595	-0.36298
38	0.00412668	0.830727	-0.09944	0.367268	-0.0124276	0.212879	0.0124838	-0.0330931	0.0460085	-0.0392514	-0.437865	0.356648	0.0870351	0.00858927	-0.0183492	-1.57724	-0.478746	2.96098	0	0	0	0	-0	0	0	0	-0.1265	0	-0	0	0	0	0	0	-0	0	0.105	0.015	0	0	-0	0	0	0.098	0.1	0	-0	0	0	0	0	0	-0	0	0.05595	0	0	0	-0	0	0	0	0	0	-0	0	360.591	575.571	583.951	266.8	-3.02244	1.43405	0.0819014	-0.668903	-0.345203
39	0.00386212	0.82209	-0.087407	0.371427	-0.0054798	0.204753	0.012064	-0.0339441	0.0464548	-0.0390842	-0.438018	0.356453	0.0845712	0.0123807	-0.0189982	-1.57345	-0.477892	2.97799	0	0	0	0	-0	0	0	0	-0.1265	0	-0	0	0	0	0	0	-0	0	0.105	0.015	0	0	-0	0	0	0.098	0.1	0	-0	0	0	0	0	0	-0	0	0.05595	0	0	0	-0	0	0	0	0	0	-0	0	360.56	575.61	583.977	266.829	-3.16956	1.57599	0.0878915	-0.699023	-0.405923
40	0.00362108	0.830478	-0.100769	0.370703	-0.0137426	0.21267	0.0124249	-0.0331504	0.0462057	-0.0391484	-0.43788	0.356592	0.08663	0.00918708	-0.0180498	-1.57976	-0.478308	2.96645	0	0	0	0	-0	0	0	0	-0.1265	0	-0	0	0	0	0	0	-0	0	0.105	0.015	0	0	-0	0	0	0.098	0.1	0	-0	0	0	0	0	0	-0	0	0.05595	0	0	0	-0	0	0	0	0	0	-0	0	360.556	575.616	583.979	266.832	-3.15379	1.54181	0.0842711	-0.693197	-0.383742
41	0.00376568	0.820025	-0.0872863	0.374182	-0.00615314	0.203843	0.0120335	-0.0339841	0.0466511	-0.0390336	-0.437929	0.356444	0.084336	0.012455	-0.0188636	-1.57453	-0.477523	2.98075	0	0	0	0	-0	0	0	0	-0.1265	0	-0	0	0	0	0	0	-0	0	0.105	0.015	0	0	-0	0	0	0.098	0.1	0	-0	0	0	0	0	0	-0	0	0.05595	0	0	0	-0	0	0	0	0	0	-0	0	360.548	575.627	583.987	266.84	-3.18494	1.59432	0.0878491	-0.701236	-0.414651
42	0.00367602	0.825649	-0.098176	0.373305	-0.0127031	0.210024	0.0124018	-0.0332839	0.046428	-0.0391009	-0.437817	0.356554	0.0860339	0.00995578	-0.0178715	-1.5822	-0.478763	2.97368	0	0	0	0	-0	0	0	0	-0.1265	0	-0	0	0	0	0	0	-0	0	0.105	0.015	0	0	-0	0	0	0.098	0.1	0	-0	0	0	0	0	0	-0	0	0.05595	0	0	0	-0	0	0	0	0	0	-0	0	360.547	575.628	583.987	266.841	-3.19023	1.57811	0.0852455	-0.699903	-0.398953
43	0.00373487	0.818901	-0.0882554	0.37498	-0.00685072	0.203802	0.0120889	-0.0339061	0.0467007	-0.039052	-0.437904	0.356461	0.0844412	0.0122887	-0.0186339	-1.5769	-0.477754	2.98181	0	0	0	0	-0	0	0	0	-0.1265	0	-0	0	0	0	0	0	-0	0	0.105	0.015	0	0	-0	0	0	0.098	0.1	0	-0	0	0	0	0	0	-0	0	0.05595	0	0	0	-0	0	0	0	0	0	-0	0	360.544	575.631	583.989	266.844	-3.18901	1.59608	0.0875974	-0.701826	-0.414857
44	0.00370141	0.823576	-0.0965853	0.374149	-0.0117391	0.208597	0.01236	-0.0333764	0.0465055	-0.0391076	-0.437823	0.35654	0.0857405	0.0103842	-0.0179275	-1.58232	-0.478731	2.97607	0	0	0	0	-0	0	0	0	-0.1265	0	-0	0	0	0	0	0	-0	0	0.105	0.015	0	0	-0	0	0	0.098	0.1	0	-0	0	0	0	0	0	-0	0	0.05595	0	0	0	-0	0	0	0	0	0	-0	0	360.543	575.633	583.99	266.845	-3.19306	1.58334	0.0856519	-0.700793	-0.402344
45	0.00372715	0.818697	-0.0890887	0.375119	-0.00736169	0.20413	0.0121351	-0.033839	0.0467044	-0.0390905	-0.437882	0.35646	0.0845715	0.0121138	-0.0184862	-1.57838	-0.478	2.98205	0	0	0	0	-0	0	0	0	-0.1265	0	-0	0	0	0	0	0	-0	0	0.105	0.015	0	0	-0	0	0	0.098	0.1	0	-0	0	0	0	0	0	-0	0	0.05595	0	0	0	-0	0	0	0	0	0	-0	0	360.541	575.637	583.992	266.847	-3.19225	1.59672	0.0874346	-0.702271	-0.414263
46	0.00367644	0.82336	-0.0962245	0.373971	-0.0112085	0.208138	0.0123346	-0.0334129	0.0464865	-0.0391382	-0.437826	0.356512	0.0856879	0.0105296	-0.0180511	-1.58156	-0.47856	2.97562	0	0	0	0	-0	0	0	0	-0.1265	0	-0	0	0	0	0	0	-0	0	0.105	0.015	0	0	-0	0	0	0.098	0.1	0	-0	0	0	0	0	0	-0	0	0.05595	0	0	0	-0	0	0	0	0	0	-0	0	360.537	575.642	583.994	266.85	-3.18652	1.57738	0.0857392	-0.700066	-0.400618
47	0.00370254	0.819035	-0.0896456	0.37494	-0.0076451	0.204501	0.0121576	-0.0337993	0.0466865	-0.0391124	-0.437848	0.35647	0.0846778	0.0119769	-0.0184413	-1.57881	-0.478088	2.98154	0	0	0	0	-0	0	0	0	-0.1265	0	-0	0	0	0	0	0	-0	0	0.105	0.015	0	0	-0	0	0	0.098	0.1	0	-0	0	0	0	0	0	-0	0	0.05595	0	0	0	-0	0	0	0	0	0	-0	0	360.531	575.65	583.999	266.856	-3.19125	1.59439	0.0872794	-0.702027	-0.412784
48	0.00374224	0.822842	-0.0956224	0.37385	-0.0108045	0.207773	0.0123288	-0.0334393	0.0464904	-0.039137	-0.437749	0.356507	0.0856419	0.0106036	-0.0181021	-1.58122	-0.478569	2.97565	0	0	0	0	-0	0	0	0	-0.1265	0	-0	0	0	0	0	0	-0	0	0.105	0.015	0	0	-0	0	0	0.098	0.1	0	-0	0	0	0	0	0	-0	0	0.05595	0	0	0	-0	0	0	0	0	0	-0	0	360.523	575.663	584.004	266.864	-3.175	1.56845	0.0856106	-0.698074	-0.397669
49	0.00372761	0.81922	-0.0899144	0.374688	-0.00776517	0.20475	0.0121771	-0.0337734	0.0466691	-0.0391291	-0.437813	0.35653	0.0847465	0.0119044	-0.0184031	-1.57918	-0.478166	2.98127	0	0	0	0	-0	0	0	0	-0.1265	0	-0	0	0	0	0	0	-0	0	0.105	0.015	0	0	-0	0	0	0.098	0.1	0	-0	0	0	0	0	0	-0	0	0.05595	0	0	0	-0	0	0	0	0	0	-0	0	360.51	575.681	584.015	266.876	-3.1904	1.59263	0.0871686	-0.701895	-0.411753
50	0.00365795	0.822385	-0.0951387	0.373749	-0.0105459	0.207529	0.0123296	-0.0334524	0.0464953	-0.0393201	-0.437579	0.356648	0.0856232	0.0106151	-0.0181423	-1.58097	-0.47881	2.97553	0	0	0	0	-0	0	0	0	-0.1265	0	-0	0	0	0	0	0	-0	0	0.105	0.015	0	0	-0	0	0	0.098	0.1	0	-0	0	0	0	0	0	-0	0	0.05595	0	0	0	-0	0	0	0	0	0	-0	0	360.491	575.708	584.028	266.894	-3.16055	1.55703	0.0853256	-0.695442	-0.393597
51	0.00368801	0.819459	-0.0900492	0.374387	-0.00779912	0.204968	0.0121903	-0.0337583	0.0466507	-0.0395784	-0.437914	0.356627	0.0847831	0.0118913	-0.0183792	-1.57946	-0.47827	2.98111	0	0	0	0	-0	0	0	0	-0.1265	0	-0	0	0	0	0	0	-0	0	0.105	0.015	0	0	-0	0	0	0.098	0.1	0	-0	0	0	0	0	0	-0	0	0.05595	0	0	0	-0	0	0	0	0	0	-0	0	360.461	575.749	584.05	266.922	-3.1933	1.594	0.0871447	-0.702607	-0.412014
52	0.00381482	0.82219	-0.0949048	0.373643	-0.0104593	0.207468	0.0123326	-0.0334529	0.0464952	-0.0395102	-0.438368	0.356797	0.0856405	0.0105719	-0.0181494	-1.58078	-0.478821	2.97508	0	0	0	0	-0	0	0	0	-0.1265	0	-0	0	0	0	0	0	-0	0	0.105	0.015	0	0	-0	0	0	0.098	0.1	0	-0	0	0	0	0	0	-0	0	0.05595	0	0	0	-0	0	0	0	0	0	-0	0	360.419	575.81	584.08	266.96	-3.1458	1.54485	0.0849165	-0.69277	-0.388993
53	0.00381145	0.819822	-0.0901025	0.374069	-0.00777488	0.205192	0.0121949	-0.0337543	0.0466322	-0.0388685	-0.438379	0.356368	0.0847873	0.0119416	-0.0183495	-1.57969	-0.478158	2.98102	0	0	0	0	-0	0	0	0	-0.1265	0	-0	0	0	0	0	0	-0	0	0.105	0.015	0	0	-0	0	0	0.098	0.1	0	-0	0	0	0	0	0	-0	0	0.05595	0	0	0	-0	0	0	0	0	0	-0	0	360.353	575.901	584.13	267.024	-3.20137	1.59936	0.0871835	-0.704505	-0.413827
54	0.00425923	0.822389	-0.0950074	0.373498	-0.0105707	0.207644	0.0123359	-0.0334392	0.0464843	-0.0385503	-0.437566	0.356536	0.0856983	0.0104733	-0.0181227	-1.58063	-0.478553	2.9741	0	0	0	0	-0	0	0	0	-0.1265	0	-0	0	0	0	0	0	-0	0	0.105	0.015	0	0	-0	0	0	0.098	0.1	0	-0	0	0	0	0	0	-0	0	0.05595	0	0	0	-0	0	0	0	0	0	-0	0	360.259	576.036	584.198	267.109	-3.13105	1.53162	0.0843173	-0.690255	-0.383665
55	0.00409033	0.820409	-0.0901042	0.373693	-0.00771004	0.20547	0.0121898	-0.03376	0.0466105	-0.0385505	-0.436899	0.357167	0.0847589	0.0120573	-0.0183158	-1.57985	-0.477874	2.98079	0	0	0	0	-0	0	0	0	-0.1265	0	-0	0	0	0	0	0	-0	0	0.105	0.015	0	0	-0	0	0	0.098	0.1	0	-0	0	0	0	0	0	-0	0	0.05595	0	0	0	-0	0	0	0	0	0	-0	0	360.111	576.244	584.307	267.252	-3.21382	1.60753	0.0871576	-0.707621	-0.416653
56	0.00364527	0.823175	-0.0955427	0.373225	-0.0109086	0.208156	0.012339	-0.0334071	0.0464539	-0.0400314	-0.437052	0.357256	0.0857777	0.0103202	-0.0181772	-1.58022	-0.47938	2.97211	0	0	0	0	-0	0	0	0	-0.1265	0	-0	0	0	0	0	0	-0	0	0.105	0.015	0	0	-0	0	0	0.098	0.1	0	-0	0	0	0	0	0	-0	0	0.05595	0	0	0	-0	0	0	0	0	0	-0	0	359.902	576.541	584.462	267.435	-3.11562	1.51593	0.083358	-0.688049	-0.376982
57	0.00429109	0.821493	-0.0901598	0.373153	-0.00765135	0.205932	0.0121708	-0.0337714	0.0465743	-0.0408273	-0.438253	0.35805	0.0846939	0.0122528	-0.0182955	-1.57986	-0.477707	2.97994	0	0	0	0	-0	0	0	0	-0.1265	0	-0	0	0	0	0	0	-0	0	0.105	0.015	0	0	-0	0	0	0.098	0.1	0	-0	0	0	0	0	0	-0	0	0.05595	0	0	0	-0	0	0	0	0	0	-0	0	359.573	577.006	584.698	267.755	-3.23118	1.61777	0.0868412	-0.712466	-0.420029
58	0.00229111	0.824919	-0.09668	0.372705	-0.011543	0.209185	0.0123342	-0.0333498	0.0463917	-0.03604	-0.432413	0.356833	0.0858819	0.0101354	-0.018283	-1.57957	-0.481064	2.9685	0	0	0	0	-0	0	0	0	-0.1265	0	-0	0	0	0	0	0	-0	0	0.105	0.015	0	0	-0	0	0	0.098	0.1	0	-0	0	0	0	0	0	-0	0	0.05595	0	0	0	-0	0	0	0	0	0	-0	0	359.119	577.656	585.043	268.135	-3.1007	1.49716	0.0817491	-0.686958	-0.368559
59	-0.00159336	0.823623	-0.0905492	0.372295	-0.00769881	0.206836	0.0121282	-0.0337823	0.0465067	-0.044504	-0.436519	0.358016	0.0844726	0.0125757	-0.018802	-1.57854	-0.483665	2.97709	0	0	0	0	-0	0	0	0	-0.1265	0	-0	0	0	0	0	0	-0	0	0.105	0.015	0	0	-0	0	0	0.098	0.1	0	-0	0	0	0	0	0	-0	0	0.05595	0	0	0	-0	0	0	0	0	0	-0	0	358.4	578.685	585.545	268.826	-3.25744	1.6309	0.0858352	-0.720649	-0.423908
60	-0.00217959	0.828431	-0.0988963	0.371758	-0.012636	0.211141	0.0123152	-0.0332518	0.0462703	-0.0494562	-0.446827	0.362994	0.0859727	0.00994072	-0.018647	-1.57797	-0.486029	2.96165	0	0	0	0	-0	0	0	0	-0.1265	0	-0	0	0	0	0	0	-0	0	0.105	0.015	0	0	-0	0	0	0.098	0.1	0	-0	0	0	0	0	0	-0	0	0.05595	0	0	0	-0	0	0	0	0	0	-0	0	357.446	580.069	586.292	269.557	-3.08746	1.47293	0.0789097	-0.688353	-0.357102
61	0.00914215	0.82797	-0.0918011	0.370747	-0.00804894	0.208705	0.0120426	-0.0337916	0.0463693	-0.0465536	-0.475766	0.345497	0.0844999	0.0131218	-0.0178774	-1.57994	-0.473449	2.97253	0	0	0	0	-0	0	0	0	-0.1265	0	-0	0	0	0	0	0	-0	0	0.105	0.015	0	0	-0	0	0	0.098	0.1	0	-0	0	0	0	0	0	-0	0	0.05595	0	0	0	-0	0	0	0	0	0	-0	0	355.935	582.281	587.31	270.957	-3.30101	1.64896	0.0834712	-0.735441	-0.428328
62	-3.63206e-05	0.834838	-0.102635	0.370042	-0.0144276	0.214558	0.0122542	-0.0330986	0.0460419	-0.0440577	-0.481519	0.350476	0.086198	0.00983636	-0.0183912	-1.57699	-0.484803	2.95052	0	0	0	0	-0	0	0	0	-0.1265	0	-0	0	0	0	0	0	-0	0	0.105	0.015	0	0	-0	0	0	0.098	0.1	0	-0	0	0	0	0	0	-0	0	0.05595	0	0	0	-0	0	0	0	0	0	-0	0	354.068	585.077	588.838	272.114	-3.08033	1.44152	0.0741489	-0.695112	-0.341556
63	-0.00059184	0.83	-0.0911157	0.367868	-0.00742107	0.210016	0.0120433	-0.0338029	0.046143	-0.0438082	-0.481666	0.349928	0.0842883	0.013297	-0.0189614	-1.57523	-0.483223	2.96555	0	0	0	0	-0	0	0	0	-0.1265	0	-0	0	0	0	0	0	-0	0	0.105	0.015	0	0	-0	0	0	0.098	0.1	0	-0	0	0	0	0	0	-0	0	0.05595	0	0	0	-0	0	0	0	0	0	-0	0	354.024	585.137	588.872	272.152	-3.26313	1.60365	0.0805458	-0.733401	-0.409345
64	-0.000162131	0.837424	-0.103414	0.367745	-0.0144884	0.216277	0.0122803	-0.0330795	0.0458521	-0.0447375	-0.481398	0.349823	0.0863803	0.00974898	-0.0185252	-1.57603	-0.484276	2.94824	0	0	0	0	-0	0	0	0	-0.1265	0	-0	0	0	0	0	0	-0	0	0.105	0.015	0	0	-0	0	0	0.098	0.1	0	-0	0	0	0	0	0	-0	0	0.05595	0	0	0	-0	0	0	0	0	0	-0	0	353.957	585.24	588.918	272.193	-3.10377	1.45926	0.074633	-0.699759	-0.348717
65	-0.000118617	0.829405	-0.0911502	0.368173	-0.00692393	0.209082	0.0119887	-0.0338289	0.0460899	-0.0445957	-0.481414	0.349678	0.0843131	0.0131448	-0.0192628	-1.57202	-0.483426	2.96214	0	0	0	0	-0	0	0	0	-0.1265	0	-0	0	0	0	0	0	-0	0	0.105	0.015	0	0	-0	0	0	0.098	0.1	0	-0	0	0	0	0	0	-0	0	0.05595	0	0	0	-0	0	0	0	0	0	-0	0	353.946	585.253	588.928	272.202	-3.19617	1.55423	0.079297	-0.720357	-0.393202
66	-0.00032681	0.836539	-0.103644	0.367792	-0.0138048	0.215345	0.0122785	-0.0330833	0.0458099	-0.044741	-0.481473	0.349705	0.0862366	0.010233	-0.0185267	-1.5772	-0.484558	2.95027	0	0	0	0	-0	0	0	0	-0.1265	0	-0	0	0	0	0	0	-0	0	0.105	0.015	0	0	-0	0	0	0.098	0.1	0	-0	0	0	0	0	0	-0	0	0.05595	0	0	0	-0	0	0	0	0	0	-0	0	353.927	585.283	588.94	272.215	-3.15246	1.49684	0.0756899	-0.709992	-0.363442
67	-0.000330002	0.82977	-0.0926182	0.369763	-0.00758024	0.208894	0.0119257	-0.0338177	0.0461254	-0.0446934	-0.481679	0.349602	0.0842548	0.0132322	-0.0192737	-1.57196	-0.483149	2.96199	0	0	0	0	-0	0	0	0	-0.1265	0	-0	0	0	0	0	0	-0	0	0.105	0.015	0	0	-0	0	0	0.098	0.1	0	-0	0	0	0	0	0	-0	0	0.05595	0	0	0	-0	0	0	0	0	0	-0	0	353.916	585.298	588.951	272.223	-3.22317	1.57737	0.0796349	-0.725376	-0.402358
68	-0.000387321	0.83624	-0.10389	0.369146	-0.0138076	0.214784	0.012223	-0.0331305	0.0458753	-0.0447298	-0.481632	0.349625	0.0859852	0.0106234	-0.0184987	-1.57778	-0.484112	2.95262	0	0	0	0	-0	0	0	0	-0.1265	0	-0	0	0	0	0	0	-0	0	0.105	0.015	0	0	-0	0	0	0.098	0.1	0	-0	0	0	0	0	0	-0	0	0.05595	0	0	0	-0	0	0	0	0	0	-0	0	353.908	585.309	588.955	272.228	-3.20469	1.53928	0.0767366	-0.720246	-0.37939
69	-0.00022794	0.830438	-0.0939647	0.371072	-0.00831653	0.209093	0.0118825	-0.0338149	0.04617	-0.0446784	-0.481949	0.349639	0.0841607	0.0133696	-0.0191772	-1.57274	-0.482396	2.96317	0	0	0	0	-0	0	0	0	-0.1265	0	-0	0	0	0	0	0	-0	0	0.105	0.015	0	0	-0	0	0	0.098	0.1	0	-0	0	0	0	0	0	-0	0	0.05595	0	0	0	-0	0	0	0	0	0	-0	0	353.89	585.335	588.971	272.243	-3.27557	1.61944	0.0804577	-0.735344	-0.417987
70	-0.000273257	0.836367	-0.104303	0.370385	-0.0140163	0.214529	0.0121645	-0.0331754	0.0459348	-0.0447385	-0.481859	0.349729	0.0857975	0.0108593	-0.0184872	-1.57782	-0.48341	2.95398	0	0	0	0	-0	0	0	0	-0.1265	0	-0	0	0	0	0	0	-0	0	0.105	0.015	0	0	-0	0	0	0.098	0.1	0	-0	0	0	0	0	0	-0	0	0.05595	0	0	0	-0	0	0	0	0	0	-0	0	353.881	585.348	588.975	272.248	-3.24355	1.57092	0.0774619	-0.72773	-0.391046
71	-0.000320282	0.830774	-0.0948195	0.371799	-0.00879003	0.209227	0.0118648	-0.0338058	0.0461953	-0.0445676	-0.481901	0.349579	0.0841269	0.013379	-0.019139	-1.57312	-0.482152	2.9636	0	0	0	0	-0	0	0	0	-0.1265	0	-0	0	0	0	0	0	-0	0	0.105	0.015	0	0	-0	0	0	0.098	0.1	0	-0	0	0	0	0	0	-0	0	0.05595	0	0	0	-0	0	0	0	0	0	-0	0	353.861	585.377	588.993	272.265	-3.29978	1.63834	0.0807625	-0.739967	-0.42495
72	-0.000301165	0.836081	-0.104274	0.371052	-0.0139266	0.214143	0.0121303	-0.0332123	0.045968	-0.0447218	-0.481754	0.349745	0.0856588	0.0110427	-0.0185119	-1.57774	-0.483183	2.95489	0	0	0	0	-0	0	0	0	-0.1265	0	-0	0	0	0	0	0	-0	0	0.105	0.015	0	0	-0	0	0	0.098	0.1	0	-0	0	0	0	0	0	-0	0	0.05595	0	0	0	-0	0	0	0	0	0	-0	0	353.851	585.392	588.998	272.271	-3.26134	1.58568	0.0778365	-0.731272	-0.396725
73	-0.000321076	0.830996	-0.0954447	0.372117	-0.00910746	0.209378	0.0118634	-0.0337859	0.0462018	-0.0444242	-0.481591	0.349378	0.0841469	0.0133362	-0.0190999	-1.57348	-0.48204	2.96362	0	0	0	0	-0	0	0	0	-0.1265	0	-0	0	0	0	0	0	-0	0	0.105	0.015	0	0	-0	0	0	0.098	0.1	0	-0	0	0	0	0	0	-0	0	0.05595	0	0	0	-0	0	0	0	0	0	-0	0	353.828	585.425	589.016	272.29	-3.30985	1.64546	0.0808164	-0.741932	-0.427381
74	-0.000400832	0.8357	-0.104002	0.371387	-0.0137305	0.213794	0.0121094	-0.0332425	0.0459895	-0.0443643	-0.48153	0.349432	0.0855555	0.0111831	-0.0185464	-1.57761	-0.48319	2.95548	0	0	0	0	-0	0	0	0	-0.1265	0	-0	0	0	0	0	0	-0	0	0.105	0.015	0	0	-0	0	0	0.098	0.1	0	-0	0	0	0	0	0	-0	0	0.05595	0	0	0	-0	0	0	0	0	0	-0	0	353.817	585.442	589.022	272.297	-3.2678	1.59149	0.078012	-0.732665	-0.399215
75	-0.000376024	0.831128	-0.0958908	0.372214	-0.00931659	0.209522	0.0118702	-0.033764	0.0461984	-0.0440945	-0.481998	0.349315	0.0841844	0.0132798	-0.019071	-1.5738	-0.482108	2.96346	0	0	0	0	-0	0	0	0	-0.1265	0	-0	0	0	0	0	0	-0	0	0.105	0.015	0	0	-0	0	0	0.098	0.1	0	-0	0	0	0	0	0	-0	0	0.05595	0	0	0	-0	0	0	0	0	0	-0	0	353.792	585.478	589.043	272.318	-3.31293	1.64686	0.0807537	-0.74259	-0.427641
76	-0.000305524	0.83533	-0.10366	0.371544	-0.0135159	0.213505	0.0120963	-0.0332666	0.0460034	-0.0440831	-0.482012	0.349331	0.0854828	0.0112902	-0.0185629	-1.5775	-0.483087	2.95588	0	0	0	0	-0	0	0	0	-0.1265	0	-0	0	0	0	0	0	-0	0	0.105	0.015	0	0	-0	0	0	0.098	0.1	0	-0	0	0	0	0	0	-0	0	0.05595	0	0	0	-0	0	0	0	0	0	-0	0	353.78	585.498	589.05	272.326	-3.26873	1.59284	0.0780745	-0.733	-0.400052
77	-0.000480027	0.831221	-0.0962158	0.372206	-0.00946005	0.209654	0.0118796	-0.0337431	0.0461917	-0.0443241	-0.482174	0.349348	0.0842243	0.0132251	-0.0190518	-1.57407	-0.482277	2.96325	0	0	0	0	-0	0	0	0	-0.1265	0	-0	0	0	0	0	0	-0	0	0.105	0.015	0	0	-0	0	0	0.098	0.1	0	-0	0	0	0	0	0	-0	0	0.05595	0	0	0	-0	0	0	0	0	0	-0	0	353.751	585.539	589.073	272.349	-3.31297	1.64585	0.0806435	-0.742688	-0.427006
78	-0.000399214	0.835021	-0.103335	0.371606	-0.0133197	0.213282	0.0120874	-0.0332852	0.0460122	-0.0443844	-0.482032	0.349572	0.0854262	0.0113713	-0.0185922	-1.57736	-0.483204	2.95611	0	0	0	0	-0	0	0	0	-0.1265	0	-0	0	0	0	0	0	-0	0	0.105	0.015	0	0	-0	0	0	0.098	0.1	0	-0	0	0	0	0	0	-0	0	0.05595	0	0	0	-0	0	0	0	0	0	-0	0	353.737	585.56	589.081	272.359	-3.26724	1.59211	0.0780723	-0.732869	-0.400072
79	-0.000351227	0.831309	-0.0964628	0.372146	-0.00956273	0.209774	0.0118887	-0.0337254	0.0461828	-0.0446593	-0.482649	0.349742	0.0842644	0.0131802	-0.0190182	-1.57432	-0.482229	2.96303	0	0	0	0	-0	0	0	0	-0.1265	0	-0	0	0	0	0	0	-0	0	0.105	0.015	0	0	-0	0	0	0.098	0.1	0	-0	0	0	0	0	0	-0	0	0.05595	0	0	0	-0	0	0	0	0	0	-0	0	353.705	585.607	589.106	272.384	-3.31213	1.64422	0.0805243	-0.742637	-0.426166
80	-0.000133714	0.834784	-0.10306	0.371622	-0.0131601	0.213116	0.0120813	-0.0332992	0.0460177	-0.0446196	-0.482473	0.34995	0.0853906	0.0114326	-0.018587	-1.57731	-0.482982	2.95626	0	0	0	0	-0	0	0	0	-0.1265	0	-0	0	0	0	0	0	-0	0	0.105	0.015	0	0	-0	0	0	0.098	0.1	0	-0	0	0	0	0	0	-0	0	0.05595	0	0	0	-0	0	0	0	0	0	-0	0	353.689	585.631	589.115	272.395	-3.26492	1.59054	0.0780326	-0.732579	-0.39972
81	6.02492e-05	0.831398	-0.0966536	0.37207	-0.00963818	0.209884	0.0118964	-0.0337109	0.0461742	-0.0446769	-0.482676	0.350017	0.0843028	0.0131468	-0.0189653	-1.57458	-0.481896	2.96285	0	0	0	0	-0	0	0	0	-0.1265	0	-0	0	0	0	0	0	-0	0	0.105	0.015	0	0	-0	0	0	0.098	0.1	0	-0	0	0	0	0	0	-0	0	0.05595	0	0	0	-0	0	0	0	0	0	-0	0	353.653	585.683	589.144	272.424	-3.31133	1.64271	0.0804091	-0.742614	-0.425401
82	0.000175139	0.834623	-0.10285	0.371613	-0.0130392	0.213003	0.0120769	-0.0333094	0.0460204	-0.0447629	-0.48278	0.35001	0.0853672	0.0114775	-0.0185744	-1.57727	-0.48272	2.95631	0	0	0	0	-0	0	0	0	-0.1265	0	-0	0	0	0	0	0	-0	0	0.105	0.015	0	0	-0	0	0	0.098	0.1	0	-0	0	0	0	0	0	-0	0	0.05595	0	0	0	-0	0	0	0	0	0	-0	0	353.636	585.71	589.154	272.436	-3.26241	1.58866	0.0779667	-0.732255	-0.399182
83	-0.00015801	0.831502	-0.0968066	0.371985	-0.00969493	0.209986	0.0119021	-0.0336993	0.0461657	-0.0457011	-0.482794	0.350282	0.0843225	0.013125	-0.0189705	-1.57466	-0.482169	2.96261	0	0	0	0	-0	0	0	0	-0.1265	0	-0	0	0	0	0	0	-0	0	0.105	0.015	0	0	-0	0	0	0.098	0.1	0	-0	0	0	0	0	0	-0	0	0.05595	0	0	0	-0	0	0	0	0	0	-0	0	353.595	585.769	589.186	272.468	-3.31096	1.64159	0.0803033	-0.742693	-0.424816
84	-0.000172106	0.834531	-0.102707	0.371589	-0.0129538	0.212938	0.0120734	-0.0333159	0.0460207	-0.0458712	-0.482706	0.350428	0.0853413	0.011508	-0.0186151	-1.57711	-0.483101	2.95621	0	0	0	0	-0	0	0	0	-0.1265	0	-0	0	0	0	0	0	-0	0	0.105	0.015	0	0	-0	0	0	0.098	0.1	0	-0	0	0	0	0	0	-0	0	0.05595	0	0	0	-0	0	0	0	0	0	-0	0	353.575	585.799	589.198	272.481	-3.2599	1.58659	0.0778776	-0.731938	-0.398507
85	-0.000259266	0.831624	-0.0969283	0.371896	-0.00973519	0.210081	0.0119061	-0.0336913	0.0461566	-0.0454622	-0.483034	0.350615	0.0843362	0.0131159	-0.0189693	-1.57473	-0.482313	2.96239	0	0	0	0	-0	0	0	0	-0.1265	0	-0	0	0	0	0	0	-0	0	0.105	0.015	0	0	-0	0	0	0.098	0.1	0	-0	0	0	0	0	0	-0	0	0.05595	0	0	0	-0	0	0	0	0	0	-0	0	353.53	585.865	589.233	272.517	-3.31128	1.64111	0.0802116	-0.742927	-0.424493
86	-0.000223203	0.834507	-0.102626	0.371555	-0.0129082	0.212914	0.0120709	-0.0333193	0.0460192	-0.0454406	-0.482964	0.350719	0.0853294	0.0115256	-0.0186277	-1.57701	-0.483192	2.95606	0	0	0	0	-0	0	0	0	-0.1265	0	-0	0	0	0	0	0	-0	0	0.105	0.015	0	0	-0	0	0	0.098	0.1	0	-0	0	0	0	0	0	-0	0	0.05595	0	0	0	-0	0	0	0	0	0	-0	0	353.508	585.899	589.247	272.532	-3.25746	1.58441	0.0777678	-0.731643	-0.397727
87	-0.00022179	0.831756	-0.0970207	0.371807	-0.00976	0.21017	0.0119079	-0.0336855	0.0461486	-0.0460008	-0.483383	0.350907	0.0843455	0.0131177	-0.0189595	-1.57479	-0.482306	2.9622	0	0	0	0	-0	0	0	0	-0.1265	0	-0	0	0	0	0	0	-0	0	0.105	0.015	0	0	-0	0	0	0.098	0.1	0	-0	0	0	0	0	0	-0	0	0.05595	0	0	0	-0	0	0	0	0	0	-0	0	353.456	585.973	589.286	272.572	-3.31221	1.64113	0.0801286	-0.743303	-0.42438
88	-9.66732e-05	0.83454	-0.102604	0.371509	-0.0128913	0.212928	0.0120691	-0.0333199	0.0460156	-0.0458758	-0.483198	0.350857	0.0853284	0.0115318	-0.0186234	-1.57695	-0.483107	2.95584	0	0	0	0	-0	0	0	0	-0.1265	0	-0	0	0	0	0	0	-0	0	0.105	0.015	0	0	-0	0	0	0.098	0.1	0	-0	0	0	0	0	0	-0	0	0.05595	0	0	0	-0	0	0	0	0	0	-0	0	353.432	586.011	589.302	272.589	-3.25497	1.58202	0.0776351	-0.73135	-0.396809
89	0.000425199	0.831913	-0.0970936	0.371709	-0.0097728	0.21026	0.0119082	-0.0336823	0.0461396	-0.0450091	-0.483725	0.350409	0.0843603	0.0131302	-0.0189011	-1.57494	-0.481686	2.96206	0	0	0	0	-0	0	0	0	-0.1265	0	-0	0	0	0	0	0	-0	0	0.105	0.015	0	0	-0	0	0	0.098	0.1	0	-0	0	0	0	0	0	-0	0	0.05595	0	0	0	-0	0	0	0	0	0	-0	0	353.374	586.095	589.345	272.634	-3.31384	1.64172	0.0800553	-0.743839	-0.424495
90	0.000655452	0.834631	-0.102632	0.371452	-0.0129068	0.212979	0.0120681	-0.0333178	0.0460101	-0.0453803	-0.483833	0.350712	0.0853461	0.011527	-0.0185637	-1.57702	-0.482409	2.9556	0	0	0	0	-0	0	0	0	-0.1265	0	-0	0	0	0	0	0	-0	0	0.105	0.015	0	0	-0	0	0	0.098	0.1	0	-0	0	0	0	0	0	-0	0	0.05595	0	0	0	-0	0	0	0	0	0	-0	0	353.347	586.137	589.363	272.653	-3.25239	1.57938	0.0774785	-0.731053	-0.395745
91	0.000521404	0.832088	-0.0971429	0.371604	-0.00977243	0.210349	0.011907	-0.0336812	0.0461311	-0.0447992	-0.48389	0.35027	0.084359	0.0131529	-0.0188929	-1.57495	-0.481595	2.96187	0	0	0	0	-0	0	0	0	-0.1265	0	-0	0	0	0	0	0	-0	0	0.105	0.015	0	0	-0	0	0	0.098	0.1	0	-0	0	0	0	0	0	-0	0	0.05595	0	0	0	-0	0	0	0	0	0	-0	0	353.282	586.231	589.412	272.703	-3.3161	1.64281	0.0799885	-0.74453	-0.42481
92	0.000687264	0.834785	-0.102721	0.371382	-0.0129519	0.213073	0.0120677	-0.0333125	0.0460026	-0.0446998	-0.483797	0.350208	0.0853592	0.0115083	-0.0185638	-1.57694	-0.482419	2.9552	0	0	0	0	-0	0	0	0	-0.1265	0	-0	0	0	0	0	0	-0	0	0.105	0.015	0	0	-0	0	0	0.098	0.1	0	-0	0	0	0	0	0	-0	0	0.05595	0	0	0	-0	0	0	0	0	0	-0	0	353.252	586.278	589.432	272.724	-3.24942	1.57624	0.0772893	-0.730699	-0.394427
93	0.000966835	0.832289	-0.0971658	0.371483	-0.00975631	0.210439	0.0119041	-0.0336826	0.0461218	-0.044816	-0.484859	0.350105	0.0843575	0.0131875	-0.0188574	-1.575	-0.481149	2.96172	0	0	0	0	-0	0	0	0	-0.1265	0	-0	0	0	0	0	0	-0	0	0.105	0.015	0	0	-0	0	0	0.098	0.1	0	-0	0	0	0	0	0	-0	0	0.05595	0	0	0	-0	0	0	0	0	0	-0	0	353.179	586.384	589.486	272.781	-3.31905	1.64445	0.0799302	-0.745388	-0.425339
94	0.00116672	0.834999	-0.102861	0.371294	-0.0130295	0.213207	0.0120681	-0.0333043	0.0459929	-0.0450741	-0.485195	0.350653	0.0853889	0.0114762	-0.0185238	-1.57694	-0.481994	2.95473	0	0	0	0	-0	0	0	0	-0.1265	0	-0	0	0	0	0	0	-0	0	0.105	0.015	0	0	-0	0	0	0.098	0.1	0	-0	0	0	0	0	0	-0	0	0.05595	0	0	0	-0	0	0	0	0	0	-0	0	353.145	586.437	589.509	272.804	-3.24602	1.57256	0.0770665	-0.730279	-0.392843
95	0.00141993	0.832521	-0.0971659	0.371342	-0.00972528	0.210537	0.0119001	-0.0336863	0.0461121	-0.0444641	-0.484423	0.350049	0.0843504	0.0132335	-0.0188246	-1.57502	-0.480682	2.96156	0	0	0	0	-0	0	0	0	-0.1265	0	-0	0	0	0	0	0	-0	0	0.105	0.015	0	0	-0	0	0	0.098	0.1	0	-0	0	0	0	0	0	-0	0	0.05595	0	0	0	-0	0	0	0	0	0	-0	0	353.063	586.556	589.57	272.867	-3.32279	1.64668	0.0798791	-0.746436	-0.426089
96	0.00147564	0.835293	-0.103068	0.371182	-0.0131438	0.213395	0.0120697	-0.0332923	0.0459805	-0.0445622	-0.484598	0.350356	0.0854267	0.0114258	-0.0184968	-1.57691	-0.48174	2.95412	0	0	0	0	-0	0	0	0	-0.1265	0	-0	0	0	0	0	0	-0	0	0.105	0.015	0	0	-0	0	0	0.098	0.1	0	-0	0	0	0	0	0	-0	0	0.05595	0	0	0	-0	0	0	0	0	0	-0	0	353.025	586.615	589.595	272.893	-3.24183	1.56802	0.0767986	-0.729727	-0.390858
97	0.00178951	0.832791	-0.0971308	0.371172	-0.0096751	0.210642	0.0118943	-0.033693	0.0461008	-0.0446117	-0.485374	0.350381	0.084335	0.0132926	-0.018802	-1.57498	-0.480284	2.96139	0	0	0	0	-0	0	0	0	-0.1265	0	-0	0	0	0	0	0	-0	0	0.105	0.015	0	0	-0	0	0	0.098	0.1	0	-0	0	0	0	0	0	-0	0	0.05595	0	0	0	-0	0	0	0	0	0	-0	0	352.934	586.749	589.663	272.964	-3.32736	1.64952	0.0798365	-0.747688	-0.427064
98	0.00172129	0.836316	-0.103587	0.371183	-0.0134134	0.213896	0.0120513	-0.0333002	0.0459692	-0.0447159	-0.485403	0.350622	0.0853802	0.0115832	-0.0184339	-1.57725	-0.481069	2.95457	0	0	0	0	-0	0	0	0	-0.1265	0	-0	0	0	0	0	0	-0	0	0.105	0.015	0	0	-0	0	0	0.098	0.1	0	-0	0	0	0	0	0	-0	0	0.05595	0	0	0	-0	0	0	0	0	0	-0	0	352.922	586.768	589.67	272.972	-3.28139	1.59967	0.0774081	-0.737551	-0.402781
99	0.00170324	0.832387	-0.0973027	0.371808	-0.00980625	0.210359	0.011877	-0.0336998	0.0461228	-0.0445305	-0.48577	0.350409	0.0843051	0.0132493	-0.0188475	-1.57455	-0.480416	2.96111	0	0	0	0	-0	0	0	0	-0.1265	0	-0	0	0	0	0	0	-0	0	0.105	0.015	0	0	-0	0	0	0.098	0.1	0	-0	0	0	0	0	0	-0	0	0.05595	0	0	0	-0	0	0	0	0	0	-0	0	352.896	586.805	589.69	272.992	-3.31789	1.64275	0.0795509	-0.745741	-0.424858
100	0.00163322	0.835794	-0.103483	0.371397	-0.0131734	0.213461	0.0120451	-0.0333078	0.0459728	-0.0446737	-0.485657	0.350496	0.0853235	0.0116754	-0.0184619	-1.57731	-0.481269	2.95494	0	0	0	0	-0	0	0	0	-0.1265	0	-0	0	0	0	0	0	-0	0	0.105	0.015	0	0	-0	0	0	0.098	0.1	0	-0	0	0	0	0	0	-0	0	0.05595	0	0	0	-0	0	0	0	0	0	-0	0	352.884	586.824	589.697	273	-3.28163	1.5994	0.0774163	-0.737884	-0.402879
