Stefan210/kinematic_calibration/src/kinematic_calibration/validation/experiments/experiments/anzahl_messungen/AC_B/larm_13/optimization_intermediate_results.csv
iteration	HeadPitch_offset	HeadYaw_offset	LElbowRoll_offset	LElbowYaw_offset	LShoulderPitch_offset	LShoulderRoll_offset	marker_transform_larm_tx	marker_transform_larm_ty	marker_transform_larm_tz	marker_transform_larm_rr	marker_transform_larm_rp	marker_transform_larm_ry	camera_transform_tx	camera_transform_ty	camera_transform_tz	camera_transform_rr	camera_transform_rp	camera_transform_ry	HeadPitch_transform_tx	HeadPitch_transform_ty	HeadPitch_transform_tz	HeadPitch_transform_rr	HeadPitch_transform_rp	HeadPitch_transform_ry	HeadYaw_transform_tx	HeadYaw_transform_ty	HeadYaw_transform_tz	HeadYaw_transform_rr	HeadYaw_transform_rp	HeadYaw_transform_ry	LElbowRoll_transform_tx	LElbowRoll_transform_ty	LElbowRoll_transform_tz	LElbowRoll_transform_rr	LElbowRoll_transform_rp	LElbowRoll_transform_ry	LElbowYaw_transform_tx	LElbowYaw_transform_ty	LElbowYaw_transform_tz	LElbowYaw_transform_rr	LElbowYaw_transform_rp	LElbowYaw_transform_ry	LShoulderPitch_transform_tx	LShoulderPitch_transform_ty	LShoulderPitch_transform_tz	LShoulderPitch_transform_rr	LShoulderPitch_transform_rp	LShoulderPitch_transform_ry	LShoulderRoll_transform_tx	LShoulderRoll_transform_ty	LShoulderRoll_transform_tz	LShoulderRoll_transform_rr	LShoulderRoll_transform_rp	LShoulderRoll_transform_ry	LWristYaw_transform_tx	LWristYaw_transform_ty	LWristYaw_transform_tz	LWristYaw_transform_rr	LWristYaw_transform_rp	LWristYaw_transform_ry	l_wrist_joint_transform_tx	l_wrist_joint_transform_ty	l_wrist_joint_transform_tz	l_wrist_joint_transform_rr	l_wrist_joint_transform_rp	l_wrist_joint_transform_ry	camera_fx	camera_fy	camera_cx	camera_cy	camera_D0	camera_D1	camera_D2	camera_D3	camera_D4	
0	0.0249164	-0.0307543	0.000853157	4.65819e-06	-0.000318322	-0.00310766	0.05071	0	0.01774	-2.26369	1.66533e-16	-1.5708	545.901	551.038	324.928	201.58	0.0255298	2.61142	-0.0636736	-0.0350419	0.213964
1	-0.016918	0.0311813	0.0195626	0.00949296	-0.0201633	0.0306515	0.0243344	-0.029622	-0.00040437	0.000154301	-0.000195108	-0.00306693	0.0526147	0.00104454	0.0198351	-2.19629	-0.0168658	-1.57149	0	0	0	0	-0	0	0	0	-0.1265	0	-0	0	0	0	0	0	-0	0	0.105	0.015	0	0	-0	0	0	0.098	0.1	0	-0	0	0	0	0	0	-0	0	0.05595	0	0	0	-0	0	0	0	0	0	-0	0	545.901	551.038	324.928	201.58	0.0141296	2.60792	-0.046525	0.0228353	0.213268
2	-0.0166918	0.0387115	0.0206726	0.000682252	-0.0240745	0.0350547	0.0245208	-0.0299086	-0.00131101	0.000259009	-0.000107088	-0.00307274	0.0502473	0.00142914	0.0225717	-2.19793	-0.0201731	-1.58564	0	0	0	0	-0	0	0	0	-0.1265	0	-0	0	0	0	0	0	-0	0	0.105	0.015	0	0	-0	0	0	0.098	0.1	0	-0	0	0	0	0	0	-0	0	0.05595	0	0	0	-0	0	0	0	0	0	-0	0	545.902	551.038	324.927	201.581	-0.0155814	2.59215	-0.0361108	0.0191974	0.208907
3	-0.0166327	0.0382635	0.0197736	-0.00113799	-0.0232389	0.0347509	0.0243807	-0.0298686	-0.00128805	0.000257082	-0.000109081	-0.00308296	0.0511127	0.00191383	0.0217835	-2.19794	-0.0197545	-1.58968	0	0	0	0	-0	0	0	0	-0.1265	0	-0	0	0	0	0	0	-0	0	0.105	0.015	0	0	-0	0	0	0.098	0.1	0	-0	0	0	0	0	0	-0	0	0.05595	0	0	0	-0	0	0	0	0	0	-0	0	545.903	551.038	324.926	201.583	-0.0994783	2.55175	-0.0319152	0.0214245	0.198301
4	-0.0162044	0.0356442	0.0183493	-0.00551075	-0.0207451	0.0340381	0.0240918	-0.0297414	-0.00139257	0.000278089	-9.11411e-05	-0.00310551	0.0528693	0.00267411	0.0200569	-2.19918	-0.018276	-1.59185	0	0	0	0	-0	0	0	0	-0.1265	0	-0	0	0	0	0	0	-0	0	0.105	0.015	0	0	-0	0	0	0.098	0.1	0	-0	0	0	0	0	0	-0	0	0.05595	0	0	0	-0	0	0	0	0	0	-0	0	545.907	551.037	324.922	201.587	-0.310437	2.44666	-0.0138744	0.0140528	0.170076
5	-0.0153941	0.0304122	0.0152427	-0.0143459	-0.0157045	0.0324143	0.0235213	-0.0295003	-0.00158418	0.000279924	-6.6177e-05	-0.00317241	0.0562143	0.00418878	0.0167362	-2.20151	-0.0153376	-1.59698	0	0	0	0	-0	0	0	0	-0.1265	0	-0	0	0	0	0	0	-0	0	0.105	0.015	0	0	-0	0	0	0.098	0.1	0	-0	0	0	0	0	0	-0	0	0.05595	0	0	0	-0	0	0	0	0	0	-0	0	545.919	551.032	324.917	201.596	-0.669768	2.24939	0.0163715	0.00330941	0.114622
6	-0.0146732	0.0259289	0.0123716	-0.0208818	-0.0114451	0.030795	0.0230937	-0.0293258	-0.00167569	0.000311204	-4.33295e-05	-0.00316067	0.0585428	0.00530126	0.0143903	-2.20387	-0.0125962	-1.60077	0	0	0	0	-0	0	0	0	-0.1265	0	-0	0	0	0	0	0	-0	0	0.105	0.015	0	0	-0	0	0	0.098	0.1	0	-0	0	0	0	0	0	-0	0	0.05595	0	0	0	-0	0	0	0	0	0	-0	0	545.951	551.012	324.921	201.608	-0.860628	2.05485	0.0349748	-0.00378987	0.0536984
7	-0.0145119	0.0253398	0.0120092	-0.0209488	-0.0107309	0.0305623	0.0231041	-0.0293103	-0.00158737	0.000392608	-8.97257e-05	-0.00320255	0.058418	0.00530376	0.0145973	-2.20507	-0.0116155	-1.60142	0	0	0	0	-0	0	0	0	-0.1265	0	-0	0	0	0	0	0	-0	0	0.105	0.015	0	0	-0	0	0	0.098	0.1	0	-0	0	0	0	0	0	-0	0	0.05595	0	0	0	-0	0	0	0	0	0	-0	0	546.046	550.949	324.957	201.633	-0.800335	1.87119	0.0349573	-0.00198743	0.000552619
8	-0.0143971	0.0253995	0.0124179	-0.0209049	-0.0106449	0.0306636	0.0231664	-0.0293148	-0.00157921	0.000515343	-0.000510706	-0.00338582	0.0579418	0.00515376	0.015146	-2.20587	-0.0112099	-1.6011	0	0	0	0	-0	0	0	0	-0.1265	0	-0	0	0	0	0	0	-0	0	0.105	0.015	0	0	-0	0	0	0.098	0.1	0	-0	0	0	0	0	0	-0	0	0.05595	0	0	0	-0	0	0	0	0	0	-0	0	546.319	550.761	325.064	201.696	-0.726037	1.68975	0.0339973	-9.05043e-05	0.00129309
9	-0.0143978	0.0254451	0.0127811	-0.020496	-0.0107036	0.0305388	0.023201	-0.029307	-0.0015647	-0.000527831	-0.000192668	-0.00399487	0.05762	0.00502996	0.0154932	-2.20654	-0.0112541	-1.60066	0	0	0	0	-0	0	0	0	-0.1265	0	-0	0	0	0	0	0	-0	0	0.105	0.015	0	0	-0	0	0	0.098	0.1	0	-0	0	0	0	0	0	-0	0	0.05595	0	0	0	-0	0	0	0	0	0	-0	0	547.087	550.235	325.341	201.865	-0.697099	1.55614	0.0357186	-0.000151718	0.16357
10	-0.0123708	0.025471	0.0132173	-0.0192542	-0.0108744	0.0299692	0.023232	-0.0292818	-0.0014801	0.000897252	-6.91504e-06	-0.00549484	0.0572469	0.00486649	0.0159842	-2.20558	-0.0116782	-1.60076	0	0	0	0	-0	0	0	0	-0.1265	0	-0	0	0	0	0	0	-0	0	0.105	0.015	0	0	-0	0	0	0.098	0.1	0	-0	0	0	0	0	0	-0	0	0.05595	0	0	0	-0	0	0	0	0	0	-0	0	549.032	548.924	326.077	202.318	-0.693127	1.38093	0.0411444	-0.000778163	0.615137
11	-0.0110437	0.0255145	0.0139406	-0.0167242	-0.0112162	0.028822	0.0232845	-0.0292311	-0.00129635	0.000511953	-0.000730989	-0.00656867	0.056654	0.00457403	0.0166936	-2.2066	-0.0131896	-1.60174	0	0	0	0	-0	0	0	0	-0.1265	0	-0	0	0	0	0	0	-0	0	0.105	0.015	0	0	-0	0	0	0.098	0.1	0	-0	0	0	0	0	0	-0	0	0.05595	0	0	0	-0	0	0	0	0	0	-0	0	552.826	546.558	327.94	203.412	-0.699296	1.11144	0.0515144	-0.00185248	1.37209
12	-0.0216083	0.0255951	0.0146054	-0.0138864	-0.0116451	0.0275735	0.0233452	-0.0291685	-0.00107949	-0.0269216	0.014057	-0.011078	0.056273	0.00426194	0.0167453	-2.22151	-0.0179972	-1.60548	0	0	0	0	-0	0	0	0	-0.1265	0	-0	0	0	0	0	0	-0	0	0.105	0.015	0	0	-0	0	0	0.098	0.1	0	-0	0	0	0	0	0	-0	0	0.05595	0	0	0	-0	0	0	0	0	0	-0	0	557.252	544.851	332.112	205.579	-0.721054	1.00782	0.0616447	-0.00250709	1.64502
13	-0.035416	0.025688	0.0143621	-0.01325	-0.0119531	0.0271525	0.0233889	-0.029141	-0.000976858	-0.0576492	-0.0247245	0.00554245	0.0566311	0.00423554	0.0159535	-2.24305	-0.0299107	-1.61616	0	0	0	0	-0	0	0	0	-0.1265	0	-0	0	0	0	0	0	-0	0	0.105	0.015	0	0	-0	0	0	0.098	0.1	0	-0	0	0	0	0	0	-0	0	0.05595	0	0	0	-0	0	0	0	0	0	-0	0	560.241	547.505	340.891	209.719	-0.810943	1.76895	0.0621036	-0.00164957	-0.472814
14	-0.0405651	0.0254079	0.013236	-0.0154531	-0.0118734	0.027071	0.0232893	-0.0290975	-0.00106716	-0.0489756	-0.028173	0.0518626	0.0576836	0.00457611	0.0146484	-2.25779	-0.0439767	-1.62871	0	0	0	0	-0	0	0	0	-0.1265	0	-0	0	0	0	0	0	-0	0	0.105	0.015	0	0	-0	0	0	0.098	0.1	0	-0	0	0	0	0	0	-0	0	0.05595	0	0	0	-0	0	0	0	0	0	-0	0	562.247	552.716	350.349	215.218	-1.0509	3.42353	0.0599319	-0.00275972	-4.28437
15	-0.0421455	0.0249372	0.0122223	-0.0182188	-0.0116285	0.0269218	0.0231587	-0.0290602	-0.00120225	-0.103545	-0.0154113	0.0431151	0.0586385	0.00493532	0.0135533	-2.26416	-0.0510821	-1.63543	0	0	0	0	-0	0	0	0	-0.1265	0	-0	0	0	0	0	0	-0	0	0.105	0.015	0	0	-0	0	0	0.098	0.1	0	-0	0	0	0	0	0	-0	0	0.05595	0	0	0	-0	0	0	0	0	0	-0	0	562.656	555.597	354.584	217.992	-1.24582	4.46949	0.060167	-0.00524978	-6.23549
16	-0.0356933	0.0246329	0.0115803	-0.0206913	-0.0114816	0.0269501	0.0231225	-0.0289945	-0.00131975	-0.126418	-0.0360745	0.0531875	0.0591702	0.00517677	0.0133043	-2.26293	-0.0569744	-1.64177	0	0	0	0	-0	0	0	0	-0.1265	0	-0	0	0	0	0	0	-0	0	0.105	0.015	0	0	-0	0	0	0.098	0.1	0	-0	0	0	0	0	0	-0	0	0.05595	0	0	0	-0	0	0	0	0	0	-0	0	562.9	558.352	358.543	220.801	-1.36308	5.12643	0.0594321	-0.00653351	-7.50238
17	-0.0123946	0.0243398	0.0110292	-0.0238052	-0.0113885	0.0271124	0.0230766	-0.0289549	-0.0014669	-0.0961374	-0.0467383	0.0119756	0.0594704	0.00541357	0.0141214	-2.24775	-0.0632241	-1.65044	0	0	0	0	-0	0	0	0	-0.1265	0	-0	0	0	0	0	0	-0	0	0.105	0.015	0	0	-0	0	0	0.098	0.1	0	-0	0	0	0	0	0	-0	0	0.05595	0	0	0	-0	0	0	0	0	0	-0	0	563.342	562.227	363.691	225.016	-1.47312	5.71427	0.0583655	-0.00825437	-8.5884
18	-0.0262383	0.0238992	0.0103616	-0.0291764	-0.0113381	0.0274811	0.0230489	-0.028896	-0.00176815	-0.0811296	-0.00926146	0.0713628	0.0605249	0.00575097	0.0125974	-2.27762	-0.0773272	-1.66105	0	0	0	0	-0	0	0	0	-0.1265	0	-0	0	0	0	0	0	-0	0	0.105	0.015	0	0	-0	0	0	0.098	0.1	0	-0	0	0	0	0	0	-0	0	0.05595	0	0	0	-0	0	0	0	0	0	-0	0	564.525	569.685	372.129	233.264	-1.63792	6.54985	0.056521	-0.0118808	-10.0598
19	-0.0214756	0.0231881	0.00919103	-0.0328819	-0.0112581	0.0273564	0.0229015	-0.0287913	-0.00199405	-0.101632	-0.0246916	0.088305	0.0614506	0.00613776	0.0118477	-2.28048	-0.0837061	-1.66693	0	0	0	0	-0	0	0	0	-0.1265	0	-0	0	0	0	0	0	-0	0	0.105	0.015	0	0	-0	0	0	0.098	0.1	0	-0	0	0	0	0	0	-0	0	0.05595	0	0	0	-0	0	0	0	0	0	-0	0	564.066	573.693	375.564	237.523	-1.83039	7.36536	0.0559955	-0.017679	-11.2478
20	-0.0208562	0.022766	0.00850332	-0.0348161	-0.0112077	0.0272129	0.0228331	-0.028739	-0.00208784	-0.106035	-0.0426554	0.0952533	0.0619749	0.00634732	0.011349	-2.28344	-0.0867111	-1.66964	0	0	0	0	-0	0	0	0	-0.1265	0	-0	0	0	0	0	0	-0	0	0.105	0.015	0	0	-0	0	0	0.098	0.1	0	-0	0	0	0	0	0	-0	0	0.05595	0	0	0	-0	0	0	0	0	0	-0	0	563.577	575.468	376.979	239.519	-1.92178	7.72795	0.0555313	-0.0204627	-11.7271
21	0.00667791	0.0219416	0.00743554	-0.0396674	-0.0112349	0.0270746	0.0227379	-0.0286953	-0.0023605	-0.120025	-0.0361233	0.140937	0.0626991	0.00674001	0.0120235	-2.26993	-0.0922518	-1.67779	0	0	0	0	-0	0	0	0	-0.1265	0	-0	0	0	0	0	0	-0	0	0.105	0.015	0	0	-0	0	0	0.098	0.1	0	-0	0	0	0	0	0	-0	0	0.05595	0	0	0	-0	0	0	0	0	0	-0	0	562.554	580.761	380.997	247.104	-2.13053	8.71226	0.0538854	-0.0273304	-13.3015
22	-0.000491113	0.0214178	0.00653	-0.0415503	-0.0112627	0.0267218	0.022638	-0.0286232	-0.0024624	-0.092706	-0.0384003	0.144963	0.0633771	0.00697234	0.0109978	-2.28271	-0.0958324	-1.67928	0	0	0	0	-0	0	0	0	-0.1265	0	-0	0	0	0	0	0	-0	0	0.105	0.015	0	0	-0	0	0	0.098	0.1	0	-0	0	0	0	0	0	-0	0	0.05595	0	0	0	-0	0	0	0	0	0	-0	0	561.717	583.122	381.977	250.293	-2.24907	9.16182	0.0524735	-0.0321969	-13.8472
23	0.00937933	0.0211594	0.0061657	-0.0429597	-0.011291	0.026492	0.0225808	-0.02863	-0.00255095	-0.150707	-0.0139557	0.147281	0.0635712	0.00708744	0.0113051	-2.27895	-0.0965116	-1.68074	0	0	0	0	-0	0	0	0	-0.1265	0	-0	0	0	0	0	0	-0	0	0.105	0.015	0	0	-0	0	0	0.098	0.1	0	-0	0	0	0	0	0	-0	0	0.05595	0	0	0	-0	0	0	0	0	0	-0	0	561.281	585.34	382.428	253.576	-2.34406	9.60912	0.0516609	-0.0364457	-14.5718
24	-0.0142929	0.0211572	0.00620408	-0.043334	-0.0112938	0.0263745	0.0225983	-0.0285759	-0.00257957	-0.133939	0.0131299	0.140052	0.0638726	0.00709278	0.00977152	-2.30547	-0.0993159	-1.67801	0	0	0	0	-0	0	0	0	-0.1265	0	-0	0	0	0	0	0	-0	0	0.105	0.015	0	0	-0	0	0	0.098	0.1	0	-0	0	0	0	0	0	-0	0	0.05595	0	0	0	-0	0	0	0	0	0	-0	0	561.283	586.519	382.386	255.053	-2.38729	9.81321	0.0515449	-0.039203	-14.9278
25	-0.0249941	0.0211656	0.00623363	-0.0434939	-0.0112978	0.0263255	0.0225822	-0.0285673	-0.00259102	-0.150278	0.0104693	0.133989	0.0639554	0.00709088	0.00908962	-2.31776	-0.100433	-1.67658	0	0	0	0	-0	0	0	0	-0.1265	0	-0	0	0	0	0	0	-0	0	0.105	0.015	0	0	-0	0	0	0.098	0.1	0	-0	0	0	0	0	0	-0	0	0.05595	0	0	0	-0	0	0	0	0	0	-0	0	561.421	587.205	382.284	255.867	-2.41029	9.94454	0.0514672	-0.0403948	-15.1811
26	-0.0279967	0.0211861	0.00628256	-0.0435203	-0.0112977	0.0263109	0.0225818	-0.028561	-0.00259413	-0.146192	0.0127636	0.14076	0.0639625	0.00708261	0.00891665	-2.32133	-0.10068	-1.67608	0	0	0	0	-0	0	0	0	-0.1265	0	-0	0	0	0	0	0	-0	0	0.105	0.015	0	0	-0	0	0	0.098	0.1	0	-0	0	0	0	0	0	-0	0	0.05595	0	0	0	-0	0	0	0	0	0	-0	0	561.491	587.462	382.23	256.142	-2.41772	9.9859	0.0515064	-0.0409432	-15.2653
27	-0.033639	0.0211931	0.00629375	-0.0435555	-0.0113012	0.0263031	0.0225819	-0.0285605	-0.00259827	-0.137939	0.0123907	0.150228	0.0640001	0.0070801	0.00857008	-2.32759	-0.101174	-1.67529	0	0	0	0	-0	0	0	0	-0.1265	0	-0	0	0	0	0	0	-0	0	0.105	0.015	0	0	-0	0	0	0.098	0.1	0	-0	0	0	0	0	0	-0	0	0.05595	0	0	0	-0	0	0	0	0	0	-0	0	561.621	587.765	382.14	256.458	-2.42656	10.0487	0.0514533	-0.0412361	-15.3965
28	-0.037103	0.0212119	0.00630552	-0.0435408	-0.0113054	0.0263082	0.0225819	-0.0285562	-0.0025973	-0.133451	0.000827588	0.148944	0.0639861	0.00707254	0.00839638	-2.33205	-0.101133	-1.67438	0	0	0	0	-0	0	0	0	-0.1265	0	-0	0	0	0	0	0	-0	0	0.105	0.015	0	0	-0	0	0	0.098	0.1	0	-0	0	0	0	0	0	-0	0	0.05595	0	0	0	-0	0	0	0	0	0	-0	0	562.008	588.332	381.854	256.952	-2.44158	10.1809	0.0513419	-0.0413642	-15.6892
29	-0.0359916	0.021227	0.00633301	-0.0435193	-0.0113039	0.0263096	0.0225831	-0.0285564	-0.00259749	-0.137681	0.00153859	0.145279	0.0639581	0.00706605	0.00848873	-2.33115	-0.100895	-1.67433	0	0	0	0	-0	0	0	0	-0.1265	0	-0	0	0	0	0	0	-0	0	0.105	0.015	0	0	-0	0	0	0.098	0.1	0	-0	0	0	0	0	0	-0	0	0.05595	0	0	0	-0	0	0	0	0	0	-0	0	562.1	588.462	381.784	257.048	-2.44446	10.2056	0.0513695	-0.0415016	-15.748
30	-0.0327502	0.0212381	0.00633794	-0.0434918	-0.0113045	0.0263182	0.0225833	-0.0285579	-0.00259701	-0.124355	-0.00542093	0.149485	0.0639062	0.00706173	0.00872334	-2.32826	-0.100335	-1.67439	0	0	0	0	-0	0	0	0	-0.1265	0	-0	0	0	0	0	0	-0	0	0.105	0.015	0	0	-0	0	0	0.098	0.1	0	-0	0	0	0	0	0	-0	0	0.05595	0	0	0	-0	0	0	0	0	0	-0	0	562.304	588.706	381.637	257.218	-2.45024	10.2632	0.0513293	-0.0414678	-15.8802
31	-0.0351472	0.0212465	0.00634662	-0.04347	-0.0113044	0.0263236	0.0225851	-0.0285558	-0.00259456	-0.121631	-0.00169692	0.154	0.0639116	0.00705822	0.00858692	-2.33082	-0.10046	-1.674	0	0	0	0	-0	0	0	0	-0.1265	0	-0	0	0	0	0	0	-0	0	0.105	0.015	0	0	-0	0	0	0.098	0.1	0	-0	0	0	0	0	0	-0	0	0.05595	0	0	0	-0	0	0	0	0	0	-0	0	562.409	588.824	381.561	257.293	-2.45279	10.2901	0.0513223	-0.0414588	-15.9439
32	-0.0288981	0.0212519	0.00634945	-0.0434523	-0.0113041	0.0263287	0.0225859	-0.0285559	-0.00259396	-0.118888	0.00331462	0.148781	0.0638457	0.00705597	0.0089998	-2.3247	-0.0997069	-1.67451	0	0	0	0	-0	0	0	0	-0.1265	0	-0	0	0	0	0	0	-0	0	0.105	0.015	0	0	-0	0	0	0.098	0.1	0	-0	0	0	0	0	0	-0	0	0.05595	0	0	0	-0	0	0	0	0	0	-0	0	562.503	588.927	381.494	257.354	-2.45505	10.3144	0.0513094	-0.0414287	-16.001
33	-0.038052	0.0212634	0.00635165	-0.0434066	-0.0113037	0.026342	0.0225884	-0.028556	-0.00259048	-0.124201	-0.00763013	0.146225	0.0638995	0.00705134	0.00844517	-2.33411	-0.1004	-1.67332	0	0	0	0	-0	0	0	0	-0.1265	0	-0	0	0	0	0	0	-0	0	0.105	0.015	0	0	-0	0	0	0.098	0.1	0	-0	0	0	0	0	0	-0	0	0.05595	0	0	0	-0	0	0	0	0	0	-0	0	562.722	589.148	381.337	257.474	-2.45978	10.3686	0.0512748	-0.0413036	-16.1295
34	-0.0345752	0.0212704	0.00635576	-0.0433799	-0.0113032	0.0263494	0.0225872	-0.0285553	-0.00258922	-0.125045	-0.00231721	0.144336	0.0638527	0.00704837	0.00868408	-2.33076	-0.0999119	-1.67353	0	0	0	0	-0	0	0	0	-0.1265	0	-0	0	0	0	0	0	-0	0	0.105	0.015	0	0	-0	0	0	0.098	0.1	0	-0	0	0	0	0	0	-0	0	0.05595	0	0	0	-0	0	0	0	0	0	-0	0	562.834	589.256	381.258	257.528	-2.46193	10.3947	0.0512638	-0.0412423	-16.1927
35	-0.0333992	0.0212856	0.0063588	-0.0433138	-0.0113016	0.0263686	0.0225883	-0.0285559	-0.00258489	-0.118114	-0.00794	0.145312	0.0638064	0.00704221	0.00879866	-2.32985	-0.0994636	-1.6733	0	0	0	0	-0	0	0	0	-0.1265	0	-0	0	0	0	0	0	-0	0	0.105	0.015	0	0	-0	0	0	0.098	0.1	0	-0	0	0	0	0	0	-0	0	0.05595	0	0	0	-0	0	0	0	0	0	-0	0	563.113	589.52	381.058	257.647	-2.46725	10.4599	0.0512305	-0.0410532	-16.3499
36	-0.0351556	0.021289	0.00636296	-0.0433027	-0.0113012	0.0263718	0.022589	-0.0285556	-0.00258423	-0.119996	-0.00572146	0.142754	0.0638155	0.00704068	0.00869355	-2.33164	-0.0995956	-1.67307	0	0	0	0	-0	0	0	0	-0.1265	0	-0	0	0	0	0	0	-0	0	0.105	0.015	0	0	-0	0	0	0.098	0.1	0	-0	0	0	0	0	0	-0	0	0.05595	0	0	0	-0	0	0	0	0	0	-0	0	563.152	589.555	381.031	257.661	-2.46781	10.468	0.0512311	-0.0410342	-16.3706
37	-0.0384599	0.0212931	0.00636311	-0.0432833	-0.0113007	0.0263777	0.0225897	-0.0285556	-0.00258273	-0.12076	-0.0110765	0.141837	0.063834	0.00703903	0.0084939	-2.33501	-0.0998394	-1.67265	0	0	0	0	-0	0	0	0	-0.1265	0	-0	0	0	0	0	0	-0	0	0.105	0.015	0	0	-0	0	0	0.098	0.1	0	-0	0	0	0	0	0	-0	0	0.05595	0	0	0	-0	0	0	0	0	0	-0	0	563.232	589.628	380.975	257.69	-2.46924	10.4861	0.0512219	-0.0409748	-16.4145
38	-0.0381171	0.0212994	0.00636382	-0.0432538	-0.0112998	0.0263866	0.0225907	-0.0285566	-0.00258089	-0.127865	-0.0139434	0.139836	0.0638156	0.00703647	0.00853275	-2.33476	-0.0996651	-1.67254	0	0	0	0	-0	0	0	0	-0.1265	0	-0	0	0	0	0	0	-0	0	0.105	0.015	0	0	-0	0	0	0.098	0.1	0	-0	0	0	0	0	0	-0	0	0.05595	0	0	0	-0	0	0	0	0	0	-0	0	563.35	589.736	380.892	257.731	-2.47131	10.5127	0.0512092	-0.0408864	-16.4794
39	-0.0367483	0.0213029	0.00636486	-0.0432377	-0.0112996	0.0263914	0.022591	-0.028556	-0.00257945	-0.128249	-0.018427	0.135224	0.0637959	0.00703501	0.00862912	-2.33344	-0.0994554	-1.67261	0	0	0	0	-0	0	0	0	-0.1265	0	-0	0	0	0	0	0	-0	0	0.105	0.015	0	0	-0	0	0	0.098	0.1	0	-0	0	0	0	0	0	-0	0	0.05595	0	0	0	-0	0	0	0	0	0	-0	0	563.411	589.789	380.85	257.751	-2.47226	10.5258	0.0512027	-0.0408358	-16.5119
40	-0.0364962	0.0213099	0.00636529	-0.0432033	-0.0112986	0.0264017	0.0225928	-0.0285578	-0.00257805	-0.129356	-0.0155019	0.12369	0.0637765	0.00703215	0.00866435	-2.33328	-0.0992727	-1.67248	0	0	0	0	-0	0	0	0	-0.1265	0	-0	0	0	0	0	0	-0	0	0.105	0.015	0	0	-0	0	0	0.098	0.1	0	-0	0	0	0	0	0	-0	0	0.05595	0	0	0	-0	0	0	0	0	0	-0	0	563.545	589.908	380.756	257.794	-2.47452	10.5555	0.0511886	-0.04073	-16.5846
41	-0.0332221	0.0213135	0.00636582	-0.0431868	-0.0112981	0.0264071	0.0225918	-0.0285562	-0.00257635	-0.126908	-0.0153029	0.126028	0.0637395	0.0070307	0.00888274	-2.33006	-0.0988622	-1.67272	0	0	0	0	-0	0	0	0	-0.1265	0	-0	0	0	0	0	0	-0	0	0.105	0.015	0	0	-0	0	0	0.098	0.1	0	-0	0	0	0	0	0	-0	0	0.05595	0	0	0	-0	0	0	0	0	0	-0	0	563.611	589.968	380.71	257.814	-2.47564	10.5702	0.0511822	-0.0406785	-16.6209
42	-0.0337632	0.0213215	0.00636642	-0.0431469	-0.0112969	0.0264188	0.0225932	-0.0285563	-0.0025734	-0.125469	-0.00934648	0.129167	0.0637244	0.00702741	0.00886981	-2.33071	-0.0987411	-1.67249	0	0	0	0	-0	0	0	0	-0.1265	0	-0	0	0	0	0	0	-0	0	0.105	0.015	0	0	-0	0	0	0.098	0.1	0	-0	0	0	0	0	0	-0	0	0.05595	0	0	0	-0	0	0	0	0	0	-0	0	563.762	590.1	380.604	257.859	-2.47808	10.6032	0.0511675	-0.0405561	-16.7021
43	-0.0230789	0.0213336	0.00636734	-0.0430876	-0.0112952	0.0264368	0.0225968	-0.028557	-0.00256737	-0.127723	0.0065433	0.138673	0.0636003	0.00702252	0.00958318	-2.32018	-0.0973905	-1.67328	0	0	0	0	-0	0	0	0	-0.1265	0	-0	0	0	0	0	0	-0	0	0.105	0.015	0	0	-0	0	0	0.098	0.1	0	-0	0	0	0	0	0	-0	0	0.05595	0	0	0	-0	0	0	0	0	0	-0	0	563.988	590.298	380.449	257.924	-2.48168	10.652	0.051145	-0.0403703	-16.823
44	-0.0206667	0.0213389	0.00636638	-0.0430575	-0.0112943	0.0264463	0.0225962	-0.0285601	-0.00256651	-0.118367	0.00627073	0.126684	0.0635584	0.00702026	0.00975173	-2.31784	-0.097017	-1.67338	0	0	0	0	-0	0	0	0	-0.1265	0	-0	0	0	0	0	0	-0	0	0.105	0.015	0	0	-0	0	0	0.098	0.1	0	-0	0	0	0	0	0	-0	0	0.05595	0	0	0	-0	0	0	0	0	0	-0	0	564.101	590.396	380.372	257.953	-2.48341	10.6764	0.051131	-0.0402676	-16.8839
45	-0.020011	0.0213441	0.00636841	-0.0430343	-0.0112939	0.0264535	0.0225951	-0.0285571	-0.00256641	-0.124213	0.012037	0.124269	0.0635401	0.00701812	0.00980604	-2.31724	-0.0968529	-1.67334	0	0	0	0	-0	0	0	0	-0.1265	0	-0	0	0	0	0	0	-0	0	0.105	0.015	0	0	-0	0	0	0.098	0.1	0	-0	0	0	0	0	0	-0	0	0.05595	0	0	0	-0	0	0	0	0	0	-0	0	564.186	590.468	380.315	257.975	-2.48462	10.6941	0.0511249	-0.0401959	-16.9282
46	-0.0171716	0.0213545	0.00636956	-0.0429828	-0.0112922	0.0264692	0.0225976	-0.0285593	-0.00256163	-0.117744	0.0106574	0.11351	0.0634868	0.00701389	0.0100139	-2.31452	-0.0963466	-1.6734	0	0	0	0	-0	0	0	0	-0.1265	0	-0	0	0	0	0	0	-0	0	0.105	0.015	0	0	-0	0	0	0.098	0.1	0	-0	0	0	0	0	0	-0	0	0.05595	0	0	0	-0	0	0	0	0	0	-0	0	564.376	590.632	380.187	258.022	-2.48747	10.7341	0.0511085	-0.040039	-17.0281
47	-0.0213217	0.0213693	0.00636939	-0.0429081	-0.0112902	0.0264924	0.0225981	-0.0285575	-0.00255712	-0.111645	0.00133023	0.111684	0.0634908	0.00700795	0.00979015	-2.31884	-0.0964552	-1.67268	0	0	0	0	-0	0	0	0	-0.1265	0	-0	0	0	0	0	0	-0	0	0.105	0.015	0	0	-0	0	0	0.098	0.1	0	-0	0	0	0	0	0	-0	0	0.05595	0	0	0	-0	0	0	0	0	0	-0	0	564.658	590.878	379.997	258.094	-2.49183	10.7944	0.0510807	-0.0398017	-17.1786
48	-0.0169487	0.021377	0.00637051	-0.0428682	-0.0112887	0.0265052	0.0225995	-0.0285577	-0.00255532	-0.108025	-0.00851763	0.114543	0.0634278	0.00700464	0.0100893	-2.31455	-0.0958444	-1.67293	0	0	0	0	-0	0	0	0	-0.1265	0	-0	0	0	0	0	0	-0	0	0.105	0.015	0	0	-0	0	0	0.098	0.1	0	-0	0	0	0	0	0	-0	0	0.05595	0	0	0	-0	0	0	0	0	0	-0	0	564.805	591.003	379.9	258.126	-2.49391	10.8249	0.0510678	-0.0396756	-17.2558
49	-0.0182435	0.0213948	0.00637125	-0.042779	-0.0112865	0.0265328	0.0226038	-0.0285624	-0.00254801	-0.100595	-0.00659515	0.0998586	0.0633963	0.00699749	0.0100542	-2.31604	-0.095616	-1.67244	0	0	0	0	-0	0	0	0	-0.1265	0	-0	0	0	0	0	0	-0	0	0.105	0.015	0	0	-0	0	0	0.098	0.1	0	-0	0	0	0	0	0	-0	0	0.05595	0	0	0	-0	0	0	0	0	0	-0	0	565.133	591.285	379.686	258.203	-2.49864	10.893	0.0510365	-0.039394	-17.4273
50	-0.0223359	0.0214203	0.00637192	-0.0426524	-0.0112835	0.0265732	0.0226068	-0.0285603	-0.00254054	-0.0942052	0.00481374	0.0960333	0.0633739	0.00698725	0.00986318	-2.32041	-0.0955101	-1.67152	0	0	0	0	-0	0	0	0	-0.1265	0	-0	0	0	0	0	0	-0	0	0.105	0.015	0	0	-0	0	0	0.098	0.1	0	-0	0	0	0	0	0	-0	0	0.05595	0	0	0	-0	0	0	0	0	0	-0	0	565.611	591.704	379.378	258.319	-2.50581	10.9938	0.05099	-0.0390014	-17.6814
