Stefan210/kinematic_calibration/src/kinematic_calibration/validation/experiments/experiments/single_point_vs_pose/marker_single_point/rarm_80/optimization_intermediate_results.csv
iteration	HeadPitch_offset	HeadYaw_offset	RElbowRoll_offset	RElbowYaw_offset	RShoulderPitch_offset	RShoulderRoll_offset	marker_transform_rarm_tx	marker_transform_rarm_ty	marker_transform_rarm_tz	marker_transform_rarm_rr	marker_transform_rarm_rp	marker_transform_rarm_ry	camera_transform_tx	camera_transform_ty	camera_transform_tz	camera_transform_rr	camera_transform_rp	camera_transform_ry	HeadPitch_transform_tx	HeadPitch_transform_ty	HeadPitch_transform_tz	HeadPitch_transform_rr	HeadPitch_transform_rp	HeadPitch_transform_ry	HeadYaw_transform_tx	HeadYaw_transform_ty	HeadYaw_transform_tz	HeadYaw_transform_rr	HeadYaw_transform_rp	HeadYaw_transform_ry	RElbowRoll_transform_tx	RElbowRoll_transform_ty	RElbowRoll_transform_tz	RElbowRoll_transform_rr	RElbowRoll_transform_rp	RElbowRoll_transform_ry	RElbowYaw_transform_tx	RElbowYaw_transform_ty	RElbowYaw_transform_tz	RElbowYaw_transform_rr	RElbowYaw_transform_rp	RElbowYaw_transform_ry	RShoulderPitch_transform_tx	RShoulderPitch_transform_ty	RShoulderPitch_transform_tz	RShoulderPitch_transform_rr	RShoulderPitch_transform_rp	RShoulderPitch_transform_ry	RShoulderRoll_transform_tx	RShoulderRoll_transform_ty	RShoulderRoll_transform_tz	RShoulderRoll_transform_rr	RShoulderRoll_transform_rp	RShoulderRoll_transform_ry	RWristYaw_transform_tx	RWristYaw_transform_ty	RWristYaw_transform_tz	RWristYaw_transform_rr	RWristYaw_transform_rp	RWristYaw_transform_ry	r_wrist_joint_transform_tx	r_wrist_joint_transform_ty	r_wrist_joint_transform_tz	r_wrist_joint_transform_rr	r_wrist_joint_transform_rp	r_wrist_joint_transform_ry	camera_fx	camera_fy	camera_cx	camera_cy	camera_D0	camera_D1	camera_D2	camera_D3	camera_D4	
0	0.0230449	0.0294606	-0.0013508	-0.00116347	0.000678263	0.00258603	0.05071	0	0.01774	-2.26369	1.66533e-16	-1.5708	545.901	551.038	324.928	201.58	0.0255298	2.61142	-0.0636736	-0.0350419	0.213964
1	-0.0147738	-0.0214666	0.0074217	0.00433424	-0.0107269	-0.0340356	0.0213399	0.0283087	-0.00023595	-0.00103915	0.000584884	0.00268056	0.054215	-0.00234819	0.017703	-2.2041	0.0108626	-1.53067	0	0	0	0	-0	0	0	0	-0.1265	0	-0	0	0	0	0	0	-0	0	0.105	-0.015	0	0	-0	0	0	-0.098	0.1	0	-0	0	0	0	0	0	-0	0	0.05595	0	0	0	-0	0	0	0	0	0	-0	0	545.901	551.039	324.929	201.581	-0.0289753	2.59364	-0.0883722	-0.0742219	0.210079
2	-0.0134938	-0.0420416	-0.0031632	0.00716899	-0.0263806	-0.0284412	0.021322	0.0283695	-0.000371874	-0.00105306	0.000594779	0.00268901	0.0534536	-0.000421453	0.0211391	-2.20973	0.0172607	-1.51791	0	0	0	0	-0	0	0	0	-0.1265	0	-0	0	0	0	0	0	-0	0	0.105	-0.015	0	0	-0	0	0	-0.098	0.1	0	-0	0	0	0	0	0	-0	0	0.05595	0	0	0	-0	0	0	0	0	0	-0	0	545.903	551.04	324.934	201.586	-0.209504	2.46926	-0.0317928	-0.0415004	0.167046
3	-0.0143419	-0.0337875	7.01826e-05	0.00916838	-0.0203891	-0.0320392	0.0213058	0.0285094	-0.000701533	-0.00108941	0.0006217	0.00270325	0.0550014	-0.00172973	0.017935	-2.2055	0.0176059	-1.52116	0	0	0	0	-0	0	0	0	-0.1265	0	-0	0	0	0	0	0	-0	0	0.105	-0.015	0	0	-0	0	0	-0.098	0.1	0	-0	0	0	0	0	0	-0	0	0.05595	0	0	0	-0	0	0	0	0	0	-0	0	545.904	551.04	324.94	201.592	-0.424026	2.33038	-0.0238515	-0.0355144	0.121269
4	-0.0143319	-0.0273903	0.000733168	0.012815	-0.0174232	-0.0348224	0.0212507	0.028837	-0.00121449	-0.00115314	0.000667614	0.00274095	0.0558865	-0.00280228	0.0158429	-2.20496	0.0187859	-1.5274	0	0	0	0	-0	0	0	0	-0.1265	0	-0	0	0	0	0	0	-0	0	0.105	-0.015	0	0	-0	0	0	-0.098	0.1	0	-0	0	0	0	0	0	-0	0	0.05595	0	0	0	-0	0	0	0	0	0	-0	0	545.909	551.041	324.948	201.6	-0.672838	2.08098	0.0122786	-0.00989246	0.0281676
5	-0.014429	-0.0226064	0.00254366	0.0145922	-0.0155658	-0.0368649	0.0211694	0.0290049	-0.00146529	-0.00118691	0.000692741	0.00276428	0.0558766	-0.00357579	0.0151236	-2.20437	0.0191407	-1.53137	0	0	0	0	-0	0	0	0	-0.1265	0	-0	0	0	0	0	0	-0	0	0.105	-0.015	0	0	-0	0	0	-0.098	0.1	0	-0	0	0	0	0	0	-0	0	0.05595	0	0	0	-0	0	0	0	0	0	-0	0	545.92	551.038	324.959	201.611	-0.681799	1.7381	0.0224783	-0.00100584	-0.119959
6	-0.0144862	-0.0197126	0.00525083	0.0141179	-0.0148114	-0.0381536	0.0210897	0.0290116	-0.00140377	-0.00122203	0.000692028	0.00277462	0.054695	-0.00396649	0.0160631	-2.20436	0.0184678	-1.5342	0	0	0	0	-0	0	0	0	-0.1265	0	-0	0	0	0	0	0	-0	0	0.105	-0.015	0	0	-0	0	0	-0.098	0.1	0	-0	0	0	0	0	0	-0	0	0.05595	0	0	0	-0	0	0	0	0	0	-0	0	545.942	551.03	324.972	201.625	-0.449459	1.2045	0.0128014	-0.00341499	-0.36424
7	-0.0145378	-0.0176906	0.00766429	0.013142	-0.0144912	-0.0391341	0.0210241	0.0289901	-0.00128101	-0.00120599	0.000689398	0.00277322	0.0533432	-0.00420291	0.0173153	-2.20459	0.0176728	-1.53646	0	0	0	0	-0	0	0	0	-0.1265	0	-0	0	0	0	0	0	-0	0	0.105	-0.015	0	0	-0	0	0	-0.098	0.1	0	-0	0	0	0	0	0	-0	0	0.05595	0	0	0	-0	0	0	0	0	0	-0	0	545.98	551.011	324.984	201.636	-0.163838	0.579331	-0.000480058	-0.00786061	-0.639194
8	-0.0145487	-0.0169155	0.00885315	0.0124553	-0.0146136	-0.0395655	0.0209876	0.0289767	-0.00119877	-0.0011905	0.000714966	0.0028502	0.0524909	-0.00428159	0.0181748	-2.20492	0.0172256	-1.53758	0	0	0	0	-0	0	0	0	-0.1265	0	-0	0	0	0	0	0	-0	0	0.105	-0.015	0	0	-0	0	0	-0.098	0.1	0	-0	0	0	0	0	0	-0	0	0.05595	0	0	0	-0	0	0	0	0	0	-0	0	546.055	550.969	324.997	201.64	0.0231379	0.133148	-0.00823945	-0.0104321	-0.791183
9	-0.0150167	-0.0167587	0.00916266	0.0122061	-0.0147374	-0.0396295	0.020975	0.0289726	-0.00117127	-0.000652307	0.001073	0.00276795	0.0521957	-0.00428608	0.0184763	-2.20561	0.0170307	-1.53801	0	0	0	0	-0	0	0	0	-0.1265	0	-0	0	0	0	0	0	-0	0	0.105	-0.015	0	0	-0	0	0	-0.098	0.1	0	-0	0	0	0	0	0	-0	0	0.05595	0	0	0	-0	0	0	0	0	0	-0	0	546.236	550.865	325.037	201.644	0.087877	-0.0676045	-0.0100738	-0.0110632	-0.729264
10	-0.0156181	-0.0166846	0.00922509	0.0120555	-0.0147564	-0.0395766	0.0209702	0.0289715	-0.00116178	0.00104606	0.00270428	0.00200226	0.0520871	-0.00427111	0.0185742	-2.20644	0.0167849	-1.53846	0	0	0	0	-0	0	0	0	-0.1265	0	-0	0	0	0	0	0	-0	0	0.105	-0.015	0	0	-0	0	0	-0.098	0.1	0	-0	0	0	0	0	0	-0	0	0.05595	0	0	0	-0	0	0	0	0	0	-0	0	546.665	550.625	325.151	201.662	0.10641	-0.220278	-0.00912648	-0.0108948	-0.422839
11	-0.0151083	-0.01657	0.00927448	0.0118166	-0.0147439	-0.0394769	0.0209659	0.0289712	-0.0011495	0.00697879	-0.00343127	-0.000582752	0.0519295	-0.00424367	0.0187586	-2.20639	0.0162446	-1.53925	0	0	0	0	-0	0	0	0	-0.1265	0	-0	0	0	0	0	0	-0	0	0.105	-0.015	0	0	-0	0	0	-0.098	0.1	0	-0	0	0	0	0	0	-0	0	0.05595	0	0	0	-0	0	0	0	0	0	-0	0	547.4	550.236	325.419	201.745	0.126573	-0.465318	-0.00700683	-0.0104136	0.156476
12	-0.00181071	-0.0164695	0.00930688	0.0115715	-0.0147391	-0.0393758	0.020964	0.0289731	-0.0011377	0.00583158	-0.00993225	-0.0174566	0.0515344	-0.00421452	0.0196076	-2.19401	0.0148898	-1.54031	0	0	0	0	-0	0	0	0	-0.1265	0	-0	0	0	0	0	0	-0	0	0.105	-0.015	0	0	-0	0	0	-0.098	0.1	0	-0	0	0	0	0	0	-0	0	0.05595	0	0	0	-0	0	0	0	0	0	-0	0	548.084	549.966	326.039	202.056	0.15114	-0.744127	-0.00504613	-0.00974484	0.816225
13	0.016615	-0.0164495	0.00930417	0.0114546	-0.0147538	-0.0393265	0.020962	0.0289699	-0.00112979	0.00828128	-0.0214656	-0.0261673	0.0511081	-0.00420106	0.0206196	-2.17664	0.01322	-1.54143	0	0	0	0	-0	0	0	0	-0.1265	0	-0	0	0	0	0	0	-0	0	0.105	-0.015	0	0	-0	0	0	-0.098	0.1	0	-0	0	0	0	0	0	-0	0	0.05595	0	0	0	-0	0	0	0	0	0	-0	0	548.322	550.002	326.933	202.519	0.166266	-0.898169	-0.00438241	-0.00913727	1.1806
14	0.0298771	-0.0164514	0.00929907	0.0114178	-0.0147648	-0.0393118	0.0209593	0.0289687	-0.00112608	0.0148986	-0.0175138	-0.0237447	0.0508095	-0.00419728	0.0213109	-2.16385	0.0123035	-1.54193	0	0	0	0	-0	0	0	0	-0.1265	0	-0	0	0	0	0	0	-0	0	0.105	-0.015	0	0	-0	0	0	-0.098	0.1	0	-0	0	0	0	0	0	-0	0	0.05595	0	0	0	-0	0	0	0	0	0	-0	0	548.364	550.056	327.391	202.743	0.172242	-0.953115	-0.00427419	-0.00886333	1.3097
15	0.0297604	-0.0164642	0.00928747	0.0113962	-0.0147799	-0.039298	0.0209609	0.0289694	-0.00112316	0.0174107	-0.0265093	-0.0167724	0.0507997	-0.00419449	0.0213136	-2.16452	0.0116546	-1.54274	0	0	0	0	-0	0	0	0	-0.1265	0	-0	0	0	0	0	0	-0	0	0.105	-0.015	0	0	-0	0	0	-0.098	0.1	0	-0	0	0	0	0	0	-0	0	0.05595	0	0	0	-0	0	0	0	0	0	-0	0	548.377	550.142	327.962	203.014	0.177441	-0.999252	-0.00423774	-0.00853871	1.41658
16	0.0323157	-0.0164875	0.00927108	0.0113754	-0.0148016	-0.0392804	0.020963	0.0289714	-0.00112206	0.00754569	-0.0127274	-0.0161081	0.0507423	-0.00419226	0.0214502	-2.16274	0.0106165	-1.54389	0	0	0	0	-0	0	0	0	-0.1265	0	-0	0	0	0	0	0	-0	0	0.105	-0.015	0	0	-0	0	0	-0.098	0.1	0	-0	0	0	0	0	0	-0	0	0.05595	0	0	0	-0	0	0	0	0	0	-0	0	548.373	550.266	328.814	203.401	0.182904	-1.04751	-0.00422353	-0.00807046	1.52826
17	0.0215048	-0.0165249	0.00924867	0.0113506	-0.0148343	-0.0392566	0.0209591	0.0289688	-0.00111951	-0.00192992	-0.0290635	-0.0161366	0.0509735	-0.00419015	0.0209072	-2.17461	0.00947614	-1.54573	0	0	0	0	-0	0	0	0	-0.1265	0	-0	0	0	0	0	0	-0	0	0.105	-0.015	0	0	-0	0	0	-0.098	0.1	0	-0	0	0	0	0	0	-0	0	0.05595	0	0	0	-0	0	0	0	0	0	-0	0	548.363	550.45	330.074	203.936	0.189435	-1.10519	-0.00423097	-0.00738662	1.66213
18	0.0315706	-0.0165386	0.00924142	0.0113351	-0.0148504	-0.0392474	0.0209589	0.0289699	-0.00111776	-0.00265331	-0.0300324	-0.0229246	0.0507559	-0.00418899	0.0214259	-2.16497	0.00862123	-1.54634	0	0	0	0	-0	0	0	0	-0.1265	0	-0	0	0	0	0	0	-0	0	0.105	-0.015	0	0	-0	0	0	-0.098	0.1	0	-0	0	0	0	0	0	-0	0	0.05595	0	0	0	-0	0	0	0	0	0	-0	0	548.352	550.515	330.592	204.148	0.193829	-1.14066	-0.00425389	-0.00709963	1.74213
19	0.0341455	-0.0165594	0.00922856	0.0113208	-0.0148697	-0.0392337	0.0209626	0.028974	-0.001121	-0.00800786	-0.0441353	-0.0409274	0.050697	-0.00418766	0.0215597	-2.16294	0.00775934	-1.54729	0	0	0	0	-0	0	0	0	-0.1265	0	-0	0	0	0	0	0	-0	0	0.105	-0.015	0	0	-0	0	0	-0.098	0.1	0	-0	0	0	0	0	0	-0	0	0.05595	0	0	0	-0	0	0	0	0	0	-0	0	548.337	550.604	331.3	204.426	0.198318	-1.18023	-0.00426718	-0.00671225	1.83563
20	0.0219059	-0.0166083	0.00920175	0.0112955	-0.0149112	-0.0392039	0.0209569	0.0289744	-0.00111661	0.0100836	-0.0341409	-0.0322982	0.0509636	-0.00418589	0.0209421	-2.1763	0.00628416	-1.54949	0	0	0	0	-0	0	0	0	-0.1265	0	-0	0	0	0	0	0	-0	0	0.105	-0.015	0	0	-0	0	0	-0.098	0.1	0	-0	0	0	0	0	0	-0	0	0.05595	0	0	0	-0	0	0	0	0	0	-0	0	548.3	550.78	332.851	204.998	0.206158	-1.25165	-0.00428519	-0.00587229	2.00713
21	0.00197109	-0.0166786	0.00916559	0.0112563	-0.0149736	-0.0391614	0.0209659	0.028974	-0.00110769	0.00238947	-0.00958698	-0.0388075	0.0513788	-0.0041834	0.0199317	-2.1977	0.00408652	-1.5526	0	0	0	0	-0	0	0	0	-0.1265	0	-0	0	0	0	0	0	-0	0	0.105	-0.015	0	0	-0	0	0	-0.098	0.1	0	-0	0	0	0	0	0	-0	0	0.05595	0	0	0	-0	0	0	0	0	0	-0	0	548.249	551.025	335.097	205.753	0.21828	-1.3606	-0.00435334	-0.00465685	2.27079
22	0.0173403	-0.0167056	0.00914961	0.0112306	-0.0150079	-0.0391406	0.0209571	0.0289756	-0.00110629	0.017173	-0.0150847	-0.0414645	0.051053	-0.00418135	0.0207326	-2.18305	0.00245413	-1.55403	0	0	0	0	-0	0	0	0	-0.1265	0	-0	0	0	0	0	0	-0	0	0.105	-0.015	0	0	-0	0	0	-0.098	0.1	0	-0	0	0	0	0	0	-0	0	0.05595	0	0	0	-0	0	0	0	0	0	-0	0	548.202	551.117	336.223	206.108	0.229764	-1.45711	-0.0044417	-0.00402939	2.50152
23	0.0233539	-0.0167346	0.00913425	0.0112096	-0.0150391	-0.0391215	0.0209619	0.0289747	-0.00109298	0.0316937	0.0180407	-0.0601371	0.050918	-0.00417973	0.0210456	-2.1776	0.0012588	-1.55531	0	0	0	0	-0	0	0	0	-0.1265	0	-0	0	0	0	0	0	-0	0	0.105	-0.015	0	0	-0	0	0	-0.098	0.1	0	-0	0	0	0	0	0	-0	0	0.05595	0	0	0	-0	0	0	0	0	0	-0	0	548.154	551.186	337.178	206.393	0.238591	-1.53417	-0.00451089	-0.00350427	2.69119
24	0.0346745	-0.0167526	0.00912302	0.0111945	-0.0150599	-0.039107	0.0209639	0.0289777	-0.0011011	0.0187001	0.0398242	-0.0687003	0.0506755	-0.00417857	0.021628	-2.16669	0.000260628	-1.55628	0	0	0	0	-0	0	0	0	-0.1265	0	-0	0	0	0	0	0	-0	0	0.105	-0.015	0	0	-0	0	0	-0.098	0.1	0	-0	0	0	0	0	0	-0	0	0.05595	0	0	0	-0	0	0	0	0	0	-0	0	548.114	551.231	337.899	206.599	0.245545	-1.59469	-0.00457064	-0.0031085	2.84083
25	0.0438177	-0.0167692	0.00911528	0.0111839	-0.0150786	-0.0390963	0.0209552	0.028974	-0.00110085	0.02083	0.0353098	-0.0584585	0.0504711	-0.0041779	0.0220957	-2.15784	-0.000478986	-1.55702	0	0	0	0	-0	0	0	0	-0.1265	0	-0	0	0	0	0	0	-0	0	0.105	-0.015	0	0	-0	0	0	-0.098	0.1	0	-0	0	0	0	0	0	-0	0	0.05595	0	0	0	-0	0	0	0	0	0	-0	0	548.082	551.259	338.44	206.749	0.251086	-1.6428	-0.00461007	-0.00280966	2.95946
26	0.0323409	-0.0167961	0.00910162	0.0111697	-0.0151048	-0.0390794	0.020955	0.0289745	-0.00109793	0.0230791	0.0446039	-0.0696789	0.0507221	-0.00417691	0.0215195	-2.16974	-0.00123112	-1.55811	0	0	0	0	-0	0	0	0	-0.1265	0	-0	0	0	0	0	0	-0	0	0.105	-0.015	0	0	-0	0	0	-0.098	0.1	0	-0	0	0	0	0	0	-0	0	0.05595	0	0	0	-0	0	0	0	0	0	-0	0	548.031	551.299	339.247	206.967	0.258155	-1.70633	-0.00467361	-0.00237514	3.1212
27	0.0204003	-0.0168337	0.00908333	0.0111512	-0.0151409	-0.0390548	0.020958	0.0289844	-0.00109822	0.0465992	0.0342135	-0.0625082	0.0509764	-0.00417608	0.0209162	-2.18228	-0.00245175	-1.55969	0	0	0	0	-0	0	0	0	-0.1265	0	-0	0	0	0	0	0	-0	0	0.105	-0.015	0	0	-0	0	0	-0.098	0.1	0	-0	0	0	0	0	0	-0	0	0.05595	0	0	0	-0	0	0	0	0	0	-0	0	547.958	551.348	340.44	207.28	0.267887	-1.79436	-0.00475341	-0.00173456	3.34651
28	0.0203184	-0.0168384	0.0090841	0.011142	-0.0151515	-0.0390508	0.0209531	0.0289744	-0.00109627	0.0421846	0.04273	-0.0667815	0.0509691	-0.00417606	0.0209171	-2.18249	-0.00274664	-1.56002	0	0	0	0	-0	0	0	0	-0.1265	0	-0	0	0	0	0	0	-0	0	0.105	-0.015	0	0	-0	0	0	-0.098	0.1	0	-0	0	0	0	0	0	-0	0	0.05595	0	0	0	-0	0	0	0	0	0	-0	0	547.942	551.355	340.687	207.342	0.271554	-1.8231	-0.00477536	-0.00158701	3.412
29	0.0157498	-0.0168496	0.00907741	0.0111351	-0.0151635	-0.0390431	0.0209535	0.0289781	-0.00109511	0.0317243	0.0446513	-0.054134	0.0510636	-0.00417539	0.0206871	-2.18722	-0.00309385	-1.56046	0	0	0	0	-0	0	0	0	-0.1265	0	-0	0	0	0	0	0	-0	0	0.105	-0.015	0	0	-0	0	0	-0.098	0.1	0	-0	0	0	0	0	0	-0	0	0.05595	0	0	0	-0	0	0	0	0	0	-0	0	547.919	551.366	341.028	207.428	0.27523	-1.85644	-0.00480828	-0.00140487	3.49857
30	0.00383558	-0.0168813	0.00906105	0.0111224	-0.0151931	-0.0390218	0.020952	0.0289771	-0.00109414	0.0418756	0.0411468	-0.0619683	0.051311	-0.00417474	0.0200809	-2.19961	-0.00413952	-1.56173	0	0	0	0	-0	0	0	0	-0.1265	0	-0	0	0	0	0	0	-0	0	0.105	-0.015	0	0	-0	0	0	-0.098	0.1	0	-0	0	0	0	0	0	-0	0	0.05595	0	0	0	-0	0	0	0	0	0	-0	0	547.851	551.396	342.027	207.677	0.283978	-1.93719	-0.00488823	-0.000873595	3.71074
31	0.00176015	-0.0169361	0.009036	0.0110993	-0.0152453	-0.0389869	0.0209466	0.0289808	-0.00109217	0.0650658	0.0524203	-0.0603563	0.0513508	-0.00417418	0.0199773	-2.20246	-0.00611942	-1.56392	0	0	0	0	-0	0	0	0	-0.1265	0	-0	0	0	0	0	0	-0	0	0.105	-0.015	0	0	-0	0	0	-0.098	0.1	0	-0	0	0	0	0	0	-0	0	0.05595	0	0	0	-0	0	0	0	0	0	-0	0	547.749	551.453	343.72	208.088	0.298136	-2.06689	-0.00502464	2.44611e-05	4.05172
32	-0.00589079	-0.0169484	0.00903471	0.0110833	-0.015266	-0.0389779	0.020953	0.0289776	-0.00109349	0.0642238	0.0703188	-0.0483098	0.0514958	-0.00417398	0.0195948	-2.21033	-0.00662459	-1.56449	0	0	0	0	-0	0	0	0	-0.1265	0	-0	0	0	0	0	0	-0	0	0.105	-0.015	0	0	-0	0	0	-0.098	0.1	0	-0	0	0	0	0	0	-0	0	0.05595	0	0	0	-0	0	0	0	0	0	-0	0	547.72	551.456	344.188	208.199	0.304866	-2.12278	-0.00506301	0.000293121	4.18761
33	0.00306474	-0.0169774	0.00901971	0.0110711	-0.0152958	-0.0389568	0.0209472	0.0289786	-0.00108911	0.0777229	0.0708864	-0.0444379	0.0513184	-0.00417349	0.0200597	-2.2018	-0.0078117	-1.56579	0	0	0	0	-0	0	0	0	-0.1265	0	-0	0	0	0	0	0	-0	0	0.105	-0.015	0	0	-0	0	0	-0.098	0.1	0	-0	0	0	0	0	0	-0	0	0.05595	0	0	0	-0	0	0	0	0	0	-0	0	547.649	551.462	345.141	208.424	0.314804	-2.21483	-0.00514324	0.000797231	4.43336
34	0.0157114	-0.0170068	0.0090077	0.0110546	-0.0153276	-0.0389361	0.0209465	0.0289764	-0.001087	0.0772834	0.0634216	-0.0464103	0.0510605	-0.00417316	0.0207138	-2.18957	-0.00897397	-1.56713	0	0	0	0	-0	0	0	0	-0.1265	0	-0	0	0	0	0	0	-0	0	0.105	-0.015	0	0	-0	0	0	-0.098	0.1	0	-0	0	0	0	0	0	-0	0	0.05595	0	0	0	-0	0	0	0	0	0	-0	0	547.579	551.466	346.086	208.646	0.325172	-2.30907	-0.00522705	0.00130125	4.68287
35	0.00939782	-0.0171312	0.00895327	0.0110142	-0.0154373	-0.0388568	0.0209591	0.0289703	-0.00106871	0.0329062	-0.0243048	-0.0372853	0.0512003	-0.00417418	0.0203876	-2.19755	-0.0133599	-1.57205	0	0	0	0	-0	0	0	0	-0.1265	0	-0	0	0	0	0	0	-0	0	0.105	-0.015	0	0	-0	0	0	-0.098	0.1	0	-0	0	0	0	0	0	-0	0	0.05595	0	0	0	-0	0	0	0	0	0	-0	0	547.395	551.559	349.887	209.567	0.354064	-2.58812	-0.0054771	0.00327608	5.45808
36	0.00300371	-0.0171779	0.00893955	0.0109754	-0.0155042	-0.0388175	0.0209603	0.0289866	-0.0010655	0.0342706	-0.0636761	-0.0144183	0.0513108	-0.00417463	0.0200857	-2.20482	-0.0155478	-1.57438	0	0	0	0	-0	0	0	0	-0.1265	0	-0	0	0	0	0	0	-0	0	0.105	-0.015	0	0	-0	0	0	-0.098	0.1	0	-0	0	0	0	0	0	-0	0	0.05595	0	0	0	-0	0	0	0	0	0	-0	0	547.276	551.503	351.733	210.042	0.380897	-2.83037	-0.00558546	0.00428021	6.10437
37	0.00904631	-0.0172159	0.00892896	0.0109486	-0.0155524	-0.0387861	0.0209501	0.0289988	-0.0010503	0.0120122	-0.0954525	0.0244471	0.0511801	-0.00417538	0.0204085	-2.19943	-0.0171407	-1.57627	0	0	0	0	-0	0	0	0	-0.1265	0	-0	0	0	0	0	0	-0	0	0.105	-0.015	0	0	-0	0	0	-0.098	0.1	0	-0	0	0	0	0	0	-0	0	0.05595	0	0	0	-0	0	0	0	0	0	-0	0	547.167	551.436	353.107	210.407	0.400507	-3.01391	-0.00564066	0.00501497	6.60775
38	-0.0021377	-0.0172442	0.00892214	0.0109263	-0.0155874	-0.0387621	0.0209531	0.0289814	-0.00106312	0.0179239	-0.0510243	0.00938932	0.0514023	-0.00417601	0.019844	-2.21112	-0.0183923	-1.57741	0	0	0	0	-0	0	0	0	-0.1265	0	-0	0	0	0	0	0	-0	0	0.105	-0.015	0	0	-0	0	0	-0.098	0.1	0	-0	0	0	0	0	0	-0	0	0.05595	0	0	0	-0	0	0	0	0	0	-0	0	547.084	551.377	354.128	210.69	0.415055	-3.15144	-0.00566922	0.00555879	6.9891
39	0.00652363	-0.0172531	0.00892186	0.0109181	-0.0156024	-0.0387585	0.0209344	0.028982	-0.00107165	0.0158477	-0.0506115	0.00106374	0.0512218	-0.00417629	0.020295	-2.20257	-0.0185884	-1.57783	0	0	0	0	-0	0	0	0	-0.1265	0	-0	0	0	0	0	0	-0	0	0.105	-0.015	0	0	-0	0	0	-0.098	0.1	0	-0	0	0	0	0	0	-0	0	0.05595	0	0	0	-0	0	0	0	0	0	-0	0	547.069	551.359	354.339	210.748	0.419055	-3.18545	-0.00565454	0.00568421	7.07259
40	0.0139094	-0.017283	0.00891189	0.0109063	-0.0156296	-0.0387383	0.0209373	0.0289833	-0.00106835	0.0122964	-0.0341161	-0.00921908	0.0510726	-0.00417694	0.0206721	-2.19561	-0.0195162	-1.57907	0	0	0	0	-0	0	0	0	-0.1265	0	-0	0	0	0	0	0	-0	0	0.105	-0.015	0	0	-0	0	0	-0.098	0.1	0	-0	0	0	0	0	0	-0	0	0.05595	0	0	0	-0	0	0	0	0	0	-0	0	546.998	551.304	355.184	210.994	0.429368	-3.28966	-0.00566962	0.00611265	7.37899
41	0.00489569	-0.017294	0.00891002	0.0108971	-0.0156449	-0.0387295	0.0209339	0.0289838	-0.0010712	0.0141805	-0.0258321	0.00413617	0.051254	-0.00417747	0.0202159	-2.20484	-0.0200726	-1.57944	0	0	0	0	-0	0	0	0	-0.1265	0	-0	0	0	0	0	0	-0	0	0.105	-0.015	0	0	-0	0	0	-0.098	0.1	0	-0	0	0	0	0	0	-0	0	0.05595	0	0	0	-0	0	0	0	0	0	-0	0	546.965	551.272	355.603	211.118	0.435726	-3.34902	-0.00565929	0.00634164	7.54083
42	0.0126485	-0.0173041	0.00890808	0.0108905	-0.0156568	-0.0387223	0.0209319	0.0289824	-0.00106894	0.0184114	-0.031891	-0.00122495	0.0510938	-0.00417782	0.0206148	-2.19725	-0.0203702	-1.58	0	0	0	0	-0	0	0	0	-0.1265	0	-0	0	0	0	0	0	-0	0	0.105	-0.015	0	0	-0	0	0	-0.098	0.1	0	-0	0	0	0	0	0	-0	0	0.05595	0	0	0	-0	0	0	0	0	0	-0	0	546.939	551.245	355.915	211.212	0.440248	-3.39277	-0.00564912	0.00650765	7.66383
43	0.00786308	-0.0173078	0.0089076	0.0108866	-0.0156622	-0.0387194	0.0209307	0.0289815	-0.00106826	0.0184971	-0.0340935	-0.000171768	0.0511896	-0.00417794	0.0203714	-2.20211	-0.020561	-1.58007	0	0	0	0	-0	0	0	0	-0.1265	0	-0	0	0	0	0	0	-0	0	0.105	-0.015	0	0	-0	0	0	-0.098	0.1	0	-0	0	0	0	0	0	-0	0	0.05595	0	0	0	-0	0	0	0	0	0	-0	0	546.929	551.234	356.043	211.251	0.442256	-3.41138	-0.00564269	0.00657853	7.71395
44	0.0227132	-0.0173232	0.00890172	0.0108807	-0.0156761	-0.0387075	0.0209306	0.0289831	-0.00106822	0.0145128	-0.0356619	-0.00893486	0.0508883	-0.00417849	0.0211306	-2.18753	-0.0210168	-1.58105	0	0	0	0	-0	0	0	0	-0.1265	0	-0	0	0	0	0	0	-0	0	0.105	-0.015	0	0	-0	0	0	-0.098	0.1	0	-0	0	0	0	0	0	-0	0	0.05595	0	0	0	-0	0	0	0	0	0	-0	0	546.887	551.195	356.558	211.413	0.448651	-3.4771	-0.00563973	0.00683987	7.91002
45	0.0292878	-0.0173308	0.00890104	0.0108749	-0.015686	-0.0387022	0.0209298	0.0289823	-0.00106713	0.0183182	-0.0403838	-0.0113221	0.0507419	-0.00417896	0.0214654	-2.1811	-0.0212346	-1.58153	0	0	0	0	-0	0	0	0	-0.1265	0	-0	0	0	0	0	0	-0	0	0.105	-0.015	0	0	-0	0	0	-0.098	0.1	0	-0	0	0	0	0	0	-0	0	0.05595	0	0	0	-0	0	0	0	0	0	-0	0	546.865	551.172	356.814	211.494	0.452511	-3.5133	-0.00562693	0.00697975	8.009
46	0.0380961	-0.0173419	0.00889723	0.0108697	-0.015697	-0.0386937	0.0209292	0.0289868	-0.00106643	0.001104	-0.0384615	-0.00885527	0.0505523	-0.00417943	0.021912	-2.1725	-0.0215654	-1.58222	0	0	0	0	-0	0	0	0	-0.1265	0	-0	0	0	0	0	0	-0	0	0.105	-0.015	0	0	-0	0	0	-0.098	0.1	0	-0	0	0	0	0	0	-0	0	0.05595	0	0	0	-0	0	0	0	0	0	-0	0	546.834	551.141	357.192	211.617	0.457421	-3.5631	-0.00561648	0.0071749	8.1557
47	0.0369873	-0.0173498	0.00889601	0.0108644	-0.0157061	-0.0386878	0.02093	0.0289832	-0.00106587	-0.00444553	-0.0284608	-0.0101245	0.0505738	-0.00417993	0.0218564	-2.17377	-0.0218907	-1.58257	0	0	0	0	-0	0	0	0	-0.1265	0	-0	0	0	0	0	0	-0	0	0.105	-0.015	0	0	-0	0	0	-0.098	0.1	0	-0	0	0	0	0	0	-0	0	0.05595	0	0	0	-0	0	0	0	0	0	-0	0	546.813	551.116	357.472	211.71	0.461277	-3.60085	-0.00559914	0.00732489	8.26286
48	0.04109	-0.0173618	0.00889206	0.0108586	-0.0157178	-0.0386787	0.0209296	0.0289848	-0.0010638	-0.00581205	-0.0357824	0.0031385	0.0504849	-0.00418052	0.0220638	-2.16991	-0.0223061	-1.58322	0	0	0	0	-0	0	0	0	-0.1265	0	-0	0	0	0	0	0	-0	0	0.105	-0.015	0	0	-0	0	0	-0.098	0.1	0	-0	0	0	0	0	0	-0	0	0.05595	0	0	0	-0	0	0	0	0	0	-0	0	546.781	551.08	357.885	211.851	0.466499	-3.65447	-0.00557577	0.00753831	8.4218
49	0.0489314	-0.0173788	0.00888737	0.0108499	-0.0157341	-0.0386657	0.0209274	0.0289859	-0.00106579	0.00606005	-0.0355447	0.0123292	0.0503129	-0.00418156	0.0224588	-2.16242	-0.0228759	-1.5842	0	0	0	0	-0	0	0	0	-0.1265	0	-0	0	0	0	0	0	-0	0	0.105	-0.015	0	0	-0	0	0	-0.098	0.1	0	-0	0	0	0	0	0	-0	0	0.05595	0	0	0	-0	0	0	0	0	0	-0	0	546.735	551.024	358.486	212.062	0.473982	-3.73172	-0.00553196	0.00784997	8.65142
50	0.0514323	-0.0173844	0.00888788	0.0108444	-0.0157427	-0.0386626	0.0209263	0.0289833	-0.00106417	0.00606381	-0.038016	0.0062428	0.0502522	-0.00418197	0.0225873	-2.16003	-0.0230312	-1.58449	0	0	0	0	-0	0	0	0	-0.1265	0	-0	0	0	0	0	0	-0	0	0.105	-0.015	0	0	-0	0	0	-0.098	0.1	0	-0	0	0	0	0	0	-0	0	0.05595	0	0	0	-0	0	0	0	0	0	-0	0	546.724	551.007	358.66	212.124	0.476891	-3.7582	-0.00550624	0.00795121	8.72046
51	0.0569368	-0.0174041	0.00888093	0.0108364	-0.0157592	-0.0386478	0.0209292	0.0289889	-0.00106267	0.0087824	-0.0384097	-0.0140362	0.0501315	-0.00418309	0.022861	-2.15496	-0.0237188	-1.58555	0	0	0	0	-0	0	0	0	-0.1265	0	-0	0	0	0	0	0	-0	0	0.105	-0.015	0	0	-0	0	0	-0.098	0.1	0	-0	0	0	0	0	0	-0	0	0.05595	0	0	0	-0	0	0	0	0	0	-0	0	546.676	550.951	359.353	212.381	0.485038	-3.84548	-0.0054637	0.00830299	8.98917
52	0.050435	-0.017412	0.00888078	0.0108289	-0.0157702	-0.0386415	0.0209243	0.0289857	-0.00106161	-0.0031766	-0.0392564	-0.00745737	0.0502765	-0.00418386	0.0225379	-2.16169	-0.0241854	-1.58586	0	0	0	0	-0	0	0	0	-0.1265	0	-0	0	0	0	0	0	-0	0	0.105	-0.015	0	0	-0	0	0	-0.098	0.1	0	-0	0	0	0	0	0	-0	0	0.05595	0	0	0	-0	0	0	0	0	0	-0	0	546.657	550.917	359.693	212.51	0.489973	-3.89405	-0.00540691	0.00849154	9.1253
53	0.0391975	-0.0174265	0.00887713	0.0108205	-0.0157835	-0.0386311	0.0209252	0.0289853	-0.00106101	-0.00683405	-0.0324288	-0.017808	0.0505302	-0.00418474	0.0219716	-2.17326	-0.0249083	-1.58625	0	0	0	0	-0	0	0	0	-0.1265	0	-0	0	0	0	0	0	-0	0	0.105	-0.015	0	0	-0	0	0	-0.098	0.1	0	-0	0	0	0	0	0	-0	0	0.05595	0	0	0	-0	0	0	0	0	0	-0	0	546.625	550.869	360.19	212.706	0.496076	-3.95916	-0.0053485	0.00874928	9.32339
54	0.0333884	-0.0174368	0.00887523	0.0108135	-0.0157948	-0.0386235	0.0209227	0.0289843	-0.00106158	-0.0014024	-0.0293147	-0.0119064	0.050654	-0.00418559	0.0216776	-2.17935	-0.0254496	-1.58664	0	0	0	0	-0	0	0	0	-0.1265	0	-0	0	0	0	0	0	-0	0	0.105	-0.015	0	0	-0	0	0	-0.098	0.1	0	-0	0	0	0	0	0	-0	0	0.05595	0	0	0	-0	0	0	0	0	0	-0	0	546.601	550.829	360.588	212.867	0.501458	-4.01488	-0.00528992	0.00896186	9.48806
55	0.0286951	-0.0174417	0.00887503	0.0108089	-0.0158013	-0.0386205	0.0209227	0.0289844	-0.00106037	-0.00352883	-0.0259971	-0.0186544	0.0507535	-0.00418594	0.0214413	-2.18416	-0.0257084	-1.58673	0	0	0	0	-0	0	0	0	-0.1265	0	-0	0	0	0	0	0	-0	0	0.105	-0.015	0	0	-0	0	0	-0.098	0.1	0	-0	0	0	0	0	0	-0	0	0.05595	0	0	0	-0	0	0	0	0	0	-0	0	546.592	550.811	360.75	212.934	0.503883	-4.03875	-0.00525595	0.00905285	9.55461
56	0.0353874	-0.0174469	0.00887385	0.0108051	-0.0158064	-0.0386162	0.020922	0.0289843	-0.00105998	-0.00588058	-0.0265961	-0.0120591	0.0506096	-0.00418637	0.0217806	-2.17762	-0.0258511	-1.58719	0	0	0	0	-0	0	0	0	-0.1265	0	-0	0	0	0	0	0	-0	0	0.105	-0.015	0	0	-0	0	0	-0.098	0.1	0	-0	0	0	0	0	0	-0	0	0.05595	0	0	0	-0	0	0	0	0	0	-0	0	546.58	550.788	360.97	213.026	0.506684	-4.06899	-0.00522037	0.00916829	9.6468
57	0.036855	-0.0174552	0.00887187	0.0108001	-0.0158139	-0.0386098	0.0209233	0.0289882	-0.0010568	-0.0149295	-0.0328537	0.00456043	0.0505777	-0.00418707	0.0218535	-2.17639	-0.0261899	-1.58766	0	0	0	0	-0	0	0	0	-0.1265	0	-0	0	0	0	0	0	-0	0	0.105	-0.015	0	0	-0	0	0	-0.098	0.1	0	-0	0	0	0	0	0	-0	0	0.05595	0	0	0	-0	0	0	0	0	0	-0	0	546.56	550.753	361.293	213.164	0.510685	-4.11278	-0.00516563	0.00933674	9.78184
58	0.0368235	-0.0174718	0.00886728	0.0107911	-0.0158275	-0.0385968	0.0209202	0.0289842	-0.00105854	-0.0121607	-0.0293187	0.000161939	0.0505815	-0.0041886	0.0218489	-2.17694	-0.0269687	-1.58858	0	0	0	0	-0	0	0	0	-0.1265	0	-0	0	0	0	0	0	-0	0	0.105	-0.015	0	0	-0	0	0	-0.098	0.1	0	-0	0	0	0	0	0	-0	0	0.05595	0	0	0	-0	0	0	0	0	0	-0	0	546.521	550.691	361.985	213.471	0.519058	-4.20523	-0.00507032	0.00969481	10.0711
59	0.0380863	-0.0174778	0.00886775	0.0107847	-0.0158366	-0.0385942	0.0209204	0.028984	-0.00105843	-0.0108553	-0.0188032	0.000474465	0.0505507	-0.00418909	0.0219164	-2.17583	-0.0271552	-1.58887	0	0	0	0	-0	0	0	0	-0.1265	0	-0	0	0	0	0	0	-0	0	0.105	-0.015	0	0	-0	0	0	-0.098	0.1	0	-0	0	0	0	0	0	-0	0	0.05595	0	0	0	-0	0	0	0	0	0	-0	0	546.515	550.668	362.171	213.556	0.522084	-4.23423	-0.00501057	0.00980528	10.1485
60	0.0394576	-0.0174791	0.00886794	0.0107825	-0.0158391	-0.038593	0.0209194	0.0289848	-0.0010581	-0.0167765	-0.0169563	0.00158755	0.0505196	-0.00418927	0.0219866	-2.17451	-0.0272088	-1.589	0	0	0	0	-0	0	0	0	-0.1265	0	-0	0	0	0	0	0	-0	0	0.105	-0.015	0	0	-0	0	0	-0.098	0.1	0	-0	0	0	0	0	0	-0	0	0.05595	0	0	0	-0	0	0	0	0	0	-0	0	546.512	550.659	362.241	213.588	0.523174	-4.24512	-0.00498893	0.00984556	10.1786
61	0.027136	-0.0174856	0.00886644	0.0107782	-0.0158439	-0.0385876	0.0209195	0.0289857	-0.00105772	-0.00820243	-0.0211091	-0.00132478	0.0507922	-0.00418991	0.0213624	-2.18706	-0.0277505	-1.58904	0	0	0	0	-0	0	0	0	-0.1265	0	-0	0	0	0	0	0	-0	0	0.105	-0.015	0	0	-0	0	0	-0.098	0.1	0	-0	0	0	0	0	0	-0	0	0.05595	0	0	0	-0	0	0	0	0	0	-0	0	546.499	550.627	362.524	213.72	0.526416	-4.28282	-0.00492884	0.00999112	10.2996
62	0.0347465	-0.0174951	0.00886464	0.0107718	-0.015852	-0.0385806	0.0209205	0.0289925	-0.00105775	0.013312	-0.0272672	0.00111841	0.0506272	-0.00419095	0.0217458	-2.17978	-0.0280773	-1.58979	0	0	0	0	-0	0	0	0	-0.1265	0	-0	0	0	0	0	0	-0	0	0.105	-0.015	0	0	-0	0	0	-0.098	0.1	0	-0	0	0	0	0	0	-0	0	0.05595	0	0	0	-0	0	0	0	0	0	-0	0	546.479	550.585	362.933	213.916	0.5314	-4.33864	-0.00484597	0.0102062	10.4745
63	0.0231119	-0.017499	0.0088651	0.0107674	-0.0158573	-0.0385776	0.0209183	0.0289853	-0.00105656	0.0132578	-0.0252939	-0.00699966	0.0508773	-0.00419159	0.0211575	-2.19159	-0.0285225	-1.58973	0	0	0	0	-0	0	0	0	-0.1265	0	-0	0	0	0	0	0	-0	0	0.105	-0.015	0	0	-0	0	0	-0.098	0.1	0	-0	0	0	0	0	0	-0	0	0.05595	0	0	0	-0	0	0	0	0	0	-0	0	546.471	550.561	363.134	214.015	0.534296	-4.36885	-0.00478537	0.0103196	10.5619
64	0.0344934	-0.0175097	0.00886224	0.0107604	-0.0158655	-0.0385701	0.0209166	0.028986	-0.0010557	0.0244452	-0.0215394	-0.0105893	0.0506358	-0.0041926	0.0217325	-2.18057	-0.0288057	-1.59063	0	0	0	0	-0	0	0	0	-0.1265	0	-0	0	0	0	0	0	-0	0	0.105	-0.015	0	0	-0	0	0	-0.098	0.1	0	-0	0	0	0	0	0	-0	0	0.05595	0	0	0	-0	0	0	0	0	0	-0	0	546.453	550.518	363.573	214.234	0.539286	-4.42687	-0.00469303	0.0105472	10.7491
65	0.0264763	-0.0175143	0.00886238	0.0107549	-0.0158714	-0.0385669	0.0209164	0.0289846	-0.00105564	0.0276895	-0.0174157	-0.0119073	0.0508053	-0.00419318	0.0213266	-2.18878	-0.0292043	-1.59069	0	0	0	0	-0	0	0	0	-0.1265	0	-0	0	0	0	0	0	-0	0	0.105	-0.015	0	0	-0	0	0	-0.098	0.1	0	-0	0	0	0	0	0	-0	0	0.05595	0	0	0	-0	0	0	0	0	0	-0	0	546.447	550.492	363.787	214.344	0.542306	-4.45912	-0.00462269	0.0106678	10.8441
66	0.0228608	-0.0175163	0.00886226	0.0107526	-0.0158742	-0.0385656	0.0209163	0.0289849	-0.0010556	0.023589	-0.0166416	-0.013653	0.0508801	-0.0041934	0.021143	-2.19248	-0.0293774	-1.5907	0	0	0	0	-0	0	0	0	-0.1265	0	-0	0	0	0	0	0	-0	0	0.105	-0.015	0	0	-0	0	0	-0.098	0.1	0	-0	0	0	0	0	0	-0	0	0.05595	0	0	0	-0	0	0	0	0	0	-0	0	546.445	550.482	363.875	214.39	0.543593	-4.4726	-0.00459331	0.0107177	10.883
67	0.0230547	-0.0175184	0.008862	0.0107502	-0.0158762	-0.0385637	0.0209164	0.0289855	-0.00105528	0.029778	-0.0190567	-0.0167759	0.0508757	-0.00419369	0.0211526	-2.19239	-0.0295108	-1.59086	0	0	0	0	-0	0	0	0	-0.1265	0	-0	0	0	0	0	0	-0	0	0.105	-0.015	0	0	-0	0	0	-0.098	0.1	0	-0	0	0	0	0	0	-0	0	0.05595	0	0	0	-0	0	0	0	0	0	-0	0	546.442	550.468	363.994	214.453	0.545041	-4.48954	-0.00455613	0.0107814	10.9367
68	0.0285707	-0.0175219	0.00886138	0.0107473	-0.015879	-0.0385609	0.0209156	0.0289848	-0.00105538	0.0356958	-0.0122562	-0.0153794	0.0507597	-0.00419416	0.0214325	-2.18703	-0.0296011	-1.59126	0	0	0	0	-0	0	0	0	-0.1265	0	-0	0	0	0	0	0	-0	0	0.105	-0.015	0	0	-0	0	0	-0.098	0.1	0	-0	0	0	0	0	0	-0	0	0.05595	0	0	0	-0	0	0	0	0	0	-0	0	546.436	550.449	364.171	214.546	0.547153	-4.5143	-0.00450723	0.0108747	11.0161
69	0.0332644	-0.0175272	0.00886054	0.0107427	-0.0158832	-0.038557	0.0209153	0.0289853	-0.00105518	0.0295825	-0.0152877	-0.0191865	0.0506594	-0.00419486	0.0216692	-2.18257	-0.0297972	-1.59174	0	0	0	0	-0	0	0	0	-0.1265	0	-0	0	0	0	0	0	-0	0	0.105	-0.015	0	0	-0	0	0	-0.098	0.1	0	-0	0	0	0	0	0	-0	0	0.05595	0	0	0	-0	0	0	0	0	0	-0	0	546.428	550.421	364.429	214.685	0.550171	-4.54976	-0.0044351	0.0110114	11.13
70	0.0296848	-0.0175294	0.00886061	0.0107401	-0.0158862	-0.0385557	0.0209162	0.0289854	-0.00105426	0.0333442	-0.0230328	-0.0155615	0.0507354	-0.00419516	0.0214886	-2.18625	-0.0299899	-1.59178	0	0	0	0	-0	0	0	0	-0.1265	0	-0	0	0	0	0	0	-0	0	0.105	-0.015	0	0	-0	0	0	-0.098	0.1	0	-0	0	0	0	0	0	-0	0	0.05595	0	0	0	-0	0	0	0	0	0	-0	0	546.426	550.409	364.534	214.742	0.551737	-4.56633	-0.00439772	0.0110713	11.1782
71	0.0373747	-0.0175339	0.0088597	0.010736	-0.0158893	-0.0385517	0.0209148	0.0289855	-0.00105392	0.0388641	-0.022657	-0.0199382	0.0505712	-0.00419586	0.021877	-2.1788	-0.0301199	-1.59235	0	0	0	0	-0	0	0	0	-0.1265	0	-0	0	0	0	0	0	-0	0	0.105	-0.015	0	0	-0	0	0	-0.098	0.1	0	-0	0	0	0	0	0	-0	0	0.05595	0	0	0	-0	0	0	0	0	0	-0	0	546.417	550.38	364.791	214.885	0.554843	-4.6035	-0.00432657	0.0112063	11.2997
72	0.0403826	-0.0175368	0.0088598	0.0107323	-0.0158928	-0.0385498	0.020916	0.0289852	-0.00105317	0.0396959	-0.0338637	-0.0151288	0.0505032	-0.00419626	0.0220292	-2.17594	-0.0302168	-1.59263	0	0	0	0	-0	0	0	0	-0.1265	0	-0	0	0	0	0	0	-0	0	0.105	-0.015	0	0	-0	0	0	-0.098	0.1	0	-0	0	0	0	0	0	-0	0	0.05595	0	0	0	-0	0	0	0	0	0	-0	0	546.414	550.364	364.936	214.967	0.556834	-4.62545	-0.00427665	0.0112872	11.3661
73	0.0411038	-0.0175429	0.0088584	0.010727	-0.0158967	-0.0385447	0.0209147	0.028995	-0.00105449	0.0652364	-0.0352843	-0.0123014	0.0504892	-0.00419723	0.022063	-2.17556	-0.0305969	-1.59313	0	0	0	0	-0	0	0	0	-0.1265	0	-0	0	0	0	0	0	-0	0	0.105	-0.015	0	0	-0	0	0	-0.098	0.1	0	-0	0	0	0	0	0	-0	0	0.05595	0	0	0	-0	0	0	0	0	0	-0	0	546.405	550.328	365.288	215.168	0.560919	-4.67527	-0.00417485	0.0114723	11.5307
74	0.036015	-0.0175511	0.00885804	0.0107183	-0.0159027	-0.0385383	0.0209198	0.0289902	-0.0010537	0.0525099	-0.0179472	-0.00573028	0.0506027	-0.00419872	0.0218043	-2.18115	-0.031272	-1.59364	0	0	0	0	-0	0	0	0	-0.1265	0	-0	0	0	0	0	0	-0	0	0.105	-0.015	0	0	-0	0	0	-0.098	0.1	0	-0	0	0	0	0	0	-0	0	0.05595	0	0	0	-0	0	0	0	0	0	-0	0	546.398	550.281	365.787	215.462	0.566967	-4.74792	-0.00401815	0.0117395	11.7671
75	0.0253217	-0.0175542	0.00885808	0.0107127	-0.0159076	-0.0385359	0.0209145	0.0289865	-0.00105575	0.0604366	-0.00238889	0.00519937	0.0508332	-0.00419946	0.0212646	-2.1921	-0.0317927	-1.59363	0	0	0	0	-0	0	0	0	-0.1265	0	-0	0	0	0	0	0	-0	0	0.105	-0.015	0	0	-0	0	0	-0.098	0.1	0	-0	0	0	0	0	0	-0	0	0.05595	0	0	0	-0	0	0	0	0	0	-0	0	546.397	550.252	366.03	215.611	0.570485	-4.78683	-0.00391779	0.0118777	11.8841
76	0.0307185	-0.0175586	0.00885795	0.0107078	-0.0159117	-0.0385337	0.0209115	0.0289874	-0.00105443	0.0452875	-0.014062	-0.00177426	0.0507158	-0.00419997	0.0215376	-2.18689	-0.0318758	-1.59404	0	0	0	0	-0	0	0	0	-0.1265	0	-0	0	0	0	0	0	-0	0	0.105	-0.015	0	0	-0	0	0	-0.098	0.1	0	-0	0	0	0	0	0	-0	0	0.05595	0	0	0	-0	0	0	0	0	0	-0	0	546.395	550.232	366.209	215.722	0.572685	-4.81292	-0.00384883	0.0119762	11.9673
77	0.0385008	-0.0175606	0.00885816	0.0107042	-0.0159136	-0.0385321	0.0209131	0.028986	-0.0010516	0.0509582	-0.0217688	-0.00086014	0.0505474	-0.00420035	0.0219318	-2.17925	-0.0318443	-1.59446	0	0	0	0	-0	0	0	0	-0.1265	0	-0	0	0	0	0	0	-0	0	0.105	-0.015	0	0	-0	0	0	-0.098	0.1	0	-0	0	0	0	0	0	-0	0	0.05595	0	0	0	-0	0	0	0	0	0	-0	0	546.395	550.216	366.342	215.805	0.574259	-4.83206	-0.0037897	0.0120499	12.0285
78	0.0328669	-0.0175642	0.00885755	0.0106992	-0.0159154	-0.0385287	0.0209139	0.0289882	-0.00105117	0.0439773	-0.0162381	-0.0126412	0.0506712	-0.00420121	0.0216442	-2.1852	-0.0323055	-1.59467	0	0	0	0	-0	0	0	0	-0.1265	0	-0	0	0	0	0	0	-0	0	0.105	-0.015	0	0	-0	0	0	-0.098	0.1	0	-0	0	0	0	0	0	-0	0	0.05595	0	0	0	-0	0	0	0	0	0	-0	0	546.394	550.189	366.632	215.988	0.577443	-4.87245	-0.00368943	0.0122045	12.1644
79	0.0344848	-0.017566	0.00885808	0.0106958	-0.0159177	-0.0385274	0.0209115	0.0289861	-0.00105101	0.0370977	-0.0136001	-0.0147478	0.0506346	-0.00420173	0.0217263	-2.18374	-0.0324291	-1.59491	0	0	0	0	-0	0	0	0	-0.1265	0	-0	0	0	0	0	0	-0	0	0.105	-0.015	0	0	-0	0	0	-0.098	0.1	0	-0	0	0	0	0	0	-0	0	0.05595	0	0	0	-0	0	0	0	0	0	-0	0	546.393	550.17	366.774	216.08	0.579364	-4.89434	-0.00362177	0.012286	12.2309
80	0.0252649	-0.0175692	0.0088577	0.0106914	-0.0159198	-0.0385251	0.020911	0.028986	-0.00105163	0.0437249	-0.00745178	-0.0085998	0.0508358	-0.00420232	0.0212583	-2.19319	-0.0328885	-1.59489	0	0	0	0	-0	0	0	0	-0.1265	0	-0	0	0	0	0	0	-0	0	0.105	-0.015	0	0	-0	0	0	-0.098	0.1	0	-0	0	0	0	0	0	-0	0	0.05595	0	0	0	-0	0	0	0	0	0	-0	0	546.393	550.149	366.983	216.216	0.581771	-4.9249	-0.00354212	0.0123983	12.3335
81	0.0179858	-0.0175713	0.00885806	0.0106877	-0.0159218	-0.0385237	0.0209115	0.0289865	-0.00105037	0.0483041	-0.0105553	-0.00074358	0.0509882	-0.00420284	0.0208872	-2.20065	-0.033241	-1.59485	0	0	0	0	-0	0	0	0	-0.1265	0	-0	0	0	0	0	0	-0	0	0.105	-0.015	0	0	-0	0	0	-0.098	0.1	0	-0	0	0	0	0	0	-0	0	0.05595	0	0	0	-0	0	0	0	0	0	-0	0	546.394	550.131	367.136	216.318	0.583606	-4.94724	-0.00347167	0.0124837	12.4049
82	0.0239828	-0.0175752	0.00885759	0.0106814	-0.0159233	-0.0385201	0.0209117	0.0289875	-0.00104988	0.0570549	-0.0166202	-0.0076366	0.0508633	-0.00420389	0.02119	-2.19505	-0.0335037	-1.59552	0	0	0	0	-0	0	0	0	-0.1265	0	-0	0	0	0	0	0	-0	0	0.105	-0.015	0	0	-0	0	0	-0.098	0.1	0	-0	0	0	0	0	0	-0	0	0.05595	0	0	0	-0	0	0	0	0	0	-0	0	546.395	550.1	367.488	216.553	0.587735	-5.00024	-0.00334383	0.0126719	12.5852
83	0.0319195	-0.017581	0.00885735	0.0106723	-0.0159262	-0.0385159	0.0209102	0.0289879	-0.00104837	0.0464153	-0.0158644	0.000868895	0.0506965	-0.00420551	0.0215902	-2.18769	-0.0338675	-1.59644	0	0	0	0	-0	0	0	0	-0.1265	0	-0	0	0	0	0	0	-0	0	0.105	-0.015	0	0	-0	0	0	-0.098	0.1	0	-0	0	0	0	0	0	-0	0	0.05595	0	0	0	-0	0	0	0	0	0	-0	0	546.396	550.053	367.979	216.888	0.593466	-5.07327	-0.00315055	0.0129382	12.8312
84	0.0289919	-0.0175831	0.00885858	0.010665	-0.0159293	-0.0385142	0.0209096	0.0289874	-0.00104738	0.0384093	-0.0182676	0.0112496	0.0507563	-0.00420635	0.0214425	-2.19093	-0.0342329	-1.59668	0	0	0	0	-0	0	0	0	-0.1265	0	-0	0	0	0	0	0	-0	0	0.105	-0.015	0	0	-0	0	0	-0.098	0.1	0	-0	0	0	0	0	0	-0	0	0.05595	0	0	0	-0	0	0	0	0	0	-0	0	546.403	550.024	368.235	217.071	0.597017	-5.11554	-0.00301646	0.0130855	12.964
85	0.0308014	-0.0175861	0.00885875	0.0106572	-0.0159304	-0.0385116	0.0209084	0.02899	-0.0010509	0.055456	-0.0125836	0.0215181	0.0507182	-0.00420748	0.0215325	-2.18958	-0.0346071	-1.59724	0	0	0	0	-0	0	0	0	-0.1265	0	-0	0	0	0	0	0	-0	0	0.105	-0.015	0	0	-0	0	0	-0.098	0.1	0	-0	0	0	0	0	0	-0	0	0.05595	0	0	0	-0	0	0	0	0	0	-0	0	546.413	549.996	368.602	217.335	0.601185	-5.17033	-0.00285953	0.013286	13.1512
86	0.023756	-0.0175886	0.00885984	0.0106509	-0.0159325	-0.0385104	0.0209079	0.0289852	-0.0010477	0.050671	-0.0194645	0.0205348	0.0508695	-0.00420847	0.0211749	-2.19696	-0.0350931	-1.59734	0	0	0	0	-0	0	0	0	-0.1265	0	-0	0	0	0	0	0	-0	0	0.105	-0.015	0	0	-0	0	0	-0.098	0.1	0	-0	0	0	0	0	0	-0	0	0.05595	0	0	0	-0	0	0	0	0	0	-0	0	546.421	549.969	368.864	217.53	0.604375	-5.2106	-0.0027223	0.0134343	13.2828
87	0.0203101	-0.0175892	0.00886012	0.0106472	-0.0159339	-0.0385098	0.0209077	0.0289858	-0.00104748	0.0461672	-0.0199139	0.0164231	0.0509402	-0.00420876	0.021	-2.20055	-0.0353093	-1.59736	0	0	0	0	-0	0	0	0	-0.1265	0	-0	0	0	0	0	0	-0	0	0.105	-0.015	0	0	-0	0	0	-0.098	0.1	0	-0	0	0	0	0	0	-0	0	0.05595	0	0	0	-0	0	0	0	0	0	-0	0	546.425	549.957	368.97	217.611	0.605834	-5.22796	-0.00265929	0.013497	13.3364
88	0.0140535	-0.01759	0.00886046	0.010644	-0.015934	-0.0385091	0.0209076	0.0289855	-0.00104703	0.0481214	-0.0218621	0.0128638	0.0510719	-0.00420928	0.0206802	-2.20699	-0.0356421	-1.59733	0	0	0	0	-0	0	0	0	-0.1265	0	-0	0	0	0	0	0	-0	0	0.105	-0.015	0	0	-0	0	0	-0.098	0.1	0	-0	0	0	0	0	0	-0	0	0.05595	0	0	0	-0	0	0	0	0	0	-0	0	546.43	549.945	369.114	217.719	0.607392	-5.24882	-0.00259135	0.0135763	13.408
89	0.0113281	-0.0175903	0.00886069	0.0106423	-0.0159347	-0.0385089	0.0209076	0.028987	-0.00104702	0.0583577	-0.0238475	0.0139133	0.0511266	-0.00420946	0.0205411	-2.2098	-0.0357831	-1.59731	0	0	0	0	-0	0	0	0	-0.1265	0	-0	0	0	0	0	0	-0	0	0.105	-0.015	0	0	-0	0	0	-0.098	0.1	0	-0	0	0	0	0	0	-0	0	0.05595	0	0	0	-0	0	0	0	0	0	-0	0	546.433	549.94	369.172	217.764	0.608183	-5.25832	-0.00255679	0.0136107	13.4375
90	0.0170321	-0.0175907	0.00886119	0.0106396	-0.0159342	-0.0385083	0.0209087	0.0289875	-0.00104644	0.059929	-0.0236514	0.00138898	0.0510099	-0.00420991	0.0208316	-2.20425	-0.0357691	-1.59767	0	0	0	0	-0	0	0	0	-0.1265	0	-0	0	0	0	0	0	-0	0	0.105	-0.015	0	0	-0	0	0	-0.098	0.1	0	-0	0	0	0	0	0	-0	0	0.05595	0	0	0	-0	0	0	0	0	0	-0	0	546.436	549.927	369.289	217.854	0.609407	-5.27535	-0.00249654	0.0136754	13.4969
91	0.0176534	-0.0175906	0.00886152	0.0106382	-0.0159344	-0.0385081	0.0209073	0.0289858	-0.0010465	0.059862	-0.0227538	-0.0045032	0.0509957	-0.00421013	0.0208633	-2.2037	-0.0358199	-1.59777	0	0	0	0	-0	0	0	0	-0.1265	0	-0	0	0	0	0	0	-0	0	0.105	-0.015	0	0	-0	0	0	-0.098	0.1	0	-0	0	0	0	0	0	-0	0	0.05595	0	0	0	-0	0	0	0	0	0	-0	0	546.44	549.922	369.348	217.9	0.610169	-5.2847	-0.00246177	0.0137095	13.5264
92	0.0222492	-0.0175913	0.0088616	0.010636	-0.0159345	-0.0385077	0.0209069	0.0289855	-0.00104616	0.0554725	-0.0253982	-0.00103834	0.0509003	-0.00421041	0.0210969	-2.19922	-0.0357961	-1.59805	0	0	0	0	-0	0	0	0	-0.1265	0	-0	0	0	0	0	0	-0	0	0.105	-0.015	0	0	-0	0	0	-0.098	0.1	0	-0	0	0	0	0	0	-0	0	0.05595	0	0	0	-0	0	0	0	0	0	-0	0	546.443	549.913	369.434	217.967	0.61103	-5.29699	-0.00241586	0.013757	13.5696
93	0.0204542	-0.0175919	0.00886186	0.0106332	-0.0159342	-0.0385071	0.0209071	0.0289857	-0.00104649	0.0552942	-0.0285008	-0.00671406	0.0509381	-0.00421084	0.0210045	-2.20119	-0.0359918	-1.59815	0	0	0	0	-0	0	0	0	-0.1265	0	-0	0	0	0	0	0	-0	0	0.105	-0.015	0	0	-0	0	0	-0.098	0.1	0	-0	0	0	0	0	0	-0	0	0.05595	0	0	0	-0	0	0	0	0	0	-0	0	546.448	549.903	369.561	218.065	0.612435	-5.3162	-0.00235485	0.0138268	13.6366
94	0.0190395	-0.0175923	0.00886205	0.0106319	-0.0159348	-0.0385071	0.0209067	0.0289855	-0.00104628	0.0523977	-0.0295985	-0.00984465	0.0509673	-0.00421104	0.0209327	-2.20267	-0.0360902	-1.59817	0	0	0	0	-0	0	0	0	-0.1265	0	-0	0	0	0	0	0	-0	0	0.105	-0.015	0	0	-0	0	0	-0.098	0.1	0	-0	0	0	0	0	0	-0	0	0.05595	0	0	0	-0	0	0	0	0	0	-0	0	546.45	549.899	369.612	218.106	0.613098	-5.32421	-0.0023235	0.0138572	13.6614
95	0.0147653	-0.0175926	0.00886228	0.0106304	-0.0159349	-0.0385069	0.0209065	0.0289852	-0.00104602	0.0552973	-0.0261008	-0.00988051	0.0510568	-0.00421124	0.0207147	-2.20703	-0.0362746	-1.59809	0	0	0	0	-0	0	0	0	-0.1265	0	-0	0	0	0	0	0	-0	0	0.105	-0.015	0	0	-0	0	0	-0.098	0.1	0	-0	0	0	0	0	0	-0	0	0.05595	0	0	0	-0	0	0	0	0	0	-0	0	546.453	549.894	369.67	218.151	0.613792	-5.33318	-0.00229649	0.0138897	13.6917
96	0.0167629	-0.0175928	0.00886245	0.0106289	-0.0159349	-0.0385067	0.0209068	0.0289858	-0.00104546	0.052755	-0.0290135	-0.00329799	0.051015	-0.00421145	0.0208162	-2.20511	-0.0362897	-1.59824	0	0	0	0	-0	0	0	0	-0.1265	0	-0	0	0	0	0	0	-0	0	0.105	-0.015	0	0	-0	0	0	-0.098	0.1	0	-0	0	0	0	0	0	-0	0	0.05595	0	0	0	-0	0	0	0	0	0	-0	0	546.456	549.89	369.729	218.198	0.614468	-5.34223	-0.0022665	0.013923	13.7227
97	0.0183087	-0.0175928	0.00886264	0.0106277	-0.0159347	-0.0385065	0.0209068	0.0289857	-0.00104581	0.0493136	-0.0263874	-0.00751387	0.0509827	-0.00421163	0.0208949	-2.20363	-0.0363078	-1.59837	0	0	0	0	-0	0	0	0	-0.1265	0	-0	0	0	0	0	0	-0	0	0.105	-0.015	0	0	-0	0	0	-0.098	0.1	0	-0	0	0	0	0	0	-0	0	0.05595	0	0	0	-0	0	0	0	0	0	-0	0	546.458	549.886	369.781	218.24	0.615077	-5.35028	-0.00223915	0.0139524	13.7499
98	0.0190611	-0.0175929	0.00886286	0.0106266	-0.0159347	-0.0385064	0.0209068	0.0289866	-0.00104616	0.0414702	-0.0255482	-0.0129627	0.0509669	-0.00421179	0.0209332	-2.20294	-0.0363364	-1.59845	0	0	0	0	-0	0	0	0	-0.1265	0	-0	0	0	0	0	0	-0	0	0.105	-0.015	0	0	-0	0	0	-0.098	0.1	0	-0	0	0	0	0	0	-0	0	0.05595	0	0	0	-0	0	0	0	0	0	-0	0	546.461	549.882	369.824	218.273	0.61554	-5.35661	-0.00221265	0.0139764	13.7712
99	0.0184411	-0.017593	0.00886306	0.0106258	-0.0159348	-0.0385064	0.0209065	0.0289854	-0.0010457	0.0442764	-0.0293574	-0.013623	0.0509797	-0.00421191	0.0209016	-2.2036	-0.0363903	-1.59847	0	0	0	0	-0	0	0	0	-0.1265	0	-0	0	0	0	0	0	-0	0	0.105	-0.015	0	0	-0	0	0	-0.098	0.1	0	-0	0	0	0	0	0	-0	0	0.05595	0	0	0	-0	0	0	0	0	0	-0	0	546.462	549.88	369.855	218.299	0.615935	-5.36161	-0.0021968	0.0139945	13.7877
100	0.0185566	-0.0175931	0.0088632	0.010624	-0.0159343	-0.0385061	0.0209067	0.0289854	-0.00104588	0.0441144	-0.0226928	-0.0104259	0.0509778	-0.00421215	0.0209068	-2.20359	-0.0364767	-1.59858	0	0	0	0	-0	0	0	0	-0.1265	0	-0	0	0	0	0	0	-0	0	0.105	-0.015	0	0	-0	0	0	-0.098	0.1	0	-0	0	0	0	0	0	-0	0	0.05595	0	0	0	-0	0	0	0	0	0	-0	0	546.466	549.873	369.932	218.36	0.616672	-5.37268	-0.00215415	0.0140365	13.8277
