Stefan210/kinematic_calibration/src/kinematic_calibration/validation/experiments/experiments/single_point_vs_pose/marker_single_point/rarm_180/optimization_intermediate_results.csv
iteration	HeadPitch_offset	HeadYaw_offset	RElbowRoll_offset	RElbowYaw_offset	RShoulderPitch_offset	RShoulderRoll_offset	marker_transform_rarm_tx	marker_transform_rarm_ty	marker_transform_rarm_tz	marker_transform_rarm_rr	marker_transform_rarm_rp	marker_transform_rarm_ry	camera_transform_tx	camera_transform_ty	camera_transform_tz	camera_transform_rr	camera_transform_rp	camera_transform_ry	HeadPitch_transform_tx	HeadPitch_transform_ty	HeadPitch_transform_tz	HeadPitch_transform_rr	HeadPitch_transform_rp	HeadPitch_transform_ry	HeadYaw_transform_tx	HeadYaw_transform_ty	HeadYaw_transform_tz	HeadYaw_transform_rr	HeadYaw_transform_rp	HeadYaw_transform_ry	RElbowRoll_transform_tx	RElbowRoll_transform_ty	RElbowRoll_transform_tz	RElbowRoll_transform_rr	RElbowRoll_transform_rp	RElbowRoll_transform_ry	RElbowYaw_transform_tx	RElbowYaw_transform_ty	RElbowYaw_transform_tz	RElbowYaw_transform_rr	RElbowYaw_transform_rp	RElbowYaw_transform_ry	RShoulderPitch_transform_tx	RShoulderPitch_transform_ty	RShoulderPitch_transform_tz	RShoulderPitch_transform_rr	RShoulderPitch_transform_rp	RShoulderPitch_transform_ry	RShoulderRoll_transform_tx	RShoulderRoll_transform_ty	RShoulderRoll_transform_tz	RShoulderRoll_transform_rr	RShoulderRoll_transform_rp	RShoulderRoll_transform_ry	RWristYaw_transform_tx	RWristYaw_transform_ty	RWristYaw_transform_tz	RWristYaw_transform_rr	RWristYaw_transform_rp	RWristYaw_transform_ry	r_wrist_joint_transform_tx	r_wrist_joint_transform_ty	r_wrist_joint_transform_tz	r_wrist_joint_transform_rr	r_wrist_joint_transform_rp	r_wrist_joint_transform_ry	camera_fx	camera_fy	camera_cx	camera_cy	camera_D0	camera_D1	camera_D2	camera_D3	camera_D4	
0	0.0230449	0.0294606	-0.0013508	-0.00116347	0.000678263	0.00258603	0.05071	0	0.01774	-2.26369	1.66533e-16	-1.5708	545.901	551.038	324.928	201.58	0.0255298	2.61142	-0.0636736	-0.0350419	0.213964
1	-0.0148633	-0.0199964	0.00493725	0.0154657	-0.0164193	-0.0359052	0.0209181	0.028746	-0.000966013	-0.00112211	0.000654428	0.00277009	0.0540309	-0.00286985	0.0186566	-2.20392	0.0140978	-1.53486	0	0	0	0	-0	0	0	0	-0.1265	0	-0	0	0	0	0	0	-0	0	0.105	-0.015	0	0	-0	0	0	-0.098	0.1	0	-0	0	0	0	0	0	-0	0	0.05595	0	0	0	-0	0	0	0	0	0	-0	0	545.901	551.039	324.929	201.581	-0.0345974	2.59012	-0.0731744	-0.0727125	0.20892
2	-0.0128564	-0.0367195	-0.00300815	0.0182053	-0.0274813	-0.0331918	0.0209776	0.028881	-0.00099385	-0.00112492	0.000655936	0.00277494	0.0534265	-0.00162054	0.022068	-2.21244	0.021501	-1.52643	0	0	0	0	-0	0	0	0	-0.1265	0	-0	0	0	0	0	0	-0	0	0.105	-0.015	0	0	-0	0	0	-0.098	0.1	0	-0	0	0	0	0	0	-0	0	0.05595	0	0	0	-0	0	0	0	0	0	-0	0	545.903	551.039	324.934	201.586	-0.213691	2.46491	-0.0196199	-0.0404983	0.164313
3	-0.0140123	-0.0303482	0.000215962	0.0183888	-0.0225101	-0.0360094	0.0210224	0.0288748	-0.00123521	-0.00115476	0.000676261	0.00276778	0.0549375	-0.00257577	0.0186816	-2.20697	0.021028	-1.52809	0	0	0	0	-0	0	0	0	-0.1265	0	-0	0	0	0	0	0	-0	0	0.105	-0.015	0	0	-0	0	0	-0.098	0.1	0	-0	0	0	0	0	0	-0	0	0.05595	0	0	0	-0	0	0	0	0	0	-0	0	545.905	551.04	324.94	201.591	-0.435576	2.31803	-0.011543	-0.0343319	0.114163
4	-0.0142076	-0.026687	0.00279746	0.0151057	-0.0195718	-0.0382074	0.0211419	0.028831	-0.00126003	-0.00115524	0.000678527	0.00275286	0.055952	-0.00318704	0.016349	-2.20561	0.0208406	-1.53173	0	0	0	0	-0	0	0	0	-0.1265	0	-0	0	0	0	0	0	-0	0	0.105	-0.015	0	0	-0	0	0	-0.098	0.1	0	-0	0	0	0	0	0	-0	0	0.05595	0	0	0	-0	0	0	0	0	0	-0	0	545.909	551.041	324.949	201.599	-0.675678	2.05517	0.0206702	-0.0103488	0.0096822
5	-0.0144257	-0.0243523	0.00523733	0.0132158	-0.0177504	-0.0395749	0.0211796	0.0287816	-0.00126157	-0.00115043	0.000679017	0.00275156	0.0559505	-0.00360189	0.0155717	-2.2046	0.020406	-1.53315	0	0	0	0	-0	0	0	0	-0.1265	0	-0	0	0	0	0	0	-0	0	0.105	-0.015	0	0	-0	0	0	-0.098	0.1	0	-0	0	0	0	0	0	-0	0	0.05595	0	0	0	-0	0	0	0	0	0	-0	0	545.919	551.04	324.962	201.609	-0.655745	1.68857	0.0264927	-0.00366961	-0.164911
6	-0.0145593	-0.023237	0.00743747	0.0121515	-0.0170789	-0.0402587	0.0211592	0.0287237	-0.00119451	-0.00114841	0.000671813	0.00273999	0.0548749	-0.0037962	0.0163859	-2.20439	0.0196004	-1.53353	0	0	0	0	-0	0	0	0	-0.1265	0	-0	0	0	0	0	0	-0	0	0.105	-0.015	0	0	-0	0	0	-0.098	0.1	0	-0	0	0	0	0	0	-0	0	0.05595	0	0	0	-0	0	0	0	0	0	-0	0	545.937	551.036	324.976	201.62	-0.41265	1.15713	0.0138823	-0.00797735	-0.437693
7	-0.0146309	-0.0225982	0.00906744	0.0112874	-0.016858	-0.0406715	0.0211355	0.028677	-0.00111579	-0.00114569	0.000583272	0.00276407	0.0537921	-0.00389882	0.0173804	-2.2045	0.018911	-1.53376	0	0	0	0	-0	0	0	0	-0.1265	0	-0	0	0	0	0	0	-0	0	0.105	-0.015	0	0	-0	0	0	-0.098	0.1	0	-0	0	0	0	0	0	-0	0	0.05595	0	0	0	-0	0	0	0	0	0	-0	0	545.959	551.029	324.986	201.627	-0.159015	0.623762	0.000359356	-0.0132251	-0.713711
8	-0.0146577	-0.0225049	0.00972455	0.010806	-0.0169388	-0.0407924	0.0211235	0.0286555	-0.0010679	-0.00105974	0.000656488	0.00277799	0.0532298	-0.00391962	0.017961	-2.20481	0.0186235	-1.53383	0	0	0	0	-0	0	0	0	-0.1265	0	-0	0	0	0	0	0	-0	0	0.105	-0.015	0	0	-0	0	0	-0.098	0.1	0	-0	0	0	0	0	0	-0	0	0.05595	0	0	0	-0	0	0	0	0	0	-0	0	545.996	551.014	324.991	201.633	-0.0253699	0.328457	-0.00605342	-0.0156974	-0.868274
9	-0.0141709	-0.0225211	0.0098627	0.0106635	-0.0169877	-0.0407881	0.0211202	0.0286497	-0.00105411	-0.00103702	0.000986702	0.00287401	0.0530762	-0.0039172	0.0181477	-2.20448	0.0185294	-1.53385	0	0	0	0	-0	0	0	0	-0.1265	0	-0	0	0	0	0	0	-0	0	0.105	-0.015	0	0	-0	0	0	-0.098	0.1	0	-0	0	0	0	0	0	-0	0	0.05595	0	0	0	-0	0	0	0	0	0	-0	0	546.089	550.979	324.998	201.653	0.00578759	0.257697	-0.00725649	-0.016222	-0.912955
10	-0.0138589	-0.0225292	0.00988835	0.010599	-0.0169983	-0.0407647	0.021119	0.0286475	-0.00105057	-0.00164116	0.00159361	0.00310055	0.0530344	-0.00391225	0.018203	-2.20433	0.0184788	-1.53392	0	0	0	0	-0	0	0	0	-0.1265	0	-0	0	0	0	0	0	-0	0	0.105	-0.015	0	0	-0	0	0	-0.098	0.1	0	-0	0	0	0	0	0	-0	0	0.05595	0	0	0	-0	0	0	0	0	0	-0	0	546.328	550.897	325.014	201.716	0.0046304	0.264577	-0.00675244	-0.0162495	-0.939963
11	-0.0129893	-0.0225424	0.0099141	0.0104952	-0.0170088	-0.040726	0.0211173	0.0286446	-0.00104605	-0.000901186	0.00415996	0.00199201	0.0529729	-0.00390349	0.0182966	-2.20387	0.0184082	-1.53402	0	0	0	0	-0	0	0	0	-0.1265	0	-0	0	0	0	0	0	-0	0	0.105	-0.015	0	0	-0	0	0	-0.098	0.1	0	-0	0	0	0	0	0	-0	0	0.05595	0	0	0	-0	0	0	0	0	0	-0	0	546.847	550.8	325.03	201.912	-0.00543712	0.306325	-0.00549207	-0.0162264	-1.01859
12	-0.0112525	-0.0225573	0.00994208	0.0103637	-0.0170114	-0.0406756	0.0211168	0.0286414	-0.00103781	0.00473333	0.0160525	-0.0071711	0.0528794	-0.00389177	0.0184541	-2.20335	0.0183983	-1.53408	0	0	0	0	-0	0	0	0	-0.1265	0	-0	0	0	0	0	0	-0	0	0.105	-0.015	0	0	-0	0	0	-0.098	0.1	0	-0	0	0	0	0	0	-0	0	0.05595	0	0	0	-0	0	0	0	0	0	-0	0	547.707	550.991	324.977	202.505	-0.022564	0.393294	-0.00390895	-0.0162502	-1.19127
13	-0.0205189	-0.022559	0.00995622	0.01025	-0.0169879	-0.0406308	0.0211204	0.0286559	-0.00103187	-0.0276353	0.0261649	-0.00108609	0.05297	-0.00387978	0.0180556	-2.21597	0.0190864	-1.53416	0	0	0	0	-0	0	0	0	-0.1265	0	-0	0	0	0	0	0	-0	0	0.105	-0.015	0	0	-0	0	0	-0.098	0.1	0	-0	0	0	0	0	0	-0	0	0.05595	0	0	0	-0	0	0	0	0	0	-0	0	549.03	552.11	324.712	204.167	-0.0422851	0.519375	-0.00270749	-0.0164658	-1.45965
14	-0.0202102	-0.0225577	0.00995605	0.0102058	-0.0169694	-0.0406096	0.0211198	0.0286464	-0.00102764	-0.0066559	0.0176973	-0.0159643	0.0529384	-0.00387478	0.0181009	-2.21726	0.0192734	-1.53408	0	0	0	0	-0	0	0	0	-0.1265	0	-0	0	0	0	0	0	-0	0	0.105	-0.015	0	0	-0	0	0	-0.098	0.1	0	-0	0	0	0	0	0	-0	0	0.05595	0	0	0	-0	0	0	0	0	0	-0	0	549.563	552.675	324.568	204.975	-0.0517991	0.590292	-0.00236075	-0.0165636	-1.62025
15	-0.0301907	-0.0225608	0.0099525	0.0101858	-0.01696	-0.0405967	0.0211176	0.0286388	-0.00102691	-0.0176022	0.02421	-0.029159	0.053103	-0.00387176	0.0175923	-2.22843	0.0197995	-1.53419	0	0	0	0	-0	0	0	0	-0.1265	0	-0	0	0	0	0	0	-0	0	0.105	-0.015	0	0	-0	0	0	-0.098	0.1	0	-0	0	0	0	0	0	-0	0	0.05595	0	0	0	-0	0	0	0	0	0	-0	0	549.933	553.09	324.454	205.579	-0.0581655	0.639041	-0.00215037	-0.0166521	-1.73088
16	-0.0380182	-0.022564	0.00994886	0.0101608	-0.0169492	-0.0405824	0.0211209	0.0286361	-0.00102246	-0.0105431	0.00520294	-0.0192006	0.0532143	-0.00386817	0.0172065	-2.23797	0.020321	-1.53424	0	0	0	0	-0	0	0	0	-0.1265	0	-0	0	0	0	0	0	-0	0	0.105	-0.015	0	0	-0	0	0	-0.098	0.1	0	-0	0	0	0	0	0	-0	0	0.05595	0	0	0	-0	0	0	0	0	0	-0	0	550.429	553.657	324.288	206.443	-0.0651164	0.693978	-0.00188069	-0.0167918	-1.85769
17	-0.0327932	-0.0225654	0.00994501	0.0101411	-0.0169392	-0.0405702	0.021118	0.0286343	-0.00101957	-0.0100394	0.0193531	-0.0324649	0.0531076	-0.00386533	0.017504	-2.234	0.0203106	-1.53404	0	0	0	0	-0	0	0	0	-0.1265	0	-0	0	0	0	0	0	-0	0	0.105	-0.015	0	0	-0	0	0	-0.098	0.1	0	-0	0	0	0	0	0	-0	0	0.05595	0	0	0	-0	0	0	0	0	0	-0	0	550.782	554.061	324.161	207.083	-0.0706107	0.738339	-0.00167904	-0.016892	-1.96166
18	-0.0366495	-0.0225695	0.00994138	0.0101143	-0.0169292	-0.0405551	0.0211154	0.0286312	-0.00101759	-0.00263243	0.0351811	-0.0396086	0.0531521	-0.00386185	0.0173275	-2.23962	0.0207127	-1.53399	0	0	0	0	-0	0	0	0	-0.1265	0	-0	0	0	0	0	0	-0	0	0.105	-0.015	0	0	-0	0	0	-0.098	0.1	0	-0	0	0	0	0	0	-0	0	0.05595	0	0	0	-0	0	0	0	0	0	-0	0	551.255	554.598	323.98	207.986	-0.0770695	0.79139	-0.00138886	-0.0170443	-2.08767
19	-0.0472031	-0.0225727	0.00993812	0.0101014	-0.0169241	-0.0405463	0.0211151	0.0286303	-0.00101821	-0.0023383	0.0453713	-0.0415821	0.0533283	-0.00386005	0.0167748	-2.25087	0.02121	-1.53415	0	0	0	0	-0	0	0	0	-0.1265	0	-0	0	0	0	0	0	-0	0	0.105	-0.015	0	0	-0	0	0	-0.098	0.1	0	-0	0	0	0	0	0	-0	0	0.05595	0	0	0	-0	0	0	0	0	0	-0	0	551.441	554.81	323.904	208.348	-0.080688	0.82108	-0.001266	-0.0170963	-2.15849
20	-0.0554563	-0.0225762	0.00993504	0.0100894	-0.0169191	-0.0405378	0.0211155	0.0286331	-0.00101844	0.00754752	0.0455696	-0.0296881	0.0534541	-0.00385831	0.016347	-2.26005	0.0216606	-1.53425	0	0	0	0	-0	0	0	0	-0.1265	0	-0	0	0	0	0	0	-0	0	0.105	-0.015	0	0	-0	0	0	-0.098	0.1	0	-0	0	0	0	0	0	-0	0	0.05595	0	0	0	-0	0	0	0	0	0	-0	0	551.683	555.083	323.803	208.83	-0.0844445	0.852233	-0.0011037	-0.0171801	-2.23307
21	-0.0443215	-0.0225833	0.00992906	0.0100508	-0.0169067	-0.0405157	0.0211148	0.0286282	-0.00101293	0.00661345	0.0335893	-0.0268124	0.0532359	-0.00385356	0.0169883	-2.2519	0.021737	-1.53376	0	0	0	0	-0	0	0	0	-0.1265	0	-0	0	0	0	0	0	-0	0	0.105	-0.015	0	0	-0	0	0	-0.098	0.1	0	-0	0	0	0	0	0	-0	0	0.05595	0	0	0	-0	0	0	0	0	0	-0	0	552.389	555.87	323.472	210.366	-0.0920007	0.919753	-0.000604702	-0.0174709	-2.40223
22	-0.0337314	-0.0225948	0.00991868	0.0100161	-0.0168954	-0.0404905	0.0211184	0.0286281	-0.00101062	0.00166408	0.0524924	-0.0248157	0.0530297	-0.00384881	0.0175809	-2.24385	0.0217756	-1.53329	0	0	0	0	-0	0	0	0	-0.1265	0	-0	0	0	0	0	0	-0	0	0.105	-0.015	0	0	-0	0	0	-0.098	0.1	0	-0	0	0	0	0	0	-0	0	0.05595	0	0	0	-0	0	0	0	0	0	-0	0	552.97	556.514	323.179	211.695	-0.100778	0.997405	-0.000142898	-0.0177112	-2.59662
23	-0.0387498	-0.0225986	0.00991321	0.0100048	-0.0168895	-0.0404801	0.0211136	0.0286271	-0.00100895	0.0089358	0.0525227	-0.0220539	0.0531126	-0.00384702	0.0173165	-2.24951	0.022081	-1.53333	0	0	0	0	-0	0	0	0	-0.1265	0	-0	0	0	0	0	0	-0	0	0.105	-0.015	0	0	-0	0	0	-0.098	0.1	0	-0	0	0	0	0	0	-0	0	0.05595	0	0	0	-0	0	0	0	0	0	-0	0	553.116	556.676	323.099	212.035	-0.104694	1.03103	-7.00478e-06	-0.0177586	-2.68028
24	-0.0439048	-0.0226047	0.00990984	0.00999253	-0.0168866	-0.040471	0.0211175	0.0286307	-0.0010089	0.0108971	0.046023	-0.0400817	0.0531952	-0.0038455	0.0170509	-2.25552	0.022433	-1.53336	0	0	0	0	-0	0	0	0	-0.1265	0	-0	0	0	0	0	0	-0	0	0.105	-0.015	0	0	-0	0	0	-0.098	0.1	0	-0	0	0	0	0	0	-0	0	0.05595	0	0	0	-0	0	0	0	0	0	-0	0	553.309	556.887	322.993	212.485	-0.10817	1.06125	0.00015979	-0.0178447	-2.75534
25	-0.052062	-0.0226114	0.00990401	0.00997276	-0.0168803	-0.0404564	0.0211139	0.0286293	-0.0010063	-0.00481753	0.0472808	-0.0461458	0.0533183	-0.00384294	0.0166373	-2.26538	0.0230653	-1.53335	0	0	0	0	-0	0	0	0	-0.1265	0	-0	0	0	0	0	0	-0	0	0.105	-0.015	0	0	-0	0	0	-0.098	0.1	0	-0	0	0	0	0	0	-0	0	0.05595	0	0	0	-0	0	0	0	0	0	-0	0	553.67	557.276	322.771	213.384	-0.112522	1.10269	0.000477544	-0.0180339	-2.86371
26	-0.0449124	-0.0226136	0.00990175	0.00996569	-0.0168781	-0.0404512	0.0211137	0.0286252	-0.00100462	-0.00383094	0.0441083	-0.0407849	0.0531975	-0.00384198	0.0170187	-2.2585	0.0228506	-1.53316	0	0	0	0	-0	0	0	0	-0.1265	0	-0	0	0	0	0	0	-0	0	0.105	-0.015	0	0	-0	0	0	-0.098	0.1	0	-0	0	0	0	0	0	-0	0	0.05595	0	0	0	-0	0	0	0	0	0	-0	0	553.724	557.338	322.736	213.523	-0.114129	1.11687	0.000531039	-0.0180483	-2.89994
27	-0.0518173	-0.0226169	0.00989914	0.00996297	-0.016877	-0.0404472	0.0211131	0.0286255	-0.00100475	-0.0121789	0.0414759	-0.0430906	0.0533122	-0.00384139	0.0166532	-2.26575	0.0231815	-1.53328	0	0	0	0	-0	0	0	0	-0.1265	0	-0	0	0	0	0	0	-0	0	0.105	-0.015	0	0	-0	0	0	-0.098	0.1	0	-0	0	0	0	0	0	-0	0	0.05595	0	0	0	-0	0	0	0	0	0	-0	0	553.799	557.421	322.688	213.71	-0.11579	1.13146	0.000601427	-0.0180872	-2.93618
28	-0.0478439	-0.0226179	0.00989834	0.00996073	-0.0168762	-0.0404453	0.0211133	0.0286245	-0.00100425	-0.0119256	0.0414019	-0.0437774	0.0532443	-0.00384109	0.0168654	-2.26191	0.0230597	-1.53317	0	0	0	0	-0	0	0	0	-0.1265	0	-0	0	0	0	0	0	-0	0	0.105	-0.015	0	0	-0	0	0	-0.098	0.1	0	-0	0	0	0	0	0	-0	0	0.05595	0	0	0	-0	0	0	0	0	0	-0	0	553.828	557.452	322.67	213.781	-0.116452	1.13725	0.000629602	-0.0180992	-2.95075
29	-0.0426343	-0.0226211	0.00989605	0.00995494	-0.0168748	-0.0404406	0.0211125	0.0286274	-0.00100269	0.00374961	0.0467373	-0.047621	0.0531519	-0.00384029	0.0171484	-2.25724	0.0229692	-1.53299	0	0	0	0	-0	0	0	0	-0.1265	0	-0	0	0	0	0	0	-0	0	0.105	-0.015	0	0	-0	0	0	-0.098	0.1	0	-0	0	0	0	0	0	-0	0	0.05595	0	0	0	-0	0	0	0	0	0	-0	0	553.942	557.575	322.599	214.061	-0.118133	1.1528	0.000730755	-0.0181606	-2.99069
30	-0.036393	-0.0226264	0.00989256	0.00994049	-0.0168715	-0.0404305	0.0211158	0.0286232	-0.00100724	0.0194293	0.0779317	-0.0396607	0.0530341	-0.00383857	0.0174933	-2.25215	0.0229666	-1.5327	0	0	0	0	-0	0	0	0	-0.1265	0	-0	0	0	0	0	0	-0	0	0.105	-0.015	0	0	-0	0	0	-0.098	0.1	0	-0	0	0	0	0	0	-0	0	0.05595	0	0	0	-0	0	0	0	0	0	-0	0	554.176	557.824	322.439	214.669	-0.120777	1.17908	0.000947874	-0.0182958	-3.0612
31	-0.030194	-0.0226305	0.00988824	0.00993524	-0.0168696	-0.0404244	0.0211112	0.0286261	-0.0010007	0.000951605	0.0633729	-0.0377642	0.0529215	-0.00383755	0.017826	-2.24649	0.0228433	-1.53249	0	0	0	0	-0	0	0	0	-0.1265	0	-0	0	0	0	0	0	-0	0	0.105	-0.015	0	0	-0	0	0	-0.098	0.1	0	-0	0	0	0	0	0	-0	0	0.05595	0	0	0	-0	0	0	0	0	0	-0	0	554.286	557.942	322.363	214.956	-0.122761	1.19765	0.00105631	-0.0183531	-3.10978
32	-0.0293965	-0.0226346	0.00988596	0.00992382	-0.016867	-0.0404166	0.0211149	0.0286261	-0.00100398	0.00911113	0.0740736	-0.0230223	0.0529011	-0.00383629	0.0178748	-2.24645	0.022971	-1.53237	0	0	0	0	-0	0	0	0	-0.1265	0	-0	0	0	0	0	0	-0	0	0.105	-0.015	0	0	-0	0	0	-0.098	0.1	0	-0	0	0	0	0	0	-0	0	0.05595	0	0	0	-0	0	0	0	0	0	-0	0	554.436	558.104	322.254	215.357	-0.124969	1.2188	0.00120097	-0.0184409	-3.16541
33	-0.0257849	-0.0226376	0.00988273	0.00991829	-0.016865	-0.0404113	0.0211134	0.0286243	-0.00100056	0.0160804	0.074997	-0.0145908	0.052833	-0.00383543	0.0180706	-2.24337	0.0229467	-1.53222	0	0	0	0	-0	0	0	0	-0.1265	0	-0	0	0	0	0	0	-0	0	0.105	-0.015	0	0	-0	0	0	-0.098	0.1	0	-0	0	0	0	0	0	-0	0	0.05595	0	0	0	-0	0	0	0	0	0	-0	0	554.542	558.217	322.176	215.64	-0.126575	1.23443	0.00130526	-0.0185023	-3.20709
34	-0.0285746	-0.0226422	0.00987941	0.00990987	-0.0168631	-0.040404	0.0211141	0.0286243	-0.000998272	0.0148856	0.071617	-0.00321804	0.0528782	-0.00383427	0.0179297	-2.24689	0.0232148	-1.53218	0	0	0	0	-0	0	0	0	-0.1265	0	-0	0	0	0	0	0	-0	0	0.105	-0.015	0	0	-0	0	0	-0.098	0.1	0	-0	0	0	0	0	0	-0	0	0.05595	0	0	0	-0	0	0	0	0	0	-0	0	554.684	558.366	322.066	216.03	-0.12854	1.25386	0.00144852	-0.018593	-3.25905
35	-0.0281883	-0.0226415	0.00987888	0.00990776	-0.0168617	-0.0404026	0.0211129	0.0286225	-0.000998706	0.0152093	0.0690953	-0.0011896	0.0528709	-0.00383396	0.0179501	-2.24655	0.023209	-1.53217	0	0	0	0	-0	0	0	0	-0.1265	0	-0	0	0	0	0	0	-0	0	0.105	-0.015	0	0	-0	0	0	-0.098	0.1	0	-0	0	0	0	0	0	-0	0	0.05595	0	0	0	-0	0	0	0	0	0	-0	0	554.692	558.375	322.059	216.053	-0.128774	1.25612	0.00145724	-0.0185918	-3.26543
36	-0.0259773	-0.0226437	0.00987764	0.00990672	-0.0168618	-0.0404008	0.0211129	0.0286225	-0.00099847	0.0166488	0.0718483	-0.00415752	0.052831	-0.00383375	0.0180675	-2.24449	0.0231586	-1.53209	0	0	0	0	-0	0	0	0	-0.1265	0	-0	0	0	0	0	0	-0	0	0.105	-0.015	0	0	-0	0	0	-0.098	0.1	0	-0	0	0	0	0	0	-0	0	0.05595	0	0	0	-0	0	0	0	0	0	-0	0	554.721	558.407	322.036	216.133	-0.129506	1.2627	0.00148818	-0.0186108	-3.28198
37	-0.0229688	-0.0226448	0.00987683	0.00990508	-0.0168613	-0.0403992	0.0211133	0.0286233	-0.000998606	0.0101482	0.0746801	-0.00880655	0.052776	-0.00383351	0.0182273	-2.24162	0.0230736	-1.532	0	0	0	0	-0	0	0	0	-0.1265	0	-0	0	0	0	0	0	-0	0	0.105	-0.015	0	0	-0	0	0	-0.098	0.1	0	-0	0	0	0	0	0	-0	0	0.05595	0	0	0	-0	0	0	0	0	0	-0	0	554.749	558.436	322.015	216.207	-0.130084	1.26794	0.00151859	-0.0186275	-3.29541
38	-0.0176126	-0.0226466	0.00987554	0.00990178	-0.0168605	-0.0403964	0.0211125	0.0286229	-0.000997278	0.00085205	0.0669559	-0.00510463	0.052676	-0.00383308	0.0185127	-2.23657	0.0229331	-1.53183	0	0	0	0	-0	0	0	0	-0.1265	0	-0	0	0	0	0	0	-0	0	0.105	-0.015	0	0	-0	0	0	-0.098	0.1	0	-0	0	0	0	0	0	-0	0	0.05595	0	0	0	-0	0	0	0	0	0	-0	0	554.808	558.498	321.968	216.368	-0.130895	1.27599	0.00157717	-0.0186662	-3.31698
39	-0.0179721	-0.022647	0.00987509	0.00990017	-0.01686	-0.0403952	0.021113	0.0286222	-0.000997789	0.000866827	0.0629747	-0.00216823	0.0526814	-0.00383285	0.0184941	-2.23701	0.022965	-1.53183	0	0	0	0	-0	0	0	0	-0.1265	0	-0	0	0	0	0	0	-0	0	0.105	-0.015	0	0	-0	0	0	-0.098	0.1	0	-0	0	0	0	0	0	-0	0	0.05595	0	0	0	-0	0	0	0	0	0	-0	0	554.824	558.516	321.955	216.411	-0.131194	1.27884	0.00159358	-0.0186741	-3.32458
40	-0.0195688	-0.0226492	0.00987358	0.00989706	-0.0168594	-0.0403923	0.0211141	0.0286243	-0.000997408	-0.00544142	0.0659878	0.00777824	0.0527086	-0.00383242	0.018413	-2.23893	0.0231004	-1.53182	0	0	0	0	-0	0	0	0	-0.1265	0	-0	0	0	0	0	0	-0	0	0.105	-0.015	0	0	-0	0	0	-0.098	0.1	0	-0	0	0	0	0	0	-0	0	0.05595	0	0	0	-0	0	0	0	0	0	-0	0	554.887	558.581	321.905	216.582	-0.131995	1.28691	0.00165679	-0.018717	-3.34633
41	-0.0193343	-0.0226495	0.00987292	0.0098945	-0.0168583	-0.0403905	0.021113	0.0286223	-0.000997679	-0.0026715	0.0677334	0.0136019	0.0527033	-0.00383212	0.0184266	-2.23885	0.0231271	-1.53179	0	0	0	0	-0	0	0	0	-0.1265	0	-0	0	0	0	0	0	-0	0	0.105	-0.015	0	0	-0	0	0	-0.098	0.1	0	-0	0	0	0	0	0	-0	0	0.05595	0	0	0	-0	0	0	0	0	0	-0	0	554.916	558.612	321.88	216.666	-0.132473	1.29157	0.00168906	-0.0187349	-3.35892
42	-0.0220954	-0.0226505	0.00987234	0.00989385	-0.0168585	-0.0403897	0.0211128	0.028622	-0.000997379	-0.00348584	0.0706045	0.0161934	0.052754	-0.00383198	0.0182814	-2.24167	0.0232496	-1.53184	0	0	0	0	-0	0	0	0	-0.1265	0	-0	0	0	0	0	0	-0	0	0.105	-0.015	0	0	-0	0	0	-0.098	0.1	0	-0	0	0	0	0	0	-0	0	0.05595	0	0	0	-0	0	0	0	0	0	-0	0	554.929	558.625	321.87	216.699	-0.132718	1.29388	0.00170189	-0.0187421	-3.36499
43	-0.0174558	-0.0226516	0.00987155	0.00989241	-0.0168581	-0.0403882	0.0211132	0.0286226	-0.000996716	-0.000891784	0.0725754	0.00885258	0.0526681	-0.00383176	0.0185274	-2.23718	0.0231037	-1.53171	0	0	0	0	-0	0	0	0	-0.1265	0	-0	0	0	0	0	0	-0	0	0.105	-0.015	0	0	-0	0	0	-0.098	0.1	0	-0	0	0	0	0	0	-0	0	0.05595	0	0	0	-0	0	0	0	0	0	-0	0	554.958	558.655	321.846	216.779	-0.13317	1.29829	0.00173169	-0.0187621	-3.37667
44	-0.0153488	-0.0226527	0.00987064	0.00988992	-0.0168574	-0.0403861	0.0211126	0.0286217	-0.000996716	0.00299289	0.0768547	0.0075179	0.0526269	-0.00383143	0.0186401	-2.2353	0.0230716	-1.53163	0	0	0	0	-0	0	0	0	-0.1265	0	-0	0	0	0	0	0	-0	0	0.105	-0.015	0	0	-0	0	0	-0.098	0.1	0	-0	0	0	0	0	0	-0	0	0.05595	0	0	0	-0	0	0	0	0	0	-0	0	555	558.7	321.811	216.896	-0.133733	1.304	0.00177367	-0.0187907	-3.39212
45	-0.00843624	-0.0226543	0.00986956	0.0098874	-0.016857	-0.0403839	0.0211133	0.0286213	-0.000996237	-0.00258585	0.0643649	0.00901393	0.0524965	-0.00383109	0.0190058	-2.2286	0.0228494	-1.53144	0	0	0	0	-0	0	0	0	-0.1265	0	-0	0	0	0	0	0	-0	0	0.105	-0.015	0	0	-0	0	0	-0.098	0.1	0	-0	0	0	0	0	0	-0	0	0.05595	0	0	0	-0	0	0	0	0	0	-0	0	555.041	558.743	321.777	217.008	-0.134321	1.30984	0.00181476	-0.0188177	-3.40783
46	-0.00391875	-0.0226551	0.00986859	0.0098861	-0.0168564	-0.0403823	0.0211131	0.0286219	-0.000996242	-0.00125428	0.0603787	0.014127	0.0524085	-0.00383083	0.0192437	-2.22423	0.0227074	-1.53131	0	0	0	0	-0	0	0	0	-0.1265	0	-0	0	0	0	0	0	-0	0	0.105	-0.015	0	0	-0	0	0	-0.098	0.1	0	-0	0	0	0	0	0	-0	0	0.05595	0	0	0	-0	0	0	0	0	0	-0	0	555.07	558.773	321.751	217.09	-0.134747	1.31413	0.00184532	-0.0188375	-3.41943
47	-0.00339588	-0.0226553	0.00986838	0.0098849	-0.016856	-0.0403816	0.0211127	0.0286216	-0.000996341	0.00114334	0.0587722	0.016161	0.0523976	-0.00383071	0.0192712	-2.22376	0.0226992	-1.53129	0	0	0	0	-0	0	0	0	-0.1265	0	-0	0	0	0	0	0	-0	0	0.105	-0.015	0	0	-0	0	0	-0.098	0.1	0	-0	0	0	0	0	0	-0	0	0.05595	0	0	0	-0	0	0	0	0	0	-0	0	555.08	558.784	321.743	217.118	-0.134923	1.31584	0.0018555	-0.0188431	-3.42406
48	0.00337166	-0.0226565	0.00986771	0.00988321	-0.0168559	-0.0403802	0.0211128	0.0286218	-0.000995958	0.00358382	0.0598132	0.0113339	0.0522663	-0.00383051	0.019627	-2.21715	0.0224667	-1.53111	0	0	0	0	-0	0	0	0	-0.1265	0	-0	0	0	0	0	0	-0	0	0.105	-0.015	0	0	-0	0	0	-0.098	0.1	0	-0	0	0	0	0	0	-0	0	0.05595	0	0	0	-0	0	0	0	0	0	-0	0	555.108	558.812	321.718	217.197	-0.135319	1.31979	0.00188617	-0.0188635	-3.43465
49	0.000129249	-0.0226569	0.00986727	0.00988241	-0.0168555	-0.0403793	0.0211126	0.0286214	-0.000996105	0.00388716	0.0585443	0.00893167	0.0523284	-0.00383037	0.0194575	-2.22046	0.0226126	-1.53117	0	0	0	0	-0	0	0	0	-0.1265	0	-0	0	0	0	0	0	-0	0	0.105	-0.015	0	0	-0	0	0	-0.098	0.1	0	-0	0	0	0	0	0	-0	0	0.05595	0	0	0	-0	0	0	0	0	0	-0	0	555.122	558.827	321.706	217.236	-0.135564	1.32217	0.00190167	-0.0188725	-3.44104
50	6.02403e-05	-0.0226572	0.00986708	0.00988181	-0.0168554	-0.0403789	0.0211126	0.0286214	-0.000996108	0.00483936	0.0607308	0.0112123	0.0523293	-0.0038303	0.019454	-2.22056	0.0226225	-1.53117	0	0	0	0	-0	0	0	0	-0.1265	0	-0	0	0	0	0	0	-0	0	0.105	-0.015	0	0	-0	0	0	-0.098	0.1	0	-0	0	0	0	0	0	-0	0	0.05595	0	0	0	-0	0	0	0	0	0	-0	0	555.128	558.833	321.701	217.252	-0.135682	1.32326	0.00190808	-0.0188759	-3.44391
51	-0.00057435	-0.0226577	0.00986682	0.00988109	-0.0168553	-0.0403783	0.0211127	0.0286214	-0.000995956	0.00666115	0.0575835	0.0108731	0.0523413	-0.00383021	0.0194213	-2.22126	0.0226622	-1.53117	0	0	0	0	-0	0	0	0	-0.1265	0	-0	0	0	0	0	0	-0	0	0.105	-0.015	0	0	-0	0	0	-0.098	0.1	0	-0	0	0	0	0	0	-0	0	0.05595	0	0	0	-0	0	0	0	0	0	-0	0	555.139	558.845	321.69	217.285	-0.135847	1.32494	0.0019202	-0.0188843	-3.44845
52	0.00198191	-0.0226582	0.00986635	0.00988021	-0.016855	-0.0403774	0.0211126	0.0286213	-0.000995845	0.00527475	0.060487	0.0108251	0.0522911	-0.00383008	0.0195558	-2.21879	0.0225823	-1.5311	0	0	0	0	-0	0	0	0	-0.1265	0	-0	0	0	0	0	0	-0	0	0.105	-0.015	0	0	-0	0	0	-0.098	0.1	0	-0	0	0	0	0	0	-0	0	0.05595	0	0	0	-0	0	0	0	0	0	-0	0	555.156	558.863	321.675	217.333	-0.136091	1.32737	0.00193756	-0.0188964	-3.45496
53	-0.0043937	-0.0226589	0.00986578	0.00987888	-0.0168547	-0.0403763	0.0211132	0.0286212	-0.000995619	0.00497469	0.068293	0.00984798	0.0524145	-0.00382989	0.0192237	-2.2253	0.0228663	-1.53122	0	0	0	0	-0	0	0	0	-0.1265	0	-0	0	0	0	0	0	-0	0	0.105	-0.015	0	0	-0	0	0	-0.098	0.1	0	-0	0	0	0	0	0	-0	0	0.05595	0	0	0	-0	0	0	0	0	0	-0	0	555.181	558.89	321.653	217.403	-0.136354	1.33028	0.00196128	-0.0189146	-3.46314
54	-0.00478055	-0.0226592	0.00986533	0.00987833	-0.0168544	-0.0403755	0.0211128	0.0286213	-0.000995452	0.00471669	0.0721596	0.00644651	0.0524205	-0.00382977	0.0192036	-2.22575	0.0228973	-1.53122	0	0	0	0	-0	0	0	0	-0.1265	0	-0	0	0	0	0	0	-0	0	0.105	-0.015	0	0	-0	0	0	-0.098	0.1	0	-0	0	0	0	0	0	-0	0	0.05595	0	0	0	-0	0	0	0	0	0	-0	0	555.194	558.902	321.642	217.438	-0.136534	1.33207	0.00197454	-0.0189228	-3.46802
55	-0.00585372	-0.0226604	0.00986463	0.00987568	-0.016854	-0.0403736	0.0211128	0.0286223	-0.000996381	-0.0028349	0.0682149	-0.00131013	0.0524394	-0.00382947	0.0191494	-2.22703	0.0229915	-1.53121	0	0	0	0	-0	0	0	0	-0.1265	0	-0	0	0	0	0	0	-0	0	0.105	-0.015	0	0	-0	0	0	-0.098	0.1	0	-0	0	0	0	0	0	-0	0	0.05595	0	0	0	-0	0	0	0	0	0	-0	0	555.234	558.944	321.605	217.551	-0.136958	1.33666	0.00201579	-0.0189531	-3.48081
56	-0.01177	-0.022661	0.00986422	0.00987392	-0.0168536	-0.0403725	0.0211129	0.0286212	-0.000995035	-0.00431204	0.0728246	-0.00457559	0.052552	-0.00382928	0.0188401	-2.23305	0.0232509	-1.53133	0	0	0	0	-0	0	0	0	-0.1265	0	-0	0	0	0	0	0	-0	0	0.105	-0.015	0	0	-0	0	0	-0.098	0.1	0	-0	0	0	0	0	0	-0	0	0.05595	0	0	0	-0	0	0	0	0	0	-0	0	555.254	558.964	321.587	217.606	-0.137259	1.33965	0.00203717	-0.0189659	-3.48897
57	-0.00823843	-0.0226616	0.00986356	0.00987351	-0.0168533	-0.0403715	0.0211124	0.0286213	-0.000994906	0.0006652	0.0753155	-0.00682542	0.0524843	-0.00382914	0.0190257	-2.22959	0.0231306	-1.53123	0	0	0	0	-0	0	0	0	-0.1265	0	-0	0	0	0	0	0	-0	0	0.105	-0.015	0	0	-0	0	0	-0.098	0.1	0	-0	0	0	0	0	0	-0	0	0.05595	0	0	0	-0	0	0	0	0	0	-0	0	555.269	558.98	321.574	217.647	-0.137556	1.34244	0.00205229	-0.0189762	-3.4962
58	-0.00829175	-0.0226623	0.00986314	0.00987212	-0.016853	-0.0403705	0.0211126	0.0286211	-0.000994893	0.00152323	0.072304	-0.00411596	0.0524844	-0.00382898	0.0190235	-2.22975	0.0231585	-1.53121	0	0	0	0	-0	0	0	0	-0.1265	0	-0	0	0	0	0	0	-0	0	0.105	-0.015	0	0	-0	0	0	-0.098	0.1	0	-0	0	0	0	0	0	-0	0	0.05595	0	0	0	-0	0	0	0	0	0	-0	0	555.288	559	321.556	217.702	-0.137836	1.34528	0.00207264	-0.0189905	-3.50386
59	-0.0114936	-0.0226633	0.00986241	0.00987056	-0.0168527	-0.040369	0.021113	0.0286222	-0.000995214	0.00809959	0.0714358	0.00313966	0.0525443	-0.00382876	0.0188568	-2.2331	0.0233228	-1.53126	0	0	0	0	-0	0	0	0	-0.1265	0	-0	0	0	0	0	0	-0	0	0.105	-0.015	0	0	-0	0	0	-0.098	0.1	0	-0	0	0	0	0	0	-0	0	0.05595	0	0	0	-0	0	0	0	0	0	-0	0	555.316	559.028	321.529	217.782	-0.138201	1.34904	0.00210297	-0.0190118	-3.51417
60	-0.00815327	-0.0226637	0.00986193	0.00986918	-0.0168522	-0.0403679	0.0211127	0.0286209	-0.000994616	0.00672066	0.0758473	0.00187687	0.0524804	-0.00382859	0.019033	-2.22987	0.0232183	-1.53116	0	0	0	0	-0	0	0	0	-0.1265	0	-0	0	0	0	0	0	-0	0	0.105	-0.015	0	0	-0	0	0	-0.098	0.1	0	-0	0	0	0	0	0	-0	0	0.05595	0	0	0	-0	0	0	0	0	0	-0	0	555.336	559.05	321.51	217.84	-0.138483	1.35195	0.00212393	-0.0190265	-3.52214
61	-0.00643079	-0.0226642	0.00986156	0.00986869	-0.0168521	-0.0403673	0.0211125	0.0286209	-0.000994626	0.00468529	0.0777368	0.00354423	0.0524471	-0.00382848	0.0191236	-2.22819	0.0231613	-1.53112	0	0	0	0	-0	0	0	0	-0.1265	0	-0	0	0	0	0	0	-0	0	0.105	-0.015	0	0	-0	0	0	-0.098	0.1	0	-0	0	0	0	0	0	-0	0	0.05595	0	0	0	-0	0	0	0	0	0	-0	0	555.345	559.058	321.502	217.864	-0.138627	1.35335	0.00213379	-0.0190323	-3.52592
62	-0.00712649	-0.0226648	0.00986118	0.00986761	-0.0168519	-0.0403664	0.0211124	0.0286211	-0.000994731	0.000175756	0.0759675	0.000217674	0.0524598	-0.00382835	0.0190879	-2.22898	0.0232118	-1.53112	0	0	0	0	-0	0	0	0	-0.1265	0	-0	0	0	0	0	0	-0	0	0.105	-0.015	0	0	-0	0	0	-0.098	0.1	0	-0	0	0	0	0	0	-0	0	0.05595	0	0	0	-0	0	0	0	0	0	-0	0	555.362	559.076	321.486	217.912	-0.138882	1.3559	0.00215175	-0.0190452	-3.53277
63	-0.0114163	-0.0226656	0.00986064	0.00986612	-0.0168516	-0.0403652	0.021113	0.0286212	-0.000994432	-0.00405952	0.0814923	0.00162941	0.0525408	-0.00382817	0.0188639	-2.23339	0.0234155	-1.53119	0	0	0	0	-0	0	0	0	-0.1265	0	-0	0	0	0	0	0	-0	0	0.105	-0.015	0	0	-0	0	0	-0.098	0.1	0	-0	0	0	0	0	0	-0	0	0.05595	0	0	0	-0	0	0	0	0	0	-0	0	555.386	559.1	321.462	217.981	-0.139168	1.35894	0.00217791	-0.0190642	-3.54118
64	-0.0111196	-0.0226658	0.0098602	0.00986556	-0.0168512	-0.0403644	0.0211125	0.028621	-0.000994052	-0.00673396	0.0800271	0.00604323	0.0525344	-0.00382805	0.0188798	-2.23316	0.0234204	-1.53117	0	0	0	0	-0	0	0	0	-0.1265	0	-0	0	0	0	0	0	-0	0	0.105	-0.015	0	0	-0	0	0	-0.098	0.1	0	-0	0	0	0	0	0	-0	0	0.05595	0	0	0	-0	0	0	0	0	0	-0	0	555.398	559.112	321.45	218.016	-0.139347	1.36077	0.00219024	-0.0190728	-3.54621
65	-0.0102203	-0.0226663	0.00985992	0.00986468	-0.0168511	-0.0403638	0.0211126	0.0286212	-0.000994453	-0.0036797	0.0810765	0.0117963	0.0525172	-0.00382795	0.0189273	-2.23232	0.0234001	-1.53114	0	0	0	0	-0	0	0	0	-0.1265	0	-0	0	0	0	0	0	-0	0	0.105	-0.015	0	0	-0	0	0	-0.098	0.1	0	-0	0	0	0	0	0	-0	0	0.05595	0	0	0	-0	0	0	0	0	0	-0	0	555.408	559.123	321.44	218.047	-0.139545	1.36267	0.00220219	-0.0190808	-3.55121
66	-0.00937861	-0.0226672	0.00985933	0.00986352	-0.0168509	-0.0403626	0.0211123	0.0286207	-0.000993907	-0.006899	0.0780841	0.0135898	0.0525005	-0.00382779	0.0189725	-2.23161	0.0234002	-1.5311	0	0	0	0	-0	0	0	0	-0.1265	0	-0	0	0	0	0	0	-0	0	0.105	-0.015	0	0	-0	0	0	-0.098	0.1	0	-0	0	0	0	0	0	-0	0	0.05595	0	0	0	-0	0	0	0	0	0	-0	0	555.432	559.147	321.416	218.115	-0.139834	1.36574	0.00222721	-0.0190999	-3.55967
67	-0.0100772	-0.0226684	0.00985846	0.00986132	-0.0168504	-0.0403607	0.0211119	0.0286239	-0.000993619	0.00929799	0.0799353	0.0134339	0.0525121	-0.00382749	0.018938	-2.23252	0.0234855	-1.53107	0	0	0	0	-0	0	0	0	-0.1265	0	-0	0	0	0	0	0	-0	0	0.105	-0.015	0	0	-0	0	0	-0.098	0.1	0	-0	0	0	0	0	0	-0	0	0.05595	0	0	0	-0	0	0	0	0	0	-0	0	555.472	559.188	321.375	218.231	-0.140205	1.37002	0.00226784	-0.0191329	-3.57187
68	-0.00600887	-0.0226685	0.00985847	0.00985864	-0.0168496	-0.0403594	0.0211125	0.0286207	-0.000993537	0.00713869	0.0811329	0.0170903	0.0524343	-0.00382728	0.0191525	-2.22856	0.0233516	-1.53096	0	0	0	0	-0	0	0	0	-0.1265	0	-0	0	0	0	0	0	-0	0	0.105	-0.015	0	0	-0	0	0	-0.098	0.1	0	-0	0	0	0	0	0	-0	0	0.05595	0	0	0	-0	0	0	0	0	0	-0	0	555.492	559.21	321.355	218.287	-0.140495	1.37292	0.00228879	-0.0191463	-3.57984
69	-0.00240186	-0.0226694	0.0098574	0.00985895	-0.0168496	-0.0403585	0.0211123	0.0286205	-0.000993361	0.00963902	0.0844256	0.0145362	0.0523643	-0.00382714	0.0193422	-2.22504	0.0232323	-1.53085	0	0	0	0	-0	0	0	0	-0.1265	0	-0	0	0	0	0	0	-0	0	0.105	-0.015	0	0	-0	0	0	-0.098	0.1	0	-0	0	0	0	0	0	-0	0	0.05595	0	0	0	-0	0	0	0	0	0	-0	0	555.51	559.228	321.338	218.335	-0.140761	1.37562	0.00230583	-0.0191604	-3.58706
70	0.00583684	-0.0226709	0.00985638	0.00985637	-0.0168491	-0.0403563	0.0211121	0.0286208	-0.000992504	0.0183416	0.0925557	0.0112824	0.0522027	-0.00382679	0.0197758	-2.21706	0.0229712	-1.53061	0	0	0	0	-0	0	0	0	-0.1265	0	-0	0	0	0	0	0	-0	0	0.105	-0.015	0	0	-0	0	0	-0.098	0.1	0	-0	0	0	0	0	0	-0	0	0.05595	0	0	0	-0	0	0	0	0	0	-0	0	555.558	559.277	321.288	218.47	-0.141288	1.38128	0.00235487	-0.0192001	-3.60274
71	0.00694054	-0.0226708	0.00985618	0.00985562	-0.0168485	-0.0403556	0.0211123	0.0286203	-0.000993272	0.0169618	0.0910612	0.00899131	0.0521789	-0.00382666	0.019833	-2.21599	0.0229358	-1.53058	0	0	0	0	-0	0	0	0	-0.1265	0	-0	0	0	0	0	0	-0	0	0.105	-0.015	0	0	-0	0	0	-0.098	0.1	0	-0	0	0	0	0	0	-0	0	0.05595	0	0	0	-0	0	0	0	0	0	-0	0	555.564	559.284	321.282	218.489	-0.141404	1.3825	0.00236083	-0.0192033	-3.60619
72	0.0100609	-0.0226712	0.00985593	0.00985501	-0.0168486	-0.0403553	0.0211123	0.0286202	-0.000993192	0.0154586	0.0869076	0.00831006	0.0521169	-0.00382661	0.0199959	-2.21291	0.0228192	-1.5305	0	0	0	0	-0	0	0	0	-0.1265	0	-0	0	0	0	0	0	-0	0	0.105	-0.015	0	0	-0	0	0	-0.098	0.1	0	-0	0	0	0	0	0	-0	0	0.05595	0	0	0	-0	0	0	0	0	0	-0	0	555.571	559.29	321.275	218.506	-0.141549	1.3838	0.00236868	-0.0192079	-3.60952
73	0.00900871	-0.0226719	0.00985545	0.00985453	-0.0168484	-0.0403545	0.0211124	0.0286204	-0.000993264	0.0133602	0.0851291	0.00433318	0.0521375	-0.00382651	0.0199413	-2.21403	0.0228813	-1.53051	0	0	0	0	-0	0	0	0	-0.1265	0	-0	0	0	0	0	0	-0	0	0.105	-0.015	0	0	-0	0	0	-0.098	0.1	0	-0	0	0	0	0	0	-0	0	0.05595	0	0	0	-0	0	0	0	0	0	-0	0	555.584	559.304	321.261	218.543	-0.141823	1.38639	0.0023835	-0.0192189	-3.61623
74	0.0032731	-0.0226725	0.00985503	0.00985325	-0.0168481	-0.0403534	0.0211123	0.0286201	-0.000992929	0.0132525	0.0822279	0.00492922	0.0522512	-0.00382635	0.019643	-2.21986	0.0231405	-1.53062	0	0	0	0	-0	0	0	0	-0.1265	0	-0	0	0	0	0	0	-0	0	0.105	-0.015	0	0	-0	0	0	-0.098	0.1	0	-0	0	0	0	0	0	-0	0	0.05595	0	0	0	-0	0	0	0	0	0	-0	0	555.603	559.323	321.241	218.598	-0.142104	1.3892	0.00240516	-0.0192348	-3.6238
75	2.69413e-05	-0.0226728	0.0098547	0.00985286	-0.0168479	-0.0403528	0.0211125	0.0286203	-0.000992677	0.0125577	0.0783454	0.00853157	0.0523138	-0.00382626	0.0194735	-2.22316	0.023285	-1.53068	0	0	0	0	-0	0	0	0	-0.1265	0	-0	0	0	0	0	0	-0	0	0.105	-0.015	0	0	-0	0	0	-0.098	0.1	0	-0	0	0	0	0	0	-0	0	0.05595	0	0	0	-0	0	0	0	0	0	-0	0	555.613	559.333	321.23	218.625	-0.142249	1.39068	0.00241503	-0.0192423	-3.62786
76	-0.000181171	-0.0226734	0.00985429	0.00985151	-0.0168475	-0.0403518	0.0211126	0.028621	-0.000992889	0.00578121	0.0810927	0.00500636	0.0523168	-0.00382609	0.0194635	-2.22347	0.0233242	-1.53067	0	0	0	0	-0	0	0	0	-0.1265	0	-0	0	0	0	0	0	-0	0	0.105	-0.015	0	0	-0	0	0	-0.098	0.1	0	-0	0	0	0	0	0	-0	0	0.05595	0	0	0	-0	0	0	0	0	0	-0	0	555.634	559.354	321.208	218.684	-0.142512	1.39339	0.00243695	-0.0192597	-3.63522
77	0.00122198	-0.0226736	0.00985407	0.00985064	-0.0168472	-0.0403512	0.0211124	0.0286201	-0.000992894	0.0048553	0.076422	0.00215813	0.0522892	-0.003826	0.0195373	-2.22212	0.023283	-1.53062	0	0	0	0	-0	0	0	0	-0.1265	0	-0	0	0	0	0	0	-0	0	0.105	-0.015	0	0	-0	0	0	-0.098	0.1	0	-0	0	0	0	0	0	-0	0	0.05595	0	0	0	-0	0	0	0	0	0	-0	0	555.644	559.365	321.197	218.712	-0.142663	1.39494	0.00244686	-0.0192673	-3.63946
78	-0.00535857	-0.0226745	0.00985341	0.00984971	-0.016847	-0.0403501	0.0211129	0.0286201	-0.000991944	0.00267163	0.0678291	0.00649374	0.052417	-0.00382583	0.0191941	-2.22882	0.02358	-1.53075	0	0	0	0	-0	0	0	0	-0.1265	0	-0	0	0	0	0	0	-0	0	0.105	-0.015	0	0	-0	0	0	-0.098	0.1	0	-0	0	0	0	0	0	-0	0	0.05595	0	0	0	-0	0	0	0	0	0	-0	0	555.667	559.388	321.173	218.774	-0.142973	1.39803	0.00247002	-0.019286	-3.64771
79	-0.0049198	-0.0226745	0.0098531	0.00984925	-0.0168466	-0.0403494	0.0211126	0.0286205	-0.000992517	0.00731582	0.064113	0.00714812	0.052407	-0.00382572	0.0192172	-2.22843	0.0235788	-1.53073	0	0	0	0	-0	0	0	0	-0.1265	0	-0	0	0	0	0	0	-0	0	0.105	-0.015	0	0	-0	0	0	-0.098	0.1	0	-0	0	0	0	0	0	-0	0	0.05595	0	0	0	-0	0	0	0	0	0	-0	0	555.678	559.399	321.162	218.804	-0.143103	1.39946	0.00248051	-0.0192948	-3.65174
80	-7.19741e-05	-0.0226748	0.00985306	0.00984822	-0.0168465	-0.040349	0.0211127	0.0286201	-0.00099234	0.00860302	0.0582383	0.00853382	0.0523136	-0.00382565	0.0194716	-2.22363	0.0233966	-1.5306	0	0	0	0	-0	0	0	0	-0.1265	0	-0	0	0	0	0	0	-0	0	0.105	-0.015	0	0	-0	0	0	-0.098	0.1	0	-0	0	0	0	0	0	-0	0	0.05595	0	0	0	-0	0	0	0	0	0	-0	0	555.686	559.406	321.153	218.826	-0.143195	1.40042	0.00248995	-0.0193011	-3.65443
81	0.00268412	-0.0226751	0.00985273	0.00984828	-0.0168464	-0.0403486	0.0211121	0.0286201	-0.000992523	0.00493057	0.0561636	0.0067074	0.0522593	-0.0038256	0.0196156	-2.22091	0.0232949	-1.53053	0	0	0	0	-0	0	0	0	-0.1265	0	-0	0	0	0	0	0	-0	0	0.105	-0.015	0	0	-0	0	0	-0.098	0.1	0	-0	0	0	0	0	0	-0	0	0.05595	0	0	0	-0	0	0	0	0	0	-0	0	555.691	559.412	321.146	218.843	-0.143312	1.40155	0.00249586	-0.019306	-3.65737
82	0.00303721	-0.0226754	0.0098527	0.00984779	-0.0168464	-0.0403484	0.0211124	0.0286201	-0.000992444	0.0060215	0.053642	0.0033147	0.052252	-0.00382557	0.0196342	-2.22058	0.0232874	-1.53052	0	0	0	0	-0	0	0	0	-0.1265	0	-0	0	0	0	0	0	-0	0	0.105	-0.015	0	0	-0	0	0	-0.098	0.1	0	-0	0	0	0	0	0	-0	0	0.05595	0	0	0	-0	0	0	0	0	0	-0	0	555.695	559.416	321.141	218.855	-0.143359	1.40208	0.00250003	-0.0193095	-3.6589
83	0.00301278	-0.0226754	0.00985256	0.00984768	-0.0168463	-0.0403482	0.0211123	0.02862	-0.000992388	0.00707876	0.0508455	0.00186241	0.0522524	-0.00382554	0.019633	-2.22062	0.0232934	-1.53052	0	0	0	0	-0	0	0	0	-0.1265	0	-0	0	0	0	0	0	-0	0	0.105	-0.015	0	0	-0	0	0	-0.098	0.1	0	-0	0	0	0	0	0	-0	0	0.05595	0	0	0	-0	0	0	0	0	0	-0	0	555.698	559.419	321.138	218.864	-0.143414	1.40261	0.00250289	-0.0193121	-3.66025
84	0.00342288	-0.0226755	0.00985253	0.00984748	-0.0168463	-0.0403481	0.0211122	0.0286199	-0.000992343	0.00632473	0.0528206	0.00287506	0.0522442	-0.00382552	0.0196546	-2.22022	0.0232806	-1.5305	0	0	0	0	-0	0	0	0	-0.1265	0	-0	0	0	0	0	0	-0	0	0.105	-0.015	0	0	-0	0	0	-0.098	0.1	0	-0	0	0	0	0	0	-0	0	0.05595	0	0	0	-0	0	0	0	0	0	-0	0	555.701	559.422	321.135	218.871	-0.14344	1.40292	0.00250542	-0.0193142	-3.66115
85	0.00242975	-0.0226757	0.00985241	0.00984714	-0.0168462	-0.0403478	0.0211122	0.0286199	-0.000992288	0.0051124	0.0547508	0.00273745	0.0522636	-0.00382547	0.0196029	-2.22124	0.023329	-1.53052	0	0	0	0	-0	0	0	0	-0.1265	0	-0	0	0	0	0	0	-0	0	0.105	-0.015	0	0	-0	0	0	-0.098	0.1	0	-0	0	0	0	0	0	-0	0	0.05595	0	0	0	-0	0	0	0	0	0	-0	0	555.706	559.427	321.129	218.886	-0.143521	1.4037	0.00251166	-0.0193189	-3.66324
86	0.000233858	-0.0226759	0.00985225	0.00984665	-0.0168461	-0.0403474	0.021112	0.02862	-0.00099227	0.00983908	0.05783	0.00317636	0.0523063	-0.00382541	0.0194885	-2.22348	0.0234298	-1.53056	0	0	0	0	-0	0	0	0	-0.1265	0	-0	0	0	0	0	0	-0	0	0.105	-0.015	0	0	-0	0	0	-0.098	0.1	0	-0	0	0	0	0	0	-0	0	0.05595	0	0	0	-0	0	0	0	0	0	-0	0	555.714	559.434	321.12	218.908	-0.143626	1.40475	0.0025212	-0.0193259	-3.66608
87	0.00152436	-0.022676	0.00985219	0.00984627	-0.016846	-0.0403471	0.0211122	0.0286199	-0.000992206	0.0108905	0.0571648	0.0050564	0.0522809	-0.00382536	0.0195561	-2.22221	0.0233841	-1.53053	0	0	0	0	-0	0	0	0	-0.1265	0	-0	0	0	0	0	0	-0	0	0.105	-0.015	0	0	-0	0	0	-0.098	0.1	0	-0	0	0	0	0	0	-0	0	0.05595	0	0	0	-0	0	0	0	0	0	-0	0	555.718	559.438	321.116	218.919	-0.143685	1.40533	0.00252569	-0.0193289	-3.66764
88	0.000591082	-0.0226763	0.00985197	0.00984586	-0.0168459	-0.0403467	0.0211122	0.0286198	-0.000992112	0.0110494	0.0599001	0.00394036	0.0522988	-0.0038253	0.0195077	-2.22319	0.0234352	-1.53054	0	0	0	0	-0	0	0	0	-0.1265	0	-0	0	0	0	0	0	-0	0	0.105	-0.015	0	0	-0	0	0	-0.098	0.1	0	-0	0	0	0	0	0	-0	0	0.05595	0	0	0	-0	0	0	0	0	0	-0	0	555.728	559.448	321.106	218.944	-0.143803	1.40656	0.00253408	-0.0193367	-3.67099
89	0.000213022	-0.0226764	0.00985182	0.00984564	-0.0168457	-0.0403465	0.0211121	0.0286199	-0.000992211	0.00847004	0.0571703	0.00261823	0.052306	-0.00382526	0.0194881	-2.22359	0.0234572	-1.53054	0	0	0	0	-0	0	0	0	-0.1265	0	-0	0	0	0	0	0	-0	0	0.105	-0.015	0	0	-0	0	0	-0.098	0.1	0	-0	0	0	0	0	0	-0	0	0.05595	0	0	0	-0	0	0	0	0	0	-0	0	555.732	559.453	321.101	218.956	-0.143867	1.40721	0.00253819	-0.0193401	-3.67271
90	0.00196433	-0.0226767	0.00985166	0.009845	-0.0168457	-0.0403459	0.0211125	0.0286203	-0.00099229	0.0073019	0.0553425	-0.00323116	0.0522715	-0.00382518	0.0195802	-2.22189	0.0234018	-1.53049	0	0	0	0	-0	0	0	0	-0.1265	0	-0	0	0	0	0	0	-0	0	0.105	-0.015	0	0	-0	0	0	-0.098	0.1	0	-0	0	0	0	0	0	-0	0	0.05595	0	0	0	-0	0	0	0	0	0	-0	0	555.742	559.462	321.09	218.982	-0.143977	1.40835	0.00254925	-0.0193487	-3.67586
91	-0.000664511	-0.0226769	0.00985137	0.00984441	-0.0168454	-0.0403454	0.0211122	0.0286202	-0.000992082	0.00233849	0.0562784	-0.00556635	0.0523224	-0.0038251	0.0194433	-2.22458	0.0235296	-1.53053	0	0	0	0	-0	0	0	0	-0.1265	0	-0	0	0	0	0	0	-0	0	0.105	-0.015	0	0	-0	0	0	-0.098	0.1	0	-0	0	0	0	0	0	-0	0	0.05595	0	0	0	-0	0	0	0	0	0	-0	0	555.754	559.475	321.074	219.021	-0.144076	1.40961	0.00256161	-0.019361	-3.67954
92	0.00289332	-0.0226772	0.0098512	0.00984389	-0.0168452	-0.0403449	0.0211121	0.0286198	-0.000991971	-0.000952256	0.05383	-0.00611712	0.0522529	-0.00382503	0.0196296	-2.22106	0.0233972	-1.53044	0	0	0	0	-0	0	0	0	-0.1265	0	-0	0	0	0	0	0	-0	0	0.105	-0.015	0	0	-0	0	0	-0.098	0.1	0	-0	0	0	0	0	0	-0	0	0.05595	0	0	0	-0	0	0	0	0	0	-0	0	555.761	559.481	321.066	219.04	-0.144185	1.41068	0.00256912	-0.0193665	-3.68242
93	0.00185335	-0.0226774	0.00985105	0.00984367	-0.0168452	-0.0403446	0.0211122	0.0286198	-0.000991829	-0.0016145	0.0515541	-0.00403013	0.0522728	-0.00382498	0.0195754	-2.22213	0.0234473	-1.53046	0	0	0	0	-0	0	0	0	-0.1265	0	-0	0	0	0	0	0	-0	0	0.105	-0.015	0	0	-0	0	0	-0.098	0.1	0	-0	0	0	0	0	0	-0	0	0.05595	0	0	0	-0	0	0	0	0	0	-0	0	555.766	559.486	321.06	219.054	-0.144251	1.41139	0.00257423	-0.019371	-3.68439
94	0.000785608	-0.0226775	0.00985095	0.0098434	-0.0168451	-0.0403444	0.0211122	0.0286198	-0.00099197	-0.00316451	0.0502083	-0.00650595	0.0522936	-0.00382495	0.0195196	-2.22322	0.0234964	-1.53048	0	0	0	0	-0	0	0	0	-0.1265	0	-0	0	0	0	0	0	-0	0	0.105	-0.015	0	0	-0	0	0	-0.098	0.1	0	-0	0	0	0	0	0	-0	0	0.05595	0	0	0	-0	0	0	0	0	0	-0	0	555.769	559.489	321.056	219.064	-0.144312	1.412	0.00257828	-0.0193742	-3.68601
95	0.00203547	-0.0226777	0.00985073	0.00984307	-0.016845	-0.040344	0.0211122	0.0286198	-0.000991883	-0.0026531	0.0482187	-0.0080997	0.052269	-0.0038249	0.0195853	-2.22201	0.0234594	-1.53044	0	0	0	0	-0	0	0	0	-0.1265	0	-0	0	0	0	0	0	-0	0	0.105	-0.015	0	0	-0	0	0	-0.098	0.1	0	-0	0	0	0	0	0	-0	0	0.05595	0	0	0	-0	0	0	0	0	0	-0	0	555.777	559.497	321.046	219.087	-0.14441	1.41302	0.00258668	-0.0193816	-3.68877
96	0.00340576	-0.0226778	0.0098506	0.00984291	-0.0168449	-0.0403438	0.0211122	0.0286198	-0.000991817	-0.00249702	0.0481534	-0.0104183	0.052242	-0.00382487	0.019657	-2.22066	0.0234107	-1.5304	0	0	0	0	-0	0	0	0	-0.1265	0	-0	0	0	0	0	0	-0	0	0.105	-0.015	0	0	-0	0	0	-0.098	0.1	0	-0	0	0	0	0	0	-0	0	0.05595	0	0	0	-0	0	0	0	0	0	-0	0	555.78	559.501	321.041	219.098	-0.144453	1.41353	0.00258994	-0.019385	-3.69024
97	0.00375764	-0.0226779	0.00985052	0.00984272	-0.0168448	-0.0403437	0.0211122	0.0286197	-0.000991681	-0.00393584	0.0453593	-0.00827007	0.052235	-0.00382484	0.0196755	-2.22032	0.0234014	-1.53039	0	0	0	0	-0	0	0	0	-0.1265	0	-0	0	0	0	0	0	-0	0	0.105	-0.015	0	0	-0	0	0	-0.098	0.1	0	-0	0	0	0	0	0	-0	0	0.05595	0	0	0	-0	0	0	0	0	0	-0	0	555.783	559.504	321.037	219.107	-0.144496	1.41397	0.00259284	-0.0193877	-3.69141
98	0.00512889	-0.022678	0.00985049	0.00984253	-0.0168447	-0.0403435	0.0211121	0.0286197	-0.000991787	-0.00258042	0.0447013	-0.00711297	0.0522079	-0.00382481	0.0197472	-2.21897	0.0233496	-1.53036	0	0	0	0	-0	0	0	0	-0.1265	0	-0	0	0	0	0	0	-0	0	0.105	-0.015	0	0	-0	0	0	-0.098	0.1	0	-0	0	0	0	0	0	-0	0	0.05595	0	0	0	-0	0	0	0	0	0	-0	0	555.786	559.506	321.035	219.113	-0.14453	1.4143	0.00259568	-0.0193897	-3.69232
99	0.00509299	-0.0226782	0.00985035	0.0098423	-0.0168447	-0.0403432	0.0211122	0.0286196	-0.000991789	-0.00145886	0.0482578	-0.0066249	0.0522085	-0.00382478	0.0197455	-2.21903	0.0233594	-1.53035	0	0	0	0	-0	0	0	0	-0.1265	0	-0	0	0	0	0	0	-0	0	0.105	-0.015	0	0	-0	0	0	-0.098	0.1	0	-0	0	0	0	0	0	-0	0	0.05595	0	0	0	-0	0	0	0	0	0	-0	0	555.791	559.511	321.029	219.127	-0.144613	1.41509	0.00260144	-0.0193942	-3.69437
100	0.00496379	-0.0226783	0.00985027	0.00984211	-0.0168446	-0.0403431	0.0211122	0.0286197	-0.000991743	-0.000856536	0.0460133	-0.00672605	0.0522109	-0.00382475	0.0197388	-2.21917	0.0233687	-1.53035	0	0	0	0	-0	0	0	0	-0.1265	0	-0	0	0	0	0	0	-0	0	0.105	-0.015	0	0	-0	0	0	-0.098	0.1	0	-0	0	0	0	0	0	-0	0	0.05595	0	0	0	-0	0	0	0	0	0	-0	0	555.793	559.514	321.026	219.134	-0.144659	1.41553	0.00260435	-0.0193963	-3.69554
