Stefan210/kinematic_calibration/src/kinematic_calibration/validation/experiments/experiments/impact_noise/bad_precision/larm_noise_0_pixel_rk_false/optimization_intermediate_results.csv
iteration	HeadPitch_offset	HeadYaw_offset	LElbowRoll_offset	LElbowYaw_offset	LShoulderPitch_offset	LShoulderRoll_offset	marker_transform_larm_tx	marker_transform_larm_ty	marker_transform_larm_tz	marker_transform_larm_rr	marker_transform_larm_rp	marker_transform_larm_ry	camera_transform_tx	camera_transform_ty	camera_transform_tz	camera_transform_rr	camera_transform_rp	camera_transform_ry	HeadPitch_transform_tx	HeadPitch_transform_ty	HeadPitch_transform_tz	HeadPitch_transform_rr	HeadPitch_transform_rp	HeadPitch_transform_ry	HeadYaw_transform_tx	HeadYaw_transform_ty	HeadYaw_transform_tz	HeadYaw_transform_rr	HeadYaw_transform_rp	HeadYaw_transform_ry	LElbowRoll_transform_tx	LElbowRoll_transform_ty	LElbowRoll_transform_tz	LElbowRoll_transform_rr	LElbowRoll_transform_rp	LElbowRoll_transform_ry	LElbowYaw_transform_tx	LElbowYaw_transform_ty	LElbowYaw_transform_tz	LElbowYaw_transform_rr	LElbowYaw_transform_rp	LElbowYaw_transform_ry	LShoulderPitch_transform_tx	LShoulderPitch_transform_ty	LShoulderPitch_transform_tz	LShoulderPitch_transform_rr	LShoulderPitch_transform_rp	LShoulderPitch_transform_ry	LShoulderRoll_transform_tx	LShoulderRoll_transform_ty	LShoulderRoll_transform_tz	LShoulderRoll_transform_rr	LShoulderRoll_transform_rp	LShoulderRoll_transform_ry	LWristYaw_transform_tx	LWristYaw_transform_ty	LWristYaw_transform_tz	LWristYaw_transform_rr	LWristYaw_transform_rp	LWristYaw_transform_ry	l_wrist_joint_transform_tx	l_wrist_joint_transform_ty	l_wrist_joint_transform_tz	l_wrist_joint_transform_rr	l_wrist_joint_transform_rp	l_wrist_joint_transform_ry	camera_fx	camera_fy	camera_cx	camera_cy	camera_D0	camera_D1	camera_D2	camera_D3	camera_D4	
0	0.0249164	-0.0307543	0.000853157	4.65819e-06	-0.000318322	-0.00310766	0.05071	0	0.01774	-2.26369	1.66533e-16	-1.5708	545.901	551.038	324.928	201.58	0.0255298	2.61142	-0.0636736	-0.0350419	0.213964
1	-0.017182	0.00363506	0.0277751	0.0321036	0.0101701	0.0321279	0.0258629	-0.0302361	0.00236131	-0.000180969	-0.000464685	-0.00294066	0.0551932	-0.00119723	0.0141772	-2.19384	0.0030866	-1.5342	0	0	0	0	-0	0	0	0	-0.1265	0	-0	0	0	0	0	0	-0	0	0.105	0.015	0	0	-0	0	0	0.098	0.1	0	-0	0	0	0	0	0	-0	0	0.05595	0	0	0	-0	0	0	0	0	0	-0	0	545.901	551.039	324.928	201.581	0.00126527	2.60302	-0.085023	0.0277628	0.212226
2	-0.0172902	0.0181874	0.0287381	0.0324723	0.00397212	0.0372234	0.0260048	-0.0304538	0.00270388	-0.00021942	-0.000498633	-0.00294458	0.0534025	-0.00105326	0.0173497	-2.19435	-0.00181546	-1.55017	0	0	0	0	-0	0	0	0	-0.1265	0	-0	0	0	0	0	0	-0	0	0.105	0.015	0	0	-0	0	0	0.098	0.1	0	-0	0	0	0	0	0	-0	0	0.05595	0	0	0	-0	0	0	0	0	0	-0	0	545.903	551.039	324.926	201.585	-0.109337	2.52818	-0.0597566	0.00701828	0.18911
3	-0.0174583	0.0170405	0.0264198	0.0340712	0.0029119	0.0351728	0.0258245	-0.0303628	0.00274022	-0.000222836	-0.000504264	-0.0029581	0.0546437	-0.000903057	0.0155638	-2.19318	-0.000555865	-1.55038	0	0	0	0	-0	0	0	0	-0.1265	0	-0	0	0	0	0	0	-0	0	0.105	0.015	0	0	-0	0	0	0.098	0.1	0	-0	0	0	0	0	0	-0	0	0.05595	0	0	0	-0	0	0	0	0	0	-0	0	545.909	551.039	324.923	201.592	-0.331317	2.37094	-0.036101	0.00175158	0.141519
4	-0.0171154	0.0190986	0.0234689	0.0353354	-0.000616517	0.0320084	0.0255708	-0.0302074	0.00275108	-0.000222347	-0.00050808	-0.00297088	0.0558787	-0.000942382	0.0142635	-2.1942	-0.000522417	-1.55268	0	0	0	0	-0	0	0	0	-0.1265	0	-0	0	0	0	0	0	-0	0	0.105	0.015	0	0	-0	0	0	0.098	0.1	0	-0	0	0	0	0	0	-0	0	0.05595	0	0	0	-0	0	0	0	0	0	-0	0	545.921	551.039	324.917	201.606	-0.574927	2.06869	0.00268635	-0.0089169	0.0398536
5	-0.0167508	0.0202093	0.0206557	0.0359462	-0.00248404	0.0305766	0.0253489	-0.0301159	0.00273264	-0.000219004	-0.000503764	-0.00297627	0.0561513	-0.000969225	0.0140806	-2.19559	0.000287467	-1.55364	0	0	0	0	-0	0	0	0	-0.1265	0	-0	0	0	0	0	0	-0	0	0.105	0.015	0	0	-0	0	0	0.098	0.1	0	-0	0	0	0	0	0	-0	0	0.05595	0	0	0	-0	0	0	0	0	0	-0	0	545.949	551.034	324.909	201.624	-0.559305	1.56904	0.0144271	-0.0136642	-0.149459
6	-0.0163706	0.0196446	0.0186104	0.0360243	-0.00246863	0.0308781	0.0252048	-0.0300902	0.00269971	-0.00021286	-0.000484654	-0.00300293	0.0553852	-0.00096424	0.0150342	-2.19744	0.00194217	-1.5526	0	0	0	0	-0	0	0	0	-0.1265	0	-0	0	0	0	0	0	-0	0	0.105	0.015	0	0	-0	0	0	0.098	0.1	0	-0	0	0	0	0	0	-0	0	0.05595	0	0	0	-0	0	0	0	0	0	-0	0	546.003	551.023	324.904	201.643	-0.291107	0.810453	0.00231953	-0.0131416	-0.445485
7	-0.0160381	0.019152	0.0173015	0.0359282	-0.00225171	0.0314914	0.0251162	-0.0300817	0.00267706	-0.000174896	-0.00056044	-0.00302042	0.0544631	-0.000965234	0.0161773	-2.19915	0.00311532	-1.55158	0	0	0	0	-0	0	0	0	-0.1265	0	-0	0	0	0	0	0	-0	0	0.105	0.015	0	0	-0	0	0	0.098	0.1	0	-0	0	0	0	0	0	-0	0	0.05595	0	0	0	-0	0	0	0	0	0	-0	0	546.096	550.996	324.908	201.655	0.000438441	0.0271967	-0.0118019	-0.0119649	-0.725345
8	-0.0159494	0.019169	0.0167703	0.0358553	-0.00223119	0.0318523	0.0250803	-0.0300788	0.0026733	-0.000301846	-0.000917203	-0.00302987	0.0539003	-0.000977245	0.0168924	-2.20027	0.00347794	-1.55118	0	0	0	0	-0	0	0	0	-0.1265	0	-0	0	0	0	0	0	-0	0	0.105	0.015	0	0	-0	0	0	0.098	0.1	0	-0	0	0	0	0	0	-0	0	0.05595	0	0	0	-0	0	0	0	0	0	-0	0	546.303	550.926	324.908	201.664	0.16281	-0.458808	-0.018227	-0.0115656	-0.805954
9	-0.0158485	0.0192765	0.0166522	0.0358473	-0.00227371	0.0319457	0.0250709	-0.0300788	0.00267888	-0.000276092	-0.000945351	-0.00357543	0.0536402	-0.000986213	0.0172275	-2.20074	0.0035397	-1.55104	0	0	0	0	-0	0	0	0	-0.1265	0	-0	0	0	0	0	0	-0	0	0.105	0.015	0	0	-0	0	0	0.098	0.1	0	-0	0	0	0	0	0	-0	0	0.05595	0	0	0	-0	0	0	0	0	0	-0	0	546.868	550.727	324.86	201.695	0.209969	-0.685491	-0.0180883	-0.0116061	-0.57408
10	-0.0150951	0.0194711	0.0166165	0.0358591	-0.00237661	0.031934	0.0250651	-0.03008	0.0026916	-1.47329e-05	0.000441228	-0.00122631	0.0533067	-0.000997278	0.0176715	-2.20074	0.00356666	-1.55089	0	0	0	0	-0	0	0	0	-0.1265	0	-0	0	0	0	0	0	-0	0	0.105	0.015	0	0	-0	0	0	0.098	0.1	0	-0	0	0	0	0	0	-0	0	0.05595	0	0	0	-0	0	0	0	0	0	-0	0	548.38	550.22	324.702	201.787	0.224599	-0.957776	-0.0133656	-0.0118414	0.144336
11	-0.0190412	0.0198873	0.0165496	0.035882	-0.00259396	0.0318927	0.0250534	-0.030083	0.00271753	-0.00115738	-0.00178863	-0.00512912	0.0527126	-0.00101802	0.0182944	-2.20632	0.00374204	-1.55059	0	0	0	0	-0	0	0	0	-0.1265	0	-0	0	0	0	0	0	-0	0	0.105	0.015	0	0	-0	0	0	0.098	0.1	0	-0	0	0	0	0	0	-0	0	0.05595	0	0	0	-0	0	0	0	0	0	-0	0	551.799	549.28	324.342	202.02	0.239324	-1.47572	-0.00262807	-0.0123693	1.64566
12	-0.018099	0.0204873	0.0164149	0.0359402	-0.00287834	0.0318582	0.025042	-0.0301019	0.00275963	-0.0254609	-0.00973099	0.0112418	0.0517191	-0.00104452	0.01958	-2.20817	0.00396738	-1.55006	0	0	0	0	-0	0	0	0	-0.1265	0	-0	0	0	0	0	0	-0	0	0.105	0.015	0	0	-0	0	0	0.098	0.1	0	-0	0	0	0	0	0	-0	0	0.05595	0	0	0	-0	0	0	0	0	0	-0	0	557.34	548.845	323.749	202.527	0.242878	-2.13092	0.0127971	-0.0131877	3.7355
13	-0.00639785	0.0207552	0.0163058	0.0360137	-0.00297409	0.031863	0.0250219	-0.0300907	0.00277649	-0.0457675	0.0104925	0.00897343	0.050979	-0.00105248	0.0208131	-2.19797	0.00360948	-1.55004	0	0	0	0	-0	0	0	0	-0.1265	0	-0	0	0	0	0	0	-0	0	0.105	0.015	0	0	-0	0	0	0.098	0.1	0	-0	0	0	0	0	0	-0	0	0.05595	0	0	0	-0	0	0	0	0	0	-0	0	560.533	549.464	323.672	202.795	0.233696	-2.40867	0.019959	-0.0134592	4.82864
14	0.00306142	0.0208514	0.0162624	0.0360488	-0.00301079	0.0318622	0.0250189	-0.0300904	0.0027839	-0.0433427	0.0153751	0.0110447	0.0506087	-0.00105405	0.0214819	-2.18898	0.00325988	-1.55016	0	0	0	0	-0	0	0	0	-0.1265	0	-0	0	0	0	0	0	-0	0	0.105	0.015	0	0	-0	0	0	0.098	0.1	0	-0	0	0	0	0	0	-0	0	0.05595	0	0	0	-0	0	0	0	0	0	-0	0	561.575	549.826	323.745	202.869	0.230064	-2.48554	0.0219265	-0.0134956	5.15933
15	-0.0110935	0.0210853	0.0161565	0.0360914	-0.00308203	0.0318499	0.0250173	-0.0301155	0.00279838	-0.00660751	0.025752	0.00680466	0.0505588	-0.00106283	0.0211667	-2.20478	0.00307946	-1.55076	0	0	0	0	-0	0	0	0	-0.1265	0	-0	0	0	0	0	0	-0	0	0.105	0.015	0	0	-0	0	0	0.098	0.1	0	-0	0	0	0	0	0	-0	0	0.05595	0	0	0	-0	0	0	0	0	0	-0	0	564.143	551.712	324.052	203.306	0.218893	-2.58229	0.0245973	-0.013516	5.66265
16	-0.00136182	0.0211688	0.0161054	0.0361269	-0.00310149	0.0318454	0.0250146	-0.0300997	0.00280143	-0.0182194	0.0142544	-0.0146658	0.050233	-0.00106451	0.0218002	-2.19579	0.00257077	-1.55108	0	0	0	0	-0	0	0	0	-0.1265	0	-0	0	0	0	0	0	-0	0	0.105	0.015	0	0	-0	0	0	0.098	0.1	0	-0	0	0	0	0	0	-0	0	0.05595	0	0	0	-0	0	0	0	0	0	-0	0	565.163	552.674	324.283	203.543	0.211281	-2.5816	0.0251967	-0.0134657	5.77012
17	-0.00128381	0.0212287	0.0160744	0.0361374	-0.00311709	0.0318411	0.0250065	-0.0300924	0.00280049	-0.0225206	0.0209525	-0.0313122	0.0501547	-0.00106605	0.0218842	-2.19626	0.00233095	-1.55137	0	0	0	0	-0	0	0	0	-0.1265	0	-0	0	0	0	0	0	-0	0	0.105	0.015	0	0	-0	0	0	0.098	0.1	0	-0	0	0	0	0	0	-0	0	0.05595	0	0	0	-0	0	0	0	0	0	-0	0	565.828	553.375	324.47	203.737	0.205377	-2.56799	0.0254442	-0.0134179	5.80008
18	0.000366146	0.0213012	0.0160334	0.0361533	-0.0031318	0.0318366	0.0250009	-0.0300915	0.00280347	-0.0119567	0.0172434	-0.0195736	0.0500345	-0.00106822	0.0220604	-2.19545	0.00194886	-1.55177	0	0	0	0	-0	0	0	0	-0.1265	0	-0	0	0	0	0	0	-0	0	0.105	0.015	0	0	-0	0	0	0.098	0.1	0	-0	0	0	0	0	0	-0	0	0.05595	0	0	0	-0	0	0	0	0	0	-0	0	566.677	554.363	324.749	204.061	0.196302	-2.53022	0.025581	-0.0133454	5.77898
19	0.00776823	0.0213865	0.0159808	0.0361747	-0.00314431	0.0318326	0.0250036	-0.030095	0.00281239	-0.0117928	0.00479182	-0.0406455	0.0497797	-0.00107063	0.0225299	-2.18932	0.00129859	-1.55236	0	0	0	0	-0	0	0	0	-0.1265	0	-0	0	0	0	0	0	-0	0	0.105	0.015	0	0	-0	0	0	0.098	0.1	0	-0	0	0	0	0	0	-0	0	0.05595	0	0	0	-0	0	0	0	0	0	-0	0	567.735	555.699	325.165	204.605	0.182262	-2.45238	0.0255815	-0.0132345	5.66745
20	-0.00597598	0.0214608	0.0159339	0.0361928	-0.00315312	0.0318295	0.0249932	-0.0300911	0.00280792	0.00333677	-0.00166988	-0.0308795	0.0500137	-0.00107248	0.0219219	-2.20442	0.00101473	-1.55299	0	0	0	0	-0	0	0	0	-0.1265	0	-0	0	0	0	0	0	-0	0	0.105	0.015	0	0	-0	0	0	0.098	0.1	0	-0	0	0	0	0	0	-0	0	0.05595	0	0	0	-0	0	0	0	0	0	-0	0	568.682	556.926	325.606	205.229	0.167333	-2.36053	0.025586	-0.0131156	5.50832
21	0.00711974	0.0214978	0.0159167	0.0362009	-0.00316221	0.031827	0.0249924	-0.0300882	0.00281081	0.00614676	-0.00567884	-0.0243277	0.0496954	-0.00107298	0.0226061	-2.19189	0.000542557	-1.55325	0	0	0	0	-0	0	0	0	-0.1265	0	-0	0	0	0	0	0	-0	0	0.105	0.015	0	0	-0	0	0	0.098	0.1	0	-0	0	0	0	0	0	-0	0	0.05595	0	0	0	-0	0	0	0	0	0	-0	0	569.058	557.399	325.794	205.494	0.160716	-2.32197	0.0256681	-0.0130633	5.44395
22	0.00176949	0.0215502	0.015885	0.0362119	-0.0031666	0.0318262	0.0249908	-0.0300884	0.00280762	-0.0208031	0.025468	-0.0338948	0.0497631	-0.00107451	0.0223887	-2.19841	0.00016853	-1.55378	0	0	0	0	-0	0	0	0	-0.1265	0	-0	0	0	0	0	0	-0	0	0.105	0.015	0	0	-0	0	0	0.098	0.1	0	-0	0	0	0	0	0	-0	0	0.05595	0	0	0	-0	0	0	0	0	0	-0	0	569.734	558.281	326.181	206.058	0.149156	-2.24816	0.0257183	-0.0129624	5.30634
23	0.00550323	0.0216227	0.0158442	0.0362274	-0.00317162	0.0318257	0.0249874	-0.0300938	0.00281959	-8.69844e-05	0.0163936	-0.0449705	0.0496187	-0.00107664	0.0226374	-2.19656	-0.000661039	-1.55462	0	0	0	0	-0	0	0	0	-0.1265	0	-0	0	0	0	0	0	-0	0	0.105	0.015	0	0	-0	0	0	0.098	0.1	0	-0	0	0	0	0	0	-0	0	0.05595	0	0	0	-0	0	0	0	0	0	-0	0	570.656	559.497	326.811	206.999	0.132401	-2.14103	0.0258594	-0.0127967	5.1039
24	-0.00381622	0.0216498	0.0158343	0.0362335	-0.00318153	0.0318225	0.0249873	-0.0300897	0.00281618	0.00982251	0.0161213	-0.0516109	0.0498155	-0.00107654	0.0221893	-2.2063	-0.000699001	-1.55483	0	0	0	0	-0	0	0	0	-0.1265	0	-0	0	0	0	0	0	-0	0	0.105	0.015	0	0	-0	0	0	0.098	0.1	0	-0	0	0	0	0	0	-0	0	0.05595	0	0	0	-0	0	0	0	0	0	-0	0	570.867	559.745	326.96	207.213	0.127543	-2.11405	0.0260244	-0.0127515	5.05911
25	-0.00889609	0.0216726	0.0158241	0.0362355	-0.00318407	0.0318227	0.0249857	-0.0300887	0.00281453	-0.00174425	0.0245302	-0.0562615	0.0499082	-0.00107713	0.0219548	-2.21196	-0.000877451	-1.5551	0	0	0	0	-0	0	0	0	-0.1265	0	-0	0	0	0	0	0	-0	0	0.105	0.015	0	0	-0	0	0	0.098	0.1	0	-0	0	0	0	0	0	-0	0	0.05595	0	0	0	-0	0	0	0	0	0	-0	0	571.136	560.074	327.169	207.509	0.12236	-2.08201	0.0261419	-0.0126965	4.99847
26	-0.00564279	0.0217039	0.0158097	0.0362407	-0.00318738	0.0318225	0.0249906	-0.030094	0.00282061	-0.00859068	0.0332438	-0.0364619	0.0498128	-0.00107803	0.0221423	-2.20957	-0.00132048	-1.55552	0	0	0	0	-0	0	0	0	-0.1265	0	-0	0	0	0	0	0	-0	0	0.105	0.015	0	0	-0	0	0	0.098	0.1	0	-0	0	0	0	0	0	-0	0	0.05595	0	0	0	-0	0	0	0	0	0	-0	0	571.501	560.534	327.486	207.952	0.115343	-2.03865	0.0262981	-0.0126126	4.91679
27	-0.0239297	0.0217582	0.0157821	0.0362517	-0.00318916	0.0318222	0.0249852	-0.0300907	0.00281733	-0.0184428	0.0262099	-0.0388822	0.0501783	-0.00107994	0.0212714	-2.22975	-0.00192312	-1.55641	0	0	0	0	-0	0	0	0	-0.1265	0	-0	0	0	0	0	0	-0	0	0.105	0.015	0	0	-0	0	0	0.098	0.1	0	-0	0	0	0	0	0	-0	0	0.05595	0	0	0	-0	0	0	0	0	0	-0	0	572.179	561.438	328.202	208.94	0.102039	-1.95322	0.0265463	-0.012417	4.75035
28	-0.0263918	0.0217997	0.0157721	0.0362546	-0.00320046	0.0318203	0.024983	-0.0300978	0.0028268	-0.0453342	0.0382704	-0.0254999	0.0502034	-0.00108043	0.0211674	-2.23315	-0.00237874	-1.55688	0	0	0	0	-0	0	0	0	-0.1265	0	-0	0	0	0	0	0	-0	0	0.105	0.015	0	0	-0	0	0	0.098	0.1	0	-0	0	0	0	0	0	-0	0	0.05595	0	0	0	-0	0	0	0	0	0	-0	0	572.518	561.835	328.579	209.439	0.0944206	-1.91138	0.0268729	-0.0123116	4.67915
29	-0.0170516	0.0218261	0.0157629	0.0362599	-0.00320669	0.0318186	0.0249879	-0.0300945	0.00281979	-0.0526284	0.0278141	-0.0416989	0.0499906	-0.00108089	0.0216535	-2.22452	-0.00288386	-1.55728	0	0	0	0	-0	0	0	0	-0.1265	0	-0	0	0	0	0	0	-0	0	0.105	0.015	0	0	-0	0	0	0.098	0.1	0	-0	0	0	0	0	0	-0	0	0.05595	0	0	0	-0	0	0	0	0	0	-0	0	572.762	562.115	328.874	209.814	0.0891615	-1.88218	0.0271151	-0.0122308	4.62818
30	-0.0251926	0.0218668	0.0157497	0.0362613	-0.00320876	0.0318188	0.024992	-0.0300962	0.00282073	-0.0393127	0.0496141	-0.0357305	0.0501393	-0.00108239	0.0212722	-2.2342	-0.00360978	-1.5581	0	0	0	0	-0	0	0	0	-0.1265	0	-0	0	0	0	0	0	-0	0	0.105	0.015	0	0	-0	0	0	0.098	0.1	0	-0	0	0	0	0	0	-0	0	0.05595	0	0	0	-0	0	0	0	0	0	-0	0	573.215	562.699	329.548	210.637	0.0799967	-1.82565	0.027423	-0.0120372	4.51953
31	-0.0252491	0.0218853	0.0157499	0.0362585	-0.00321732	0.0318172	0.0249823	-0.0300894	0.00281971	-0.0397836	0.0561611	-0.0305251	0.0501364	-0.00108203	0.0212725	-2.23447	-0.00374511	-1.55824	0	0	0	0	-0	0	0	0	-0.1265	0	-0	0	0	0	0	0	-0	0	0.105	0.015	0	0	-0	0	0	0.098	0.1	0	-0	0	0	0	0	0	-0	0	0.05595	0	0	0	-0	0	0	0	0	0	-0	0	573.287	562.769	329.645	210.752	0.0774144	-1.81438	0.0275904	-0.0120063	4.50636
32	-0.0282876	0.021911	0.0157424	0.0362619	-0.00322203	0.031816	0.0249842	-0.0300876	0.00281911	-0.0280655	0.0327065	-0.0269285	0.0501847	-0.00108302	0.0211388	-2.23837	-0.00421401	-1.55873	0	0	0	0	-0	0	0	0	-0.1265	0	-0	0	0	0	0	0	-0	0	0.105	0.015	0	0	-0	0	0	0.098	0.1	0	-0	0	0	0	0	0	-0	0	0.05595	0	0	0	-0	0	0	0	0	0	-0	0	573.541	563.061	330.049	211.215	0.072504	-1.78672	0.0278481	-0.0118942	4.45593
33	-0.0205509	0.0219313	0.0157401	0.0362603	-0.00322777	0.0318151	0.0249848	-0.0300939	0.00282069	-0.0302851	0.0342809	-0.00936137	0.0500124	-0.00108327	0.0215372	-2.23114	-0.00462178	-1.55907	0	0	0	0	-0	0	0	0	-0.1265	0	-0	0	0	0	0	0	-0	0	0.105	0.015	0	0	-0	0	0	0.098	0.1	0	-0	0	0	0	0	0	-0	0	0.05595	0	0	0	-0	0	0	0	0	0	-0	0	573.689	563.219	330.295	211.489	0.0690013	-1.7688	0.0280631	-0.011823	4.42697
34	-0.0322441	0.0219601	0.0157322	0.0362633	-0.00323095	0.0318141	0.0249799	-0.0300903	0.00281883	-0.0149124	0.0193625	-0.0039873	0.0502469	-0.00108433	0.0209687	-2.24395	-0.00518271	-1.55971	0	0	0	0	-0	0	0	0	-0.1265	0	-0	0	0	0	0	0	-0	0	0.105	0.015	0	0	-0	0	0	0.098	0.1	0	-0	0	0	0	0	0	-0	0	0.05595	0	0	0	-0	0	0	0	0	0	-0	0	573.971	563.575	330.854	212.093	0.0631965	-1.73409	0.0283337	-0.0116588	4.36032
35	-0.035279	0.0219861	0.0157308	0.0362624	-0.00324055	0.0318122	0.0249824	-0.0300903	0.0028216	-0.0162424	0.00787105	-0.00954009	0.0502992	-0.00108457	0.020825	-2.24754	-0.00552597	-1.56005	0	0	0	0	-0	0	0	0	-0.1265	0	-0	0	0	0	0	0	-0	0	0.105	0.015	0	0	-0	0	0	0.098	0.1	0	-0	0	0	0	0	0	-0	0	0.05595	0	0	0	-0	0	0	0	0	0	-0	0	574.121	563.733	331.142	212.395	0.0593674	-1.71585	0.0285972	-0.0115768	4.33316
36	-0.0361376	0.0220094	0.0157267	0.0362615	-0.00324492	0.0318109	0.024983	-0.0300933	0.00282033	-0.0151329	0.010559	-0.0249762	0.0503052	-0.00108527	0.0207953	-2.24921	-0.0060754	-1.56058	0	0	0	0	-0	0	0	0	-0.1265	0	-0	0	0	0	0	0	-0	0	0.105	0.015	0	0	-0	0	0	0.098	0.1	0	-0	0	0	0	0	0	-0	0	0.05595	0	0	0	-0	0	0	0	0	0	-0	0	574.322	563.966	331.581	212.842	0.0551237	-1.692	0.0288505	-0.011444	4.28956
37	-0.0486172	0.0220365	0.0157238	0.0362608	-0.0032512	0.0318095	0.0249816	-0.0300998	0.00282156	-0.0388659	0.00547219	-0.0265993	0.0505539	-0.00108592	0.0201801	-2.26254	-0.00655028	-1.56108	0	0	0	0	-0	0	0	0	-0.1265	0	-0	0	0	0	0	0	-0	0	0.105	0.015	0	0	-0	0	0	0.098	0.1	0	-0	0	0	0	0	0	-0	0	0.05595	0	0	0	-0	0	0	0	0	0	-0	0	574.523	564.203	332.051	213.305	0.0506031	-1.66725	0.0291256	-0.0113025	4.24542
38	-0.0539755	0.0220603	0.0157219	0.0362615	-0.00325845	0.0318077	0.0249825	-0.0300943	0.00281902	-0.0465834	0.0087487	-0.0426419	0.0506501	-0.00108631	0.019918	-2.26853	-0.0069712	-1.56148	0	0	0	0	-0	0	0	0	-0.1265	0	-0	0	0	0	0	0	-0	0	0.105	0.015	0	0	-0	0	0	0.098	0.1	0	-0	0	0	0	0	0	-0	0	0.05595	0	0	0	-0	0	0	0	0	0	-0	0	574.674	564.371	332.412	213.652	0.0469728	-1.64886	0.0293791	-0.011197	4.2149
39	-0.041618	0.0220782	0.0157219	0.0362579	-0.00326385	0.0318065	0.0249817	-0.0300894	0.00282136	-0.0395413	-0.00861509	-0.0414114	0.0503973	-0.00108661	0.0205512	-2.25664	-0.00744514	-1.5619	0	0	0	0	-0	0	0	0	-0.1265	0	-0	0	0	0	0	0	-0	0	0.105	0.015	0	0	-0	0	0	0.098	0.1	0	-0	0	0	0	0	0	-0	0	0.05595	0	0	0	-0	0	0	0	0	0	-0	0	574.786	564.492	332.688	213.911	0.0442985	-1.63514	0.0295653	-0.0111118	4.19226
40	-0.0437271	0.0220925	0.0157214	0.0362561	-0.00326897	0.0318052	0.0249808	-0.0300917	0.00282066	-0.0379034	-0.0116483	-0.031357	0.050432	-0.00108683	0.0204494	-2.2591	-0.00769617	-1.56214	0	0	0	0	-0	0	0	0	-0.1265	0	-0	0	0	0	0	0	-0	0	0.105	0.015	0	0	-0	0	0	0.098	0.1	0	-0	0	0	0	0	0	-0	0	0.05595	0	0	0	-0	0	0	0	0	0	-0	0	574.87	564.579	332.898	214.104	0.0423129	-1.62534	0.0297156	-0.0110482	4.17652
41	-0.0381779	0.022108	0.01572	0.0362559	-0.00327253	0.0318041	0.0249796	-0.0300906	0.00282088	-0.0431395	-0.00552014	-0.0357909	0.0503117	-0.0010873	0.0207372	-2.25407	-0.00814955	-1.56257	0	0	0	0	-0	0	0	0	-0.1265	0	-0	0	0	0	0	0	-0	0	0.105	0.015	0	0	-0	0	0	0.098	0.1	0	-0	0	0	0	0	0	-0	0	0.05595	0	0	0	-0	0	0	0	0	0	-0	0	574.985	564.711	333.215	214.39	0.0399179	-1.6123	0.0298837	-0.0109499	4.153
42	-0.0374204	0.0221197	0.0157205	0.0362546	-0.00327746	0.031803	0.0249801	-0.0300904	0.00282156	-0.0436421	0.00228452	-0.0363485	0.0502926	-0.00108735	0.0207784	-2.25353	-0.00832712	-1.56274	0	0	0	0	-0	0	0	0	-0.1265	0	-0	0	0	0	0	0	-0	0	0.105	0.015	0	0	-0	0	0	0.098	0.1	0	-0	0	0	0	0	0	-0	0	0.05595	0	0	0	-0	0	0	0	0	0	-0	0	575.036	564.761	333.347	214.508	0.0384315	-1.60579	0.0300046	-0.0109119	4.14424
43	-0.0387479	0.0221287	0.01572	0.0362537	-0.00327979	0.0318023	0.0249805	-0.0300911	0.00282149	-0.0405178	0.00977277	-0.0392622	0.0503159	-0.0010876	0.0207169	-2.25514	-0.00854907	-1.56295	0	0	0	0	-0	0	0	0	-0.1265	0	-0	0	0	0	0	0	-0	0	0.105	0.015	0	0	-0	0	0	0.098	0.1	0	-0	0	0	0	0	0	-0	0	0.05595	0	0	0	-0	0	0	0	0	0	-0	0	575.102	564.83	333.53	214.669	0.0370529	-1.59855	0.0301139	-0.010855	4.13147
44	-0.0533382	0.0221572	0.015716	0.036252	-0.00328331	0.0318	0.0249788	-0.0300916	0.00282142	-0.0503726	0.0138796	-0.0416439	0.0506062	-0.00108893	0.0199954	-2.27098	-0.00946399	-1.56379	0	0	0	0	-0	0	0	0	-0.1265	0	-0	0	0	0	0	0	-0	0	0.105	0.015	0	0	-0	0	0	0.098	0.1	0	-0	0	0	0	0	0	-0	0	0.05595	0	0	0	-0	0	0	0	0	0	-0	0	575.332	565.155	334.341	215.361	0.0328523	-1.5714	0.0303338	-0.010589	4.07534
45	-0.0638889	0.022188	0.0157177	0.0362491	-0.00329573	0.031797	0.0249804	-0.0300933	0.00282514	-0.0392389	0.00502724	-0.0524755	0.0508055	-0.00108921	0.0194686	-2.28216	-0.00994042	-1.56418	0	0	0	0	-0	0	0	0	-0.1265	0	-0	0	0	0	0	0	-0	0	0.105	0.015	0	0	-0	0	0	0.098	0.1	0	-0	0	0	0	0	0	-0	0	0.05595	0	0	0	-0	0	0	0	0	0	-0	0	575.47	565.296	334.751	215.709	0.029016	-1.55361	0.0306445	-0.0104666	4.04877
46	-0.067023	0.0222016	0.0157184	0.0362474	-0.00330129	0.0317955	0.0249798	-0.0300918	0.00282195	-0.0454145	0.00065114	-0.0532518	0.0508606	-0.00108924	0.019313	-2.28555	-0.0101536	-1.56436	0	0	0	0	-0	0	0	0	-0.1265	0	-0	0	0	0	0	0	-0	0	0.105	0.015	0	0	-0	0	0	0.098	0.1	0	-0	0	0	0	0	0	-0	0	0.05595	0	0	0	-0	0	0	0	0	0	-0	0	575.532	565.35	334.924	215.853	0.0272571	-1.54577	0.0307981	-0.0104149	4.03785
47	-0.0676685	0.0222075	0.0157194	0.0362458	-0.00330359	0.0317951	0.0249795	-0.0300914	0.00282189	-0.0494672	-0.00262917	-0.0544633	0.0508716	-0.00108924	0.0192819	-2.28629	-0.0102384	-1.56443	0	0	0	0	-0	0	0	0	-0.1265	0	-0	0	0	0	0	0	-0	0	0.105	0.015	0	0	-0	0	0	0.098	0.1	0	-0	0	0	0	0	0	-0	0	0.05595	0	0	0	-0	0	0	0	0	0	-0	0	575.556	565.37	334.989	215.906	0.0265506	-1.54282	0.0308612	-0.0103954	4.03425
48	-0.0734216	0.0222177	0.0157187	0.0362446	-0.00330572	0.0317944	0.0249813	-0.0300936	0.00282129	-0.0506226	-0.000241503	-0.0676068	0.0509767	-0.00108969	0.0189967	-2.29244	-0.0105539	-1.56468	0	0	0	0	-0	0	0	0	-0.1265	0	-0	0	0	0	0	0	-0	0	0.105	0.015	0	0	-0	0	0	0.098	0.1	0	-0	0	0	0	0	0	-0	0	0.05595	0	0	0	-0	0	0	0	0	0	-0	0	575.64	565.457	335.259	216.125	0.0251384	-1.53491	0.0309891	-0.0103071	4.01881
49	-0.0831346	0.0222348	0.0157186	0.0362424	-0.00330979	0.0317931	0.0249799	-0.0300922	0.00282206	-0.0571207	-0.0052237	-0.0669624	0.0511543	-0.00109021	0.0185091	-2.30273	-0.0110281	-1.56504	0	0	0	0	-0	0	0	0	-0.1265	0	-0	0	0	0	0	0	-0	0	0.105	0.015	0	0	-0	0	0	0.098	0.1	0	-0	0	0	0	0	0	-0	0	0.05595	0	0	0	-0	0	0	0	0	0	-0	0	575.751	565.591	335.663	216.447	0.0229667	-1.52264	0.031153	-0.0101745	3.99563
50	-0.0687031	0.0222654	0.0157176	0.0362389	-0.00331732	0.0317899	0.0249755	-0.030114	0.00283236	-0.10037	0.00332451	-0.0570552	0.0508756	-0.00109126	0.0192579	-2.28937	-0.0121327	-1.56609	0	0	0	0	-0	0	0	0	-0.1265	0	-0	0	0	0	0	0	-0	0	0.105	0.015	0	0	-0	0	0	0.098	0.1	0	-0	0	0	0	0	0	-0	0	0.05595	0	0	0	-0	0	0	0	0	0	-0	0	575.939	565.845	336.44	217.049	0.0193341	-1.50012	0.0313922	-0.00991397	3.94959
51	-0.0622143	0.0222922	0.0157175	0.0362432	-0.00332839	0.0317865	0.0249867	-0.0300983	0.00282608	-0.0967458	0.0177936	-0.0375045	0.0507399	-0.00109148	0.0195937	-2.28343	-0.0126796	-1.56664	0	0	0	0	-0	0	0	0	-0.1265	0	-0	0	0	0	0	0	-0	0	0.105	0.015	0	0	-0	0	0	0.098	0.1	0	-0	0	0	0	0	0	-0	0	0.05595	0	0	0	-0	0	0	0	0	0	-0	0	576.051	565.959	336.833	217.353	0.0162023	-1.48581	0.0316676	-0.0097995	3.92765
52	-0.0740583	0.0223224	0.0157193	0.0362298	-0.00333385	0.0317839	0.0249856	-0.0300988	0.00282282	-0.107793	0.00501576	-0.0521064	0.0509599	-0.00109264	0.019005	-2.29643	-0.0137779	-1.56752	0	0	0	0	-0	0	0	0	-0.1265	0	-0	0	0	0	0	0	-0	0	0.105	0.015	0	0	-0	0	0	0.098	0.1	0	-0	0	0	0	0	0	-0	0	0.05595	0	0	0	-0	0	0	0	0	0	-0	0	576.25	566.231	337.717	218.007	0.0130597	-1.46532	0.0318786	-0.00948531	3.88603
53	-0.0593474	0.0223524	0.0157232	0.0362258	-0.00334606	0.0317809	0.0249818	-0.0300931	0.00282059	-0.107343	-0.0053666	-0.0425083	0.0506714	-0.00109295	0.0197619	-2.28231	-0.0144236	-1.56824	0	0	0	0	-0	0	0	0	-0.1265	0	-0	0	0	0	0	0	-0	0	0.105	0.015	0	0	-0	0	0	0.098	0.1	0	-0	0	0	0	0	0	-0	0	0.05595	0	0	0	-0	0	0	0	0	0	-0	0	576.372	566.351	338.161	218.336	0.00974437	-1.44971	0.032166	-0.00934596	3.86193
54	-0.0546651	0.0223892	0.0157232	0.0362196	-0.00335523	0.031777	0.0249832	-0.0300959	0.00282163	-0.114365	-0.0135492	-0.0294462	0.0505618	-0.00109425	0.0200105	-2.27887	-0.0157204	-1.56949	0	0	0	0	-0	0	0	0	-0.1265	0	-0	0	0	0	0	0	-0	0	0.105	0.015	0	0	-0	0	0	0.098	0.1	0	-0	0	0	0	0	0	-0	0	0.05595	0	0	0	-0	0	0	0	0	0	-0	0	576.585	566.644	339.16	219.041	0.00618738	-1.42532	0.0324002	-0.00899503	3.80778
55	-0.0675934	0.0224222	0.0157274	0.0362149	-0.00336809	0.0317734	0.0249815	-0.0300935	0.00282395	-0.110402	-0.0232347	-0.039578	0.0508128	-0.00109468	0.0193666	-2.29249	-0.0164272	-1.56994	0	0	0	0	-0	0	0	0	-0.1265	0	-0	0	0	0	0	0	-0	0	0.105	0.015	0	0	-0	0	0	0.098	0.1	0	-0	0	0	0	0	0	-0	0	0.05595	0	0	0	-0	0	0	0	0	0	-0	0	576.726	566.787	339.71	219.43	0.00267998	-1.40802	0.0327061	-0.00881436	3.77982
56	-0.0738127	0.0224392	0.0157297	0.036213	-0.00337564	0.0317713	0.0249806	-0.0300928	0.00282212	-0.106625	-0.0158717	-0.0385203	0.0509259	-0.00109479	0.0190541	-2.29899	-0.0167351	-1.5701	0	0	0	0	-0	0	0	0	-0.1265	0	-0	0	0	0	0	0	-0	0	0.105	0.015	0	0	-0	0	0	0.098	0.1	0	-0	0	0	0	0	0	-0	0	0.05595	0	0	0	-0	0	0	0	0	0	-0	0	576.791	566.842	339.94	219.59	0.000870381	-1.39965	0.0328713	-0.00874238	3.76727
57	-0.0730984	0.0224524	0.0157306	0.0362105	-0.00337937	0.0317703	0.024984	-0.0300951	0.00282119	-0.100662	-0.0027307	-0.0474726	0.0509062	-0.00109517	0.0190971	-2.29867	-0.0171541	-1.57048	0	0	0	0	-0	0	0	0	-0.1265	0	-0	0	0	0	0	0	-0	0	0.105	0.015	0	0	-0	0	0	0.098	0.1	0	-0	0	0	0	0	0	-0	0	0.05595	0	0	0	-0	0	0	0	0	0	-0	0	576.871	566.925	340.256	219.807	-0.000491879	-1.39136	0.0329928	-0.00863055	3.75007
58	-0.0660405	0.0224637	0.015732	0.0362079	-0.00338278	0.0317695	0.0249797	-0.0300927	0.00282136	-0.0941335	-0.00880186	-0.0439106	0.0507681	-0.00109538	0.0194609	-2.29189	-0.0174705	-1.57087	0	0	0	0	-0	0	0	0	-0.1265	0	-0	0	0	0	0	0	-0	0	0.105	0.015	0	0	-0	0	0	0.098	0.1	0	-0	0	0	0	0	0	-0	0	0.05595	0	0	0	-0	0	0	0	0	0	-0	0	576.929	566.987	340.494	219.969	-0.00161981	-1.38525	0.0330931	-0.00854803	3.73909
59	-0.0636188	0.0224965	0.0157304	0.0362035	-0.00338982	0.0317656	0.0249795	-0.0300997	0.00283046	-0.120112	0.00646754	-0.0308392	0.0507094	-0.00109677	0.0195949	-2.29068	-0.0188296	-1.57213	0	0	0	0	-0	0	0	0	-0.1265	0	-0	0	0	0	0	0	-0	0	0.105	0.015	0	0	-0	0	0	0.098	0.1	0	-0	0	0	0	0	0	-0	0	0.05595	0	0	0	-0	0	0	0	0	0	-0	0	577.123	567.287	341.545	220.656	-0.00404218	-1.36368	0.0331998	-0.00816021	3.68415
60	-0.0828184	0.0225276	0.0157338	0.0362023	-0.00340274	0.0317614	0.0249816	-0.0300938	0.00282192	-0.114868	0.0153402	-0.0347674	0.0510797	-0.00109718	0.0186298	-2.31049	-0.019545	-1.57237	0	0	0	0	-0	0	0	0	-0.1265	0	-0	0	0	0	0	0	-0	0	0.105	0.015	0	0	-0	0	0	0.098	0.1	0	-0	0	0	0	0	0	-0	0	0.05595	0	0	0	-0	0	0	0	0	0	-0	0	577.248	567.417	342.063	221.002	-0.00717141	-1.34779	0.0334649	-0.0079883	3.6577
61	-0.100344	0.022547	0.0157375	0.0361959	-0.00340874	0.0317602	0.0249807	-0.0300926	0.00282247	-0.11994	0.0258003	-0.0325544	0.0513921	-0.00109755	0.0177381	-2.32848	-0.0201051	-1.57247	0	0	0	0	-0	0	0	0	-0.1265	0	-0	0	0	0	0	0	-0	0	0.105	0.015	0	0	-0	0	0	0.098	0.1	0	-0	0	0	0	0	0	-0	0	0.05595	0	0	0	-0	0	0	0	0	0	-0	0	577.341	567.517	342.457	221.26	-0.00897491	-1.33716	0.0336117	-0.00784837	3.63691
62	-0.097778	0.0225557	0.0157396	0.0361949	-0.00341295	0.031759	0.024981	-0.0300932	0.00282174	-0.117054	0.0323683	-0.0345708	0.0513383	-0.00109754	0.0178686	-2.326	-0.0202197	-1.57261	0	0	0	0	-0	0	0	0	-0.1265	0	-0	0	0	0	0	0	-0	0	0.105	0.015	0	0	-0	0	0	0.098	0.1	0	-0	0	0	0	0	0	-0	0	0.05595	0	0	0	-0	0	0	0	0	0	-0	0	577.363	567.536	342.538	221.313	-0.009887	-1.33339	0.0336867	-0.00782597	3.63278
63	-0.0988301	0.0225597	0.0157401	0.036194	-0.00341375	0.0317587	0.0249807	-0.0300935	0.00282187	-0.118471	0.0320599	-0.0277925	0.051355	-0.00109767	0.0178172	-2.32718	-0.020372	-1.57271	0	0	0	0	-0	0	0	0	-0.1265	0	-0	0	0	0	0	0	-0	0	0.105	0.015	0	0	-0	0	0	0.098	0.1	0	-0	0	0	0	0	0	-0	0	0.05595	0	0	0	-0	0	0	0	0	0	-0	0	577.392	567.563	342.649	221.386	-0.0103521	-1.33032	0.0337291	-0.00778374	3.62618
64	-0.108041	0.022575	0.0157395	0.0361917	-0.00341688	0.0317574	0.0249793	-0.0300953	0.00282278	-0.133809	0.0376927	-0.0259878	0.0515129	-0.00109833	0.0173522	-2.33695	-0.0210559	-1.57307	0	0	0	0	-0	0	0	0	-0.1265	0	-0	0	0	0	0	0	-0	0	0.105	0.015	0	0	-0	0	0	0.098	0.1	0	-0	0	0	0	0	0	-0	0	0.05595	0	0	0	-0	0	0	0	0	0	-0	0	577.494	567.699	343.147	221.703	-0.0114455	-1.32028	0.0337975	-0.00759421	3.59992
65	-0.109129	0.0225862	0.0157418	0.0361916	-0.00342215	0.031756	0.0249808	-0.0300934	0.00282206	-0.131903	0.042058	-0.0214902	0.0515291	-0.00109836	0.0172969	-2.33818	-0.0212295	-1.57318	0	0	0	0	-0	0	0	0	-0.1265	0	-0	0	0	0	0	0	-0	0	0.105	0.015	0	0	-0	0	0	0.098	0.1	0	-0	0	0	0	0	0	-0	0	0.05595	0	0	0	-0	0	0	0	0	0	-0	0	577.524	567.727	343.266	221.78	-0.0126281	-1.31499	0.0338908	-0.007561	3.59273
66	-0.116885	0.0226007	0.0157416	0.036188	-0.00342469	0.0317548	0.0249849	-0.0300952	0.00282367	-0.128803	0.0574617	-0.0123291	0.0516577	-0.00109899	0.0169043	-2.34648	-0.0219071	-1.57355	0	0	0	0	-0	0	0	0	-0.1265	0	-0	0	0	0	0	0	-0	0	0.105	0.015	0	0	-0	0	0	0.098	0.1	0	-0	0	0	0	0	0	-0	0	0.05595	0	0	0	-0	0	0	0	0	0	-0	0	577.622	567.861	343.754	222.089	-0.0137183	-1.30438	0.0339439	-0.00737151	3.56466
67	-0.123418	0.0226136	0.0157438	0.0361856	-0.00342923	0.0317535	0.0249809	-0.0300936	0.00282149	-0.127728	0.0603633	-0.0180056	0.0517644	-0.00109917	0.01657	-2.35328	-0.0222635	-1.57367	0	0	0	0	-0	0	0	0	-0.1265	0	-0	0	0	0	0	0	-0	0	0.105	0.015	0	0	-0	0	0	0.098	0.1	0	-0	0	0	0	0	0	-0	0	0.05595	0	0	0	-0	0	0	0	0	0	-0	0	577.677	567.924	343.997	222.243	-0.0149676	-1.29739	0.0340381	-0.00728625	3.55228
68	-0.130099	0.0226279	0.0157446	0.0361842	-0.00343343	0.031752	0.0249843	-0.0300935	0.00282269	-0.128574	0.0433815	-0.0205054	0.0518701	-0.00109963	0.0162295	-2.36036	-0.0227822	-1.5739	0	0	0	0	-0	0	0	0	-0.1265	0	-0	0	0	0	0	0	-0	0	0.105	0.015	0	0	-0	0	0	0.098	0.1	0	-0	0	0	0	0	0	-0	0	0.05595	0	0	0	-0	0	0	0	0	0	-0	0	577.753	568.021	344.36	222.472	-0.016016	-1.28944	0.0341087	-0.00715022	3.53366
69	-0.139972	0.0226397	0.0157461	0.0361816	-0.00343691	0.0317509	0.0249809	-0.0300937	0.00282165	-0.12978	0.0434227	-0.0150084	0.0520266	-0.00109989	0.0157208	-2.37054	-0.0231904	-1.57397	0	0	0	0	-0	0	0	0	-0.1265	0	-0	0	0	0	0	0	-0	0	0.105	0.015	0	0	-0	0	0	0.098	0.1	0	-0	0	0	0	0	0	-0	0	0.05595	0	0	0	-0	0	0	0	0	0	-0	0	577.812	568.093	344.631	222.642	-0.0171132	-1.28198	0.034179	-0.00704961	3.51785
70	-0.140094	0.0226473	0.0157474	0.0361819	-0.00344018	0.03175	0.0249811	-0.0300935	0.00282181	-0.131827	0.0379139	-0.0166393	0.0520253	-0.00109998	0.0157153	-2.37078	-0.023347	-1.57408	0	0	0	0	-0	0	0	0	-0.1265	0	-0	0	0	0	0	0	-0	0	0.105	0.015	0	0	-0	0	0	0.098	0.1	0	-0	0	0	0	0	0	-0	0	0.05595	0	0	0	-0	0	0	0	0	0	-0	0	577.837	568.121	344.74	222.711	-0.0178279	-1.27828	0.0342326	-0.00701482	3.51153
71	-0.135251	0.0226607	0.0157468	0.0361797	-0.00344264	0.0317488	0.0249804	-0.0300938	0.00282172	-0.13899	0.0397451	-0.0164238	0.0519445	-0.00110056	0.0159736	-2.36642	-0.0239432	-1.57466	0	0	0	0	-0	0	0	0	-0.1265	0	-0	0	0	0	0	0	-0	0	0.105	0.015	0	0	-0	0	0	0.098	0.1	0	-0	0	0	0	0	0	-0	0	0.05595	0	0	0	-0	0	0	0	0	0	-0	0	577.925	568.246	345.185	222.986	-0.0186367	-1.26954	0.0342629	-0.00683935	3.48786
72	-0.124974	0.0226788	0.0157482	0.0361779	-0.00344792	0.031747	0.0249824	-0.0300941	0.00281942	-0.132602	0.0276868	-0.00689588	0.0517761	-0.00110105	0.0165123	-2.35661	-0.0245077	-1.57537	0	0	0	0	-0	0	0	0	-0.1265	0	-0	0	0	0	0	0	-0	0	0.105	0.015	0	0	-0	0	0	0.098	0.1	0	-0	0	0	0	0	0	-0	0	0.05595	0	0	0	-0	0	0	0	0	0	-0	0	578.013	568.367	345.623	223.257	-0.0201677	-1.25764	0.0343381	-0.00667468	3.45994
73	-0.114703	0.0226932	0.0157504	0.036175	-0.00345203	0.031746	0.0249825	-0.0300958	0.00281832	-0.14196	0.0378101	-0.0199878	0.0516009	-0.00110139	0.0170474	-2.34669	-0.0249074	-1.57598	0	0	0	0	-0	0	0	0	-0.1265	0	-0	0	0	0	0	0	-0	0	0.105	0.015	0	0	-0	0	0	0.098	0.1	0	-0	0	0	0	0	0	-0	0	0.05595	0	0	0	-0	0	0	0	0	0	-0	0	578.083	568.454	345.951	223.46	-0.0214934	-1.24814	0.0344154	-0.00655231	3.43877
74	-0.107966	0.0227041	0.0157518	0.0361738	-0.00345529	0.031745	0.0249822	-0.0300965	0.00282147	-0.130343	0.0430925	-0.0156955	0.0514809	-0.00110165	0.0173977	-2.34021	-0.025205	-1.57642	0	0	0	0	-0	0	0	0	-0.1265	0	-0	0	0	0	0	0	-0	0	0.105	0.015	0	0	-0	0	0	0.098	0.1	0	-0	0	0	0	0	0	-0	0	0.05595	0	0	0	-0	0	0	0	0	0	-0	0	578.136	568.518	346.196	223.611	-0.0224613	-1.2414	0.0344785	-0.00646098	3.42398
75	-0.108335	0.0227099	0.0157526	0.036174	-0.00345768	0.0317441	0.0249816	-0.0300935	0.00282165	-0.130831	0.0364031	-0.0159904	0.0514852	-0.00110172	0.0173797	-2.34069	-0.0253447	-1.57652	0	0	0	0	-0	0	0	0	-0.1265	0	-0	0	0	0	0	0	-0	0	0.105	0.015	0	0	-0	0	0	0.098	0.1	0	-0	0	0	0	0	0	-0	0	0.05595	0	0	0	-0	0	0	0	0	0	-0	0	578.16	568.543	346.296	223.673	-0.0230363	-1.23824	0.034521	-0.00642593	3.41862
76	-0.11761	0.0227225	0.0157521	0.0361719	-0.00346025	0.0317429	0.0249835	-0.0300931	0.00282219	-0.128046	0.0205252	-0.0171613	0.0516421	-0.00110226	0.0169076	-2.3504	-0.0259511	-1.57673	0	0	0	0	-0	0	0	0	-0.1265	0	-0	0	0	0	0	0	-0	0	0.105	0.015	0	0	-0	0	0	0.098	0.1	0	-0	0	0	0	0	0	-0	0	0.05595	0	0	0	-0	0	0	0	0	0	-0	0	578.24	568.66	346.706	223.923	-0.0237138	-1.23022	0.0345359	-0.00626059	3.39652
77	-0.112932	0.022733	0.0157541	0.0361704	-0.00346378	0.0317419	0.024982	-0.0300943	0.00282142	-0.123762	0.0265889	-0.0201649	0.0515591	-0.00110246	0.0171511	-2.34594	-0.026206	-1.57708	0	0	0	0	-0	0	0	0	-0.1265	0	-0	0	0	0	0	0	-0	0	0.105	0.015	0	0	-0	0	0	0.098	0.1	0	-0	0	0	0	0	0	-0	0	0.05595	0	0	0	-0	0	0	0	0	0	-0	0	578.286	568.714	346.91	224.048	-0.0247394	-1.22374	0.0345997	-0.00618643	3.3837
78	-0.123171	0.022744	0.0157544	0.0361696	-0.00346643	0.031741	0.0249814	-0.0300938	0.00282161	-0.124557	0.0227436	-0.0228902	0.0517311	-0.00110283	0.016627	-2.35651	-0.0266831	-1.57713	0	0	0	0	-0	0	0	0	-0.1265	0	-0	0	0	0	0	0	-0	0	0.105	0.015	0	0	-0	0	0	0.098	0.1	0	-0	0	0	0	0	0	-0	0	0.05595	0	0	0	-0	0	0	0	0	0	-0	0	578.348	568.799	347.214	224.233	-0.0255864	-1.21598	0.0346352	-0.00606712	3.36387
79	-0.126584	0.0227502	0.0157559	0.0361693	-0.00346914	0.0317403	0.0249814	-0.0300936	0.00282141	-0.123732	0.018272	-0.0212068	0.0517849	-0.00110287	0.0164504	-2.36	-0.0268154	-1.57713	0	0	0	0	-0	0	0	0	-0.1265	0	-0	0	0	0	0	0	-0	0	0.105	0.015	0	0	-0	0	0	0.098	0.1	0	-0	0	0	0	0	0	-0	0	0.05595	0	0	0	-0	0	0	0	0	0	-0	0	578.367	568.819	347.29	224.28	-0.0262118	-1.21293	0.0346788	-0.0060434	3.35942
80	-0.123551	0.0227596	0.0157555	0.0361679	-0.00347075	0.0317396	0.0249813	-0.0300937	0.00282136	-0.122852	0.0152098	-0.0193002	0.051731	-0.00110329	0.0166123	-2.3573	-0.0272254	-1.57754	0	0	0	0	-0	0	0	0	-0.1265	0	-0	0	0	0	0	0	-0	0	0.105	0.015	0	0	-0	0	0	0.098	0.1	0	-0	0	0	0	0	0	-0	0	0.05595	0	0	0	-0	0	0	0	0	0	-0	0	578.432	568.907	347.605	224.47	-0.0267583	-1.20649	0.0346965	-0.00591466	3.34156
81	-0.11755	0.0227719	0.0157565	0.0361669	-0.00347404	0.0317386	0.0249825	-0.0300938	0.00282298	-0.12823	0.0269074	-0.0140494	0.0516284	-0.00110366	0.0169263	-2.35162	-0.0276107	-1.57804	0	0	0	0	-0	0	0	0	-0.1265	0	-0	0	0	0	0	0	-0	0	0.105	0.015	0	0	-0	0	0	0.098	0.1	0	-0	0	0	0	0	0	-0	0	0.05595	0	0	0	-0	0	0	0	0	0	-0	0	578.496	568.994	347.916	224.659	-0.0277416	-1.19824	0.034739	-0.00579334	3.32172
82	-0.116065	0.0227789	0.0157579	0.0361661	-0.00347649	0.0317378	0.024982	-0.0300945	0.002822	-0.130201	0.0301229	-0.00702557	0.0516014	-0.00110376	0.0170041	-2.35027	-0.0277752	-1.57822	0	0	0	0	-0	0	0	0	-0.1265	0	-0	0	0	0	0	0	-0	0	0.105	0.015	0	0	-0	0	0	0.098	0.1	0	-0	0	0	0	0	0	-0	0	0.05595	0	0	0	-0	0	0	0	0	0	-0	0	578.525	569.028	348.043	224.736	-0.0284338	-1.19399	0.0347806	-0.00574741	3.31371
83	-0.107311	0.0227851	0.0157583	0.0361655	-0.00347793	0.0317374	0.0249817	-0.030094	0.00282155	-0.128452	0.0331845	-0.00404284	0.0514506	-0.00110398	0.0174584	-2.3417	-0.0279459	-1.57865	0	0	0	0	-0	0	0	0	-0.1265	0	-0	0	0	0	0	0	-0	0	0.105	0.015	0	0	-0	0	0	0.098	0.1	0	-0	0	0	0	0	0	-0	0	0.05595	0	0	0	-0	0	0	0	0	0	-0	0	578.563	569.075	348.217	224.842	-0.0289255	-1.18951	0.0348047	-0.00567771	3.30232
84	-0.0981384	0.0227984	0.0157581	0.0361639	-0.00348072	0.0317364	0.0249813	-0.030094	0.00282119	-0.120389	0.0251007	-0.00202062	0.0512846	-0.0011045	0.0179346	-2.33295	-0.0284301	-1.57936	0	0	0	0	-0	0	0	0	-0.1265	0	-0	0	0	0	0	0	-0	0	0.105	0.015	0	0	-0	0	0	0.098	0.1	0	-0	0	0	0	0	0	-0	0	0.05595	0	0	0	-0	0	0	0	0	0	-0	0	578.642	569.19	348.633	225.09	-0.0296405	-1.18102	0.0348206	-0.00550817	3.27866
85	-0.088706	0.0228091	0.0157601	0.0361633	-0.0034842	0.0317354	0.0249826	-0.0300937	0.00282084	-0.123662	0.0357536	-0.00598698	0.0511116	-0.00110473	0.0184198	-2.32373	-0.0286252	-1.57987	0	0	0	0	-0	0	0	0	-0.1265	0	-0	0	0	0	0	0	-0	0	0.105	0.015	0	0	-0	0	0	0.098	0.1	0	-0	0	0	0	0	0	-0	0	0.05595	0	0	0	-0	0	0	0	0	0	-0	0	578.688	569.249	348.839	225.214	-0.0306714	-1.17409	0.0348727	-0.00543224	3.26443
86	-0.0909369	0.0228235	0.0157599	0.0361612	-0.00348685	0.0317344	0.0249814	-0.0301022	0.00281906	-0.100362	0.032847	0.00345087	0.051146	-0.00110529	0.0183101	-2.32644	-0.0292542	-1.58031	0	0	0	0	-0	0	0	0	-0.1265	0	-0	0	0	0	0	0	-0	0	0.105	0.015	0	0	-0	0	0	0.098	0.1	0	-0	0	0	0	0	0	-0	0	0.05595	0	0	0	-0	0	0	0	0	0	-0	0	578.778	569.379	349.298	225.487	-0.0314853	-1.16425	0.0348811	-0.00524279	3.23728
87	-0.0742492	0.0228462	0.0157604	0.036161	-0.00349173	0.0317326	0.0249809	-0.0300952	0.00282222	-0.114225	0.0424036	0.00447031	0.0508348	-0.0011061	0.0191702	-2.31042	-0.0299828	-1.58155	0	0	0	0	-0	0	0	0	-0.1265	0	-0	0	0	0	0	0	-0	0	0.105	0.015	0	0	-0	0	0	0.098	0.1	0	-0	0	0	0	0	0	-0	0	0.05595	0	0	0	-0	0	0	0	0	0	-0	0	578.902	569.564	349.97	225.884	-0.0327748	-1.1504	0.0349105	-0.00497135	3.20046
88	-0.0610363	0.0228632	0.0157636	0.0361587	-0.00349782	0.0317306	0.0249854	-0.0300987	0.00282007	-0.118932	0.0437949	-0.0129837	0.0505715	-0.00110648	0.0198432	-2.29755	-0.0302716	-1.58234	0	0	0	0	-0	0	0	0	-0.1265	0	-0	0	0	0	0	0	-0	0	0.105	0.015	0	0	-0	0	0	0.098	0.1	0	-0	0	0	0	0	0	-0	0	0.05595	0	0	0	-0	0	0	0	0	0	-0	0	578.977	569.653	350.302	226.083	-0.0342453	-1.14059	0.0349954	-0.00484453	3.18081
89	-0.0643359	0.0228722	0.0157653	0.0361569	-0.00349925	0.0317303	0.0249845	-0.0300951	0.00282341	-0.116578	0.0317629	-0.0218144	0.0506299	-0.00110674	0.0196776	-2.30111	-0.0306319	-1.58253	0	0	0	0	-0	0	0	0	-0.1265	0	-0	0	0	0	0	0	-0	0	0.105	0.015	0	0	-0	0	0	0.098	0.1	0	-0	0	0	0	0	0	-0	0	0.05595	0	0	0	-0	0	0	0	0	0	-0	0	579.033	569.721	350.55	226.232	-0.0350466	-1.13391	0.0350332	-0.00474342	3.16533
90	-0.0791614	0.022894	0.0157642	0.0361547	-0.00350372	0.0317283	0.0249818	-0.0300971	0.00282486	-0.0994801	0.0210455	-0.0296632	0.050915	-0.00110766	0.0189338	-2.31666	-0.0317518	-1.58289	0	0	0	0	-0	0	0	0	-0.1265	0	-0	0	0	0	0	0	-0	0	0.105	0.015	0	0	-0	0	0	0.098	0.1	0	-0	0	0	0	0	0	-0	0	0.05595	0	0	0	-0	0	0	0	0	0	-0	0	579.165	569.922	351.276	226.654	-0.0359229	-1.12021	0.0350144	-0.00443497	3.12544
91	-0.0654018	0.0229119	0.0157671	0.0361558	-0.00350967	0.0317265	0.0249823	-0.0300941	0.00282161	-0.102747	0.024991	-0.0283271	0.050646	-0.0011081	0.0196365	-2.30327	-0.0320713	-1.58374	0	0	0	0	-0	0	0	0	-0.1265	0	-0	0	0	0	0	0	-0	0	0.105	0.015	0	0	-0	0	0	0.098	0.1	0	-0	0	0	0	0	0	-0	0	0.05595	0	0	0	-0	0	0	0	0	0	-0	0	579.248	570.023	351.638	226.869	-0.0375762	-1.10862	0.0351004	-0.00429717	3.10081
92	-0.0710369	0.0229228	0.0157693	0.0361534	-0.00351217	0.0317259	0.0249852	-0.0300972	0.00282162	-0.0924499	0.0350693	-0.0257837	0.0507491	-0.00110843	0.0193525	-2.30918	-0.0324978	-1.58387	0	0	0	0	-0	0	0	0	-0.1265	0	-0	0	0	0	0	0	-0	0	0.105	0.015	0	0	-0	0	0	0.098	0.1	0	-0	0	0	0	0	0	-0	0	0.05595	0	0	0	-0	0	0	0	0	0	-0	0	579.308	570.096	351.909	227.03	-0.0384564	-1.10123	0.0351402	-0.00418542	3.08355
93	-0.0591275	0.0229298	0.0157705	0.0361528	-0.00351336	0.0317256	0.0249828	-0.0300943	0.00282177	-0.0898138	0.0299659	-0.029245	0.0505157	-0.00110865	0.0199592	-2.29747	-0.0326062	-1.58448	0	0	0	0	-0	0	0	0	-0.1265	0	-0	0	0	0	0	0	-0	0	0.105	0.015	0	0	-0	0	0	0.098	0.1	0	-0	0	0	0	0	0	-0	0	0.05595	0	0	0	-0	0	0	0	0	0	-0	0	579.354	570.151	352.112	227.15	-0.0391247	-1.09538	0.0351703	-0.00410099	3.06959
94	-0.0595637	0.0229449	0.01577	0.0361518	-0.00351669	0.0317246	0.0249837	-0.0300949	0.00281976	-0.0841269	0.0203305	-0.021023	0.0505163	-0.00110925	0.0199409	-2.29836	-0.0331926	-1.58499	0	0	0	0	-0	0	0	0	-0.1265	0	-0	0	0	0	0	0	-0	0	0.105	0.015	0	0	-0	0	0	0.098	0.1	0	-0	0	0	0	0	0	-0	0	0.05595	0	0	0	-0	0	0	0	0	0	-0	0	579.444	570.279	352.56	227.411	-0.0397776	-1.0863	0.0351664	-0.00390912	3.04384
95	-0.0576013	0.022957	0.0157721	0.0361509	-0.00351948	0.0317238	0.0249835	-0.0300949	0.00282187	-0.0849182	0.0251812	-0.0148539	0.0504745	-0.00110963	0.0200431	-2.2967	-0.0335695	-1.58541	0	0	0	0	-0	0	0	0	-0.1265	0	-0	0	0	0	0	0	-0	0	0.105	0.015	0	0	-0	0	0	0.098	0.1	0	-0	0	0	0	0	0	-0	0	0.05595	0	0	0	-0	0	0	0	0	0	-0	0	579.51	570.366	352.87	227.593	-0.0407666	-1.07796	0.0352026	-0.0037821	3.02464
96	-0.0612939	0.0229634	0.0157734	0.0361512	-0.00352153	0.0317231	0.0249838	-0.0300962	0.0028221	-0.0775306	0.0262839	-0.0227541	0.0505473	-0.00110978	0.0198581	-2.30053	-0.0337897	-1.58543	0	0	0	0	-0	0	0	0	-0.1265	0	-0	0	0	0	0	0	-0	0	0.105	0.015	0	0	-0	0	0	0.098	0.1	0	-0	0	0	0	0	0	-0	0	0.05595	0	0	0	-0	0	0	0	0	0	-0	0	579.541	570.402	352.996	227.668	-0.0414037	-1.07369	0.0352354	-0.00373342	3.01622
97	-0.0653111	0.0229713	0.0157733	0.0361508	-0.00352278	0.0317228	0.024984	-0.0300964	0.00282215	-0.0695233	0.0278626	-0.0307444	0.050624	-0.00111012	0.0196581	-2.30481	-0.0341928	-1.58559	0	0	0	0	-0	0	0	0	-0.1265	0	-0	0	0	0	0	0	-0	0	0.105	0.015	0	0	-0	0	0	0.098	0.1	0	-0	0	0	0	0	0	-0	0	0.05595	0	0	0	-0	0	0	0	0	0	-0	0	579.596	570.475	353.261	227.823	-0.0418562	-1.06759	0.0352405	-0.00361772	2.99885
98	-0.0654829	0.0229776	0.0157744	0.0361508	-0.00352448	0.0317223	0.0249837	-0.0300952	0.00282122	-0.069076	0.0263215	-0.0230719	0.0506258	-0.00111029	0.0196507	-2.30512	-0.0343799	-1.58575	0	0	0	0	-0	0	0	0	-0.1265	0	-0	0	0	0	0	0	-0	0	0.105	0.015	0	0	-0	0	0	0.098	0.1	0	-0	0	0	0	0	0	-0	0	0.05595	0	0	0	-0	0	0	0	0	0	-0	0	579.628	570.516	353.401	227.905	-0.0423944	-1.06353	0.0352607	-0.00356239	2.99026
99	-0.0748105	0.0229848	0.0157746	0.0361501	-0.00352585	0.031722	0.024983	-0.0300946	0.00282143	-0.0657354	0.0272449	-0.0227194	0.0508069	-0.00111057	0.019181	-2.31466	-0.0347904	-1.58566	0	0	0	0	-0	0	0	0	-0.1265	0	-0	0	0	0	0	0	-0	0	0.105	0.015	0	0	-0	0	0	0.098	0.1	0	-0	0	0	0	0	0	-0	0	0.05595	0	0	0	-0	0	0	0	0	0	-0	0	579.673	570.578	353.608	228.027	-0.0428432	-1.05827	0.0352646	-0.00347232	2.97606
100	-0.0646946	0.0229994	0.0157741	0.0361495	-0.00352863	0.0317212	0.0249846	-0.0300967	0.00282153	-0.0564021	0.0344374	-0.0201144	0.0506067	-0.00111117	0.0196985	-2.305	-0.0352409	-1.58653	0	0	0	0	-0	0	0	0	-0.1265	0	-0	0	0	0	0	0	-0	0	0.105	0.015	0	0	-0	0	0	0.098	0.1	0	-0	0	0	0	0	0	-0	0	0.05595	0	0	0	-0	0	0	0	0	0	-0	0	579.762	570.711	354.069	228.293	-0.0434627	-1.0487	0.0352455	-0.0032722	2.94837
