Stefan210/kinematic_calibration/src/kinematic_calibration/validation/experiments/experiments/impact_noise/outlier/larm_randomize_16_measurements_rk_true/optimization_intermediate_results.csv
iteration	HeadPitch_offset	HeadYaw_offset	LElbowRoll_offset	LElbowYaw_offset	LShoulderPitch_offset	LShoulderRoll_offset	marker_transform_larm_tx	marker_transform_larm_ty	marker_transform_larm_tz	marker_transform_larm_rr	marker_transform_larm_rp	marker_transform_larm_ry	camera_transform_tx	camera_transform_ty	camera_transform_tz	camera_transform_rr	camera_transform_rp	camera_transform_ry	HeadPitch_transform_tx	HeadPitch_transform_ty	HeadPitch_transform_tz	HeadPitch_transform_rr	HeadPitch_transform_rp	HeadPitch_transform_ry	HeadYaw_transform_tx	HeadYaw_transform_ty	HeadYaw_transform_tz	HeadYaw_transform_rr	HeadYaw_transform_rp	HeadYaw_transform_ry	LElbowRoll_transform_tx	LElbowRoll_transform_ty	LElbowRoll_transform_tz	LElbowRoll_transform_rr	LElbowRoll_transform_rp	LElbowRoll_transform_ry	LElbowYaw_transform_tx	LElbowYaw_transform_ty	LElbowYaw_transform_tz	LElbowYaw_transform_rr	LElbowYaw_transform_rp	LElbowYaw_transform_ry	LShoulderPitch_transform_tx	LShoulderPitch_transform_ty	LShoulderPitch_transform_tz	LShoulderPitch_transform_rr	LShoulderPitch_transform_rp	LShoulderPitch_transform_ry	LShoulderRoll_transform_tx	LShoulderRoll_transform_ty	LShoulderRoll_transform_tz	LShoulderRoll_transform_rr	LShoulderRoll_transform_rp	LShoulderRoll_transform_ry	LWristYaw_transform_tx	LWristYaw_transform_ty	LWristYaw_transform_tz	LWristYaw_transform_rr	LWristYaw_transform_rp	LWristYaw_transform_ry	l_wrist_joint_transform_tx	l_wrist_joint_transform_ty	l_wrist_joint_transform_tz	l_wrist_joint_transform_rr	l_wrist_joint_transform_rp	l_wrist_joint_transform_ry	camera_fx	camera_fy	camera_cx	camera_cy	camera_D0	camera_D1	camera_D2	camera_D3	camera_D4	
0	0.0249164	-0.0307543	0.000853157	4.65819e-06	-0.000318322	-0.00310766	0.05071	0	0.01774	-2.26369	1.66533e-16	-1.5708	545.901	551.038	324.928	201.58	0.0255298	2.61142	-0.0636736	-0.0350419	0.213964
1	-0.0238652	0.0129576	0.0612204	0.085473	0.0415038	0.018573	0.0281665	-0.0321538	0.00682633	-0.000719189	-0.000901056	-0.0028479	0.0470805	-0.00263583	0.010601	-2.16704	0.00401862	-1.58919	0	0	0	0	-0	0	0	0	-0.1265	0	-0	0	0	0	0	0	-0	0	0.105	0.015	0	0	-0	0	0	0.098	0.1	0	-0	0	0	0	0	0	-0	0	0.05595	0	0	0	-0	0	0	0	0	0	-0	0	545.901	551.038	324.928	201.58	0.0208689	2.61255	-0.0758029	0.0203548	0.214315
2	-0.0207901	0.0150448	0.0388793	0.06073	0.00895181	0.031354	0.0267222	-0.0308135	0.00473234	-0.000495887	-0.000709396	-0.00288407	0.0529033	-0.0024438	0.0132192	-2.17957	0.00426428	-1.55464	0	0	0	0	-0	0	0	0	-0.1265	0	-0	0	0	0	0	0	-0	0	0.105	0.015	0	0	-0	0	0	0.098	0.1	0	-0	0	0	0	0	0	-0	0	0.05595	0	0	0	-0	0	0	0	0	0	-0	0	545.91	551.038	324.924	201.593	-0.317799	2.38508	-0.0418827	-0.00554273	0.147346
3	-0.0191278	0.0202757	0.0319764	0.0546218	-0.000819694	0.0314869	0.0259786	-0.0304159	0.00419879	-0.000450254	-0.000654726	-0.0029475	0.0545714	-0.00171565	0.0137638	-2.18632	0.000815012	-1.55578	0	0	0	0	-0	0	0	0	-0.1265	0	-0	0	0	0	0	0	-0	0	0.105	0.015	0	0	-0	0	0	0.098	0.1	0	-0	0	0	0	0	0	-0	0	0.05595	0	0	0	-0	0	0	0	0	0	-0	0	545.95	551.03	324.918	201.622	-0.390151	1.82104	-0.0145688	-0.0127487	-0.0505434
4	-0.018112	0.0180673	0.0268998	0.0542463	-0.000370561	0.0335862	0.0256611	-0.0302335	0.00414612	-0.000407501	-0.000631852	-0.00297528	0.0543657	-0.00147277	0.0144892	-2.19038	0.00338706	-1.55048	0	0	0	0	-0	0	0	0	-0.1265	0	-0	0	0	0	0	0	-0	0	0.105	0.015	0	0	-0	0	0	0.098	0.1	0	-0	0	0	0	0	0	-0	0	0.05595	0	0	0	-0	0	0	0	0	0	-0	0	546.036	551.011	324.921	201.659	-0.168259	0.887755	-0.0171358	-0.0122578	-0.386637
5	-0.0173585	0.016411	0.0238643	0.053367	0.00104704	0.035068	0.0255167	-0.0301397	0.00411596	-0.00027348	-0.000480223	-0.00301027	0.0539448	-0.00130875	0.0152634	-2.19341	0.00505522	-1.54736	0	0	0	0	-0	0	0	0	-0.1265	0	-0	0	0	0	0	0	-0	0	0.105	0.015	0	0	-0	0	0	0.098	0.1	0	-0	0	0	0	0	0	-0	0	0.05595	0	0	0	-0	0	0	0	0	0	-0	0	546.222	550.963	324.938	201.68	0.0263592	0.142889	-0.0206811	-0.011895	-0.594794
6	-0.0168424	0.0156421	0.0224988	0.0524439	0.00183098	0.0352395	0.0254632	-0.0300935	0.00407628	-0.000425247	7.13238e-05	-0.00406289	0.0537143	-0.00124739	0.0156959	-2.19495	0.005734	-1.54624	0	0	0	0	-0	0	0	0	-0.1265	0	-0	0	0	0	0	0	-0	0	0.105	0.015	0	0	-0	0	0	0.098	0.1	0	-0	0	0	0	0	0	-0	0	0.05595	0	0	0	-0	0	0	0	0	0	-0	0	546.742	550.83	324.95	201.725	0.105509	-0.253446	-0.0205136	-0.0121711	-0.403195
7	-0.0174027	0.0156237	0.0218696	0.0517854	0.00212456	0.0351343	0.0254417	-0.030071	0.00404237	-0.0014971	0.00203062	-0.00341501	0.0533948	-0.00124449	0.0161178	-2.19703	0.00591603	-1.54599	0	0	0	0	-0	0	0	0	-0.1265	0	-0	0	0	0	0	0	-0	0	0.105	0.015	0	0	-0	0	0	0.098	0.1	0	-0	0	0	0	0	0	-0	0	0.05595	0	0	0	-0	0	0	0	0	0	-0	0	548.13	550.497	324.899	201.855	0.146555	-0.666388	-0.0168761	-0.0124871	0.464798
8	-0.0141524	0.0158995	0.0215447	0.0516076	0.00220165	0.0350432	0.0254306	-0.0300576	0.00405316	-0.00573564	0.00358643	-0.00464481	0.0526596	-0.00128951	0.0171481	-2.19598	0.00608865	-1.54568	0	0	0	0	-0	0	0	0	-0.1265	0	-0	0	0	0	0	0	-0	0	0.105	0.015	0	0	-0	0	0	0.098	0.1	0	-0	0	0	0	0	0	-0	0	0.05595	0	0	0	-0	0	0	0	0	0	-0	0	551.234	550.011	324.678	202.174	0.197292	-1.40257	-0.00852463	-0.012936	2.48489
9	-0.00942686	0.0162888	0.0212952	0.051748	0.00216452	0.03499	0.0254241	-0.0300516	0.00409642	0.00403818	0.0186691	-0.00436581	0.0515553	-0.00136795	0.0186425	-2.19485	0.00684066	-1.54469	0	0	0	0	-0	0	0	0	-0.1265	0	-0	0	0	0	0	0	-0	0	0.105	0.015	0	0	-0	0	0	0.098	0.1	0	-0	0	0	0	0	0	-0	0	0.05595	0	0	0	-0	0	0	0	0	0	-0	0	556.294	550.526	323.965	202.912	0.259774	-2.4372	0.00260667	-0.0136403	5.63229
10	-0.0094213	0.0165841	0.021143	0.0518679	0.00208697	0.0350194	0.0254174	-0.0300601	0.00411925	0.0193606	0.0253255	0.0213129	0.0509927	-0.00141688	0.0193211	-2.19722	0.00767293	-1.54395	0	0	0	0	-0	0	0	0	-0.1265	0	-0	0	0	0	0	0	-0	0	0.105	0.015	0	0	-0	0	0	0.098	0.1	0	-0	0	0	0	0	0	-0	0	0.05595	0	0	0	-0	0	0	0	0	0	-0	0	559.45	551.691	323.328	203.534	0.286478	-3.00225	0.00784204	-0.0140981	7.63787
11	-0.00988138	0.0167286	0.0211491	0.0519737	0.00206804	0.0350666	0.0254091	-0.0300544	0.00413514	0.0358377	0.0270892	0.0329284	0.0508179	-0.00144363	0.0195096	-2.19842	0.00799777	-1.54376	0	0	0	0	-0	0	0	0	-0.1265	0	-0	0	0	0	0	0	-0	0	0.105	0.015	0	0	-0	0	0	0.098	0.1	0	-0	0	0	0	0	0	-0	0	0.05595	0	0	0	-0	0	0	0	0	0	-0	0	560.528	552.225	323.122	203.774	0.293704	-3.17286	0.00917913	-0.0141518	8.3131
12	-0.00838701	0.0169059	0.0210938	0.0520949	0.00196874	0.0350581	0.0254088	-0.0300499	0.00415131	0.0231256	0.0129698	0.0237146	0.0505916	-0.00146767	0.0198086	-2.19793	0.00827624	-1.54345	0	0	0	0	-0	0	0	0	-0.1265	0	-0	0	0	0	0	0	-0	0	0.105	0.015	0	0	-0	0	0	0.098	0.1	0	-0	0	0	0	0	0	-0	0	0.05595	0	0	0	-0	0	0	0	0	0	-0	0	561.71	553.038	322.838	204.139	0.301322	-3.34547	0.0103947	-0.0143813	8.98106
13	-0.0104149	0.017041	0.0210709	0.0522448	0.00192268	0.035066	0.0254014	-0.0300694	0.00417149	0.0646065	0.00972235	0.0218758	0.0504379	-0.00149401	0.0199215	-2.20145	0.00885512	-1.54297	0	0	0	0	-0	0	0	0	-0.1265	0	-0	0	0	0	0	0	-0	0	0.105	0.015	0	0	-0	0	0	0.098	0.1	0	-0	0	0	0	0	0	-0	0	0.05595	0	0	0	-0	0	0	0	0	0	-0	0	563.061	554.321	322.416	204.741	0.309922	-3.51702	0.0108471	-0.0146247	9.68345
14	0.0110283	0.0173225	0.0209639	0.0525853	0.00187492	0.0350812	0.0253912	-0.0300571	0.00419589	0.0937936	-0.00691132	0.0289252	0.0496579	-0.00153388	0.0213725	-2.18643	0.0104504	-1.54055	0	0	0	0	-0	0	0	0	-0.1265	0	-0	0	0	0	0	0	-0	0	0.105	0.015	0	0	-0	0	0	0.098	0.1	0	-0	0	0	0	0	0	-0	0	0.05595	0	0	0	-0	0	0	0	0	0	-0	0	566.659	558.919	320.556	207.795	0.308292	-3.72423	0.010096	-0.0155734	10.9687
15	0.0351905	0.0175048	0.0208877	0.0524508	0.00178487	0.0351045	0.0254096	-0.0300542	0.00419231	0.0972049	0.0319601	0.0489206	0.0490244	-0.00152451	0.0226508	-2.16511	0.0106417	-1.53935	0	0	0	0	-0	0	0	0	-0.1265	0	-0	0	0	0	0	0	-0	0	0.105	0.015	0	0	-0	0	0	0.098	0.1	0	-0	0	0	0	0	0	-0	0	0.05595	0	0	0	-0	0	0	0	0	0	-0	0	568.041	561.124	319.643	209.256	0.302662	-3.7463	0.00880017	-0.0158783	11.4362
16	0.0444526	0.0174041	0.0209509	0.0526254	0.00192444	0.0352436	0.0254002	-0.0300588	0.0041979	0.0827775	0.0309421	0.0299307	0.0487441	-0.00153422	0.0231415	-2.15802	0.0111202	-1.53833	0	0	0	0	-0	0	0	0	-0.1265	0	-0	0	0	0	0	0	-0	0	0.105	0.015	0	0	-0	0	0	0.098	0.1	0	-0	0	0	0	0	0	-0	0	0.05595	0	0	0	-0	0	0	0	0	0	-0	0	568.874	562.694	319.051	210.369	0.309353	-3.80342	0.00693813	-0.0159268	11.8456
17	0.028539	0.0175019	0.0208866	0.052824	0.00189427	0.0352284	0.0253841	-0.0300777	0.00420935	0.0362916	0.0420199	0.0196535	0.0490256	-0.00154075	0.0224259	-2.177	0.0126767	-1.53735	0	0	0	0	-0	0	0	0	-0.1265	0	-0	0	0	0	0	0	-0	0	0.105	0.015	0	0	-0	0	0	0.098	0.1	0	-0	0	0	0	0	0	-0	0	0.05595	0	0	0	-0	0	0	0	0	0	-0	0	570.029	564.576	318.093	211.977	0.306692	-3.84303	0.00585955	-0.0163213	12.3364
18	0.0156542	0.0175757	0.0208553	0.0528423	0.00187376	0.035207	0.0253832	-0.0300552	0.00420999	0.0295921	0.0474355	0.0198353	0.0492839	-0.00153641	0.0218077	-2.19049	0.0133068	-1.53737	0	0	0	0	-0	0	0	0	-0.1265	0	-0	0	0	0	0	0	-0	0	0.105	0.015	0	0	-0	0	0	0.098	0.1	0	-0	0	0	0	0	0	-0	0	0.05595	0	0	0	-0	0	0	0	0	0	-0	0	570.263	565.005	317.88	212.315	0.30787	-3.85458	0.00541709	-0.0163619	12.4554
19	0.019852	0.0176708	0.0207965	0.0529923	0.00182886	0.0351722	0.0253866	-0.030054	0.00422782	0.0396848	0.0287081	0.00243035	0.0491307	-0.00154281	0.0220638	-2.18888	0.0140886	-1.53636	0	0	0	0	-0	0	0	0	-0.1265	0	-0	0	0	0	0	0	-0	0	0.105	0.015	0	0	-0	0	0	0.098	0.1	0	-0	0	0	0	0	0	-0	0	0.05595	0	0	0	-0	0	0	0	0	0	-0	0	571.175	566.366	317.054	213.683	0.303696	-3.88702	0.00496793	-0.0167593	12.8845
20	0.0175805	0.0176317	0.0208089	0.053132	0.00186454	0.0352076	0.0253871	-0.0300483	0.00423717	0.0229225	0.0547763	0.00359935	0.0491558	-0.00155223	0.0219767	-2.19238	0.0146196	-1.53589	0	0	0	0	-0	0	0	0	-0.1265	0	-0	0	0	0	0	0	-0	0	0.105	0.015	0	0	-0	0	0	0.098	0.1	0	-0	0	0	0	0	0	-0	0	0.05595	0	0	0	-0	0	0	0	0	0	-0	0	571.524	567.037	316.715	214.329	0.309138	-3.93433	0.00411612	-0.0168504	13.1578
21	0.0111036	0.0176516	0.0207884	0.0531737	0.00184833	0.0352002	0.025385	-0.0300498	0.00423642	0.0316772	0.0619354	0.00482778	0.0492892	-0.00155193	0.0216645	-2.19933	0.01501	-1.53583	0	0	0	0	-0	0	0	0	-0.1265	0	-0	0	0	0	0	0	-0	0	0.105	0.015	0	0	-0	0	0	0.098	0.1	0	-0	0	0	0	0	0	-0	0	0.05595	0	0	0	-0	0	0	0	0	0	-0	0	571.66	567.3	316.564	214.59	0.310123	-3.94991	0.00386346	-0.016886	13.2688
22	0.011275	0.0176863	0.0207741	0.053174	0.00184031	0.0351989	0.0253847	-0.0300515	0.00423464	0.0342332	0.0635563	-0.00985209	0.0492725	-0.00155016	0.0216802	-2.19981	0.0152412	-1.53561	0	0	0	0	-0	0	0	0	-0.1265	0	-0	0	0	0	0	0	-0	0	0.105	0.015	0	0	-0	0	0	0.098	0.1	0	-0	0	0	0	0	0	-0	0	0.05595	0	0	0	-0	0	0	0	0	0	-0	0	571.857	567.632	316.344	214.945	0.30986	-3.96465	0.00370843	-0.0169676	13.4072
23	0.00500728	0.0177204	0.020759	0.0532172	0.00184534	0.0352099	0.0253862	-0.0300551	0.00423813	0.049537	0.0745963	-0.0167274	0.0493801	-0.00155236	0.0213945	-2.20773	0.0161121	-1.53503	0	0	0	0	-0	0	0	0	-0.1265	0	-0	0	0	0	0	0	-0	0	0.105	0.015	0	0	-0	0	0	0.098	0.1	0	-0	0	0	0	0	0	-0	0	0.05595	0	0	0	-0	0	0	0	0	0	-0	0	572.349	568.368	315.782	215.848	0.308792	-3.99869	0.00346812	-0.0172321	13.7375
24	0.0058906	0.0177199	0.0207613	0.0532382	0.00186667	0.0352413	0.0253883	-0.030057	0.00424	0.0649706	0.0885184	-0.0228781	0.0493477	-0.00155272	0.0214481	-2.20764	0.0164163	-1.53467	0	0	0	0	-0	0	0	0	-0.1265	0	-0	0	0	0	0	0	-0	0	0.105	0.015	0	0	-0	0	0	0.098	0.1	0	-0	0	0	0	0	0	-0	0	0.05595	0	0	0	-0	0	0	0	0	0	-0	0	572.553	568.735	315.509	216.278	0.310709	-4.02203	0.00311164	-0.0173104	13.9094
25	0.00884856	0.0177117	0.020766	0.053262	0.00188399	0.0352694	0.0253831	-0.0300554	0.00424413	0.0825306	0.0856674	-0.0287767	0.0492767	-0.00155333	0.0215997	-2.20525	0.0165688	-1.53434	0	0	0	0	-0	0	0	0	-0.1265	0	-0	0	0	0	0	0	-0	0	0.105	0.015	0	0	-0	0	0	0.098	0.1	0	-0	0	0	0	0	0	-0	0	0.05595	0	0	0	-0	0	0	0	0	0	-0	0	572.693	568.996	315.299	216.593	0.312129	-4.03987	0.0028491	-0.0173731	14.0401
26	-0.00984486	0.0178013	0.0207144	0.0533605	0.00183726	0.035241	0.0253824	-0.0300512	0.00424103	0.0660702	0.106768	-0.0452363	0.0496435	-0.0015564	0.0207091	-2.22632	0.0182378	-1.53366	0	0	0	0	-0	0	0	0	-0.1265	0	-0	0	0	0	0	0	-0	0	0.105	0.015	0	0	-0	0	0	0.098	0.1	0	-0	0	0	0	0	0	-0	0	0.05595	0	0	0	-0	0	0	0	0	0	-0	0	573.335	569.857	314.419	217.908	0.310407	-4.10473	0.00286308	-0.0178504	14.5898
27	-0.00548822	0.0178845	0.02068	0.0532749	0.00181404	0.0352509	0.0253725	-0.0300511	0.00423704	0.0959681	0.081627	-0.0402705	0.0495323	-0.00154577	0.0209268	-2.22301	0.0185851	-1.53315	0	0	0	0	-0	0	0	0	-0.1265	0	-0	0	0	0	0	0	-0	0	0.105	0.015	0	0	-0	0	0	0.098	0.1	0	-0	0	0	0	0	0	-0	0	0.05595	0	0	0	-0	0	0	0	0	0	-0	0	573.589	570.289	313.946	218.514	0.310579	-4.12639	0.0026121	-0.0179901	14.8266
28	-0.0167735	0.0179532	0.02064	0.0533715	0.0017702	0.0352252	0.0253754	-0.0300524	0.00424726	0.086836	0.0874735	-0.0237558	0.0497438	-0.00154758	0.0203889	-2.23579	0.0197055	-1.53269	0	0	0	0	-0	0	0	0	-0.1265	0	-0	0	0	0	0	0	-0	0	0.105	0.015	0	0	-0	0	0	0.098	0.1	0	-0	0	0	0	0	0	-0	0	0.05595	0	0	0	-0	0	0	0	0	0	-0	0	573.942	570.797	313.335	219.356	0.312983	-4.18726	0.00243513	-0.018303	15.2375
29	-0.0156967	0.0179372	0.0206432	0.0534246	0.00179021	0.0352626	0.0253762	-0.030051	0.0042495	0.0848322	0.086309	-0.00978771	0.0497129	-0.00154957	0.0204485	-2.23524	0.0199621	-1.53239	0	0	0	0	-0	0	0	0	-0.1265	0	-0	0	0	0	0	0	-0	0	0.105	0.015	0	0	-0	0	0	0.098	0.1	0	-0	0	0	0	0	0	-0	0	0.05595	0	0	0	-0	0	0	0	0	0	-0	0	574.023	570.996	313.117	219.65	0.317722	-4.22196	0.00201563	-0.0183589	15.4026
30	-0.0225996	0.0179549	0.0206262	0.0534687	0.00178424	0.0352694	0.0253741	-0.0300473	0.00425072	0.0771724	0.0984725	-0.0172767	0.0498455	-0.00154985	0.0201106	-2.24316	0.0207789	-1.53198	0	0	0	0	-0	0	0	0	-0.1265	0	-0	0	0	0	0	0	-0	0	0.105	0.015	0	0	-0	0	0	0.098	0.1	0	-0	0	0	0	0	0	-0	0	0.05595	0	0	0	-0	0	0	0	0	0	-0	0	574.214	571.315	312.655	220.226	0.320956	-4.28036	0.00181553	-0.0185785	15.7513
31	-0.0132212	0.0179996	0.0205963	0.0534798	0.00175816	0.0352618	0.0253725	-0.030057	0.00425784	0.0514088	0.101637	-0.00668642	0.0496473	-0.00154706	0.0205823	-2.23462	0.0208875	-1.53135	0	0	0	0	-0	0	0	0	-0.1265	0	-0	0	0	0	0	0	-0	0	0.105	0.015	0	0	-0	0	0	0.098	0.1	0	-0	0	0	0	0	0	-0	0	0.05595	0	0	0	-0	0	0	0	0	0	-0	0	574.367	571.571	312.238	220.709	0.323883	-4.33018	0.00165652	-0.0187646	16.0485
32	-0.0307059	0.0179991	0.0205969	0.0535488	0.00176991	0.0352912	0.0253712	-0.0300564	0.00426972	0.0227967	0.120218	0.00322124	0.0499989	-0.00154986	0.0197207	-2.25269	0.0219533	-1.53134	0	0	0	0	-0	0	0	0	-0.1265	0	-0	0	0	0	0	0	-0	0	0.105	0.015	0	0	-0	0	0	0.098	0.1	0	-0	0	0	0	0	0	-0	0	0.05595	0	0	0	-0	0	0	0	0	0	-0	0	574.454	571.759	311.941	221.042	0.329037	-4.38167	0.00133034	-0.0189012	16.2933
33	-0.0429043	0.0180476	0.0205601	0.0536229	0.00173844	0.0352907	0.0253716	-0.0300484	0.00426475	0.0163915	0.113	0.00138153	0.05022	-0.00155094	0.0191182	-2.26607	0.0232265	-1.53087	0	0	0	0	-0	0	0	0	-0.1265	0	-0	0	0	0	0	0	-0	0	0.105	0.015	0	0	-0	0	0	0.098	0.1	0	-0	0	0	0	0	0	-0	0	0.05595	0	0	0	-0	0	0	0	0	0	-0	0	574.668	572.061	311.278	221.729	0.334729	-4.48037	0.00121769	-0.0192501	16.8273
34	-0.0348586	0.0180745	0.0205379	0.0535816	0.00172526	0.0352871	0.0253685	-0.0300453	0.00425948	0.0201632	0.107258	-0.00327282	0.0500589	-0.00154533	0.0195205	-2.25831	0.0231171	-1.53052	0	0	0	0	-0	0	0	0	-0.1265	0	-0	0	0	0	0	0	-0	0	0.105	0.015	0	0	-0	0	0	0.098	0.1	0	-0	0	0	0	0	0	-0	0	0.05595	0	0	0	-0	0	0	0	0	0	-0	0	574.689	572.155	311.087	221.902	0.33829	-4.51086	0.000979489	-0.0192901	16.9701
35	-0.0241605	0.0181007	0.0205184	0.0535881	0.00170574	0.035281	0.0253659	-0.0300451	0.00425841	0.0320413	0.103314	-0.000348157	0.0498461	-0.00154294	0.0200558	-2.24802	0.0229882	-1.53	0	0	0	0	-0	0	0	0	-0.1265	0	-0	0	0	0	0	0	-0	0	0.105	0.015	0	0	-0	0	0	0.098	0.1	0	-0	0	0	0	0	0	-0	0	0.05595	0	0	0	-0	0	0	0	0	0	-0	0	574.736	572.264	310.823	222.134	0.34143	-4.55045	0.00082454	-0.0194089	17.1715
36	-0.024198	0.0181291	0.020508	0.053582	0.00168745	0.0352756	0.0253651	-0.0300455	0.00425731	0.020332	0.103095	-0.000738955	0.0498415	-0.001541	0.0200538	-2.24833	0.0232187	-1.5298	0	0	0	0	-0	0	0	0	-0.1265	0	-0	0	0	0	0	0	-0	0	0.105	0.015	0	0	-0	0	0	0.098	0.1	0	-0	0	0	0	0	0	-0	0	0.05595	0	0	0	-0	0	0	0	0	0	-0	0	574.769	572.341	310.617	222.3	0.34384	-4.57983	0.00071793	-0.0194991	17.3195
37	-0.0158306	0.0181358	0.0204962	0.0536128	0.00168402	0.0352778	0.0253659	-0.0300445	0.00425995	0.022838	0.107275	0.00850292	0.0496717	-0.00154108	0.0204724	-2.24038	0.0232274	-1.52925	0	0	0	0	-0	0	0	0	-0.1265	0	-0	0	0	0	0	0	-0	0	0.105	0.015	0	0	-0	0	0	0.098	0.1	0	-0	0	0	0	0	0	-0	0	0.05595	0	0	0	-0	0	0	0	0	0	-0	0	574.818	572.445	310.325	222.537	0.34786	-4.62784	0.000532913	-0.0196445	17.5494
38	-0.0143318	0.0181365	0.0204923	0.0536163	0.00168593	0.0352897	0.0253659	-0.0300437	0.00425957	0.0207292	0.101871	0.0151594	0.0496379	-0.00154041	0.0205473	-2.23901	0.0232899	-1.5291	0	0	0	0	-0	0	0	0	-0.1265	0	-0	0	0	0	0	0	-0	0	0.105	0.015	0	0	-0	0	0	0.098	0.1	0	-0	0	0	0	0	0	-0	0	0.05595	0	0	0	-0	0	0	0	0	0	-0	0	574.824	572.484	310.223	222.612	0.350238	-4.64664	0.000387296	-0.0196756	17.6271
39	-0.0118487	0.0181415	0.0204822	0.053632	0.00168159	0.0352922	0.0253639	-0.0300429	0.00426107	0.0318368	0.0927151	0.0176452	0.0495867	-0.00153993	0.0206697	-2.23678	0.0234322	-1.52879	0	0	0	0	-0	0	0	0	-0.1265	0	-0	0	0	0	0	0	-0	0	0.105	0.015	0	0	-0	0	0	0.098	0.1	0	-0	0	0	0	0	0	-0	0	0.05595	0	0	0	-0	0	0	0	0	0	-0	0	574.846	572.546	310.016	222.763	0.353006	-4.67982	0.000257991	-0.0197769	17.7857
40	-0.0148283	0.0181616	0.0204644	0.0536475	0.00166532	0.035285	0.0253637	-0.0300426	0.00426256	0.0359904	0.0894639	0.0109901	0.0496468	-0.00153887	0.0205224	-2.24	0.0237903	-1.52864	0	0	0	0	-0	0	0	0	-0.1265	0	-0	0	0	0	0	0	-0	0	0.105	0.015	0	0	-0	0	0	0.098	0.1	0	-0	0	0	0	0	0	-0	0	0.05595	0	0	0	-0	0	0	0	0	0	-0	0	574.866	572.602	309.81	222.907	0.355971	-4.71521	0.000143205	-0.0198815	17.9482
41	-0.0269887	0.0181698	0.0204515	0.0536691	0.00166037	0.0352888	0.025363	-0.0300442	0.00426424	0.0220415	0.0892951	0.011062	0.049895	-0.00153881	0.0199192	-2.2525	0.0246616	-1.52857	0	0	0	0	-0	0	0	0	-0.1265	0	-0	0	0	0	0	0	-0	0	0.105	0.015	0	0	-0	0	0	0.098	0.1	0	-0	0	0	0	0	0	-0	0	0.05595	0	0	0	-0	0	0	0	0	0	-0	0	574.893	572.673	309.51	223.112	0.360683	-4.77091	-2.89041e-05	-0.0200306	18.2007
42	-0.0319937	0.0181835	0.0204521	0.0536526	0.00165482	0.0352948	0.0253626	-0.0300421	0.00426146	0.0249294	0.0871925	0.0144686	0.0499893	-0.00153766	0.019669	-2.25756	0.0249487	-1.52864	0	0	0	0	-0	0	0	0	-0.1265	0	-0	0	0	0	0	0	-0	0	0.105	0.015	0	0	-0	0	0	0.098	0.1	0	-0	0	0	0	0	0	-0	0	0.05595	0	0	0	-0	0	0	0	0	0	-0	0	574.893	572.692	309.443	223.152	0.362277	-4.78297	-0.000107288	-0.0200466	18.2494
43	-0.0285771	0.0181902	0.0204429	0.0536611	0.0016476	0.0352923	0.0253627	-0.030042	0.00426235	0.0211577	0.0855524	0.020854	0.049921	-0.00153676	0.0198396	-2.25424	0.0249109	-1.52845	0	0	0	0	-0	0	0	0	-0.1265	0	-0	0	0	0	0	0	-0	0	0.105	0.015	0	0	-0	0	0	0.098	0.1	0	-0	0	0	0	0	0	-0	0	0.05595	0	0	0	-0	0	0	0	0	0	-0	0	574.896	572.715	309.352	223.206	0.363828	-4.79868	-0.000187213	-0.0200888	18.3185
44	-0.0295438	0.0181894	0.0204379	0.0536754	0.0016478	0.0352966	0.025363	-0.0300426	0.00426331	0.0273676	0.0877745	0.0293827	0.0499402	-0.00153686	0.019791	-2.25534	0.0251149	-1.52832	0	0	0	0	-0	0	0	0	-0.1265	0	-0	0	0	0	0	0	-0	0	0.105	0.015	0	0	-0	0	0	0.098	0.1	0	-0	0	0	0	0	0	-0	0	0.05595	0	0	0	-0	0	0	0	0	0	-0	0	574.901	572.745	309.22	223.283	0.36609	-4.82237	-0.000297417	-0.0201532	18.4215
45	-0.0339695	0.0181937	0.0204302	0.0536899	0.00164566	0.0353001	0.025365	-0.0300447	0.00426644	0.0330343	0.0850401	0.0144775	0.0500283	-0.00153686	0.0195688	-2.26004	0.025652	-1.52808	0	0	0	0	-0	0	0	0	-0.1265	0	-0	0	0	0	0	0	-0	0	0.105	0.015	0	0	-0	0	0	0.098	0.1	0	-0	0	0	0	0	0	-0	0	0.05595	0	0	0	-0	0	0	0	0	0	-0	0	574.915	572.796	308.934	223.449	0.370287	-4.87345	-0.000439997	-0.0202993	18.6532
46	-0.0322569	0.0181781	0.0204308	0.0537122	0.00166074	0.0353223	0.0253643	-0.0300423	0.00426721	0.0353162	0.0895963	0.00724207	0.0499947	-0.00153778	0.0196546	-2.25846	0.0257736	-1.52784	0	0	0	0	-0	0	0	0	-0.1265	0	-0	0	0	0	0	0	-0	0	0.105	0.015	0	0	-0	0	0	0.098	0.1	0	-0	0	0	0	0	0	-0	0	0.05595	0	0	0	-0	0	0	0	0	0	-0	0	574.906	572.829	308.791	223.526	0.374153	-4.90449	-0.000663812	-0.0203583	18.7709
47	-0.0302328	0.0181912	0.0204181	0.0537117	0.0016483	0.0353176	0.0253624	-0.0300404	0.0042668	0.0339069	0.0960491	0.00712314	0.049954	-0.00153622	0.0197556	-2.25648	0.02575	-1.52774	0	0	0	0	-0	0	0	0	-0.1265	0	-0	0	0	0	0	0	-0	0	0.105	0.015	0	0	-0	0	0	0.098	0.1	0	-0	0	0	0	0	0	-0	0	0.05595	0	0	0	-0	0	0	0	0	0	-0	0	574.903	572.841	308.729	223.557	0.375379	-4.91627	-0.000721553	-0.0203843	18.8194
48	-0.0220672	0.0182139	0.0204004	0.0537198	0.00162798	0.0353066	0.0253605	-0.0300402	0.00426628	0.0255431	0.100229	0.00271171	0.0497928	-0.00153497	0.0201623	-2.24852	0.0256794	-1.52726	0	0	0	0	-0	0	0	0	-0.1265	0	-0	0	0	0	0	0	-0	0	0.105	0.015	0	0	-0	0	0	0.098	0.1	0	-0	0	0	0	0	0	-0	0	0.05595	0	0	0	-0	0	0	0	0	0	-0	0	574.91	572.876	308.482	223.681	0.378764	-4.96027	-0.00081467	-0.0205148	19.0187
49	-0.0255308	0.0182417	0.0203866	0.0537164	0.00160798	0.0352978	0.0253615	-0.0300411	0.00426715	0.0283698	0.0932771	-0.00851773	0.04986	-0.00153357	0.019989	-2.25227	0.0262527	-1.52694	0	0	0	0	-0	0	0	0	-0.1265	0	-0	0	0	0	0	0	-0	0	0.105	0.015	0	0	-0	0	0	0.098	0.1	0	-0	0	0	0	0	0	-0	0	0.05595	0	0	0	-0	0	0	0	0	0	-0	0	574.925	572.915	308.116	223.856	0.383878	-5.02508	-0.000931312	-0.0207014	19.3111
50	-0.0248702	0.0182268	0.0203849	0.0537395	0.00162127	0.0353165	0.0253604	-0.0300399	0.00426861	0.0233119	0.0921611	-0.00690726	0.0498443	-0.00153426	0.0200256	-2.25165	0.0263031	-1.52684	0	0	0	0	-0	0	0	0	-0.1265	0	-0	0	0	0	0	0	-0	0	0.105	0.015	0	0	-0	0	0	0.098	0.1	0	-0	0	0	0	0	0	-0	0	0.05595	0	0	0	-0	0	0	0	0	0	-0	0	574.917	572.926	308.065	223.878	0.386776	-5.04059	-0.00111691	-0.0207128	19.3513
51	-0.0378404	0.0182464	0.0203693	0.0537492	0.0016032	0.0353089	0.0253584	-0.0300396	0.00426929	0.0104108	0.100636	-0.00735961	0.0501052	-0.00153301	0.0193769	-2.26475	0.0271098	-1.52696	0	0	0	0	-0	0	0	0	-0.1265	0	-0	0	0	0	0	0	-0	0	0.105	0.015	0	0	-0	0	0	0.098	0.1	0	-0	0	0	0	0	0	-0	0	0.05595	0	0	0	-0	0	0	0	0	0	-0	0	574.907	572.951	307.857	223.966	0.390259	-5.08073	-0.0012482	-0.0208216	19.5227
52	-0.0412714	0.0182808	0.0203578	0.0537348	0.00157743	0.0352998	0.025357	-0.0300401	0.00426606	-0.00296125	0.105679	-0.010583	0.0501675	-0.00153117	0.0192018	-2.26837	0.0276297	-1.52672	0	0	0	0	-0	0	0	0	-0.1265	0	-0	0	0	0	0	0	-0	0	0.105	0.015	0	0	-0	0	0	0.098	0.1	0	-0	0	0	0	0	0	-0	0	0.05595	0	0	0	-0	0	0	0	0	0	-0	0	574.908	572.981	307.536	224.092	0.394614	-5.13522	-0.00135765	-0.0209828	19.7678
53	-0.0309286	0.0182928	0.020344	0.0537525	0.00156815	0.0352969	0.0253572	-0.0300386	0.00426705	-0.00665512	0.106827	-0.0173331	0.049968	-0.00153034	0.0197212	-2.25822	0.0275405	-1.52608	0	0	0	0	-0	0	0	0	-0.1265	0	-0	0	0	0	0	0	-0	0	0.105	0.015	0	0	-0	0	0	0.098	0.1	0	-0	0	0	0	0	0	-0	0	0.05595	0	0	0	-0	0	0	0	0	0	-0	0	574.895	573.005	307.231	224.206	0.400739	-5.1984	-0.00158691	-0.021137	20.0235
54	-0.0284881	0.0183061	0.0203364	0.0537489	0.00155909	0.035302	0.0253584	-0.0300393	0.00426692	0.00116454	0.115438	-0.0152422	0.0499176	-0.00152901	0.0198412	-2.2559	0.0277144	-1.52575	0	0	0	0	-0	0	0	0	-0.1265	0	-0	0	0	0	0	0	-0	0	0.105	0.015	0	0	-0	0	0	0.098	0.1	0	-0	0	0	0	0	0	-0	0	0.05595	0	0	0	-0	0	0	0	0	0	-0	0	574.876	573.025	306.991	224.284	0.405544	-5.24469	-0.00179299	-0.0212455	20.2099
55	-0.0319541	0.0182913	0.0203348	0.053771	0.00157056	0.0353192	0.0253585	-0.0300395	0.00426979	-0.00720988	0.111172	-0.0106961	0.0499855	-0.00152952	0.01967	-2.25941	0.0279824	-1.52572	0	0	0	0	-0	0	0	0	-0.1265	0	-0	0	0	0	0	0	-0	0	0.105	0.015	0	0	-0	0	0	0.098	0.1	0	-0	0	0	0	0	0	-0	0	0.05595	0	0	0	-0	0	0	0	0	0	-0	0	574.863	573.036	306.912	224.308	0.408524	-5.26438	-0.00197253	-0.0212768	20.272
56	-0.0271414	0.0182964	0.0203254	0.053788	0.00156405	0.0353225	0.0253597	-0.0300395	0.00427038	-0.0033171	0.118104	-0.0210909	0.049892	-0.00152927	0.0199091	-2.25467	0.0279616	-1.52539	0	0	0	0	-0	0	0	0	-0.1265	0	-0	0	0	0	0	0	-0	0	0.105	0.015	0	0	-0	0	0	0.098	0.1	0	-0	0	0	0	0	0	-0	0	0.05595	0	0	0	-0	0	0	0	0	0	-0	0	574.844	573.048	306.749	224.356	0.411929	-5.29786	-0.00212715	-0.0213615	20.403
57	-0.0276201	0.0182977	0.0203215	0.0537913	0.00156371	0.0353307	0.0253604	-0.0300381	0.00427219	-0.00120133	0.131596	-0.0162019	0.0499034	-0.00152882	0.0198824	-2.25526	0.0282775	-1.52511	0	0	0	0	-0	0	0	0	-0.1265	0	-0	0	0	0	0	0	-0	0	0.105	0.015	0	0	-0	0	0	0.098	0.1	0	-0	0	0	0	0	0	-0	0	0.05595	0	0	0	-0	0	0	0	0	0	-0	0	574.818	573.057	306.507	224.424	0.41665	-5.34619	-0.0023163	-0.02148	20.5975
58	-0.0327422	0.018295	0.0203097	0.0538124	0.00156328	0.0353406	0.0253584	-0.0300378	0.00427399	-0.00410973	0.134511	-0.00784019	0.0500051	-0.00152856	0.0196275	-2.26042	0.0286635	-1.5251	0	0	0	0	-0	0	0	0	-0.1265	0	-0	0	0	0	0	0	-0	0	0.105	0.015	0	0	-0	0	0	0.098	0.1	0	-0	0	0	0	0	0	-0	0	0.05595	0	0	0	-0	0	0	0	0	0	-0	0	574.797	573.064	306.386	224.455	0.420207	-5.37455	-0.00249971	-0.0215368	20.6955
59	-0.0315093	0.0183161	0.0202945	0.0538178	0.00154354	0.0353322	0.025357	-0.0300365	0.00427256	-0.00354988	0.128054	-0.00196754	0.0499807	-0.00152737	0.0196881	-2.25925	0.0288156	-1.52487	0	0	0	0	-0	0	0	0	-0.1265	0	-0	0	0	0	0	0	-0	0	0.105	0.015	0	0	-0	0	0	0.098	0.1	0	-0	0	0	0	0	0	-0	0	0.05595	0	0	0	-0	0	0	0	0	0	-0	0	574.778	573.064	306.202	224.499	0.423679	-5.4124	-0.00260773	-0.0216367	20.8459
60	-0.0255496	0.0183364	0.02028	0.0538168	0.00152599	0.0353232	0.0253556	-0.030036	0.00427299	-0.00601895	0.132721	0.00409562	0.0498641	-0.00152588	0.0199846	-2.25339	0.0288529	-1.5244	0	0	0	0	-0	0	0	0	-0.1265	0	-0	0	0	0	0	0	-0	0	0.105	0.015	0	0	-0	0	0	0.098	0.1	0	-0	0	0	0	0	0	-0	0	0.05595	0	0	0	-0	0	0	0	0	0	-0	0	574.753	573.058	305.933	224.562	0.428675	-5.46736	-0.00275447	-0.0217781	21.0664
61	-0.0228523	0.0183497	0.0202697	0.0538214	0.00151519	0.0353224	0.0253551	-0.0300359	0.00427262	-0.0116413	0.126972	0.00407329	0.0498082	-0.00152501	0.0201202	-2.25072	0.028857	-1.52421	0	0	0	0	-0	0	0	0	-0.1265	0	-0	0	0	0	0	0	-0	0	0.105	0.015	0	0	-0	0	0	0.098	0.1	0	-0	0	0	0	0	0	-0	0	0.05595	0	0	0	-0	0	0	0	0	0	-0	0	574.736	573.061	305.819	224.586	0.431813	-5.49342	-0.0028936	-0.0218332	21.1569
62	-0.0228365	0.0183546	0.0202654	0.0538248	0.00151095	0.0353237	0.0253545	-0.0300354	0.00427278	-0.0156082	0.123278	0.00558795	0.0498076	-0.00152464	0.0201213	-2.25073	0.0289504	-1.52411	0	0	0	0	-0	0	0	0	-0.1265	0	-0	0	0	0	0	0	-0	0	0.105	0.015	0	0	-0	0	0	0.098	0.1	0	-0	0	0	0	0	0	-0	0	0.05595	0	0	0	-0	0	0	0	0	0	-0	0	574.723	573.063	305.739	224.601	0.433886	-5.51099	-0.00298869	-0.021873	21.2188
63	-0.0230072	0.0183641	0.0202575	0.0538291	0.00150177	0.0353206	0.0253551	-0.0300367	0.00427323	-0.0072965	0.128686	0.000503912	0.0498114	-0.00152403	0.0201124	-2.25093	0.0290856	-1.524	0	0	0	0	-0	0	0	0	-0.1265	0	-0	0	0	0	0	0	-0	0	0.105	0.015	0	0	-0	0	0	0.098	0.1	0	-0	0	0	0	0	0	-0	0	0.05595	0	0	0	-0	0	0	0	0	0	-0	0	574.709	573.061	305.628	224.621	0.436175	-5.53402	-0.00307191	-0.0219323	21.3066
64	-0.021708	0.0183599	0.0202591	0.0538346	0.00150655	0.0353289	0.0253544	-0.0300358	0.00427455	-0.00205248	0.125018	-0.00513063	0.0497859	-0.00152439	0.0201772	-2.24965	0.0291317	-1.52385	0	0	0	0	-0	0	0	0	-0.1265	0	-0	0	0	0	0	0	-0	0	0.105	0.015	0	0	-0	0	0	0.098	0.1	0	-0	0	0	0	0	0	-0	0	0.05595	0	0	0	-0	0	0	0	0	0	-0	0	574.695	573.063	305.545	224.636	0.438369	-5.55246	-0.00317705	-0.021973	21.372
65	-0.0144925	0.0183774	0.0202434	0.0538474	0.00148897	0.0353224	0.0253551	-0.0300343	0.00427767	-0.0107962	0.142096	0.000359897	0.0496414	-0.00152355	0.0205355	-2.2425	0.0290908	-1.52334	0	0	0	0	-0	0	0	0	-0.1265	0	-0	0	0	0	0	0	-0	0	0.105	0.015	0	0	-0	0	0	0.098	0.1	0	-0	0	0	0	0	0	-0	0	0.05595	0	0	0	-0	0	0	0	0	0	-0	0	574.669	573.049	305.286	224.683	0.443194	-5.60681	-0.00330729	-0.0221152	21.5883
66	-0.014202	0.0183776	0.0202328	0.0538661	0.00148746	0.0353339	0.0253543	-0.0300345	0.004277	-0.0136557	0.13583	-0.00514541	0.0496336	-0.00152351	0.0205511	-2.24224	0.0292363	-1.52317	0	0	0	0	-0	0	0	0	-0.1265	0	-0	0	0	0	0	0	-0	0	0.105	0.015	0	0	-0	0	0	0.098	0.1	0	-0	0	0	0	0	0	-0	0	0.05595	0	0	0	-0	0	0	0	0	0	-0	0	574.643	573.047	305.156	224.704	0.447278	-5.63969	-0.00349499	-0.0221778	21.6984
67	-0.0205125	0.0183903	0.0202242	0.053863	0.00147646	0.0353294	0.0253529	-0.0300353	0.00427625	-0.0238165	0.134142	-0.00361483	0.0497644	-0.00152237	0.0202363	-2.24858	0.0297483	-1.52314	0	0	0	0	-0	0	0	0	-0.1265	0	-0	0	0	0	0	0	-0	0	0.105	0.015	0	0	-0	0	0	0.098	0.1	0	-0	0	0	0	0	0	-0	0	0.05595	0	0	0	-0	0	0	0	0	0	-0	0	574.616	573.037	304.971	224.732	0.451087	-5.67955	-0.0036186	-0.0222759	21.8523
68	-0.0231615	0.0184111	0.0202153	0.0538592	0.00145984	0.0353234	0.0253522	-0.0300337	0.00427372	-0.0298684	0.143478	-0.0107564	0.0498182	-0.00152117	0.0201027	-2.25128	0.0301911	-1.52291	0	0	0	0	-0	0	0	0	-0.1265	0	-0	0	0	0	0	0	-0	0	0.105	0.015	0	0	-0	0	0	0.098	0.1	0	-0	0	0	0	0	0	-0	0	0.05595	0	0	0	-0	0	0	0	0	0	-0	0	574.58	573.018	304.696	224.771	0.456541	-5.7386	-0.0037721	-0.0224217	22.0838
69	-0.0244274	0.0184219	0.020208	0.0538511	0.00145162	0.0353211	0.0253512	-0.0300338	0.00427387	-0.0352267	0.142082	-0.00655851	0.0498427	-0.00151969	0.0200398	-2.25255	0.0303842	-1.52283	0	0	0	0	-0	0	0	0	-0.1265	0	-0	0	0	0	0	0	-0	0	0.105	0.015	0	0	-0	0	0	0.098	0.1	0	-0	0	0	0	0	0	-0	0	0.05595	0	0	0	-0	0	0	0	0	0	-0	0	574.56	573.015	304.578	224.784	0.45954	-5.76425	-0.00389916	-0.0224751	22.1754
70	-0.0220666	0.0184442	0.0201903	0.053869	0.00142986	0.0353159	0.0253487	-0.0300342	0.00427397	-0.0184515	0.130708	0.000509586	0.0497973	-0.00151883	0.0201567	-2.25027	0.0307822	-1.52225	0	0	0	0	-0	0	0	0	-0.1265	0	-0	0	0	0	0	0	-0	0	0.105	0.015	0	0	-0	0	0	0.098	0.1	0	-0	0	0	0	0	0	-0	0	0.05595	0	0	0	-0	0	0	0	0	0	-0	0	574.507	572.975	304.143	224.844	0.468242	-5.86089	-0.00411766	-0.0227143	22.554
71	-0.0224073	0.0184633	0.0201801	0.0538655	0.00141587	0.0353105	0.0253488	-0.0300328	0.00427377	-0.0158931	0.129765	0.0065996	0.0498017	-0.0015174	0.0201418	-2.25062	0.0309184	-1.52215	0	0	0	0	-0	0	0	0	-0.1265	0	-0	0	0	0	0	0	-0	0	0.105	0.015	0	0	-0	0	0	0.098	0.1	0	-0	0	0	0	0	0	-0	0	0.05595	0	0	0	-0	0	0	0	0	0	-0	0	574.485	572.973	304.032	224.853	0.47179	-5.88794	-0.00427553	-0.0227693	22.6403
72	-0.0193808	0.0184713	0.0201718	0.0538741	0.00140775	0.0353138	0.0253487	-0.0300318	0.00427437	-0.0191727	0.135638	0.00186643	0.0497413	-0.00151681	0.0202927	-2.2476	0.0309501	-1.52188	0	0	0	0	-0	0	0	0	-0.1265	0	-0	0	0	0	0	0	-0	0	0.105	0.015	0	0	-0	0	0	0.098	0.1	0	-0	0	0	0	0	0	-0	0	0.05595	0	0	0	-0	0	0	0	0	0	-0	0	574.455	572.963	303.88	224.866	0.475653	-5.92244	-0.00443354	-0.0228479	22.762
73	-0.0124118	0.0184846	0.0201609	0.0538792	0.00139494	0.035314	0.0253488	-0.0300317	0.00427512	-0.0149312	0.142328	0.00146402	0.0496009	-0.00151582	0.0206386	-2.24065	0.0308665	-1.5214	0	0	0	0	-0	0	0	0	-0.1265	0	-0	0	0	0	0	0	-0	0	0.105	0.015	0	0	-0	0	0	0.098	0.1	0	-0	0	0	0	0	0	-0	0	0.05595	0	0	0	-0	0	0	0	0	0	-0	0	574.417	572.943	303.657	224.883	0.480615	-5.97189	-0.00459885	-0.0229664	22.946
74	-0.0122429	0.0184882	0.0201583	0.0538809	0.0013927	0.0353218	0.025349	-0.0300314	0.00427569	-0.0138127	0.150412	0.00433741	0.0495956	-0.0015154	0.0206476	-2.24048	0.030961	-1.52129	0	0	0	0	-0	0	0	0	-0.1265	0	-0	0	0	0	0	0	-0	0	0.105	0.015	0	0	-0	0	0	0.098	0.1	0	-0	0	0	0	0	0	-0	0	0.05595	0	0	0	-0	0	0	0	0	0	-0	0	574.398	572.939	303.57	224.889	0.483293	-5.99221	-0.00472317	-0.0230071	23.0125
75	-0.0088262	0.0184946	0.0201481	0.0538958	0.00138487	0.0353245	0.0253498	-0.0300346	0.00427682	-0.0260003	0.143664	-0.00380741	0.0495259	-0.001515	0.020817	-2.23708	0.0309961	-1.52098	0	0	0	0	-0	0	0	0	-0.1265	0	-0	0	0	0	0	0	-0	0	0.105	0.015	0	0	-0	0	0	0.098	0.1	0	-0	0	0	0	0	0	-0	0	0.05595	0	0	0	-0	0	0	0	0	0	-0	0	574.365	572.923	303.396	224.9	0.487494	-6.03224	-0.00487586	-0.0231029	23.1564
76	-0.00932431	0.0184908	0.0201569	0.0538992	0.00139464	0.0353364	0.0253494	-0.0300321	0.00427719	-0.0246778	0.149272	-0.00810389	0.0495369	-0.00151579	0.0207923	-2.23758	0.0311354	-1.52087	0	0	0	0	-0	0	0	0	-0.1265	0	-0	0	0	0	0	0	-0	0	0.105	0.015	0	0	-0	0	0	0.098	0.1	0	-0	0	0	0	0	0	-0	0	0.05595	0	0	0	-0	0	0	0	0	0	-0	0	574.344	572.918	303.306	224.904	0.490192	-6.05353	-0.00500311	-0.0231476	23.2268
77	-0.0100642	0.0185051	0.0201409	0.0539039	0.00137711	0.03533	0.0253489	-0.0300316	0.00427688	-0.0268328	0.142915	-0.00103498	0.0495526	-0.00151428	0.0207549	-2.23831	0.0313178	-1.52075	0	0	0	0	-0	0	0	0	-0.1265	0	-0	0	0	0	0	0	-0	0	0.105	0.015	0	0	-0	0	0	0.098	0.1	0	-0	0	0	0	0	0	-0	0	0.05595	0	0	0	-0	0	0	0	0	0	-0	0	574.318	572.905	303.173	224.909	0.493074	-6.08225	-0.00509914	-0.0232214	23.332
78	-0.0138643	0.0185127	0.0201371	0.0539038	0.00137253	0.0353306	0.0253479	-0.0300307	0.00427658	-0.0295997	0.149422	-0.00680877	0.0496319	-0.00151378	0.0205665	-2.24211	0.0316232	-1.52075	0	0	0	0	-0	0	0	0	-0.1265	0	-0	0	0	0	0	0	-0	0	0.105	0.015	0	0	-0	0	0	0.098	0.1	0	-0	0	0	0	0	0	-0	0	0.05595	0	0	0	-0	0	0	0	0	0	-0	0	574.297	572.896	303.072	224.913	0.495643	-6.1052	-0.00519995	-0.023273	23.412
79	-0.0131316	0.0185248	0.0201284	0.0539016	0.00135993	0.0353259	0.0253476	-0.0300316	0.00427659	-0.0249222	0.152887	0.00192426	0.0496164	-0.00151272	0.0206026	-2.24137	0.0316853	-1.52064	0	0	0	0	-0	0	0	0	-0.1265	0	-0	0	0	0	0	0	-0	0	0.105	0.015	0	0	-0	0	0	0.098	0.1	0	-0	0	0	0	0	0	-0	0	0.05595	0	0	0	-0	0	0	0	0	0	-0	0	574.279	572.885	302.981	224.916	0.497698	-6.12492	-0.00526646	-0.0233226	23.4829
80	-0.00958207	0.018536	0.0201245	0.0539093	0.00135334	0.0353258	0.0253492	-0.0300323	0.00427668	-0.0285296	0.145052	0.0125783	0.0495449	-0.00151264	0.020778	-2.23783	0.0317341	-1.52029	0	0	0	0	-0	0	0	0	-0.1265	0	-0	0	0	0	0	0	-0	0	0.105	0.015	0	0	-0	0	0	0.098	0.1	0	-0	0	0	0	0	0	-0	0	0.05595	0	0	0	-0	0	0	0	0	0	-0	0	574.244	572.86	302.787	224.923	0.502051	-6.16852	-0.00540273	-0.0234305	23.6417
81	-0.0109975	0.0185364	0.0201316	0.0539091	0.00136171	0.035336	0.0253481	-0.0300309	0.00427746	-0.025974	0.151156	0.00991706	0.0495749	-0.00151296	0.0207075	-2.23924	0.0319285	-1.52021	0	0	0	0	-0	0	0	0	-0.1265	0	-0	0	0	0	0	0	-0	0	0.105	0.015	0	0	-0	0	0	0.098	0.1	0	-0	0	0	0	0	0	-0	0	0.05595	0	0	0	-0	0	0	0	0	0	-0	0	574.22	572.85	302.687	224.925	0.504901	-6.1919	-0.00552916	-0.0234763	23.7213
82	-0.00293613	0.0185537	0.0201147	0.053919	0.00134212	0.0353282	0.0253473	-0.0300299	0.00427874	-0.0258088	0.141257	0.00637101	0.0494078	-0.00151167	0.0211074	-2.23118	0.03168	-1.5198	0	0	0	0	-0	0	0	0	-0.1265	0	-0	0	0	0	0	0	-0	0	0.105	0.015	0	0	-0	0	0	0.098	0.1	0	-0	0	0	0	0	0	-0	0	0.05595	0	0	0	-0	0	0	0	0	0	-0	0	574.193	572.829	302.54	224.928	0.508146	-6.22462	-0.00561965	-0.0235611	23.8393
83	-0.00272251	0.0185672	0.0201079	0.0539203	0.00133116	0.0353274	0.0253463	-0.0300312	0.00427824	-0.0161225	0.144858	0.00635447	0.0494013	-0.00151103	0.021118	-2.23095	0.0317922	-1.51967	0	0	0	0	-0	0	0	0	-0.1265	0	-0	0	0	0	0	0	-0	0	0.105	0.015	0	0	-0	0	0	0.098	0.1	0	-0	0	0	0	0	0	-0	0	0.05595	0	0	0	-0	0	0	0	0	0	-0	0	574.172	572.816	302.429	224.93	0.510967	-6.25028	-0.0057165	-0.0236205	23.9288
84	0.00266731	0.0185755	0.0201042	0.0539275	0.0013261	0.0353252	0.0253453	-0.0300296	0.00427859	-0.0163267	0.142724	0.00626025	0.0492871	-0.00151098	0.0213853	-2.22557	0.0316105	-1.5194	0	0	0	0	-0	0	0	0	-0.1265	0	-0	0	0	0	0	0	-0	0	0.105	0.015	0	0	-0	0	0	0.098	0.1	0	-0	0	0	0	0	0	-0	0	0.05595	0	0	0	-0	0	0	0	0	0	-0	0	574.155	572.808	302.345	224.93	0.513295	-6.2706	-0.00580456	-0.0236695	23.9956
85	-0.000746485	0.0185914	0.0200918	0.0539262	0.00130875	0.0353172	0.0253446	-0.0300291	0.00427758	-0.0151846	0.138898	0.0114661	0.0493594	-0.00150972	0.0212166	-2.22896	0.0319185	-1.51938	0	0	0	0	-0	0	0	0	-0.1265	0	-0	0	0	0	0	0	-0	0	0.105	0.015	0	0	-0	0	0	0.098	0.1	0	-0	0	0	0	0	0	-0	0	0.05595	0	0	0	-0	0	0	0	0	0	-0	0	574.133	572.79	302.221	224.931	0.515988	-6.29826	-0.00587691	-0.0237406	24.096
86	-0.00696611	0.0186043	0.0200844	0.053926	0.0012985	0.0353136	0.0253433	-0.030029	0.00427795	-0.0230895	0.143401	0.0108263	0.0494915	-0.001509	0.0209097	-2.23517	0.0324419	-1.51937	0	0	0	0	-0	0	0	0	-0.1265	0	-0	0	0	0	0	0	-0	0	0.105	0.015	0	0	-0	0	0	0.098	0.1	0	-0	0	0	0	0	0	-0	0	0.05595	0	0	0	-0	0	0	0	0	0	-0	0	574.102	572.762	302.041	224.933	0.520102	-6.34016	-0.00598725	-0.0238411	24.2484
87	-0.0134964	0.0186253	0.0200715	0.0539298	0.00127981	0.0353074	0.0253435	-0.0300293	0.00427795	-0.0187838	0.145022	0.00393899	0.0496274	-0.00150795	0.0205866	-2.24168	0.033071	-1.51928	0	0	0	0	-0	0	0	0	-0.1265	0	-0	0	0	0	0	0	-0	0	0.105	0.015	0	0	-0	0	0	0.098	0.1	0	-0	0	0	0	0	0	-0	0	0.05595	0	0	0	-0	0	0	0	0	0	-0	0	574.057	572.714	301.781	224.935	0.525909	-6.40053	-0.00612308	-0.0239888	24.4691
88	-0.015674	0.0186336	0.0200714	0.0539326	0.00127983	0.0353132	0.0253443	-0.0300296	0.00427734	-0.0182	0.140329	0.0138401	0.0496706	-0.00150782	0.0204795	-2.24384	0.0333131	-1.51923	0	0	0	0	-0	0	0	0	-0.1265	0	-0	0	0	0	0	0	-0	0	0.105	0.015	0	0	-0	0	0	0.098	0.1	0	-0	0	0	0	0	0	-0	0	0.05595	0	0	0	-0	0	0	0	0	0	-0	0	574.031	572.702	301.672	224.934	0.529436	-6.42861	-0.00627041	-0.0240441	24.5594
89	-0.0204984	0.0186375	0.0200734	0.0539354	0.00128139	0.0353179	0.0253439	-0.0300293	0.00427828	-0.0185768	0.139244	0.021536	0.0497697	-0.00150777	0.0202399	-2.24866	0.0336535	-1.5193	0	0	0	0	-0	0	0	0	-0.1265	0	-0	0	0	0	0	0	-0	0	0.105	0.015	0	0	-0	0	0	0.098	0.1	0	-0	0	0	0	0	0	-0	0	0.05595	0	0	0	-0	0	0	0	0	0	-0	0	574.011	572.693	301.595	224.934	0.53167	-6.44712	-0.00636553	-0.0240828	24.6211
90	-0.0130667	0.0186527	0.0200645	0.053942	0.00126788	0.0353147	0.0253451	-0.0300308	0.00427922	-0.00924804	0.148394	0.027706	0.0496195	-0.00150704	0.0206092	-2.24122	0.0334589	-1.51887	0	0	0	0	-0	0	0	0	-0.1265	0	-0	0	0	0	0	0	-0	0	0.105	0.015	0	0	-0	0	0	0.098	0.1	0	-0	0	0	0	0	0	-0	0	0.05595	0	0	0	-0	0	0	0	0	0	-0	0	573.979	572.668	301.429	224.932	0.535436	-6.4852	-0.00647513	-0.0241773	24.759
91	-0.013199	0.0186615	0.020068	0.0539411	0.00126697	0.0353205	0.0253446	-0.0300304	0.00427918	-0.00870488	0.150137	0.0386407	0.0496227	-0.00150743	0.0206018	-2.24133	0.0337454	-1.51859	0	0	0	0	-0	0	0	0	-0.1265	0	-0	0	0	0	0	0	-0	0	0.105	0.015	0	0	-0	0	0	0.098	0.1	0	-0	0	0	0	0	0	-0	0	0.05595	0	0	0	-0	0	0	0	0	0	-0	0	573.929	572.627	301.193	224.931	0.541364	-6.54355	-0.00664745	-0.0243099	24.9665
92	-0.0125994	0.018674	0.0200569	0.0539528	0.00125826	0.0353191	0.0253439	-0.0300299	0.00428082	-0.00673622	0.146116	0.028605	0.0496093	-0.00150676	0.0206333	-2.24072	0.0338495	-1.51843	0	0	0	0	-0	0	0	0	-0.1265	0	-0	0	0	0	0	0	-0	0	0.105	0.015	0	0	-0	0	0	0.098	0.1	0	-0	0	0	0	0	0	-0	0	0.05595	0	0	0	-0	0	0	0	0	0	-0	0	573.9	572.608	301.073	224.929	0.545115	-6.57569	-0.00678322	-0.0243786	25.0706
93	-0.0137882	0.0186864	0.0200478	0.0539661	0.00124996	0.0353185	0.0253425	-0.0300288	0.00428143	-0.0125929	0.144841	0.0323761	0.0496333	-0.00150649	0.0205756	-2.2419	0.0340135	-1.51838	0	0	0	0	-0	0	0	0	-0.1265	0	-0	0	0	0	0	0	-0	0	0.105	0.015	0	0	-0	0	0	0.098	0.1	0	-0	0	0	0	0	0	-0	0	0.05595	0	0	0	-0	0	0	0	0	0	-0	0	573.877	572.594	300.984	224.927	0.547976	-6.6	-0.00688863	-0.0244314	25.1475
94	-0.0146129	0.0187047	0.0200341	0.0539688	0.00123195	0.0353104	0.0253415	-0.0300273	0.00428098	-0.0110918	0.150887	0.0329355	0.0496503	-0.00150528	0.0205348	-2.2427	0.0342019	-1.51826	0	0	0	0	-0	0	0	0	-0.1265	0	-0	0	0	0	0	0	-0	0	0.105	0.015	0	0	-0	0	0	0.098	0.1	0	-0	0	0	0	0	0	-0	0	0.05595	0	0	0	-0	0	0	0	0	0	-0	0	573.847	572.57	300.85	224.924	0.551261	-6.6326	-0.00697946	-0.0245101	25.2611
95	-0.0237581	0.018722	0.0200215	0.0539668	0.00121556	0.0353038	0.0253414	-0.0300269	0.00428061	-0.0132279	0.141073	0.0321286	0.0498382	-0.00150413	0.0200812	-2.25182	0.0348975	-1.51836	0	0	0	0	-0	0	0	0	-0.1265	0	-0	0	0	0	0	0	-0	0	0.105	0.015	0	0	-0	0	0	0.098	0.1	0	-0	0	0	0	0	0	-0	0	0.05595	0	0	0	-0	0	0	0	0	0	-0	0	573.808	572.53	300.658	224.92	0.556024	-6.68125	-0.00709223	-0.0246222	25.4338
96	-0.0249394	0.0187264	0.0200236	0.0539438	0.00121176	0.0353047	0.0253402	-0.0300268	0.00427804	-0.0129116	0.135981	0.0338413	0.0498586	-0.00150368	0.0200228	-2.25299	0.035007	-1.51836	0	0	0	0	-0	0	0	0	-0.1265	0	-0	0	0	0	0	0	-0	0	0.105	0.015	0	0	-0	0	0	0.098	0.1	0	-0	0	0	0	0	0	-0	0	0.05595	0	0	0	-0	0	0	0	0	0	-0	0	573.797	572.524	300.616	224.919	0.557611	-6.69309	-0.0071474	-0.0246465	25.4687
97	-0.0254938	0.0187365	0.0200148	0.0539512	0.00120285	0.0353008	0.0253398	-0.0300263	0.00427937	-0.0163147	0.14504	0.0362684	0.0498692	-0.00150291	0.0199958	-2.25354	0.0350975	-1.51832	0	0	0	0	-0	0	0	0	-0.1265	0	-0	0	0	0	0	0	-0	0	0.105	0.015	0	0	-0	0	0	0.098	0.1	0	-0	0	0	0	0	0	-0	0	0.05595	0	0	0	-0	0	0	0	0	0	-0	0	573.784	572.514	300.559	224.917	0.559199	-6.70745	-0.00719956	-0.0246802	25.5164
98	-0.0196812	0.0187479	0.0200067	0.0539645	0.00119536	0.0353001	0.025339	-0.030027	0.0042799	-0.008822	0.145732	0.0391862	0.0497534	-0.0015027	0.0202862	-2.24771	0.0349339	-1.51798	0	0	0	0	-0	0	0	0	-0.1265	0	-0	0	0	0	0	0	-0	0	0.105	0.015	0	0	-0	0	0	0.098	0.1	0	-0	0	0	0	0	0	-0	0	0.05595	0	0	0	-0	0	0	0	0	0	-0	0	573.755	572.49	300.437	224.913	0.562471	-6.73888	-0.00729674	-0.0247514	25.6236
99	-0.0225728	0.0187633	0.0200012	0.0539583	0.00118197	0.0352946	0.0253381	-0.0300267	0.00427864	-0.00200631	0.143067	0.043743	0.049812	-0.00150193	0.0201416	-2.25058	0.0352906	-1.51788	0	0	0	0	-0	0	0	0	-0.1265	0	-0	0	0	0	0	0	-0	0	0.105	0.015	0	0	-0	0	0	0.098	0.1	0	-0	0	0	0	0	0	-0	0	0.05595	0	0	0	-0	0	0	0	0	0	-0	0	573.717	572.449	300.256	224.909	0.566712	-6.78362	-0.00738438	-0.0248575	25.7852
100	-0.0289189	0.0187749	0.0199943	0.0539562	0.00117276	0.035291	0.0253377	-0.030026	0.0042786	-4.69945e-05	0.146018	0.0442845	0.0499389	-0.00150112	0.0198265	-2.2569	0.0357537	-1.51798	0	0	0	0	-0	0	0	0	-0.1265	0	-0	0	0	0	0	0	-0	0	0.105	0.015	0	0	-0	0	0	0.098	0.1	0	-0	0	0	0	0	0	-0	0	0.05595	0	0	0	-0	0	0	0	0	0	-0	0	573.691	572.427	300.143	224.905	0.569949	-6.81324	-0.00747978	-0.0249236	25.8843
