Stefan210/kinematic_calibration/src/kinematic_calibration/validation/experiments/experiments/single_point_vs_pose/marker_pose/rarm_80/optimization_intermediate_results.csv
iteration	HeadPitch_offset	HeadYaw_offset	RElbowRoll_offset	RElbowYaw_offset	RShoulderPitch_offset	RShoulderRoll_offset	marker_transform_rarm_tx	marker_transform_rarm_ty	marker_transform_rarm_tz	marker_transform_rarm_rr	marker_transform_rarm_rp	marker_transform_rarm_ry	camera_transform_tx	camera_transform_ty	camera_transform_tz	camera_transform_rr	camera_transform_rp	camera_transform_ry	HeadPitch_transform_tx	HeadPitch_transform_ty	HeadPitch_transform_tz	HeadPitch_transform_rr	HeadPitch_transform_rp	HeadPitch_transform_ry	HeadYaw_transform_tx	HeadYaw_transform_ty	HeadYaw_transform_tz	HeadYaw_transform_rr	HeadYaw_transform_rp	HeadYaw_transform_ry	RElbowRoll_transform_tx	RElbowRoll_transform_ty	RElbowRoll_transform_tz	RElbowRoll_transform_rr	RElbowRoll_transform_rp	RElbowRoll_transform_ry	RElbowYaw_transform_tx	RElbowYaw_transform_ty	RElbowYaw_transform_tz	RElbowYaw_transform_rr	RElbowYaw_transform_rp	RElbowYaw_transform_ry	RShoulderPitch_transform_tx	RShoulderPitch_transform_ty	RShoulderPitch_transform_tz	RShoulderPitch_transform_rr	RShoulderPitch_transform_rp	RShoulderPitch_transform_ry	RShoulderRoll_transform_tx	RShoulderRoll_transform_ty	RShoulderRoll_transform_tz	RShoulderRoll_transform_rr	RShoulderRoll_transform_rp	RShoulderRoll_transform_ry	RWristYaw_transform_tx	RWristYaw_transform_ty	RWristYaw_transform_tz	RWristYaw_transform_rr	RWristYaw_transform_rp	RWristYaw_transform_ry	r_wrist_joint_transform_tx	r_wrist_joint_transform_ty	r_wrist_joint_transform_tz	r_wrist_joint_transform_rr	r_wrist_joint_transform_rp	r_wrist_joint_transform_ry	camera_fx	camera_fy	camera_cx	camera_cy	camera_D0	camera_D1	camera_D2	camera_D3	camera_D4	
0	0.0230449	0.0294606	-0.0013508	-0.00116347	0.000678263	0.00258603	0.05071	0	0.01774	-2.26369	1.66533e-16	-1.5708	545.901	551.038	324.928	201.58	0.0255298	2.61142	-0.0636736	-0.0350419	0.213964
1	-0.0134543	-0.0426966	-0.0189775	-0.0197155	-0.0125561	-0.0425788	0.0261489	0.0360806	-0.00158051	-0.578298	0.268624	0.17433	0.0522245	0.00284241	0.0232304	-2.21076	0.00449658	-1.52566	0	0	0	0	-0	0	0	0	-0.1265	0	-0	0	0	0	0	0	-0	0	0.105	-0.015	0	0	-0	0	0	-0.098	0.1	0	-0	0	0	0	0	0	-0	0	0.05595	0	0	0	-0	0	0	0	0	0	-0	0	545.902	551.039	324.931	201.582	-0.073783	2.55505	-0.0876928	-0.0770731	0.196559
2	-0.00861708	-0.0678442	-0.0500356	0.0138578	-0.0337974	-0.034001	0.0231074	0.0297095	-0.00013686	-0.856713	0.287871	0.0654809	0.0494	0.00438484	0.0307984	-2.23113	0.0216122	-1.51678	0	0	0	0	-0	0	0	0	-0.1265	0	-0	0	0	0	0	0	-0	0	0.105	-0.015	0	0	-0	0	0	-0.098	0.1	0	-0	0	0	0	0	0	-0	0	0.05595	0	0	0	-0	0	0	0	0	0	-0	0	545.905	551.039	324.937	201.589	-0.199181	2.40237	0.0432141	-0.0194528	0.127518
3	-0.0127935	-0.0367002	-0.0422523	0.00341558	-0.00950057	-0.0482935	0.0239858	0.0280831	-0.000220847	-1.07969	0.240236	0.0326387	0.0534606	0.00284083	0.0226927	-2.21284	0.00850329	-1.54158	0	0	0	0	-0	0	0	0	-0.1265	0	-0	0	0	0	0	0	-0	0	0.105	-0.015	0	0	-0	0	0	-0.098	0.1	0	-0	0	0	0	0	0	-0	0	0.05595	0	0	0	-0	0	0	0	0	0	-0	0	545.912	551.04	324.948	201.598	-0.555923	2.10347	-0.0361243	-0.0010918	0.0145973
4	-0.0123128	-0.0285214	-0.0333841	-0.00887215	-0.00668664	-0.0542786	0.023701	0.0290355	0.000455894	-1.28689	0.155689	0.111864	0.0552987	0.000667145	0.0191501	-2.21388	0.00699407	-1.5481	0	0	0	0	-0	0	0	0	-0.1265	0	-0	0	0	0	0	0	-0	0	0.105	-0.015	0	0	-0	0	0	-0.098	0.1	0	-0	0	0	0	0	0	-0	0	0.05595	0	0	0	-0	0	0	0	0	0	-0	0	545.92	551.04	324.958	201.609	-0.815092	1.69566	0.0259628	0.0346334	-0.184272
5	-0.0128939	-0.016637	-0.0123449	-0.0153447	-0.00612635	-0.0543365	0.0226329	0.0306697	0.00120849	-1.5821	0.110631	0.262302	0.0562485	-0.00232256	0.0163804	-2.21084	0.0087405	-1.54765	0	0	0	0	-0	0	0	0	-0.1265	0	-0	0	0	0	0	0	-0	0	0.105	-0.015	0	0	-0	0	0	-0.098	0.1	0	-0	0	0	0	0	0	-0	0	0.05595	0	0	0	-0	0	0	0	0	0	-0	0	545.933	551.036	324.965	201.617	-0.714538	1.26603	0.0217648	0.0234067	-0.439778
6	-0.013539	-0.0194673	0.00112384	-0.00231494	-0.0146094	-0.0428333	0.0217777	0.0290726	-0.000217639	-1.68907	0.147331	0.253762	0.0541062	-0.00324367	0.0177773	-2.20855	0.0151268	-1.53726	0	0	0	0	-0	0	0	0	-0.1265	0	-0	0	0	0	0	0	-0	0	0.105	-0.015	0	0	-0	0	0	-0.098	0.1	0	-0	0	0	0	0	0	-0	0	0.05595	0	0	0	-0	0	0	0	0	0	-0	0	545.952	551.028	324.968	201.62	-0.404024	0.915956	0.0153206	0.00602064	-0.67137
7	-0.0137287	-0.0176112	0.00368876	0.00192443	-0.0140699	-0.0425938	0.0216387	0.0289572	-0.000620472	-1.69324	0.154336	0.239322	0.0531453	-0.00350357	0.0185493	-2.20798	0.0148397	-1.53816	0	0	0	0	-0	0	0	0	-0.1265	0	-0	0	0	0	0	0	-0	0	0.105	-0.015	0	0	-0	0	0	-0.098	0.1	0	-0	0	0	0	0	0	-0	0	0.05595	0	0	0	-0	0	0	0	0	0	-0	0	545.994	551.003	324.973	201.62	-0.175786	0.60569	0.00111752	-0.00564931	-0.822322
8	-0.0137434	-0.0171005	0.00429401	0.00287385	-0.0138625	-0.0427393	0.0216174	0.0289209	-0.000661762	-1.69375	0.155783	0.235113	0.0526848	-0.00351735	0.0189952	-2.20794	0.0144201	-1.53879	0	0	0	0	-0	0	0	0	-0.1265	0	-0	0	0	0	0	0	-0	0	0.105	-0.015	0	0	-0	0	0	-0.098	0.1	0	-0	0	0	0	0	0	-0	0	0.05595	0	0	0	-0	0	0	0	0	0	-0	0	546.106	550.935	324.99	201.617	-0.0733507	0.406752	-0.00467382	-0.00958003	-0.760926
9	-0.0137195	-0.0168737	0.00442362	0.00297146	-0.0137621	-0.0427736	0.0216107	0.0289167	-0.000664475	-1.69363	0.155836	0.234263	0.052446	-0.00349482	0.0192286	-2.20812	0.0140452	-1.53941	0	0	0	0	-0	0	0	0	-0.1265	0	-0	0	0	0	0	0	-0	0	0.105	-0.015	0	0	-0	0	0	-0.098	0.1	0	-0	0	0	0	0	0	-0	0	0.05595	0	0	0	-0	0	0	0	0	0	-0	0	546.414	550.745	325.04	201.606	-0.0203754	0.171254	-0.00552086	-0.0102953	-0.432738
10	-0.0142702	-0.016472	0.00459216	0.00285879	-0.0135498	-0.0428207	0.0216003	0.0289188	-0.000656331	-1.69311	0.155471	0.233864	0.0521286	-0.00346025	0.0195	-2.20898	0.0133931	-1.54056	0	0	0	0	-0	0	0	0	-0.1265	0	-0	0	0	0	0	0	-0	0	0.105	-0.015	0	0	-0	0	0	-0.098	0.1	0	-0	0	0	0	0	0	-0	0	0.05595	0	0	0	-0	0	0	0	0	0	-0	0	547.186	550.262	325.161	201.573	0.047682	-0.214754	-0.00515636	-0.0106549	0.182359
11	-0.0134289	-0.0159495	0.00486769	0.00273404	-0.0132531	-0.042748	0.0215776	0.0289249	-0.00064914	-1.69199	0.154908	0.233822	0.0517243	-0.00342549	0.0198646	-2.20821	0.0124676	-1.54212	0	0	0	0	-0	0	0	0	-0.1265	0	-0	0	0	0	0	0	-0	0	0.105	-0.015	0	0	-0	0	0	-0.098	0.1	0	-0	0	0	0	0	0	-0	0	0.05595	0	0	0	-0	0	0	0	0	0	-0	0	548.748	549.305	325.418	201.507	0.106399	-0.584163	-0.00343212	-0.011154	0.798793
12	-0.012769	-0.0155038	0.00518115	0.00268967	-0.0129762	-0.0425063	0.0215458	0.0289337	-0.00064977	-1.69042	0.154379	0.23433	0.0514378	-0.0034129	0.0200723	-2.20731	0.011493	-1.54372	0	0	0	0	-0	0	0	0	-0.1265	0	-0	0	0	0	0	0	-0	0	0.105	-0.015	0	0	-0	0	0	-0.098	0.1	0	-0	0	0	0	0	0	-0	0	0.05595	0	0	0	-0	0	0	0	0	0	-0	0	550.947	548.254	325.904	201.477	0.108804	-0.666367	-0.000343136	-0.0115818	0.974624
13	-0.0213841	-0.0152603	0.00535433	0.00271254	-0.0128289	-0.042313	0.0215249	0.0289403	-0.000653893	-1.68926	0.154141	0.234791	0.0514547	-0.00340457	0.0197265	-2.21622	0.0103576	-1.54562	0	0	0	0	-0	0	0	0	-0.1265	0	-0	0	0	0	0	0	-0	0	0.105	-0.015	0	0	-0	0	0	-0.098	0.1	0	-0	0	0	0	0	0	-0	0	0.05595	0	0	0	-0	0	0	0	0	0	-0	0	553.01	548.43	326.86	201.659	0.0809637	-0.565554	0.00187349	-0.0114168	0.85025
14	-0.0493481	-0.015193	0.00534434	0.00277174	-0.0128425	-0.042241	0.0215189	0.0289423	-0.000657549	-1.68881	0.154206	0.234707	0.051831	-0.00337196	0.0184807	-2.24616	0.00784079	-1.54938	0	0	0	0	-0	0	0	0	-0.1265	0	-0	0	0	0	0	0	-0	0	0.105	-0.015	0	0	-0	0	0	-0.098	0.1	0	-0	0	0	0	0	0	-0	0	0.05595	0	0	0	-0	0	0	0	0	0	-0	0	555.183	550.777	329.252	202.4	0.05535	-0.459494	0.0023795	-0.0101358	0.719622
15	-0.0290118	-0.0151974	0.00531445	0.00278824	-0.012879	-0.0422196	0.0215183	0.0289421	-0.000658318	-1.68875	0.154242	0.234577	0.0513641	-0.00335382	0.019631	-2.22705	0.00557976	-1.55106	0	0	0	0	-0	0	0	0	-0.1265	0	-0	0	0	0	0	0	-0	0	0.105	-0.015	0	0	-0	0	0	-0.098	0.1	0	-0	0	0	0	0	0	-0	0	0.05595	0	0	0	-0	0	0	0	0	0	-0	0	556.126	552.038	330.612	202.884	0.0454058	-0.415353	0.00244025	-0.00938911	0.664391
16	-0.00949962	-0.01523	0.00526892	0.00279739	-0.0129558	-0.0421792	0.0215176	0.0289417	-0.000658126	-1.6887	0.154294	0.234374	0.0508527	-0.00332792	0.0207743	-2.20992	0.00169813	-1.55481	0	0	0	0	-0	0	0	0	-0.1265	0	-0	0	0	0	0	0	-0	0	0.105	-0.015	0	0	-0	0	0	-0.098	0.1	0	-0	0	0	0	0	0	-0	0	0.05595	0	0	0	-0	0	0	0	0	0	-0	0	557.54	554.096	333.421	203.893	0.0311235	-0.352661	0.00247156	-0.00791045	0.591267
17	-0.0230913	-0.0152575	0.00524279	0.00278952	-0.0129995	-0.0421566	0.0215174	0.0289416	-0.00065749	-1.68869	0.154288	0.234308	0.0510751	-0.00331624	0.0201357	-2.22464	0.000319291	-1.55668	0	0	0	0	-0	0	0	0	-0.1265	0	-0	0	0	0	0	0	-0	0	0.105	-0.015	0	0	-0	0	0	-0.098	0.1	0	-0	0	0	0	0	0	-0	0	0.05595	0	0	0	-0	0	0	0	0	0	-0	0	558.123	554.932	334.754	204.399	0.0250747	-0.326	0.00257357	-0.00719328	0.55999
18	-0.0367871	-0.0152965	0.0052178	0.00277427	-0.0130532	-0.0421261	0.0215171	0.0289416	-0.000656159	-1.68867	0.154283	0.234264	0.0512963	-0.00330449	0.0194998	-2.23981	-0.00181007	-1.55914	0	0	0	0	-0	0	0	0	-0.1265	0	-0	0	0	0	0	0	-0	0	0.105	-0.015	0	0	-0	0	0	-0.098	0.1	0	-0	0	0	0	0	0	-0	0	0.05595	0	0	0	-0	0	0	0	0	0	-0	0	558.782	555.921	336.624	205.084	0.0180024	-0.293809	0.00267127	-0.00623484	0.522443
19	-0.0581703	-0.0153171	0.00520382	0.00276423	-0.013079	-0.0421122	0.0215169	0.0289417	-0.000655523	-1.68867	0.154267	0.234265	0.0516913	-0.00329945	0.018426	-2.26178	-0.00250353	-1.56004	0	0	0	0	-0	0	0	0	-0.1265	0	-0	0	0	0	0	0	-0	0	0.105	-0.015	0	0	-0	0	0	-0.098	0.1	0	-0	0	0	0	0	0	-0	0	0.05595	0	0	0	-0	0	0	0	0	0	-0	0	559.024	556.275	337.366	205.363	0.0154218	-0.283735	0.00276807	-0.00583012	0.512751
20	-0.0532883	-0.0153523	0.00518838	0.00274735	-0.0131202	-0.0420878	0.0215166	0.0289418	-0.000654184	-1.68866	0.154251	0.234264	0.0515634	-0.00329302	0.0187118	-2.25797	-0.00438026	-1.56188	0	0	0	0	-0	0	0	0	-0.1265	0	-0	0	0	0	0	0	-0	0	0.105	-0.015	0	0	-0	0	0	-0.098	0.1	0	-0	0	0	0	0	0	-0	0	0.05595	0	0	0	-0	0	0	0	0	0	-0	0	559.416	556.884	338.812	205.875	0.0110518	-0.263364	0.00285645	-0.00510363	0.489531
21	-0.0679371	-0.0153902	0.00517093	0.00272739	-0.0131616	-0.0420644	0.0215164	0.0289422	-0.000652792	-1.68864	0.154225	0.23429	0.0518154	-0.00328735	0.0179864	-2.27357	-0.00595475	-1.56352	0	0	0	0	-0	0	0	0	-0.1265	0	-0	0	0	0	0	0	-0	0	0.105	-0.015	0	0	-0	0	0	-0.098	0.1	0	-0	0	0	0	0	0	-0	0	0.05595	0	0	0	-0	0	0	0	0	0	-0	0	559.74	557.389	340.174	206.343	0.00736113	-0.247283	0.0029761	-0.00440433	0.473004
22	-0.057449	-0.0154082	0.00516202	0.00271753	-0.013181	-0.0420535	0.0215162	0.0289424	-0.000652212	-1.68864	0.154208	0.234315	0.051614	-0.00328484	0.0185397	-2.26346	-0.00672471	-1.56425	0	0	0	0	-0	0	0	0	-0.1265	0	-0	0	0	0	0	0	-0	0	0.105	-0.015	0	0	-0	0	0	-0.098	0.1	0	-0	0	0	0	0	0	-0	0	0.05595	0	0	0	-0	0	0	0	0	0	-0	0	559.862	557.572	340.717	206.532	0.00599657	-0.243034	0.00306576	-0.00410812	0.47118
23	-0.0810784	-0.0154657	0.00514468	0.00268696	-0.0132382	-0.0420207	0.0215159	0.0289428	-0.00064994	-1.68862	0.154172	0.234362	0.0520279	-0.00327979	0.0173504	-2.28833	-0.00912989	-1.56659	0	0	0	0	-0	0	0	0	-0.1265	0	-0	0	0	0	0	0	-0	0	0.105	-0.015	0	0	-0	0	0	-0.098	0.1	0	-0	0	0	0	0	0	-0	0	0.05595	0	0	0	-0	0	0	0	0	0	-0	0	560.223	558.181	342.752	207.155	0.00167559	-0.222048	0.00317129	-0.00310423	0.448716
24	-0.0969155	-0.0155	0.00513142	0.00266853	-0.0132721	-0.0420019	0.0215156	0.0289432	-0.000648851	-1.68862	0.15414	0.234419	0.0522803	-0.00327672	0.016536	-2.30476	-0.0103248	-1.56757	0	0	0	0	-0	0	0	0	-0.1265	0	-0	0	0	0	0	0	-0	0	0.105	-0.015	0	0	-0	0	0	-0.098	0.1	0	-0	0	0	0	0	0	-0	0	0.05595	0	0	0	-0	0	0	0	0	0	-0	0	560.383	558.429	343.716	207.459	-4.532e-05	-0.217699	0.00331844	-0.00258685	0.450439
25	-0.106436	-0.0155341	0.00512037	0.00264877	-0.0133046	-0.0419835	0.0215153	0.0289436	-0.000647551	-1.68861	0.15411	0.234474	0.0524243	-0.0032745	0.0160489	-2.31491	-0.0117051	-1.56874	0	0	0	0	-0	0	0	0	-0.1265	0	-0	0	0	0	0	0	-0	0	0.105	-0.015	0	0	-0	0	0	-0.098	0.1	0	-0	0	0	0	0	0	-0	0	0.05595	0	0	0	-0	0	0	0	0	0	-0	0	560.537	558.685	344.8	207.783	-0.00186562	-0.210749	0.00342502	-0.00203504	0.446861
26	-0.0870982	-0.0155825	0.00510674	0.00262244	-0.0133492	-0.0419589	0.0215151	0.0289442	-0.000645802	-1.68859	0.154071	0.234549	0.0521044	-0.00327218	0.0170759	-2.29635	-0.0136622	-1.5707	0	0	0	0	-0	0	0	0	-0.1265	0	-0	0	0	0	0	0	-0	0	0.105	-0.015	0	0	-0	0	0	-0.098	0.1	0	-0	0	0	0	0	0	-0	0	0.05595	0	0	0	-0	0	0	0	0	0	-0	0	560.722	559.005	346.287	208.193	-0.00420164	-0.201201	0.00354829	-0.00128432	0.441154
27	-0.076298	-0.0156189	0.00509506	0.00260308	-0.0133833	-0.0419404	0.0215148	0.0289447	-0.000644627	-1.6886	0.154038	0.234619	0.051905	-0.00327031	0.0176446	-2.2861	-0.0149661	-1.57211	0	0	0	0	-0	0	0	0	-0.1265	0	-0	0	0	0	0	0	-0	0	0.105	-0.015	0	0	-0	0	0	-0.098	0.1	0	-0	0	0	0	0	0	-0	0	0.05595	0	0	0	-0	0	0	0	0	0	-0	0	560.845	559.207	347.329	208.481	-0.00550568	-0.198588	0.00368021	-0.00073961	0.44624
28	-0.0877886	-0.0156349	0.00508836	0.00259389	-0.0133984	-0.0419323	0.0215146	0.0289451	-0.000644152	-1.68859	0.15402	0.234664	0.0521029	-0.00326931	0.0170505	-2.29781	-0.0155005	-1.57245	0	0	0	0	-0	0	0	0	-0.1265	0	-0	0	0	0	0	0	-0	0	0.105	-0.015	0	0	-0	0	0	-0.098	0.1	0	-0	0	0	0	0	0	-0	0	0.05595	0	0	0	-0	0	0	0	0	0	-0	0	560.892	559.277	347.745	208.6	-0.00598283	-0.199315	0.003767	-0.000510013	0.452676
29	-0.0722803	-0.0156615	0.00508265	0.00257865	-0.013422	-0.0419189	0.0215144	0.0289454	-0.000643135	-1.68859	0.153998	0.23471	0.051833	-0.00326869	0.0178619	-2.2827	-0.0165018	-1.57365	0	0	0	0	-0	0	0	0	-0.1265	0	-0	0	0	0	0	0	-0	0	0.105	-0.015	0	0	-0	0	0	-0.098	0.1	0	-0	0	0	0	0	0	-0	0	0.05595	0	0	0	-0	0	0	0	0	0	-0	0	560.971	559.415	348.557	208.817	-0.00690875	-0.195897	0.00383552	-0.00010326	0.452803
30	-0.0600529	-0.0156766	0.00507724	0.00257076	-0.0134362	-0.0419115	0.0215143	0.0289457	-0.000642704	-1.68859	0.153982	0.234746	0.051607	-0.00326797	0.0184963	-2.27068	-0.0169501	-1.57434	0	0	0	0	-0	0	0	0	-0.1265	0	-0	0	0	0	0	0	-0	0	0.105	-0.015	0	0	-0	0	0	-0.098	0.1	0	-0	0	0	0	0	0	-0	0	0.05595	0	0	0	-0	0	0	0	0	0	-0	0	561.01	559.478	348.952	208.925	-0.00723197	-0.196877	0.00390471	0.000109957	0.459176
31	-0.0738807	-0.0156869	0.00507414	0.00256465	-0.0134455	-0.0419063	0.0215142	0.0289459	-0.000642342	-1.68859	0.153972	0.23477	0.0518581	-0.0032676	0.0177828	-2.28465	-0.0173567	-1.57446	0	0	0	0	-0	0	0	0	-0.1265	0	-0	0	0	0	0	0	-0	0	0.105	-0.015	0	0	-0	0	0	-0.098	0.1	0	-0	0	0	0	0	0	-0	0	0.05595	0	0	0	-0	0	0	0	0	0	-0	0	561.036	559.52	349.242	209.004	-0.00745945	-0.197163	0.0039472	0.000262238	0.462711
32	-0.0842184	-0.0156947	0.00507206	0.00256026	-0.0134525	-0.0419023	0.0215141	0.028946	-0.000642083	-1.68859	0.153964	0.234788	0.0520365	-0.00326737	0.0172461	-2.2951	-0.0176664	-1.57453	0	0	0	0	-0	0	0	0	-0.1265	0	-0	0	0	0	0	0	-0	0	0.105	-0.015	0	0	-0	0	0	-0.098	0.1	0	-0	0	0	0	0	0	-0	0	0.05595	0	0	0	-0	0	0	0	0	0	-0	0	561.056	559.551	349.457	209.063	-0.00767231	-0.197068	0.00397958	0.000374533	0.464716
33	-0.0791525	-0.0157005	0.00507019	0.00255702	-0.0134577	-0.0418996	0.0215141	0.0289461	-0.000641891	-1.68858	0.153959	0.234801	0.0519461	-0.00326718	0.0175096	-2.29011	-0.0178498	-1.57481	0	0	0	0	-0	0	0	0	-0.1265	0	-0	0	0	0	0	0	-0	0	0.105	-0.015	0	0	-0	0	0	-0.098	0.1	0	-0	0	0	0	0	0	-0	0	0.05595	0	0	0	-0	0	0	0	0	0	-0	0	561.069	559.575	349.616	209.107	-0.0078038	-0.197121	0.00400158	0.000457946	0.466418
34	-0.068143	-0.0157225	0.00506622	0.00254446	-0.0134766	-0.0418891	0.021514	0.0289463	-0.000641036	-1.68858	0.153941	0.234837	0.0517519	-0.003267	0.0180837	-2.27941	-0.0186536	-1.57581	0	0	0	0	-0	0	0	0	-0.1265	0	-0	0	0	0	0	0	-0	0	0.105	-0.015	0	0	-0	0	0	-0.098	0.1	0	-0	0	0	0	0	0	-0	0	0.05595	0	0	0	-0	0	0	0	0	0	-0	0	561.126	559.678	350.292	209.277	-0.00846449	-0.194373	0.00404652	0.000793249	0.466434
35	-0.06285	-0.0157284	0.00506271	0.00254262	-0.0134824	-0.0418866	0.0215139	0.0289465	-0.000641021	-1.68858	0.153935	0.234858	0.0516529	-0.00326658	0.0183572	-2.27416	-0.0187359	-1.57602	0	0	0	0	-0	0	0	0	-0.1265	0	-0	0	0	0	0	0	-0	0	0.105	-0.015	0	0	-0	0	0	-0.098	0.1	0	-0	0	0	0	0	0	-0	0	0.05595	0	0	0	-0	0	0	0	0	0	-0	0	561.135	559.689	350.384	209.302	-0.00861716	-0.195498	0.0040914	0.000854565	0.470576
36	-0.0569701	-0.015732	0.00506187	0.00253983	-0.0134857	-0.0418845	0.0215139	0.0289466	-0.000640842	-1.68858	0.153931	0.234867	0.0515436	-0.00326643	0.0186615	-2.26834	-0.0188602	-1.57629	0	0	0	0	-0	0	0	0	-0.1265	0	-0	0	0	0	0	0	-0	0	0.105	-0.015	0	0	-0	0	0	-0.098	0.1	0	-0	0	0	0	0	0	-0	0	0.05595	0	0	0	-0	0	0	0	0	0	-0	0	561.146	559.705	350.509	209.335	-0.0085942	-0.196353	0.00410747	0.000918957	0.473534
37	-0.0686467	-0.0157494	0.00505887	0.00252995	-0.0135008	-0.0418761	0.0215138	0.0289467	-0.000640169	-1.68857	0.153917	0.234896	0.0517599	-0.0032663	0.0180612	-2.28026	-0.0195896	-1.57671	0	0	0	0	-0	0	0	0	-0.1265	0	-0	0	0	0	0	0	-0	0	0.105	-0.015	0	0	-0	0	0	-0.098	0.1	0	-0	0	0	0	0	0	-0	0	0.05595	0	0	0	-0	0	0	0	0	0	-0	0	561.191	559.784	351.046	209.469	-0.00906496	-0.194553	0.00414357	0.00118541	0.474399
38	-0.054833	-0.0157598	0.00505553	0.00252474	-0.0135104	-0.0418711	0.0215137	0.0289469	-0.000639894	-1.68858	0.153907	0.234921	0.0515063	-0.00326591	0.0187764	-2.26657	-0.0198352	-1.5773	0	0	0	0	-0	0	0	0	-0.1265	0	-0	0	0	0	0	0	-0	0	0.105	-0.015	0	0	-0	0	0	-0.098	0.1	0	-0	0	0	0	0	0	-0	0	0.05595	0	0	0	-0	0	0	0	0	0	-0	0	561.214	559.819	351.308	209.537	-0.00922716	-0.195679	0.00419223	0.0013274	0.479785
39	-0.0489949	-0.0157666	0.0050536	0.00252098	-0.0135166	-0.0418677	0.0215136	0.028947	-0.000639676	-1.68858	0.1539	0.234937	0.0513914	-0.00326571	0.0190762	-2.26082	-0.0200329	-1.57765	0	0	0	0	-0	0	0	0	-0.1265	0	-0	0	0	0	0	0	-0	0	0.105	-0.015	0	0	-0	0	0	-0.098	0.1	0	-0	0	0	0	0	0	-0	0	0.05595	0	0	0	-0	0	0	0	0	0	-0	0	561.23	559.845	351.502	209.587	-0.00934688	-0.196144	0.00422153	0.00142933	0.482814
40	-0.0548731	-0.0157932	0.00504863	0.0025067	-0.0135394	-0.0418558	0.0215135	0.0289473	-0.00063871	-1.68857	0.15388	0.234981	0.0515021	-0.00326561	0.0187761	-2.26704	-0.0210642	-1.57851	0	0	0	0	-0	0	0	0	-0.1265	0	-0	0	0	0	0	0	-0	0	0.105	-0.015	0	0	-0	0	0	-0.098	0.1	0	-0	0	0	0	0	0	-0	0	0.05595	0	0	0	-0	0	0	0	0	0	-0	0	561.293	559.96	352.308	209.773	-0.0100704	-0.193141	0.00426665	0.00183006	0.483481
41	-0.0595296	-0.0158033	0.00504417	0.00250225	-0.0135489	-0.0418512	0.0215133	0.0289476	-0.000638547	-1.68857	0.153869	0.235013	0.0515882	-0.00326507	0.0185372	-2.27179	-0.0213685	-1.57867	0	0	0	0	-0	0	0	0	-0.1265	0	-0	0	0	0	0	0	-0	0	0.105	-0.015	0	0	-0	0	0	-0.098	0.1	0	-0	0	0	0	0	0	-0	0	0.05595	0	0	0	-0	0	0	0	0	0	-0	0	561.313	559.983	352.524	209.828	-0.0101942	-0.195418	0.00433251	0.00195602	0.491488
42	-0.0648606	-0.0158064	0.00504281	0.00250054	-0.0135518	-0.0418496	0.0215133	0.0289477	-0.000638468	-1.68857	0.153865	0.235025	0.0516863	-0.00326492	0.0182624	-2.27716	-0.0215108	-1.57866	0	0	0	0	-0	0	0	0	-0.1265	0	-0	0	0	0	0	0	-0	0	0.105	-0.015	0	0	-0	0	0	-0.098	0.1	0	-0	0	0	0	0	0	-0	0	0.05595	0	0	0	-0	0	0	0	0	0	-0	0	561.319	559.991	352.604	209.849	-0.0102252	-0.196135	0.00435286	0.00200135	0.494056
43	-0.0739238	-0.0158166	0.00504131	0.00249436	-0.0135607	-0.0418445	0.0215132	0.0289478	-0.000638053	-1.68857	0.153856	0.235043	0.0518508	-0.0032649	0.0177945	-2.28637	-0.0219833	-1.57885	0	0	0	0	-0	0	0	0	-0.1265	0	-0	0	0	0	0	0	-0	0	0.105	-0.015	0	0	-0	0	0	-0.098	0.1	0	-0	0	0	0	0	0	-0	0	0.05595	0	0	0	-0	0	0	0	0	0	-0	0	561.343	560.031	352.926	209.929	-0.0103868	-0.196033	0.00437942	0.0021619	0.496721
44	-0.0674364	-0.0158326	0.00503799	0.00248591	-0.0135746	-0.0418372	0.0215131	0.028948	-0.000637519	-1.68857	0.153843	0.235074	0.0517331	-0.00326478	0.0181314	-2.28008	-0.022506	-1.57953	0	0	0	0	-0	0	0	0	-0.1265	0	-0	0	0	0	0	0	-0	0	0.105	-0.015	0	0	-0	0	0	-0.098	0.1	0	-0	0	0	0	0	0	-0	0	0.05595	0	0	0	-0	0	0	0	0	0	-0	0	561.377	560.089	353.384	210.039	-0.0106793	-0.195919	0.00442375	0.00239541	0.500895
45	-0.0689699	-0.0158356	0.00503536	0.00248575	-0.0135775	-0.0418363	0.0215131	0.0289481	-0.000637594	-1.68857	0.153841	0.235088	0.0517601	-0.00326451	0.0180517	-2.28162	-0.0225398	-1.57952	0	0	0	0	-0	0	0	0	-0.1265	0	-0	0	0	0	0	0	-0	0	0.105	-0.015	0	0	-0	0	0	-0.098	0.1	0	-0	0	0	0	0	0	-0	0	0.05595	0	0	0	-0	0	0	0	0	0	-0	0	561.38	560.09	353.402	210.043	-0.0108331	-0.196264	0.00445207	0.0024154	0.502574
46	-0.067567	-0.015837	0.00503526	0.00248422	-0.0135789	-0.0418353	0.0215131	0.0289482	-0.000637493	-1.68857	0.153838	0.235093	0.0517343	-0.00326445	0.0181248	-2.28025	-0.0226068	-1.57963	0	0	0	0	-0	0	0	0	-0.1265	0	-0	0	0	0	0	0	-0	0	0.105	-0.015	0	0	-0	0	0	-0.098	0.1	0	-0	0	0	0	0	0	-0	0	0.05595	0	0	0	-0	0	0	0	0	0	-0	0	561.385	560.096	353.465	210.059	-0.0107499	-0.19724	0.00446087	0.00244765	0.50526
47	-0.0633974	-0.0158389	0.00503478	0.00248299	-0.0135807	-0.0418342	0.021513	0.0289482	-0.000637418	-1.68857	0.153836	0.235097	0.0516584	-0.00326438	0.0183408	-2.2761	-0.0226427	-1.57979	0	0	0	0	-0	0	0	0	-0.1265	0	-0	0	0	0	0	0	-0	0	0.105	-0.015	0	0	-0	0	0	-0.098	0.1	0	-0	0	0	0	0	0	-0	0	0.05595	0	0	0	-0	0	0	0	0	0	-0	0	561.389	560.103	353.524	210.074	-0.0107131	-0.19789	0.00446951	0.00247827	0.507245
48	-0.0642542	-0.015847	0.00503373	0.00247802	-0.0135876	-0.0418302	0.021513	0.0289483	-0.000637086	-1.68857	0.153828	0.235112	0.0516737	-0.00326443	0.0182968	-2.27707	-0.0229674	-1.58008	0	0	0	0	-0	0	0	0	-0.1265	0	-0	0	0	0	0	0	-0	0	0.105	-0.015	0	0	-0	0	0	-0.098	0.1	0	-0	0	0	0	0	0	-0	0	0.05595	0	0	0	-0	0	0	0	0	0	-0	0	561.407	560.131	353.779	210.137	-0.0108166	-0.197981	0.0044919	0.00260573	0.509738
49	-0.0694574	-0.0158561	0.00503162	0.00247309	-0.0135956	-0.0418261	0.0215129	0.0289484	-0.00063679	-1.68857	0.15382	0.235132	0.051769	-0.00326437	0.0180283	-2.28238	-0.0233241	-1.58026	0	0	0	0	-0	0	0	0	-0.1265	0	-0	0	0	0	0	0	-0	0	0.105	-0.015	0	0	-0	0	0	-0.098	0.1	0	-0	0	0	0	0	0	-0	0	0.05595	0	0	0	-0	0	0	0	0	0	-0	0	561.422	560.156	354.027	210.198	-0.0108799	-0.198858	0.00452302	0.00273417	0.514083
50	-0.0745664	-0.0158604	0.00503011	0.00247108	-0.0135995	-0.0418241	0.0215128	0.0289485	-0.000636699	-1.68857	0.153816	0.235144	0.0518604	-0.00326424	0.0177638	-2.28754	-0.0234985	-1.58026	0	0	0	0	-0	0	0	0	-0.1265	0	-0	0	0	0	0	0	-0	0	0.105	-0.015	0	0	-0	0	0	-0.098	0.1	0	-0	0	0	0	0	0	-0	0	0.05595	0	0	0	-0	0	0	0	0	0	-0	0	561.429	560.166	354.127	210.224	-0.010956	-0.199422	0.00454714	0.00278997	0.516634
51	-0.0700148	-0.015865	0.00502919	0.00246846	-0.0136035	-0.0418219	0.0215128	0.0289486	-0.000636535	-1.68857	0.153812	0.235155	0.0517789	-0.00326423	0.0179999	-2.28304	-0.0236261	-1.58053	0	0	0	0	-0	0	0	0	-0.1265	0	-0	0	0	0	0	0	-0	0	0.105	-0.015	0	0	-0	0	0	-0.098	0.1	0	-0	0	0	0	0	0	-0	0	0.05595	0	0	0	-0	0	0	0	0	0	-0	0	561.439	560.181	354.263	210.258	-0.0110077	-0.199712	0.00456336	0.00285978	0.518601
52	-0.0649585	-0.0158719	0.00502777	0.00246462	-0.0136095	-0.0418187	0.0215127	0.0289487	-0.000636294	-1.68857	0.153806	0.235168	0.0516873	-0.00326418	0.018262	-2.27807	-0.0238248	-1.58088	0	0	0	0	-0	0	0	0	-0.1265	0	-0	0	0	0	0	0	-0	0	0.105	-0.015	0	0	-0	0	0	-0.098	0.1	0	-0	0	0	0	0	0	-0	0	0.05595	0	0	0	-0	0	0	0	0	0	-0	0	561.453	560.204	354.463	210.307	-0.0110802	-0.20009	0.00458415	0.00296166	0.521389
53	-0.0607305	-0.0158753	0.00502656	0.00246307	-0.0136126	-0.0418171	0.0215127	0.0289488	-0.000636225	-1.68857	0.153802	0.235178	0.0516094	-0.00326408	0.0184805	-2.27388	-0.0238816	-1.58108	0	0	0	0	-0	0	0	0	-0.1265	0	-0	0	0	0	0	0	-0	0	0.105	-0.015	0	0	-0	0	0	-0.098	0.1	0	-0	0	0	0	0	0	-0	0	0.05595	0	0	0	-0	0	0	0	0	0	-0	0	561.459	560.211	354.543	210.327	-0.0111239	-0.200673	0.00460407	0.00300659	0.5237
54	-0.0657778	-0.0158857	0.00502495	0.00245717	-0.0136215	-0.0418123	0.0215126	0.0289489	-0.000635832	-1.68856	0.153794	0.235197	0.0517023	-0.00326414	0.0182203	-2.27906	-0.0243306	-1.58135	0	0	0	0	-0	0	0	0	-0.1265	0	-0	0	0	0	0	0	-0	0	0.105	-0.015	0	0	-0	0	0	-0.098	0.1	0	-0	0	0	0	0	0	-0	0	0.05595	0	0	0	-0	0	0	0	0	0	-0	0	561.481	560.249	354.863	210.403	-0.0113139	-0.200285	0.00462801	0.00316672	0.525861
55	-0.0749379	-0.0159143	0.0050198	0.00244299	-0.013646	-0.0417999	0.0215125	0.0289492	-0.000634908	-1.68856	0.153773	0.235249	0.0518686	-0.00326416	0.0177482	-2.28853	-0.0254913	-1.58213	0	0	0	0	-0	0	0	0	-0.1265	0	-0	0	0	0	0	0	-0	0	0.105	-0.015	0	0	-0	0	0	-0.098	0.1	0	-0	0	0	0	0	0	-0	0	0.05595	0	0	0	-0	0	0	0	0	0	-0	0	561.545	560.355	355.712	210.582	-0.0119569	-0.19845	0.00468376	0.0035938	0.530052
56	-0.0733303	-0.0159198	0.00501525	0.00244325	-0.0136514	-0.0417984	0.0215124	0.0289494	-0.000635088	-1.68857	0.15377	0.235272	0.0518384	-0.00326369	0.0178309	-2.28694	-0.0254982	-1.58218	0	0	0	0	-0	0	0	0	-0.1265	0	-0	0	0	0	0	0	-0	0	0.105	-0.015	0	0	-0	0	0	-0.098	0.1	0	-0	0	0	0	0	0	-0	0	0.05595	0	0	0	-0	0	0	0	0	0	-0	0	561.549	560.355	355.73	210.586	-0.0122111	-0.199344	0.00473663	0.00362198	0.53372
57	-0.0760239	-0.0159202	0.00501536	0.00244153	-0.0136522	-0.0417974	0.0215124	0.0289495	-0.000634974	-1.68857	0.153766	0.235278	0.0518854	-0.00326354	0.0176923	-2.28966	-0.0256079	-1.58219	0	0	0	0	-0	0	0	0	-0.1265	0	-0	0	0	0	0	0	-0	0	0.105	-0.015	0	0	-0	0	0	-0.098	0.1	0	-0	0	0	0	0	0	-0	0	0.05595	0	0	0	-0	0	0	0	0	0	-0	0	561.555	560.359	355.791	210.602	-0.0119561	-0.201795	0.00474946	0.00365461	0.53968
58	-0.0739405	-0.0159238	0.00501484	0.00243881	-0.0136555	-0.0417953	0.0215123	0.0289495	-0.000634796	-1.68857	0.153761	0.235286	0.051848	-0.00326348	0.0178009	-2.28763	-0.0257374	-1.58239	0	0	0	0	-0	0	0	0	-0.1265	0	-0	0	0	0	0	0	-0	0	0.105	-0.015	0	0	-0	0	0	-0.098	0.1	0	-0	0	0	0	0	0	-0	0	0.05595	0	0	0	-0	0	0	0	0	0	-0	0	561.563	560.369	355.913	210.634	-0.0118167	-0.203463	0.00476508	0.00371696	0.544498
59	-0.0812922	-0.0159279	0.00501401	0.00243626	-0.0136592	-0.0417932	0.0215123	0.0289496	-0.000634646	-1.68856	0.153757	0.235297	0.0519787	-0.00326345	0.0174198	-2.29504	-0.0259721	-1.58234	0	0	0	0	-0	0	0	0	-0.1265	0	-0	0	0	0	0	0	-0	0	0.105	-0.015	0	0	-0	0	0	-0.098	0.1	0	-0	0	0	0	0	0	-0	0	0.05595	0	0	0	-0	0	0	0	0	0	-0	0	561.57	560.379	356.032	210.665	-0.0118018	-0.204367	0.00478498	0.00377947	0.547751
60	-0.0900562	-0.0159368	0.00501267	0.00243128	-0.0136667	-0.0417891	0.0215122	0.0289497	-0.000634325	-1.68856	0.153749	0.235314	0.0521304	-0.00326356	0.0169637	-2.30392	-0.0263999	-1.58242	0	0	0	0	-0	0	0	0	-0.1265	0	-0	0	0	0	0	0	-0	0	0.105	-0.015	0	0	-0	0	0	-0.098	0.1	0	-0	0	0	0	0	0	-0	0	0.05595	0	0	0	-0	0	0	0	0	0	-0	0	561.585	560.403	356.291	210.729	-0.0118863	-0.204729	0.00481067	0.00391023	0.551068
61	-0.0968528	-0.0159419	0.0050111	0.0024288	-0.0136714	-0.0417867	0.0215121	0.0289498	-0.000634204	-1.68857	0.153744	0.235328	0.0522437	-0.00326345	0.0166091	-2.31077	-0.0266414	-1.58238	0	0	0	0	-0	0	0	0	-0.1265	0	-0	0	0	0	0	0	-0	0	0.105	-0.015	0	0	-0	0	0	-0.098	0.1	0	-0	0	0	0	0	0	-0	0	0.05595	0	0	0	-0	0	0	0	0	0	-0	0	561.594	560.414	356.417	210.761	-0.0118924	-0.205953	0.00483915	0.00397962	0.555353
62	-0.093378	-0.0159433	0.00501031	0.00242821	-0.0136727	-0.0417861	0.0215121	0.0289499	-0.000634189	-1.68857	0.153743	0.235333	0.0521848	-0.00326337	0.0167903	-2.30731	-0.0266369	-1.58251	0	0	0	0	-0	0	0	0	-0.1265	0	-0	0	0	0	0	0	-0	0	0.105	-0.015	0	0	-0	0	0	-0.098	0.1	0	-0	0	0	0	0	0	-0	0	0.05595	0	0	0	-0	0	0	0	0	0	-0	0	561.596	560.416	356.445	210.768	-0.0119095	-0.206342	0.00485006	0.00399662	0.556674
63	-0.0965659	-0.015946	0.00500996	0.00242638	-0.013675	-0.0417847	0.0215121	0.0289499	-0.00063407	-1.68856	0.15374	0.235339	0.0522381	-0.00326339	0.0166239	-2.31054	-0.026786	-1.58252	0	0	0	0	-0	0	0	0	-0.1265	0	-0	0	0	0	0	0	-0	0	0.105	-0.015	0	0	-0	0	0	-0.098	0.1	0	-0	0	0	0	0	0	-0	0	0.05595	0	0	0	-0	0	0	0	0	0	-0	0	561.601	560.423	356.533	210.791	-0.0118841	-0.206906	0.00486035	0.00404102	0.558761
64	-0.0934674	-0.0159522	0.00500895	0.00242286	-0.0136804	-0.0417819	0.021512	0.02895	-0.000633844	-1.68856	0.153735	0.235351	0.0521865	-0.00326346	0.0167857	-2.30752	-0.0269843	-1.58282	0	0	0	0	-0	0	0	0	-0.1265	0	-0	0	0	0	0	0	-0	0	0.105	-0.015	0	0	-0	0	0	-0.098	0.1	0	-0	0	0	0	0	0	-0	0	0.05595	0	0	0	-0	0	0	0	0	0	-0	0	561.612	560.441	356.716	210.837	-0.0119314	-0.207282	0.00487922	0.00413423	0.561414
65	-0.0946178	-0.0159537	0.00500786	0.00242281	-0.0136817	-0.0417815	0.021512	0.02895	-0.000633877	-1.68857	0.153734	0.235357	0.0522057	-0.00326335	0.0167256	-2.30867	-0.0270068	-1.5828	0	0	0	0	-0	0	0	0	-0.1265	0	-0	0	0	0	0	0	-0	0	0.105	-0.015	0	0	-0	0	0	-0.098	0.1	0	-0	0	0	0	0	0	-0	0	0.05595	0	0	0	-0	0	0	0	0	0	-0	0	561.613	560.441	356.724	210.839	-0.0119997	-0.207384	0.00489119	0.0041422	0.56202
66	-0.095423	-0.0159539	0.00500783	0.00242251	-0.013682	-0.0417813	0.021512	0.0289501	-0.000633859	-1.68856	0.153733	0.235359	0.0522191	-0.00326334	0.0166836	-2.30948	-0.0270332	-1.58279	0	0	0	0	-0	0	0	0	-0.1265	0	-0	0	0	0	0	0	-0	0	0.105	-0.015	0	0	-0	0	0	-0.098	0.1	0	-0	0	0	0	0	0	-0	0	0.05595	0	0	0	-0	0	0	0	0	0	-0	0	561.614	560.442	356.736	210.843	-0.0119756	-0.207682	0.00489384	0.00414902	0.562828
67	-0.0935558	-0.0159544	0.00500775	0.00242208	-0.0136825	-0.041781	0.021512	0.0289501	-0.000633831	-1.68856	0.153732	0.23536	0.0521879	-0.00326333	0.0167812	-2.30762	-0.0270356	-1.58286	0	0	0	0	-0	0	0	0	-0.1265	0	-0	0	0	0	0	0	-0	0	0.105	-0.015	0	0	-0	0	0	-0.098	0.1	0	-0	0	0	0	0	0	-0	0	0.05595	0	0	0	-0	0	0	0	0	0	-0	0	561.615	560.443	356.756	210.848	-0.0119519	-0.207983	0.00489679	0.00415907	0.563698
68	-0.0977853	-0.0159553	0.00500765	0.00242147	-0.0136833	-0.0417805	0.021512	0.0289501	-0.000633791	-1.68856	0.153731	0.235362	0.0522586	-0.00326331	0.0165607	-2.31187	-0.0271235	-1.58278	0	0	0	0	-0	0	0	0	-0.1265	0	-0	0	0	0	0	0	-0	0	0.105	-0.015	0	0	-0	0	0	-0.098	0.1	0	-0	0	0	0	0	0	-0	0	0.05595	0	0	0	-0	0	0	0	0	0	-0	0	561.617	560.446	356.785	210.855	-0.0119101	-0.20845	0.00490067	0.00417399	0.565001
69	-0.0950367	-0.0159567	0.00500743	0.00242059	-0.0136845	-0.0417797	0.021512	0.0289501	-0.000633738	-1.68856	0.15373	0.235365	0.0522127	-0.00326332	0.0167041	-2.30914	-0.0271455	-1.58291	0	0	0	0	-0	0	0	0	-0.1265	0	-0	0	0	0	0	0	-0	0	0.105	-0.015	0	0	-0	0	0	-0.098	0.1	0	-0	0	0	0	0	0	-0	0	0.05595	0	0	0	-0	0	0	0	0	0	-0	0	561.62	560.449	356.828	210.867	-0.0119162	-0.208638	0.00490705	0.0041961	0.565863
70	-0.0974949	-0.0159576	0.00500714	0.00242012	-0.0136853	-0.0417794	0.021512	0.0289501	-0.000633714	-1.68856	0.153729	0.235368	0.0522535	-0.0032633	0.0165758	-2.31161	-0.0272029	-1.58287	0	0	0	0	-0	0	0	0	-0.1265	0	-0	0	0	0	0	0	-0	0	0.105	-0.015	0	0	-0	0	0	-0.098	0.1	0	-0	0	0	0	0	0	-0	0	0.05595	0	0	0	-0	0	0	0	0	0	-0	0	561.621	560.451	356.849	210.872	-0.0119116	-0.208891	0.00491175	0.004208	0.566703
71	-0.0964265	-0.0159591	0.00500692	0.00241913	-0.0136866	-0.0417786	0.021512	0.0289501	-0.00063365	-1.68856	0.153727	0.235371	0.0522357	-0.0032633	0.0166316	-2.31056	-0.0272521	-1.58295	0	0	0	0	-0	0	0	0	-0.1265	0	-0	0	0	0	0	0	-0	0	0.105	-0.015	0	0	-0	0	0	-0.098	0.1	0	-0	0	0	0	0	0	-0	0	0.05595	0	0	0	-0	0	0	0	0	0	-0	0	561.625	560.455	356.898	210.885	-0.0119008	-0.209189	0.00491753	0.00423271	0.567844
72	-0.0997721	-0.0159619	0.00500648	0.00241747	-0.013689	-0.0417773	0.0215119	0.0289502	-0.000633546	-1.68856	0.153725	0.235377	0.0522915	-0.00326334	0.0164568	-2.31394	-0.027396	-1.58295	0	0	0	0	-0	0	0	0	-0.1265	0	-0	0	0	0	0	0	-0	0	0.105	-0.015	0	0	-0	0	0	-0.098	0.1	0	-0	0	0	0	0	0	-0	0	0.05595	0	0	0	-0	0	0	0	0	0	-0	0	561.629	560.462	356.979	210.906	-0.0119015	-0.209547	0.00492748	0.00427403	0.569438
73	-0.0965788	-0.0159639	0.0050059	0.00241658	-0.0136908	-0.0417764	0.0215119	0.0289502	-0.0006335	-1.68856	0.153723	0.235382	0.0522387	-0.00326333	0.0166237	-2.31077	-0.0274189	-1.5831	0	0	0	0	-0	0	0	0	-0.1265	0	-0	0	0	0	0	0	-0	0	0.105	-0.015	0	0	-0	0	0	-0.098	0.1	0	-0	0	0	0	0	0	-0	0	0.05595	0	0	0	-0	0	0	0	0	0	-0	0	561.632	560.466	357.027	210.918	-0.0119303	-0.209722	0.00493643	0.00429992	0.570414
74	-0.087707	-0.0159706	0.00500505	0.00241258	-0.0136965	-0.0417734	0.0215119	0.0289503	-0.000633231	-1.68856	0.153718	0.235393	0.0520911	-0.0032634	0.0170873	-2.30198	-0.0275751	-1.58358	0	0	0	0	-0	0	0	0	-0.1265	0	-0	0	0	0	0	0	-0	0	0.105	-0.015	0	0	-0	0	0	-0.098	0.1	0	-0	0	0	0	0	0	-0	0	0.05595	0	0	0	-0	0	0	0	0	0	-0	0	561.645	560.487	357.235	210.97	-0.0119188	-0.210448	0.00495308	0.00440478	0.574004
75	-0.0971412	-0.0159812	0.00500329	0.00240717	-0.0137054	-0.0417684	0.0215118	0.0289504	-0.000632909	-1.68856	0.153709	0.235416	0.0522509	-0.00326353	0.0165948	-2.31154	-0.0280693	-1.58366	0	0	0	0	-0	0	0	0	-0.1265	0	-0	0	0	0	0	0	-0	0	0.105	-0.015	0	0	-0	0	0	-0.098	0.1	0	-0	0	0	0	0	0	-0	0	0.05595	0	0	0	-0	0	0	0	0	0	-0	0	561.664	560.513	357.53	211.041	-0.0121559	-0.210274	0.00499285	0.00455653	0.576886
76	-0.109369	-0.0159953	0.00500053	0.0023999	-0.0137178	-0.0417622	0.0215117	0.0289506	-0.000632464	-1.68856	0.153697	0.235446	0.0524516	-0.00326353	0.0159557	-2.32394	-0.0287524	-1.58378	0	0	0	0	-0	0	0	0	-0.1265	0	-0	0	0	0	0	0	-0	0	0.105	-0.015	0	0	-0	0	0	-0.098	0.1	0	-0	0	0	0	0	0	-0	0	0.05595	0	0	0	-0	0	0	0	0	0	-0	0	561.692	560.555	357.938	211.136	-0.0122726	-0.211457	0.00503816	0.0047666	0.583922
77	-0.101356	-0.0160141	0.00499686	0.00239022	-0.0137343	-0.0417539	0.0215115	0.0289508	-0.000631875	-1.68856	0.153682	0.235485	0.0523201	-0.00326353	0.0163756	-2.31613	-0.0293516	-1.58463	0	0	0	0	-0	0	0	0	-0.1265	0	-0	0	0	0	0	0	-0	0	0.105	-0.015	0	0	-0	0	0	-0.098	0.1	0	-0	0	0	0	0	0	-0	0	0.05595	0	0	0	-0	0	0	0	0	0	-0	0	561.729	560.607	358.48	211.258	-0.0123363	-0.213805	0.0050984	0.00504632	0.595049
78	-0.0953551	-0.0160189	0.00499378	0.00238863	-0.0137393	-0.0417517	0.0215114	0.0289511	-0.000631877	-1.68857	0.153676	0.235506	0.0522198	-0.00326311	0.0166899	-2.31017	-0.0293809	-1.58491	0	0	0	0	-0	0	0	0	-0.1265	0	-0	0	0	0	0	0	-0	0	0.105	-0.015	0	0	-0	0	0	-0.098	0.1	0	-0	0	0	0	0	0	-0	0	0.05595	0	0	0	-0	0	0	0	0	0	-0	0	561.739	560.613	358.57	211.283	-0.0122952	-0.21653	0.00514759	0.00510481	0.603074
79	-0.091552	-0.016021	0.00499321	0.00238726	-0.0137411	-0.0417505	0.0215114	0.0289511	-0.000631804	-1.68856	0.153673	0.235514	0.0521553	-0.00326306	0.0168884	-2.3064	-0.0294053	-1.5851	0	0	0	0	-0	0	0	0	-0.1265	0	-0	0	0	0	0	0	-0	0	0.105	-0.015	0	0	-0	0	0	-0.098	0.1	0	-0	0	0	0	0	0	-0	0	0.05595	0	0	0	-0	0	0	0	0	0	-0	0	561.743	560.616	358.632	211.3	-0.0122639	-0.217379	0.00516232	0.00513824	0.605768
80	-0.0972089	-0.016029	0.0049924	0.00238224	-0.0137479	-0.0417467	0.0215113	0.0289512	-0.000631475	-1.68856	0.153666	0.235529	0.052251	-0.00326326	0.0165928	-2.31216	-0.0298021	-1.58522	0	0	0	0	-0	0	0	0	-0.1265	0	-0	0	0	0	0	0	-0	0	0.105	-0.015	0	0	-0	0	0	-0.098	0.1	0	-0	0	0	0	0	0	-0	0	0.05595	0	0	0	-0	0	0	0	0	0	-0	0	561.756	560.635	358.879	211.364	-0.0122865	-0.218115	0.00518919	0.00526354	0.609926
81	-0.102207	-0.0160338	0.00499091	0.0023799	-0.0137523	-0.0417445	0.0215113	0.0289513	-0.000631363	-1.68856	0.153661	0.235543	0.052333	-0.00326314	0.0163317	-2.31722	-0.0300296	-1.58521	0	0	0	0	-0	0	0	0	-0.1265	0	-0	0	0	0	0	0	-0	0	0.105	-0.015	0	0	-0	0	0	-0.098	0.1	0	-0	0	0	0	0	0	-0	0	0.05595	0	0	0	-0	0	0	0	0	0	-0	0	561.765	560.644	359	211.397	-0.012225	-0.219873	0.00521846	0.00533007	0.615478
82	-0.106614	-0.0160354	0.00499017	0.00237917	-0.0137539	-0.0417437	0.0215112	0.0289514	-0.000631337	-1.68856	0.15366	0.235549	0.0524043	-0.00326306	0.0161011	-2.32165	-0.0301417	-1.58512	0	0	0	0	-0	0	0	0	-0.1265	0	-0	0	0	0	0	0	-0	0	0.105	-0.015	0	0	-0	0	0	-0.098	0.1	0	-0	0	0	0	0	0	-0	0	0.05595	0	0	0	-0	0	0	0	0	0	-0	0	561.767	560.646	359.038	211.408	-0.0122025	-0.220626	0.00523133	0.00535206	0.617746
83	-0.110306	-0.0160363	0.00498997	0.00237856	-0.0137547	-0.0417433	0.0215112	0.0289514	-0.000631302	-1.68856	0.153658	0.235551	0.0524632	-0.00326305	0.0159075	-2.32536	-0.0302278	-1.58504	0	0	0	0	-0	0	0	0	-0.1265	0	-0	0	0	0	0	0	-0	0	0.105	-0.015	0	0	-0	0	0	-0.098	0.1	0	-0	0	0	0	0	0	-0	0	0.05595	0	0	0	-0	0	0	0	0	0	-0	0	561.769	560.648	359.063	211.415	-0.0121642	-0.221122	0.00523675	0.00536596	0.619132
84	-0.11311	-0.0160382	0.00498975	0.00237725	-0.0137563	-0.0417424	0.0215112	0.0289514	-0.000631217	-1.68856	0.153657	0.235556	0.0525076	-0.00326309	0.0157602	-2.32819	-0.0303416	-1.58502	0	0	0	0	-0	0	0	0	-0.1265	0	-0	0	0	0	0	0	-0	0	0.105	-0.015	0	0	-0	0	0	-0.098	0.1	0	-0	0	0	0	0	0	-0	0	0.05595	0	0	0	-0	0	0	0	0	0	-0	0	561.771	560.651	359.12	211.431	-0.0121226	-0.2217	0.00524444	0.00539519	0.621018
85	-0.11684	-0.0160394	0.00498941	0.00237669	-0.0137573	-0.0417418	0.0215112	0.0289514	-0.000631193	-1.68856	0.153655	0.235559	0.0525662	-0.00326307	0.0155643	-2.33193	-0.0304314	-1.58494	0	0	0	0	-0	0	0	0	-0.1265	0	-0	0	0	0	0	0	-0	0	0.105	-0.015	0	0	-0	0	0	-0.098	0.1	0	-0	0	0	0	0	0	-0	0	0.05595	0	0	0	-0	0	0	0	0	0	-0	0	561.773	560.653	359.149	211.439	-0.0121418	-0.221888	0.00525239	0.00541092	0.621851
86	-0.117576	-0.0160414	0.00498909	0.00237547	-0.0137591	-0.0417409	0.0215112	0.0289514	-0.000631111	-1.68856	0.153654	0.235563	0.0525773	-0.00326309	0.0155256	-2.3327	-0.0305239	-1.58498	0	0	0	0	-0	0	0	0	-0.1265	0	-0	0	0	0	0	0	-0	0	0.105	-0.015	0	0	-0	0	0	-0.098	0.1	0	-0	0	0	0	0	0	-0	0	0.05595	0	0	0	-0	0	0	0	0	0	-0	0	561.777	560.659	359.212	211.457	-0.0120981	-0.222471	0.00525911	0.00544305	0.623812
87	-0.116075	-0.0160421	0.0049887	0.00237526	-0.0137598	-0.0417407	0.0215112	0.0289515	-0.000631111	-1.68856	0.153653	0.235565	0.052554	-0.00326305	0.0156045	-2.3312	-0.0305145	-1.58504	0	0	0	0	-0	0	0	0	-0.1265	0	-0	0	0	0	0	0	-0	0	0.105	-0.015	0	0	-0	0	0	-0.098	0.1	0	-0	0	0	0	0	0	-0	0	0.05595	0	0	0	-0	0	0	0	0	0	-0	0	561.778	560.659	359.221	211.459	-0.0121176	-0.222565	0.00526428	0.00544918	0.624222
88	-0.118931	-0.0160426	0.00498865	0.00237485	-0.0137603	-0.0417403	0.0215112	0.0289515	-0.000631085	-1.68856	0.153652	0.235567	0.0525985	-0.00326306	0.0154544	-2.33407	-0.0305796	-1.58497	0	0	0	0	-0	0	0	0	-0.1265	0	-0	0	0	0	0	0	-0	0	0.105	-0.015	0	0	-0	0	0	-0.098	0.1	0	-0	0	0	0	0	0	-0	0	0.05595	0	0	0	-0	0	0	0	0	0	-0	0	561.779	560.66	359.24	211.465	-0.0121019	-0.222801	0.00526748	0.00545894	0.624958
89	-0.118771	-0.0160436	0.00498851	0.0023743	-0.0137611	-0.0417399	0.0215112	0.0289515	-0.000631051	-1.68856	0.153651	0.235568	0.0525959	-0.00326308	0.0154627	-2.33392	-0.0306139	-1.58501	0	0	0	0	-0	0	0	0	-0.1265	0	-0	0	0	0	0	0	-0	0	0.105	-0.015	0	0	-0	0	0	-0.098	0.1	0	-0	0	0	0	0	0	-0	0	0.05595	0	0	0	-0	0	0	0	0	0	-0	0	561.78	560.662	359.268	211.473	-0.0121068	-0.222894	0.00527152	0.00547338	0.625466
90	-0.118497	-0.016045	0.00498832	0.00237344	-0.0137622	-0.0417391	0.0215111	0.0289515	-0.000631001	-1.68856	0.15365	0.235572	0.0525918	-0.0032631	0.015477	-2.33367	-0.0306642	-1.58507	0	0	0	0	-0	0	0	0	-0.1265	0	-0	0	0	0	0	0	-0	0	0.105	-0.015	0	0	-0	0	0	-0.098	0.1	0	-0	0	0	0	0	0	-0	0	0.05595	0	0	0	-0	0	0	0	0	0	-0	0	561.783	560.665	359.309	211.484	-0.0121362	-0.222953	0.00527928	0.00549502	0.626109
91	-0.120663	-0.0160459	0.00498806	0.00237307	-0.013763	-0.0417387	0.0215111	0.0289515	-0.000630985	-1.68856	0.153649	0.235575	0.0526254	-0.0032631	0.015363	-2.33584	-0.0307219	-1.58502	0	0	0	0	-0	0	0	0	-0.1265	0	-0	0	0	0	0	0	-0	0	0.105	-0.015	0	0	-0	0	0	-0.098	0.1	0	-0	0	0	0	0	0	-0	0	0.05595	0	0	0	-0	0	0	0	0	0	-0	0	561.785	560.666	359.33	211.49	-0.0121644	-0.22299	0.00528532	0.00550645	0.626511
92	-0.117391	-0.0160465	0.00498791	0.00237277	-0.0137636	-0.0417384	0.0215111	0.0289515	-0.000630968	-1.68856	0.153649	0.235576	0.052575	-0.0032631	0.0155352	-2.33258	-0.0306954	-1.58514	0	0	0	0	-0	0	0	0	-0.1265	0	-0	0	0	0	0	0	-0	0	0.105	-0.015	0	0	-0	0	0	-0.098	0.1	0	-0	0	0	0	0	0	-0	0	0.05595	0	0	0	-0	0	0	0	0	0	-0	0	561.785	560.667	359.346	211.494	-0.0121585	-0.223137	0.00528802	0.00551469	0.627013
93	-0.118297	-0.0160475	0.00498781	0.00237203	-0.0137645	-0.0417379	0.0215111	0.0289515	-0.00063092	-1.68856	0.153648	0.235578	0.0525888	-0.0032631	0.0154875	-2.3335	-0.0307534	-1.58515	0	0	0	0	-0	0	0	0	-0.1265	0	-0	0	0	0	0	0	-0	0	0.105	-0.015	0	0	-0	0	0	-0.098	0.1	0	-0	0	0	0	0	0	-0	0	0.05595	0	0	0	-0	0	0	0	0	0	-0	0	561.787	560.67	359.38	211.504	-0.0121178	-0.223607	0.00529239	0.00553237	0.628426
94	-0.124008	-0.0160494	0.00498748	0.00237094	-0.0137661	-0.0417372	0.0215111	0.0289516	-0.000630851	-1.68856	0.153646	0.235582	0.0526774	-0.00326314	0.0151871	-2.33924	-0.0309014	-1.58503	0	0	0	0	-0	0	0	0	-0.1265	0	-0	0	0	0	0	0	-0	0	0.105	-0.015	0	0	-0	0	0	-0.098	0.1	0	-0	0	0	0	0	0	-0	0	0.05595	0	0	0	-0	0	0	0	0	0	-0	0	561.789	560.673	359.431	211.518	-0.0120887	-0.224048	0.00529872	0.00555864	0.629939
95	-0.124339	-0.0160519	0.00498724	0.0023694	-0.0137682	-0.0417358	0.0215111	0.0289516	-0.000630758	-1.68856	0.153643	0.235588	0.0526817	-0.00326319	0.0151692	-2.3396	-0.0310041	-1.58511	0	0	0	0	-0	0	0	0	-0.1265	0	-0	0	0	0	0	0	-0	0	0.105	-0.015	0	0	-0	0	0	-0.098	0.1	0	-0	0	0	0	0	0	-0	0	0.05595	0	0	0	-0	0	0	0	0	0	-0	0	561.793	560.677	359.506	211.539	-0.0120847	-0.22454	0.00531184	0.00559737	0.631889
96	-0.126179	-0.0160527	0.00498672	0.00236913	-0.013769	-0.0417355	0.0215111	0.0289516	-0.000630756	-1.68856	0.153643	0.235591	0.0527096	-0.00326314	0.0150724	-2.34145	-0.0310504	-1.58507	0	0	0	0	-0	0	0	0	-0.1265	0	-0	0	0	0	0	0	-0	0	0.105	-0.015	0	0	-0	0	0	-0.098	0.1	0	-0	0	0	0	0	0	-0	0	0.05595	0	0	0	-0	0	0	0	0	0	-0	0	561.795	560.679	359.521	211.543	-0.0121063	-0.2247	0.00531854	0.00560691	0.632552
97	-0.122298	-0.0160537	0.00498663	0.0023685	-0.0137698	-0.041735	0.021511	0.0289516	-0.000630717	-1.68856	0.153642	0.235593	0.052651	-0.00326315	0.0152769	-2.33758	-0.0310357	-1.58522	0	0	0	0	-0	0	0	0	-0.1265	0	-0	0	0	0	0	0	-0	0	0.105	-0.015	0	0	-0	0	0	-0.098	0.1	0	-0	0	0	0	0	0	-0	0	0.05595	0	0	0	-0	0	0	0	0	0	-0	0	561.797	560.681	359.552	211.552	-0.012102	-0.224931	0.00532398	0.00562303	0.633437
98	-0.126527	-0.0160552	0.00498635	0.00236755	-0.0137712	-0.0417343	0.021511	0.0289517	-0.000630654	-1.68856	0.15364	0.235596	0.0527152	-0.00326314	0.0150543	-2.34184	-0.031157	-1.58514	0	0	0	0	-0	0	0	0	-0.1265	0	-0	0	0	0	0	0	-0	0	0.105	-0.015	0	0	-0	0	0	-0.098	0.1	0	-0	0	0	0	0	0	-0	0	0.05595	0	0	0	-0	0	0	0	0	0	-0	0	561.8	560.686	359.598	211.565	-0.0120546	-0.225512	0.00532911	0.0056469	0.635251
99	-0.12251	-0.0160575	0.00498598	0.00236626	-0.0137732	-0.0417332	0.021511	0.0289517	-0.000630577	-1.68856	0.153638	0.235601	0.0526544	-0.00326317	0.0152659	-2.33785	-0.0311882	-1.58534	0	0	0	0	-0	0	0	0	-0.1265	0	-0	0	0	0	0	0	-0	0	0.105	-0.015	0	0	-0	0	0	-0.098	0.1	0	-0	0	0	0	0	0	-0	0	0.05595	0	0	0	-0	0	0	0	0	0	-0	0	561.804	560.691	359.666	211.584	-0.012072	-0.225764	0.00533948	0.00568203	0.636607
100	-0.120152	-0.0160589	0.00498556	0.00236563	-0.0137745	-0.0417326	0.021511	0.0289517	-0.000630547	-1.68856	0.153637	0.235605	0.0526179	-0.00326313	0.01539	-2.33551	-0.0311977	-1.58545	0	0	0	0	-0	0	0	0	-0.1265	0	-0	0	0	0	0	0	-0	0	0.105	-0.015	0	0	-0	0	0	-0.098	0.1	0	-0	0	0	0	0	0	-0	0	0.05595	0	0	0	-0	0	0	0	0	0	-0	0	561.807	560.694	359.7	211.593	-0.0120864	-0.226006	0.00534772	0.0057006	0.637617
