Stefan210/kinematic_calibration/src/kinematic_calibration/validation/experiments/experiments/single_point_vs_pose/marker_single_point/rarm_100/optimization_intermediate_results.csv
iteration	HeadPitch_offset	HeadYaw_offset	RElbowRoll_offset	RElbowYaw_offset	RShoulderPitch_offset	RShoulderRoll_offset	marker_transform_rarm_tx	marker_transform_rarm_ty	marker_transform_rarm_tz	marker_transform_rarm_rr	marker_transform_rarm_rp	marker_transform_rarm_ry	camera_transform_tx	camera_transform_ty	camera_transform_tz	camera_transform_rr	camera_transform_rp	camera_transform_ry	HeadPitch_transform_tx	HeadPitch_transform_ty	HeadPitch_transform_tz	HeadPitch_transform_rr	HeadPitch_transform_rp	HeadPitch_transform_ry	HeadYaw_transform_tx	HeadYaw_transform_ty	HeadYaw_transform_tz	HeadYaw_transform_rr	HeadYaw_transform_rp	HeadYaw_transform_ry	RElbowRoll_transform_tx	RElbowRoll_transform_ty	RElbowRoll_transform_tz	RElbowRoll_transform_rr	RElbowRoll_transform_rp	RElbowRoll_transform_ry	RElbowYaw_transform_tx	RElbowYaw_transform_ty	RElbowYaw_transform_tz	RElbowYaw_transform_rr	RElbowYaw_transform_rp	RElbowYaw_transform_ry	RShoulderPitch_transform_tx	RShoulderPitch_transform_ty	RShoulderPitch_transform_tz	RShoulderPitch_transform_rr	RShoulderPitch_transform_rp	RShoulderPitch_transform_ry	RShoulderRoll_transform_tx	RShoulderRoll_transform_ty	RShoulderRoll_transform_tz	RShoulderRoll_transform_rr	RShoulderRoll_transform_rp	RShoulderRoll_transform_ry	RWristYaw_transform_tx	RWristYaw_transform_ty	RWristYaw_transform_tz	RWristYaw_transform_rr	RWristYaw_transform_rp	RWristYaw_transform_ry	r_wrist_joint_transform_tx	r_wrist_joint_transform_ty	r_wrist_joint_transform_tz	r_wrist_joint_transform_rr	r_wrist_joint_transform_rp	r_wrist_joint_transform_ry	camera_fx	camera_fy	camera_cx	camera_cy	camera_D0	camera_D1	camera_D2	camera_D3	camera_D4	
0	0.0230449	0.0294606	-0.0013508	-0.00116347	0.000678263	0.00258603	0.05071	0	0.01774	-2.26369	1.66533e-16	-1.5708	545.901	551.038	324.928	201.58	0.0255298	2.61142	-0.0636736	-0.0350419	0.213964
1	-0.0152531	-0.022816	0.00325271	0.0105758	-0.0149021	-0.0357186	0.0212969	0.028706	-0.000765448	-0.00109905	0.000633768	0.00272196	0.0537633	-0.0023855	0.0183011	-2.20231	0.0115093	-1.52887	0	0	0	0	-0	0	0	0	-0.1265	0	-0	0	0	0	0	0	-0	0	0.105	-0.015	0	0	-0	0	0	-0.098	0.1	0	-0	0	0	0	0	0	-0	0	0.05595	0	0	0	-0	0	0	0	0	0	-0	0	545.901	551.039	324.929	201.581	-0.0302876	2.59359	-0.0816057	-0.0682243	0.210131
2	-0.013603	-0.0418261	-0.00703883	0.0139113	-0.028154	-0.0293148	0.0213117	0.028767	-0.00092043	-0.00111685	0.000646784	0.00272507	0.0531434	-0.000599877	0.021498	-2.20931	0.0187112	-1.51757	0	0	0	0	-0	0	0	0	-0.1265	0	-0	0	0	0	0	0	-0	0	0.105	-0.015	0	0	-0	0	0	-0.098	0.1	0	-0	0	0	0	0	0	-0	0	0.05595	0	0	0	-0	0	0	0	0	0	-0	0	545.903	551.039	324.934	201.586	-0.21074	2.47554	-0.0275781	-0.0386896	0.170253
3	-0.0144771	-0.0343878	-0.00254017	0.0128711	-0.0226125	-0.0335455	0.0213223	0.0287544	-0.0010329	-0.00112978	0.000656364	0.00272257	0.0547339	-0.00181721	0.0183089	-2.20501	0.0185246	-1.52041	0	0	0	0	-0	0	0	0	-0.1265	0	-0	0	0	0	0	0	-0	0	0.105	-0.015	0	0	-0	0	0	-0.098	0.1	0	-0	0	0	0	0	0	-0	0	0.05595	0	0	0	-0	0	0	0	0	0	-0	0	545.905	551.04	324.939	201.591	-0.430826	2.33865	-0.0185393	-0.033262	0.126018
4	-0.0144149	-0.0291464	0.000236923	0.0104492	-0.0193505	-0.0369882	0.0213572	0.0287907	-0.0010753	-0.00113409	0.00065794	0.00271666	0.0557674	-0.00267775	0.0162298	-2.20474	0.0185766	-1.52589	0	0	0	0	-0	0	0	0	-0.1265	0	-0	0	0	0	0	0	-0	0	0.105	-0.015	0	0	-0	0	0	-0.098	0.1	0	-0	0	0	0	0	0	-0	0	0.05595	0	0	0	-0	0	0	0	0	0	-0	0	545.909	551.04	324.948	201.599	-0.662351	2.10204	0.0141416	-0.0115367	0.0380488
5	-0.014473	-0.0255298	0.00235157	0.00988192	-0.0176099	-0.0392661	0.0213315	0.0288416	-0.00112268	-0.00114506	0.000661606	0.00273109	0.0557741	-0.00325937	0.0156748	-2.20441	0.0182772	-1.52911	0	0	0	0	-0	0	0	0	-0.1265	0	-0	0	0	0	0	0	-0	0	0.105	-0.015	0	0	-0	0	0	-0.098	0.1	0	-0	0	0	0	0	0	-0	0	0.05595	0	0	0	-0	0	0	0	0	0	-0	0	545.921	551.038	324.96	201.609	-0.648293	1.76688	0.0213659	-0.00513049	-0.108185
6	-0.0145405	-0.0232291	0.00429555	0.0100217	-0.0169837	-0.0405371	0.0212676	0.0288698	-0.001092	-0.00115137	0.000666851	0.00274393	0.0546762	-0.0035664	0.016604	-2.20439	0.017444	-1.53144	0	0	0	0	-0	0	0	0	-0.1265	0	-0	0	0	0	0	0	-0	0	0.105	-0.015	0	0	-0	0	0	-0.098	0.1	0	-0	0	0	0	0	0	-0	0	0.05595	0	0	0	-0	0	0	0	0	0	-0	0	545.946	551.03	324.977	201.621	-0.415192	1.22915	0.011121	-0.00764587	-0.355242
7	-0.0145846	-0.0216094	0.00596062	0.0100551	-0.0167925	-0.0414026	0.0212051	0.0288868	-0.00103417	-0.00116761	0.000666828	0.00275247	0.0534157	-0.00375996	0.0178015	-2.20452	0.0166337	-1.53331	0	0	0	0	-0	0	0	0	-0.1265	0	-0	0	0	0	0	0	-0	0	0.105	-0.015	0	0	-0	0	0	-0.098	0.1	0	-0	0	0	0	0	0	-0	0	0.05595	0	0	0	-0	0	0	0	0	0	-0	0	545.99	551.013	324.993	201.628	-0.137244	0.602138	-0.00176198	-0.0114527	-0.632816
8	-0.0144978	-0.0210386	0.00670741	0.00998706	-0.0169603	-0.0417275	0.0211698	0.0288975	-0.000992294	-0.0011157	0.000734285	0.0025943	0.0526283	-0.00381859	0.0186179	-2.20474	0.0162024	-1.53421	0	0	0	0	-0	0	0	0	-0.1265	0	-0	0	0	0	0	0	-0	0	0.105	-0.015	0	0	-0	0	0	-0.098	0.1	0	-0	0	0	0	0	0	-0	0	0.05595	0	0	0	-0	0	0	0	0	0	-0	0	546.081	550.976	325.008	201.628	0.0401745	0.165451	-0.00896982	-0.0135132	-0.785208
9	-0.0143521	-0.0209377	0.00688284	0.0099021	-0.0170835	-0.0417534	0.021158	0.0289006	-0.000975703	-0.00126276	0.000477079	0.00325465	0.0523455	-0.00381694	0.0189333	-2.20483	0.0159986	-1.53455	0	0	0	0	-0	0	0	0	-0.1265	0	-0	0	0	0	0	0	-0	0	0.105	-0.015	0	0	-0	0	0	-0.098	0.1	0	-0	0	0	0	0	0	-0	0	0.05595	0	0	0	-0	0	0	0	0	0	-0	0	546.311	550.885	325.04	201.629	0.0991018	-0.0218753	-0.0104754	-0.0140078	-0.731036
10	-0.0125134	-0.0208875	0.00695513	0.0097064	-0.0171088	-0.0416973	0.0211537	0.0288973	-0.000963224	-0.00152007	0.000375002	0.00270587	0.0521774	-0.0037978	0.0191733	-2.20324	0.0156892	-1.53488	0	0	0	0	-0	0	0	0	-0.1265	0	-0	0	0	0	0	0	-0	0	0.105	-0.015	0	0	-0	0	0	-0.098	0.1	0	-0	0	0	0	0	0	-0	0	0.05595	0	0	0	-0	0	0	0	0	0	-0	0	546.876	550.691	325.115	201.644	0.1147	-0.156618	-0.0093185	-0.013934	-0.45739
11	-0.0105449	-0.0208033	0.00706477	0.00934763	-0.0171124	-0.0415991	0.021149	0.0288893	-0.000942727	-0.000371398	0.00126105	0.00215599	0.0519483	-0.00376315	0.019477	-2.20175	0.0152058	-1.53545	0	0	0	0	-0	0	0	0	-0.1265	0	-0	0	0	0	0	0	-0	0	0.105	-0.015	0	0	-0	0	0	-0.098	0.1	0	-0	0	0	0	0	0	-0	0	0.05595	0	0	0	-0	0	0	0	0	0	-0	0	547.958	550.486	325.247	201.712	0.12927	-0.357489	-0.00690014	-0.0136896	0.0280992
12	-0.00957953	-0.0206968	0.00716801	0.00898359	-0.0171021	-0.0415079	0.0211495	0.0288873	-0.000921269	0.00689027	-0.00393449	0.0207138	0.0517058	-0.00372433	0.019766	-2.20173	0.014647	-1.53619	0	0	0	0	-0	0	0	0	-0.1265	0	-0	0	0	0	0	0	-0	0	0.105	-0.015	0	0	-0	0	0	-0.098	0.1	0	-0	0	0	0	0	0	-0	0	0.05595	0	0	0	-0	0	0	0	0	0	-0	0	549.44	550.885	325.438	201.949	0.13927	-0.525552	-0.00467114	-0.0134079	0.449909
13	-0.00725551	-0.0205894	0.00719858	0.00879159	-0.0170649	-0.041479	0.021158	0.0288969	-0.000913783	0.00101577	-0.0114824	-0.0152498	0.051455	-0.00369387	0.0201168	-2.20132	0.0136955	-1.53726	0	0	0	0	-0	0	0	0	-0.1265	0	-0	0	0	0	0	0	-0	0	0.105	-0.015	0	0	-0	0	0	-0.098	0.1	0	-0	0	0	0	0	0	-0	0	0.05595	0	0	0	-0	0	0	0	0	0	-0	0	551.407	552.853	325.946	202.606	0.127513	-0.480298	-0.00402759	-0.0130413	0.379226
14	-0.0150904	-0.0205525	0.00719773	0.00874692	-0.0170491	-0.0414758	0.0211542	0.0288861	-0.000906912	0.0129926	-0.0309263	-0.0321826	0.0515423	-0.00368414	0.0197933	-2.21002	0.0135864	-1.53783	0	0	0	0	-0	0	0	0	-0.1265	0	-0	0	0	0	0	0	-0	0	0.105	-0.015	0	0	-0	0	0	-0.098	0.1	0	-0	0	0	0	0	0	-0	0	0.05595	0	0	0	-0	0	0	0	0	0	-0	0	552.177	553.8	326.187	202.935	0.119853	-0.426712	-0.0040579	-0.0128971	0.261963
15	-0.0216096	-0.0205316	0.00719099	0.00873124	-0.0170389	-0.0414775	0.0211541	0.0288854	-0.00090047	0.0269571	-0.0499341	-0.0194358	0.0516294	-0.00367857	0.0195063	-2.21718	0.0135445	-1.53821	0	0	0	0	-0	0	0	0	-0.1265	0	-0	0	0	0	0	0	-0	0	0.105	-0.015	0	0	-0	0	0	-0.098	0.1	0	-0	0	0	0	0	0	-0	0	0.05595	0	0	0	-0	0	0	0	0	0	-0	0	552.688	554.464	326.356	203.186	0.113437	-0.378089	-0.00412372	-0.0128063	0.15214
16	-0.0154571	-0.0204937	0.00717705	0.00870918	-0.0170167	-0.0414823	0.0211473	0.0288791	-0.000900592	0.0264099	-0.037667	-0.0113889	0.0514373	-0.00366933	0.0199101	-2.21236	0.012815	-1.53876	0	0	0	0	-0	0	0	0	-0.1265	0	-0	0	0	0	0	0	-0	0	0.105	-0.015	0	0	-0	0	0	-0.098	0.1	0	-0	0	0	0	0	0	-0	0	0.05595	0	0	0	-0	0	0	0	0	0	-0	0	553.644	555.717	326.724	203.738	0.0998368	-0.27327	-0.00421321	-0.0126073	-0.0883935
17	-0.00915391	-0.0204861	0.00717215	0.00870236	-0.0170137	-0.0414824	0.0211454	0.0288783	-0.000899616	0.0176294	-0.0518131	-0.0147628	0.0512913	-0.00366667	0.0202567	-2.20643	0.0124939	-1.53883	0	0	0	0	-0	0	0	0	-0.1265	0	-0	0	0	0	0	0	-0	0	0.105	-0.015	0	0	-0	0	0	-0.098	0.1	0	-0	0	0	0	0	0	-0	0	0.05595	0	0	0	-0	0	0	0	0	0	-0	0	553.891	556.046	326.808	203.896	0.0964881	-0.245336	-0.00424589	-0.0125659	-0.156006
18	-0.0132905	-0.0204739	0.00716662	0.0086961	-0.0170062	-0.0414839	0.0211471	0.028881	-0.000899222	0.0212943	-0.0456264	-0.00161144	0.0513507	-0.0036637	0.0200715	-2.21106	0.0124692	-1.53908	0	0	0	0	-0	0	0	0	-0.1265	0	-0	0	0	0	0	0	-0	0	0.105	-0.015	0	0	-0	0	0	-0.098	0.1	0	-0	0	0	0	0	0	-0	0	0.05595	0	0	0	-0	0	0	0	0	0	-0	0	554.212	556.467	326.92	204.113	0.0916064	-0.206494	-0.00426471	-0.0125077	-0.247472
19	-0.0242399	-0.0204569	0.00715955	0.00868602	-0.0169955	-0.0414849	0.021147	0.028882	-0.000893954	0.0295891	-0.0403401	-0.0160533	0.0515385	-0.0036596	0.0195468	-2.22273	0.0125922	-1.5395	0	0	0	0	-0	0	0	0	-0.1265	0	-0	0	0	0	0	0	-0	0	0.105	-0.015	0	0	-0	0	0	-0.098	0.1	0	-0	0	0	0	0	0	-0	0	0.05595	0	0	0	-0	0	0	0	0	0	-0	0	554.65	557.035	327.079	204.431	0.0850195	-0.153849	-0.00426766	-0.0124242	-0.372787
20	-0.0279769	-0.0204498	0.00715629	0.00868207	-0.0169913	-0.0414848	0.0211466	0.0288801	-0.000895442	0.0324147	-0.0440922	-0.00690516	0.0515966	-0.0036579	0.0193684	-2.22676	0.0126241	-1.53965	0	0	0	0	-0	0	0	0	-0.1265	0	-0	0	0	0	0	0	-0	0	0.105	-0.015	0	0	-0	0	0	-0.098	0.1	0	-0	0	0	0	0	0	-0	0	0.05595	0	0	0	-0	0	0	0	0	0	-0	0	554.819	557.257	327.137	204.563	0.0825995	-0.133557	-0.00427443	-0.0123953	-0.422526
21	-0.0238049	-0.0204479	0.0071548	0.00868067	-0.0169903	-0.041485	0.0211455	0.0288787	-0.000895527	0.0317994	-0.0476029	-0.00772699	0.0515112	-0.00365731	0.0195888	-2.2227	0.0124644	-1.53963	0	0	0	0	-0	0	0	0	-0.1265	0	-0	0	0	0	0	0	-0	0	0.105	-0.015	0	0	-0	0	0	-0.098	0.1	0	-0	0	0	0	0	0	-0	0	0.05595	0	0	0	-0	0	0	0	0	0	-0	0	554.881	557.339	327.158	204.613	0.0816242	-0.125487	-0.00427537	-0.0123852	-0.4421
22	-0.0247818	-0.0204391	0.00715022	0.00867563	-0.0169845	-0.0414854	0.0211481	0.0288879	-0.000896401	0.00962628	-0.0429109	-0.0141754	0.051513	-0.00365506	0.019559	-2.22412	0.0123742	-1.53979	0	0	0	0	-0	0	0	0	-0.1265	0	-0	0	0	0	0	0	-0	0	0.105	-0.015	0	0	-0	0	0	-0.098	0.1	0	-0	0	0	0	0	0	-0	0	0.05595	0	0	0	-0	0	0	0	0	0	-0	0	555.125	557.656	327.245	204.814	0.0778946	-0.0952219	-0.00426986	-0.0123409	-0.515025
23	-0.0110513	-0.020426	0.00714508	0.00866676	-0.016976	-0.0414851	0.021151	0.028881	-0.000892549	0.0152522	-0.0609356	-0.00796758	0.0512208	-0.00365195	0.0202949	-2.21103	0.0117781	-1.53985	0	0	0	0	-0	0	0	0	-0.1265	0	-0	0	0	0	0	0	-0	0	0.105	-0.015	0	0	-0	0	0	-0.098	0.1	0	-0	0	0	0	0	0	-0	0	0.05595	0	0	0	-0	0	0	0	0	0	-0	0	555.461	558.091	327.369	205.108	0.07284	-0.0537719	-0.00424689	-0.0122755	-0.616544
24	-0.00835085	-0.0204197	0.00714061	0.00866436	-0.016972	-0.0414848	0.0211476	0.0288795	-0.000893474	0.0175466	-0.0724348	-0.00855408	0.0511496	-0.00365037	0.0204444	-2.20865	0.0116197	-1.53992	0	0	0	0	-0	0	0	0	-0.1265	0	-0	0	0	0	0	0	-0	0	0.105	-0.015	0	0	-0	0	0	-0.098	0.1	0	-0	0	0	0	0	0	-0	0	0.05595	0	0	0	-0	0	0	0	0	0	-0	0	555.622	558.298	327.425	205.255	0.07034	-0.0326676	-0.00423765	-0.0122499	-0.668822
25	0.00431632	-0.0204124	0.00713585	0.00865852	-0.0169671	-0.0414844	0.0211456	0.0288797	-0.000892326	0.00909649	-0.0801264	-0.0062528	0.0508751	-0.00364828	0.0211103	-2.19645	0.0111208	-1.53992	0	0	0	0	-0	0	0	0	-0.1265	0	-0	0	0	0	0	0	-0	0	0.105	-0.015	0	0	-0	0	0	-0.098	0.1	0	-0	0	0	0	0	0	-0	0	0.05595	0	0	0	-0	0	0	0	0	0	-0	0	555.849	558.592	327.506	205.471	0.0666784	-0.00224088	-0.00421683	-0.0122094	-0.743819
26	0.0129238	-0.020407	0.00713263	0.00865448	-0.0169635	-0.0414837	0.0211481	0.0288812	-0.000892739	0.00406642	-0.0714714	0.00249095	0.0506778	-0.00364677	0.0215594	-2.18819	0.0107828	-1.53993	0	0	0	0	-0	0	0	0	-0.1265	0	-0	0	0	0	0	0	-0	0	0.105	-0.015	0	0	-0	0	0	-0.098	0.1	0	-0	0	0	0	0	0	-0	0	0.05595	0	0	0	-0	0	0	0	0	0	-0	0	556.011	558.797	327.562	205.632	0.0640864	0.0195065	-0.00419181	-0.0121813	-0.798251
27	0.0162953	-0.0203953	0.00712602	0.00864567	-0.0169553	-0.0414821	0.0211394	0.0288912	-0.000891131	-0.0334236	-0.0927389	0.00714819	0.0505807	-0.00364377	0.0217546	-2.18554	0.0105251	-1.54011	0	0	0	0	-0	0	0	0	-0.1265	0	-0	0	0	0	0	0	-0	0	0.105	-0.015	0	0	-0	0	0	-0.098	0.1	0	-0	0	0	0	0	0	-0	0	0.05595	0	0	0	-0	0	0	0	0	0	-0	0	556.334	559.21	327.684	205.977	0.0590233	0.0619335	-0.00413506	-0.0121204	-0.904566
28	0.00887093	-0.0203909	0.00712424	0.00863903	-0.0169524	-0.0414806	0.0211465	0.0288805	-0.000891485	-0.0399877	-0.0997889	0.000175999	0.0507311	-0.00364233	0.021391	-2.19332	0.0106862	-1.54029	0	0	0	0	-0	0	0	0	-0.1265	0	-0	0	0	0	0	0	-0	0	0.105	-0.015	0	0	-0	0	0	-0.098	0.1	0	-0	0	0	0	0	0	-0	0	0.05595	0	0	0	-0	0	0	0	0	0	-0	0	556.487	559.403	327.738	206.149	0.056567	0.0833319	-0.00410012	-0.0120915	-0.960139
29	0.0173592	-0.0203829	0.00711772	0.0086353	-0.0169466	-0.0414795	0.021146	0.0288827	-0.000888579	-0.0546141	-0.103657	0.00778564	0.0505341	-0.00364034	0.0218372	-2.18535	0.0103323	-1.54034	0	0	0	0	-0	0	0	0	-0.1265	0	-0	0	0	0	0	0	-0	0	0.105	-0.015	0	0	-0	0	0	-0.098	0.1	0	-0	0	0	0	0	0	-0	0	0.05595	0	0	0	-0	0	0	0	0	0	-0	0	556.701	559.674	327.813	206.399	0.0530515	0.113147	-0.00405101	-0.0120581	-1.03541
30	0.00629555	-0.0203796	0.00711582	0.00863293	-0.0169443	-0.0414788	0.0211463	0.0288799	-0.000889479	-0.0509988	-0.102949	0.00827658	0.050768	-0.00363955	0.0212836	-2.19662	0.0106346	-1.54051	0	0	0	0	-0	0	0	0	-0.1265	0	-0	0	0	0	0	0	-0	0	0.105	-0.015	0	0	-0	0	0	-0.098	0.1	0	-0	0	0	0	0	0	-0	0	0.05595	0	0	0	-0	0	0	0	0	0	-0	0	556.786	559.781	327.841	206.501	0.0516362	0.125754	-0.00403098	-0.0120449	-1.0684
31	0.0147845	-0.0203743	0.00711163	0.00862929	-0.0169403	-0.0414775	0.0211478	0.0288819	-0.000889094	-0.0447616	-0.106522	0.0167791	0.0505738	-0.0036381	0.0217254	-2.18855	0.0103091	-1.54052	0	0	0	0	-0	0	0	0	-0.1265	0	-0	0	0	0	0	0	-0	0	0.105	-0.015	0	0	-0	0	0	-0.098	0.1	0	-0	0	0	0	0	0	-0	0	0.05595	0	0	0	-0	0	0	0	0	0	-0	0	556.95	559.988	327.896	206.705	0.0488694	0.149527	-0.00398599	-0.0120195	-1.12925
32	0.0119802	-0.020371	0.00710985	0.00862686	-0.0169379	-0.0414768	0.0211472	0.0288809	-0.000889045	-0.0457702	-0.109133	0.00864762	0.0506275	-0.00363736	0.0215886	-2.19155	0.0103637	-1.5406	0	0	0	0	-0	0	0	0	-0.1265	0	-0	0	0	0	0	0	-0	0	0.105	-0.015	0	0	-0	0	0	-0.098	0.1	0	-0	0	0	0	0	0	-0	0	0.05595	0	0	0	-0	0	0	0	0	0	-0	0	557.03	560.086	327.921	206.806	0.0475247	0.161341	-0.00395908	-0.0120074	-1.16024
33	0.00615886	-0.0203673	0.0071071	0.00862358	-0.0169351	-0.0414757	0.0211469	0.028881	-0.000888188	-0.0533496	-0.106626	0.0115038	0.0507457	-0.00363633	0.0213021	-2.19767	0.0104952	-1.54073	0	0	0	0	-0	0	0	0	-0.1265	0	-0	0	0	0	0	0	-0	0	0.105	-0.015	0	0	-0	0	0	-0.098	0.1	0	-0	0	0	0	0	0	-0	0	0.05595	0	0	0	-0	0	0	0	0	0	-0	0	557.143	560.227	327.957	206.955	0.0456556	0.17757	-0.00392306	-0.011991	-1.2023
34	0.00773716	-0.0203656	0.00710594	0.00862239	-0.016934	-0.0414752	0.0211467	0.0288803	-0.000887737	-0.0502674	-0.10346	0.00657226	0.0507082	-0.00363591	0.0213853	-2.19622	0.0104309	-1.54074	0	0	0	0	-0	0	0	0	-0.1265	0	-0	0	0	0	0	0	-0	0	0.105	-0.015	0	0	-0	0	0	-0.098	0.1	0	-0	0	0	0	0	0	-0	0	0.05595	0	0	0	-0	0	0	0	0	0	-0	0	557.188	560.284	327.97	207.016	0.044899	0.184428	-0.00390891	-0.0119848	-1.22053
35	0.00689252	-0.0203636	0.00710428	0.00862083	-0.0169323	-0.0414746	0.0211475	0.0288807	-0.000887205	-0.0510252	-0.109642	0.0139516	0.0507227	-0.00363538	0.0213465	-2.19723	0.0104344	-1.54079	0	0	0	0	-0	0	0	0	-0.1265	0	-0	0	0	0	0	0	-0	0	0.105	-0.015	0	0	-0	0	0	-0.098	0.1	0	-0	0	0	0	0	0	-0	0	0.05595	0	0	0	-0	0	0	0	0	0	-0	0	557.249	560.359	327.989	207.098	0.0437854	0.194051	-0.00388606	-0.0119768	-1.2454
36	0.0088138	-0.0203613	0.00710278	0.00861927	-0.0169304	-0.0414739	0.0211469	0.028881	-0.000887595	-0.0581369	-0.107765	0.0172404	0.0506779	-0.00363486	0.0214482	-2.19548	0.0103552	-1.5408	0	0	0	0	-0	0	0	0	-0.1265	0	-0	0	0	0	0	0	-0	0	0.105	-0.015	0	0	-0	0	0	-0.098	0.1	0	-0	0	0	0	0	0	-0	0	0.05595	0	0	0	-0	0	0	0	0	0	-0	0	557.31	560.434	328.007	207.182	0.0427096	0.20347	-0.0038622	-0.0119688	-1.27005
37	0.011891	-0.0203584	0.00710076	0.00861671	-0.0169281	-0.0414729	0.0211474	0.0288804	-0.000887108	-0.0594488	-0.100796	0.0137787	0.0506063	-0.00363409	0.0216103	-2.19265	0.0102322	-1.54082	0	0	0	0	-0	0	0	0	-0.1265	0	-0	0	0	0	0	0	-0	0	0.105	-0.015	0	0	-0	0	0	-0.098	0.1	0	-0	0	0	0	0	0	-0	0	0.05595	0	0	0	-0	0	0	0	0	0	-0	0	557.397	560.541	328.032	207.305	0.0411899	0.216772	-0.0038268	-0.0119571	-1.30493
38	0.0105224	-0.020354	0.00709766	0.00861323	-0.0169248	-0.0414713	0.0211466	0.0288809	-0.000887524	-0.0514636	-0.0969042	0.0167404	0.0506279	-0.00363297	0.0215497	-2.19437	0.0102298	-1.54091	0	0	0	0	-0	0	0	0	-0.1265	0	-0	0	0	0	0	0	-0	0	0.105	-0.015	0	0	-0	0	0	-0.098	0.1	0	-0	0	0	0	0	0	-0	0	0.05595	0	0	0	-0	0	0	0	0	0	-0	0	557.519	560.693	328.069	207.484	0.0392044	0.234326	-0.00377749	-0.0119411	-1.35131
39	0.0116977	-0.0203526	0.00709648	0.00861156	-0.0169237	-0.0414705	0.0211475	0.0288807	-0.00088652	-0.0538531	-0.091323	0.0121167	0.0505994	-0.00363254	0.0216127	-2.19334	0.0101791	-1.54093	0	0	0	0	-0	0	0	0	-0.1265	0	-0	0	0	0	0	0	-0	0	0.105	-0.015	0	0	-0	0	0	-0.098	0.1	0	-0	0	0	0	0	0	-0	0	0.05595	0	0	0	-0	0	0	0	0	0	-0	0	557.568	560.751	328.083	207.557	0.0383594	0.242029	-0.00375513	-0.011935	-1.37213
40	0.0127468	-0.0203506	0.00709514	0.0086104	-0.0169221	-0.0414699	0.0211472	0.0288809	-0.000886465	-0.0548804	-0.092088	0.0188523	0.0505738	-0.00363212	0.0216689	-2.19244	0.0101329	-1.54094	0	0	0	0	-0	0	0	0	-0.1265	0	-0	0	0	0	0	0	-0	0	0.105	-0.015	0	0	-0	0	0	-0.098	0.1	0	-0	0	0	0	0	0	-0	0	0.05595	0	0	0	-0	0	0	0	0	0	-0	0	557.616	560.81	328.095	207.629	0.0374918	0.249732	-0.003733	-0.0119298	-1.39253
41	0.0145515	-0.0203483	0.00709345	0.00860833	-0.0169201	-0.0414689	0.0211471	0.0288811	-0.000886605	-0.0609643	-0.0911579	0.0151407	0.0505307	-0.00363154	0.0217647	-2.19084	0.0100582	-1.54096	0	0	0	0	-0	0	0	0	-0.1265	0	-0	0	0	0	0	0	-0	0	0.105	-0.015	0	0	-0	0	0	-0.098	0.1	0	-0	0	0	0	0	0	-0	0	0.05595	0	0	0	-0	0	0	0	0	0	-0	0	557.685	560.893	328.114	207.735	0.0362215	0.26096	-0.00369802	-0.011922	-1.42229
42	0.0141323	-0.0203473	0.0070927	0.00860755	-0.0169194	-0.0414685	0.0211473	0.0288806	-0.000886254	-0.064008	-0.086204	0.0147953	0.050538	-0.0036313	0.0217454	-2.19135	0.0100629	-1.54098	0	0	0	0	-0	0	0	0	-0.1265	0	-0	0	0	0	0	0	-0	0	0.105	-0.015	0	0	-0	0	0	-0.098	0.1	0	-0	0	0	0	0	0	-0	0	0.05595	0	0	0	-0	0	0	0	0	0	-0	0	557.713	560.926	328.121	207.778	0.0357189	0.265499	-0.00368349	-0.011919	-1.43455
43	0.0071752	-0.0203447	0.00709075	0.00860557	-0.0169172	-0.0414674	0.0211481	0.0288816	-0.000886593	-0.0652485	-0.0809293	0.0239321	0.0506849	-0.00363067	0.0213987	-2.19853	0.0102488	-1.54109	0	0	0	0	-0	0	0	0	-0.1265	0	-0	0	0	0	0	0	-0	0	0.105	-0.015	0	0	-0	0	0	-0.098	0.1	0	-0	0	0	0	0	0	-0	0	0.05595	0	0	0	-0	0	0	0	0	0	-0	0	557.786	561.015	328.139	207.894	0.0344369	0.276905	-0.003648	-0.0119117	-1.46486
44	0.0124514	-0.0203408	0.00708828	0.00860239	-0.0169141	-0.0414657	0.0211469	0.028881	-0.000885566	-0.0585439	-0.0812242	0.0219589	0.0505644	-0.00362975	0.0216729	-2.19359	0.0100621	-1.5411	0	0	0	0	-0	0	0	0	-0.1265	0	-0	0	0	0	0	0	-0	0	0.105	-0.015	0	0	-0	0	0	-0.098	0.1	0	-0	0	0	0	0	0	-0	0	0.05595	0	0	0	-0	0	0	0	0	0	-0	0	557.891	561.142	328.166	208.062	0.0326808	0.292596	-0.00359329	-0.0119008	-1.50704
45	0.0130828	-0.0203401	0.00708748	0.00860168	-0.0169136	-0.0414652	0.0211473	0.0288805	-0.000885969	-0.0566945	-0.0754121	0.0258121	0.0505487	-0.00362953	0.021706	-2.19303	0.010038	-1.5411	0	0	0	0	-0	0	0	0	-0.1265	0	-0	0	0	0	0	0	-0	0	0.105	-0.015	0	0	-0	0	0	-0.098	0.1	0	-0	0	0	0	0	0	-0	0	0.05595	0	0	0	-0	0	0	0	0	0	-0	0	557.913	561.169	328.171	208.099	0.0322628	0.2966	-0.00358201	-0.0118989	-1.51813
46	0.0149429	-0.0203386	0.00708612	0.00860072	-0.0169122	-0.0414646	0.0211471	0.0288806	-0.000885506	-0.056079	-0.0742471	0.0299986	0.0505058	-0.00362918	0.0218028	-2.19132	0.00997194	-1.54111	0	0	0	0	-0	0	0	0	-0.1265	0	-0	0	0	0	0	0	-0	0	0.105	-0.015	0	0	-0	0	0	-0.098	0.1	0	-0	0	0	0	0	0	-0	0	0.05595	0	0	0	-0	0	0	0	0	0	-0	0	557.958	561.224	328.181	208.174	0.0314153	0.304222	-0.00355857	-0.0118955	-1.53848
47	0.0198338	-0.0203375	0.00708534	0.00859996	-0.0169114	-0.0414642	0.021147	0.0288806	-0.000885395	-0.0577156	-0.0751017	0.0271555	0.0503974	-0.00362894	0.0220516	-2.18652	0.00982036	-1.54107	0	0	0	0	-0	0	0	0	-0.1265	0	-0	0	0	0	0	0	-0	0	0.105	-0.015	0	0	-0	0	0	-0.098	0.1	0	-0	0	0	0	0	0	-0	0	0.05595	0	0	0	-0	0	0	0	0	0	-0	0	557.986	561.258	328.186	208.22	0.03092	0.30877	-0.00354383	-0.0118933	-1.55084
48	0.0204373	-0.0203354	0.00708385	0.0085981	-0.0169095	-0.0414631	0.0211475	0.0288809	-0.000885029	-0.0610026	-0.0710103	0.0239388	0.05038	-0.00362843	0.0220855	-2.18611	0.0097892	-1.5411	0	0	0	0	-0	0	0	0	-0.1265	0	-0	0	0	0	0	0	-0	0	0.105	-0.015	0	0	-0	0	0	-0.098	0.1	0	-0	0	0	0	0	0	-0	0	0.05595	0	0	0	-0	0	0	0	0	0	-0	0	558.046	561.329	328.199	208.322	0.0298179	0.318568	-0.00350658	-0.0118888	-1.57716
49	0.0223451	-0.020334	0.0070829	0.00859719	-0.0169083	-0.0414625	0.0211483	0.0288812	-0.000885051	-0.0564202	-0.0793123	0.0229388	0.050336	-0.00362816	0.0221837	-2.18432	0.00972589	-1.54109	0	0	0	0	-0	0	0	0	-0.1265	0	-0	0	0	0	0	0	-0	0	0.105	-0.015	0	0	-0	0	0	-0.098	0.1	0	-0	0	0	0	0	0	-0	0	0.05595	0	0	0	-0	0	0	0	0	0	-0	0	558.079	561.368	328.206	208.379	0.0291691	0.324544	-0.00348612	-0.0118866	-1.59346
50	0.0257018	-0.0203313	0.00708098	0.00859533	-0.0169059	-0.0414612	0.0211492	0.0288812	-0.000885904	-0.0559757	-0.091446	0.0162966	0.0502575	-0.0036276	0.0223569	-2.18121	0.00961207	-1.5411	0	0	0	0	-0	0	0	0	-0.1265	0	-0	0	0	0	0	0	-0	0	0.105	-0.015	0	0	-0	0	0	-0.098	0.1	0	-0	0	0	0	0	0	-0	0	0.05595	0	0	0	-0	0	0	0	0	0	-0	0	558.15	561.452	328.22	208.505	0.0278492	0.336458	-0.00344149	-0.011882	-1.62567
51	0.0266884	-0.02033	0.00707999	0.00859435	-0.0169048	-0.0414605	0.0211474	0.0288823	-0.000884887	-0.0459924	-0.0934951	0.018349	0.0502331	-0.0036273	0.0224086	-2.18034	0.00957705	-1.5411	0	0	0	0	-0	0	0	0	-0.1265	0	-0	0	0	0	0	0	-0	0	0.105	-0.015	0	0	-0	0	0	-0.098	0.1	0	-0	0	0	0	0	0	-0	0	0.05595	0	0	0	-0	0	0	0	0	0	-0	0	558.186	561.493	328.226	208.568	0.0271935	0.342461	-0.00341704	-0.01188	-1.64217
52	0.0276555	-0.0203272	0.00707811	0.0085914	-0.0169022	-0.0414588	0.0211474	0.028881	-0.000884118	-0.0437427	-0.0930025	0.0126346	0.050207	-0.00362664	0.0224619	-2.17966	0.00953539	-1.54113	0	0	0	0	-0	0	0	0	-0.1265	0	-0	0	0	0	0	0	-0	0	0.105	-0.015	0	0	-0	0	0	-0.098	0.1	0	-0	0	0	0	0	0	-0	0	0.05595	0	0	0	-0	0	0	0	0	0	-0	0	558.266	561.587	328.24	208.715	0.0256911	0.355983	-0.00336077	-0.0118758	-1.67891
53	0.0286034	-0.0203263	0.00707724	0.00859111	-0.0169016	-0.0414584	0.0211476	0.0288813	-0.000884441	-0.0454646	-0.0939562	0.00593475	0.0501844	-0.00362646	0.0225108	-2.17878	0.00950464	-1.54113	0	0	0	0	-0	0	0	0	-0.1265	0	-0	0	0	0	0	0	-0	0	0.105	-0.015	0	0	-0	0	0	-0.098	0.1	0	-0	0	0	0	0	0	-0	0	0.05595	0	0	0	-0	0	0	0	0	0	-0	0	558.286	561.611	328.242	208.752	0.0253475	0.359428	-0.00334976	-0.0118755	-1.6887
54	0.0223719	-0.0203249	0.00707607	0.00859028	-0.0169002	-0.0414577	0.0211476	0.0288813	-0.000884171	-0.0440074	-0.0943196	0.0126447	0.0503227	-0.00362617	0.0222003	-2.18516	0.00968477	-1.54121	0	0	0	0	-0	0	0	0	-0.1265	0	-0	0	0	0	0	0	-0	0	0.105	-0.015	0	0	-0	0	0	-0.098	0.1	0	-0	0	0	0	0	0	-0	0	0.05595	0	0	0	-0	0	0	0	0	0	-0	0	558.327	561.659	328.248	208.829	0.024508	0.367097	-0.00332155	-0.0118745	-1.70952
55	0.0222646	-0.0203241	0.00707547	0.00858991	-0.0168996	-0.0414572	0.0211475	0.0288806	-0.000884222	-0.0449216	-0.101073	0.0111759	0.050323	-0.00362602	0.0221957	-2.18534	0.00968596	-1.54121	0	0	0	0	-0	0	0	0	-0.1265	0	-0	0	0	0	0	0	-0	0	0.105	-0.015	0	0	-0	0	0	-0.098	0.1	0	-0	0	0	0	0	0	-0	0	0.05595	0	0	0	-0	0	0	0	0	0	-0	0	558.347	561.682	328.25	208.867	0.0241368	0.370598	-0.00330727	-0.0118741	-1.71929
56	0.02114	-0.0203234	0.00707478	0.00858939	-0.0168989	-0.0414569	0.0211474	0.0288807	-0.000884101	-0.0444993	-0.105478	0.00903479	0.0503469	-0.00362586	0.0221402	-2.18654	0.00971742	-1.54123	0	0	0	0	-0	0	0	0	-0.1265	0	-0	0	0	0	0	0	-0	0	0.105	-0.015	0	0	-0	0	0	-0.098	0.1	0	-0	0	0	0	0	0	-0	0	0.05595	0	0	0	-0	0	0	0	0	0	-0	0	558.367	561.706	328.253	208.905	0.0237321	0.374307	-0.00329365	-0.011874	-1.72936
57	0.0168359	-0.0203217	0.00707374	0.00858785	-0.0168974	-0.0414559	0.0211472	0.0288811	-0.000884011	-0.0393764	-0.104879	0.0116684	0.0504398	-0.0036255	0.021926	-2.191	0.00984092	-1.54129	0	0	0	0	-0	0	0	0	-0.1265	0	-0	0	0	0	0	0	-0	0	0.105	-0.015	0	0	-0	0	0	-0.098	0.1	0	-0	0	0	0	0	0	-0	0	0.05595	0	0	0	-0	0	0	0	0	0	-0	0	558.41	561.755	328.257	208.988	0.0229445	0.381424	-0.00325958	-0.0118735	-1.74888
58	0.0204423	-0.0203209	0.00707315	0.00858728	-0.0168967	-0.0414554	0.0211471	0.0288807	-0.00088366	-0.0418744	-0.107785	0.0129342	0.0503592	-0.00362534	0.022109	-2.18747	0.00973321	-1.54126	0	0	0	0	-0	0	0	0	-0.1265	0	-0	0	0	0	0	0	-0	0	0.105	-0.015	0	0	-0	0	0	-0.098	0.1	0	-0	0	0	0	0	0	-0	0	0.05595	0	0	0	-0	0	0	0	0	0	-0	0	558.431	561.779	328.259	209.029	0.0225049	0.385518	-0.00324283	-0.0118733	-1.76024
59	0.0205516	-0.02032	0.00707252	0.00858682	-0.0168959	-0.041455	0.0211476	0.028881	-0.00088368	-0.0386734	-0.112814	0.0123473	0.0503554	-0.00362519	0.0221155	-2.18744	0.00972898	-1.54127	0	0	0	0	-0	0	0	0	-0.1265	0	-0	0	0	0	0	0	-0	0	0.105	-0.015	0	0	-0	0	0	-0.098	0.1	0	-0	0	0	0	0	0	-0	0	0.05595	0	0	0	-0	0	0	0	0	0	-0	0	558.452	561.803	328.261	209.068	0.022102	0.38925	-0.00322846	-0.0118736	-1.77047
60	0.0208369	-0.0203193	0.00707209	0.00858651	-0.0168953	-0.0414547	0.0211473	0.0288809	-0.000883804	-0.0410919	-0.114532	0.00887075	0.0503483	-0.00362507	0.0221307	-2.18721	0.00972	-1.54127	0	0	0	0	-0	0	0	0	-0.1265	0	-0	0	0	0	0	0	-0	0	0.105	-0.015	0	0	-0	0	0	-0.098	0.1	0	-0	0	0	0	0	0	-0	0	0.05595	0	0	0	-0	0	0	0	0	0	-0	0	558.466	561.82	328.262	209.096	0.0218229	0.391861	-0.00321761	-0.0118737	-1.77772
61	0.0240686	-0.0203182	0.00707113	0.00858581	-0.0168942	-0.0414541	0.021148	0.0288815	-0.00088356	-0.0468866	-0.108761	0.0101922	0.0502752	-0.00362485	0.0222951	-2.1841	0.00962351	-1.54125	0	0	0	0	-0	0	0	0	-0.1265	0	-0	0	0	0	0	0	-0	0	0.105	-0.015	0	0	-0	0	0	-0.098	0.1	0	-0	0	0	0	0	0	-0	0	0.05595	0	0	0	-0	0	0	0	0	0	-0	0	558.498	561.857	328.264	209.16	0.021188	0.39771	-0.00319468	-0.0118743	-1.7937
62	0.0201413	-0.0203174	0.00707074	0.00858547	-0.0168935	-0.0414537	0.0211472	0.0288807	-0.000883374	-0.0481182	-0.110603	0.0125099	0.0503616	-0.00362473	0.0220985	-2.18809	0.00973921	-1.54129	0	0	0	0	-0	0	0	0	-0.1265	0	-0	0	0	0	0	0	-0	0	0.105	-0.015	0	0	-0	0	0	-0.098	0.1	0	-0	0	0	0	0	0	-0	0	0.05595	0	0	0	-0	0	0	0	0	0	-0	0	558.514	561.875	328.265	209.191	0.0208723	0.400695	-0.00318096	-0.0118745	-1.80211
63	0.0172725	-0.0203161	0.00706969	0.0085844	-0.0168923	-0.0414529	0.0211471	0.0288809	-0.00088304	-0.0414817	-0.103308	0.00989381	0.0504229	-0.00362445	0.0219558	-2.19109	0.00982348	-1.54133	0	0	0	0	-0	0	0	0	-0.1265	0	-0	0	0	0	0	0	-0	0	0.105	-0.015	0	0	-0	0	0	-0.098	0.1	0	-0	0	0	0	0	0	-0	0	0.05595	0	0	0	-0	0	0	0	0	0	-0	0	558.55	561.916	328.267	209.263	0.0201591	0.407174	-0.00315171	-0.0118756	-1.81982
64	0.0147995	-0.0203153	0.0070691	0.00858412	-0.0168916	-0.0414525	0.0211474	0.028881	-0.000883187	-0.0417375	-0.101655	0.00559481	0.0504761	-0.00362433	0.0218319	-2.19363	0.00989656	-1.54136	0	0	0	0	-0	0	0	0	-0.1265	0	-0	0	0	0	0	0	-0	0	0.105	-0.015	0	0	-0	0	0	-0.098	0.1	0	-0	0	0	0	0	0	-0	0	0.05595	0	0	0	-0	0	0	0	0	0	-0	0	558.568	561.937	328.268	209.3	0.0197909	0.410742	-0.0031385	-0.0118763	-1.82983
65	0.0147671	-0.0203148	0.00706871	0.00858381	-0.016891	-0.0414522	0.0211473	0.028881	-0.000883279	-0.038259	-0.102871	0.00731682	0.050476	-0.00362423	0.021831	-2.19372	0.00989784	-1.54137	0	0	0	0	-0	0	0	0	-0.1265	0	-0	0	0	0	0	0	-0	0	0.105	-0.015	0	0	-0	0	0	-0.098	0.1	0	-0	0	0	0	0	0	-0	0	0.05595	0	0	0	-0	0	0	0	0	0	-0	0	558.581	561.952	328.268	209.328	0.0195254	0.413224	-0.00312719	-0.0118768	-1.83675
66	0.00821377	-0.0203136	0.00706792	0.00858277	-0.0168898	-0.0414515	0.0211476	0.0288818	-0.00088292	-0.031364	-0.104594	0.00199269	0.0506177	-0.00362401	0.0215017	-2.20039	0.0100915	-1.54144	0	0	0	0	-0	0	0	0	-0.1265	0	-0	0	0	0	0	0	-0	0	0.105	-0.015	0	0	-0	0	0	-0.098	0.1	0	-0	0	0	0	0	0	-0	0	0.05595	0	0	0	-0	0	0	0	0	0	-0	0	558.612	561.985	328.269	209.389	0.0188673	0.419059	-0.00309889	-0.011878	-1.85258
67	0.00999375	-0.0203128	0.00706753	0.00858271	-0.0168892	-0.0414512	0.0211476	0.0288811	-0.000883104	-0.035252	-0.101321	0.00419004	0.0505776	-0.00362392	0.0215921	-2.19866	0.01004	-1.54143	0	0	0	0	-0	0	0	0	-0.1265	0	-0	0	0	0	0	0	-0	0	0.105	-0.015	0	0	-0	0	0	-0.098	0.1	0	-0	0	0	0	0	0	-0	0	0.05595	0	0	0	-0	0	0	0	0	0	-0	0	558.626	562.002	328.269	209.419	0.0186108	0.421635	-0.00308839	-0.0118787	-1.85999
68	0.0120598	-0.0203115	0.00706662	0.00858165	-0.016888	-0.0414504	0.0211473	0.028881	-0.000882697	-0.0391338	-0.104691	0.0077023	0.0505312	-0.00362366	0.0216985	-2.19673	0.00998096	-1.54141	0	0	0	0	-0	0	0	0	-0.1265	0	-0	0	0	0	0	0	-0	0	0.105	-0.015	0	0	-0	0	0	-0.098	0.1	0	-0	0	0	0	0	0	-0	0	0.05595	0	0	0	-0	0	0	0	0	0	-0	0	558.658	562.039	328.269	209.486	0.0179899	0.42737	-0.00306081	-0.0118808	-1.87587
69	0.0148699	-0.0203108	0.00706614	0.00858115	-0.0168874	-0.04145	0.0211474	0.0288809	-0.000882982	-0.0382221	-0.107478	0.00516256	0.0504693	-0.00362354	0.0218412	-2.19398	0.0098997	-1.54139	0	0	0	0	-0	0	0	0	-0.1265	0	-0	0	0	0	0	0	-0	0	0.105	-0.015	0	0	-0	0	0	-0.098	0.1	0	-0	0	0	0	0	0	-0	0	0.05595	0	0	0	-0	0	0	0	0	0	-0	0	558.674	562.056	328.269	209.52	0.0176546	0.430473	-0.00304591	-0.0118818	-1.8845
70	0.0170177	-0.0203103	0.0070658	0.00858091	-0.0168869	-0.0414497	0.0211477	0.0288809	-0.000882714	-0.0393246	-0.10215	0.00269183	0.0504217	-0.00362346	0.0219501	-2.19188	0.00983772	-1.54137	0	0	0	0	-0	0	0	0	-0.1265	0	-0	0	0	0	0	0	-0	0	0.105	-0.015	0	0	-0	0	0	-0.098	0.1	0	-0	0	0	0	0	0	-0	0	0.05595	0	0	0	-0	0	0	0	0	0	-0	0	558.686	562.069	328.268	209.544	0.0174054	0.432808	-0.00303545	-0.0118827	-1.891
71	0.0170401	-0.0203098	0.00706553	0.00858074	-0.0168865	-0.0414495	0.0211475	0.0288811	-0.000882914	-0.0391826	-0.103391	-0.00171788	0.0504206	-0.00362339	0.0219517	-2.19189	0.00983792	-1.54137	0	0	0	0	-0	0	0	0	-0.1265	0	-0	0	0	0	0	0	-0	0	0.105	-0.015	0	0	-0	0	0	-0.098	0.1	0	-0	0	0	0	0	0	-0	0	0.05595	0	0	0	-0	0	0	0	0	0	-0	0	558.695	562.079	328.268	209.563	0.0172288	0.434479	-0.00302782	-0.0118834	-1.89568
72	0.0159699	-0.0203091	0.00706503	0.00858011	-0.0168857	-0.041449	0.0211476	0.0288808	-0.000882705	-0.0382503	-0.0976533	-0.00269046	0.0504432	-0.00362326	0.0218987	-2.19304	0.00987169	-1.54139	0	0	0	0	-0	0	0	0	-0.1265	0	-0	0	0	0	0	0	-0	0	0.105	-0.015	0	0	-0	0	0	-0.098	0.1	0	-0	0	0	0	0	0	-0	0	0.05595	0	0	0	-0	0	0	0	0	0	-0	0	558.715	562.101	328.267	209.604	0.0168134	0.438218	-0.00300948	-0.0118849	-1.90591
73	0.0129209	-0.0203086	0.0070647	0.00857998	-0.0168853	-0.0414488	0.0211473	0.0288809	-0.000882743	-0.0366532	-0.0987588	-0.0041998	0.0505095	-0.00362319	0.0217454	-2.19613	0.00996245	-1.54142	0	0	0	0	-0	0	0	0	-0.1265	0	-0	0	0	0	0	0	-0	0	0.105	-0.015	0	0	-0	0	0	-0.098	0.1	0	-0	0	0	0	0	0	-0	0	0.05595	0	0	0	-0	0	0	0	0	0	-0	0	558.724	562.112	328.267	209.624	0.0166387	0.439954	-0.00300191	-0.011886	-1.91087
74	0.0142655	-0.0203077	0.00706409	0.00857948	-0.0168844	-0.0414483	0.0211474	0.0288809	-0.000882669	-0.0353389	-0.100287	-0.00300602	0.050479	-0.00362304	0.0218143	-2.19487	0.00992584	-1.54141	0	0	0	0	-0	0	0	0	-0.1265	0	-0	0	0	0	0	0	-0	0	0.105	-0.015	0	0	-0	0	0	-0.098	0.1	0	-0	0	0	0	0	0	-0	0	0.05595	0	0	0	-0	0	0	0	0	0	-0	0	558.746	562.136	328.265	209.67	0.0161411	0.444453	-0.00298128	-0.011888	-1.92315
75	0.0131793	-0.0203072	0.00706376	0.00857935	-0.016884	-0.0414481	0.0211474	0.028881	-0.000882609	-0.0338747	-0.100585	-0.00663014	0.0505022	-0.00362297	0.02176	-2.196	0.00995935	-1.54142	0	0	0	0	-0	0	0	0	-0.1265	0	-0	0	0	0	0	0	-0	0	0.105	-0.015	0	0	-0	0	0	-0.098	0.1	0	-0	0	0	0	0	0	-0	0	0.05595	0	0	0	-0	0	0	0	0	0	-0	0	558.757	562.147	328.265	209.692	0.0159446	0.446427	-0.00297324	-0.011889	-1.92882
76	0.0121253	-0.0203069	0.00706351	0.00857926	-0.0168837	-0.041448	0.0211475	0.0288811	-0.00088263	-0.0358984	-0.0992039	-0.0102989	0.0505247	-0.00362293	0.0217071	-2.19708	0.00999155	-1.54143	0	0	0	0	-0	0	0	0	-0.1265	0	-0	0	0	0	0	0	-0	0	0.105	-0.015	0	0	-0	0	0	-0.098	0.1	0	-0	0	0	0	0	0	-0	0	0.05595	0	0	0	-0	0	0	0	0	0	-0	0	558.764	562.157	328.264	209.709	0.0157868	0.447961	-0.00296728	-0.0118899	-1.93313
77	0.00847352	-0.0203061	0.00706299	0.00857897	-0.0168829	-0.0414476	0.0211475	0.028881	-0.000882576	-0.0383287	-0.0968032	-0.0107293	0.0506032	-0.00362281	0.0215234	-2.20081	0.0101015	-1.54147	0	0	0	0	-0	0	0	0	-0.1265	0	-0	0	0	0	0	0	-0	0	0.105	-0.015	0	0	-0	0	0	-0.098	0.1	0	-0	0	0	0	0	0	-0	0	0.05595	0	0	0	-0	0	0	0	0	0	-0	0	558.781	562.176	328.263	209.746	0.0154298	0.451242	-0.00295219	-0.0118919	-1.94215
78	0.0128307	-0.0203049	0.00706236	0.0085782	-0.0168819	-0.0414469	0.0211479	0.0288814	-0.000882343	-0.0407278	-0.0931644	-0.0158641	0.0505077	-0.00362262	0.0217453	-2.19656	0.00997789	-1.54143	0	0	0	0	-0	0	0	0	-0.1265	0	-0	0	0	0	0	0	-0	0	0.105	-0.015	0	0	-0	0	0	-0.098	0.1	0	-0	0	0	0	0	0	-0	0	0.05595	0	0	0	-0	0	0	0	0	0	-0	0	558.808	562.205	328.26	209.802	0.0149216	0.455988	-0.0029276	-0.0118947	-1.95546
79	0.0145846	-0.020303	0.00706132	0.00857737	-0.0168801	-0.041446	0.0211476	0.0288825	-0.000882287	-0.050876	-0.091727	-0.0133509	0.0504673	-0.00362235	0.0218356	-2.19496	0.00993312	-1.54142	0	0	0	0	-0	0	0	0	-0.1265	0	-0	0	0	0	0	0	-0	0	0.105	-0.015	0	0	-0	0	0	-0.098	0.1	0	-0	0	0	0	0	0	-0	0	0.05595	0	0	0	-0	0	0	0	0	0	-0	0	558.846	562.247	328.257	209.882	0.014164	0.463011	-0.00289461	-0.0118991	-1.97492
80	0.0169223	-0.0203028	0.00706132	0.00857709	-0.01688	-0.0414459	0.0211474	0.0288809	-0.000882298	-0.0516615	-0.0936902	-0.0124478	0.0504158	-0.00362232	0.0219539	-2.19264	0.00986554	-1.5414	0	0	0	0	-0	0	0	0	-0.1265	0	-0	0	0	0	0	0	-0	0	0.105	-0.015	0	0	-0	0	0	-0.098	0.1	0	-0	0	0	0	0	0	-0	0	0.05595	0	0	0	-0	0	0	0	0	0	-0	0	558.851	562.253	328.256	209.893	0.0140834	0.463973	-0.00289014	-0.0118994	-1.97799
81	0.0173177	-0.0203025	0.00706084	0.008577	-0.0168797	-0.0414457	0.0211474	0.0288811	-0.000882337	-0.0487977	-0.0947217	-0.0110629	0.0504066	-0.00362224	0.0219742	-2.19229	0.0098563	-1.54139	0	0	0	0	-0	0	0	0	-0.1265	0	-0	0	0	0	0	0	-0	0	0.105	-0.015	0	0	-0	0	0	-0.098	0.1	0	-0	0	0	0	0	0	-0	0	0.05595	0	0	0	-0	0	0	0	0	0	-0	0	558.861	562.264	328.255	209.915	0.0138593	0.466066	-0.00288084	-0.0119014	-1.98373
82	0.0177363	-0.0203017	0.00706046	0.00857658	-0.016879	-0.0414453	0.0211473	0.0288809	-0.000882328	-0.0528363	-0.0999436	-0.0111215	0.0503967	-0.00362214	0.0219961	-2.19193	0.00984762	-1.54139	0	0	0	0	-0	0	0	0	-0.1265	0	-0	0	0	0	0	0	-0	0	0.105	-0.015	0	0	-0	0	0	-0.098	0.1	0	-0	0	0	0	0	0	-0	0	0.05595	0	0	0	-0	0	0	0	0	0	-0	0	558.876	562.281	328.252	209.949	0.0135577	0.468879	-0.00286608	-0.0119035	-1.99161
83	0.016419	-0.0203007	0.0070599	0.00857587	-0.016878	-0.0414447	0.0211474	0.0288809	-0.000882118	-0.0497978	-0.0960483	-0.0122031	0.0504246	-0.00362197	0.0219308	-2.19334	0.00989196	-1.5414	0	0	0	0	-0	0	0	0	-0.1265	0	-0	0	0	0	0	0	-0	0	0.105	-0.015	0	0	-0	0	0	-0.098	0.1	0	-0	0	0	0	0	0	-0	0	0.05595	0	0	0	-0	0	0	0	0	0	-0	0	558.899	562.304	328.249	209.998	0.0131032	0.473038	-0.00284309	-0.0119069	-2.00317
84	0.0134381	-0.0203001	0.00705952	0.00857574	-0.0168775	-0.0414444	0.021148	0.0288815	-0.000882133	-0.0547024	-0.0914651	-0.0141949	0.0504895	-0.00362191	0.021781	-2.19637	0.00998264	-1.54143	0	0	0	0	-0	0	0	0	-0.1265	0	-0	0	0	0	0	0	-0	0	0.105	-0.015	0	0	-0	0	0	-0.098	0.1	0	-0	0	0	0	0	0	-0	0	0.05595	0	0	0	-0	0	0	0	0	0	-0	0	558.909	562.316	328.247	210.023	0.0128537	0.475397	-0.00283232	-0.0119087	-2.00977
85	0.00982952	-0.0202996	0.00705931	0.00857577	-0.016877	-0.0414443	0.0211476	0.0288811	-0.000882228	-0.0530313	-0.0946186	-0.0174085	0.0505675	-0.00362187	0.021599	-2.20001	0.0100909	-1.54147	0	0	0	0	-0	0	0	0	-0.1265	0	-0	0	0	0	0	0	-0	0	0.105	-0.015	0	0	-0	0	0	-0.098	0.1	0	-0	0	0	0	0	0	-0	0	0.05595	0	0	0	-0	0	0	0	0	0	-0	0	558.917	562.325	328.246	210.041	0.0126887	0.477035	-0.00282544	-0.01191	-2.01444
86	0.00949253	-0.0202989	0.00705879	0.00857532	-0.0168762	-0.0414438	0.0211481	0.0288807	-0.00088278	-0.0467243	-0.0810065	-0.0156978	0.0505737	-0.00362176	0.0215827	-2.20042	0.0101062	-1.54147	0	0	0	0	-0	0	0	0	-0.1265	0	-0	0	0	0	0	0	-0	0	0.105	-0.015	0	0	-0	0	0	-0.098	0.1	0	-0	0	0	0	0	0	-0	0	0.05595	0	0	0	-0	0	0	0	0	0	-0	0	558.936	562.345	328.242	210.081	0.0122581	0.480953	-0.00280608	-0.0119132	-2.0252
87	0.0070725	-0.0202976	0.00705801	0.00857495	-0.0168751	-0.0414432	0.0211478	0.028881	-0.000882004	-0.0460107	-0.0871758	-0.0154852	0.0506248	-0.00362159	0.0214616	-2.20295	0.0101853	-1.5415	0	0	0	0	-0	0	0	0	-0.1265	0	-0	0	0	0	0	0	-0	0	0.105	-0.015	0	0	-0	0	0	-0.098	0.1	0	-0	0	0	0	0	0	-0	0	0.05595	0	0	0	-0	0	0	0	0	0	-0	0	558.962	562.373	328.237	210.141	0.01176	0.485765	-0.00278201	-0.0119182	-2.03883
88	0.0026863	-0.0202969	0.00705768	0.00857449	-0.0168744	-0.0414428	0.0211475	0.0288809	-0.000881841	-0.047989	-0.0924145	-0.0139687	0.0507182	-0.0036215	0.02124	-2.20739	0.0103181	-1.54154	0	0	0	0	-0	0	0	0	-0.1265	0	-0	0	0	0	0	0	-0	0	0.105	-0.015	0	0	-0	0	0	-0.098	0.1	0	-0	0	0	0	0	0	-0	0	0.05595	0	0	0	-0	0	0	0	0	0	-0	0	558.974	562.386	328.234	210.17	0.0114831	0.48832	-0.00276747	-0.0119206	-2.04599
89	0.00108226	-0.0202965	0.00705741	0.00857435	-0.016874	-0.0414425	0.0211477	0.0288816	-0.000881872	-0.0535159	-0.0904846	-0.0108914	0.0507514	-0.00362145	0.0211588	-2.20904	0.0103686	-1.54156	0	0	0	0	-0	0	0	0	-0.1265	0	-0	0	0	0	0	0	-0	0	0.105	-0.015	0	0	-0	0	0	-0.098	0.1	0	-0	0	0	0	0	0	-0	0	0.05595	0	0	0	-0	0	0	0	0	0	-0	0	558.984	562.396	328.232	210.192	0.0112612	0.490438	-0.00275706	-0.0119226	-2.05196
90	0.000618788	-0.020296	0.00705733	0.00857404	-0.0168736	-0.0414423	0.0211476	0.0288812	-0.000881932	-0.0554819	-0.0882436	-0.00779683	0.0507608	-0.00362139	0.0211357	-2.20953	0.0103847	-1.54156	0	0	0	0	-0	0	0	0	-0.1265	0	-0	0	0	0	0	0	-0	0	0.105	-0.015	0	0	-0	0	0	-0.098	0.1	0	-0	0	0	0	0	0	-0	0	0.05595	0	0	0	-0	0	0	0	0	0	-0	0	558.991	562.404	328.23	210.208	0.0111246	0.491747	-0.00274942	-0.0119239	-2.05574
91	-0.00118489	-0.0202952	0.00705688	0.00857356	-0.0168728	-0.0414419	0.0211474	0.0288815	-0.000881614	-0.0494667	-0.0873178	-0.0115289	0.0507982	-0.00362128	0.0210449	-2.2114	0.0104434	-1.54158	0	0	0	0	-0	0	0	0	-0.1265	0	-0	0	0	0	0	0	-0	0	0.105	-0.015	0	0	-0	0	0	-0.098	0.1	0	-0	0	0	0	0	0	-0	0	0.05595	0	0	0	-0	0	0	0	0	0	-0	0	559.008	562.42	328.226	210.245	0.0107676	0.494932	-0.00273147	-0.0119273	-2.06445
92	-0.00544773	-0.0202948	0.00705669	0.00857351	-0.0168725	-0.0414417	0.0211476	0.028881	-0.000881795	-0.0505867	-0.0837928	-0.0122023	0.0508875	-0.00362124	0.0208287	-2.2157	0.0105711	-1.54163	0	0	0	0	-0	0	0	0	-0.1265	0	-0	0	0	0	0	0	-0	0	0.105	-0.015	0	0	-0	0	0	-0.098	0.1	0	-0	0	0	0	0	0	-0	0	0.05595	0	0	0	-0	0	0	0	0	0	-0	0	559.015	562.429	328.224	210.263	0.0106161	0.496519	-0.00272453	-0.011929	-2.0691
93	-0.0116926	-0.0202939	0.00705618	0.00857326	-0.0168717	-0.0414413	0.0211474	0.0288811	-0.000881734	-0.0540262	-0.0841379	-0.0107257	0.0510164	-0.00362114	0.0205115	-2.22202	0.0107601	-1.54169	0	0	0	0	-0	0	0	0	-0.1265	0	-0	0	0	0	0	0	-0	0	0.105	-0.015	0	0	-0	0	0	-0.098	0.1	0	-0	0	0	0	0	0	-0	0	0.05595	0	0	0	-0	0	0	0	0	0	-0	0	559.032	562.447	328.219	210.303	0.0102658	0.499786	-0.00270685	-0.0119331	-2.07822
94	-0.016741	-0.0202926	0.00705569	0.00857233	-0.0168704	-0.0414405	0.0211476	0.0288813	-0.000881844	-0.0568799	-0.0845489	-0.0149799	0.0511179	-0.00362096	0.0202548	-2.22717	0.0109179	-1.54174	0	0	0	0	-0	0	0	0	-0.1265	0	-0	0	0	0	0	0	-0	0	0.105	-0.015	0	0	-0	0	0	-0.098	0.1	0	-0	0	0	0	0	0	-0	0	0.05595	0	0	0	-0	0	0	0	0	0	-0	0	559.057	562.471	328.212	210.361	0.00975986	0.504411	-0.00267633	-0.011939	-2.09123
95	-0.0227196	-0.0202919	0.00705531	0.00857226	-0.0168699	-0.0414402	0.0211475	0.028881	-0.000881592	-0.0584193	-0.085532	-0.0129222	0.0512379	-0.0036209	0.0199494	-2.2332	0.0110973	-1.54181	0	0	0	0	-0	0	0	0	-0.1265	0	-0	0	0	0	0	0	-0	0	0.105	-0.015	0	0	-0	0	0	-0.098	0.1	0	-0	0	0	0	0	0	-0	0	0.05595	0	0	0	-0	0	0	0	0	0	-0	0	559.069	562.485	328.208	210.39	0.00951315	0.506896	-0.0026652	-0.0119422	-2.09837
96	-0.0260718	-0.0202905	0.00705451	0.00857191	-0.0168685	-0.0414395	0.0211485	0.0288815	-0.000881623	-0.0545078	-0.0931522	-0.0134851	0.0513028	-0.00362075	0.0197784	-2.23667	0.0112074	-1.54184	0	0	0	0	-0	0	0	0	-0.1265	0	-0	0	0	0	0	0	-0	0	0.105	-0.015	0	0	-0	0	0	-0.098	0.1	0	-0	0	0	0	0	0	-0	0	0.05595	0	0	0	-0	0	0	0	0	0	-0	0	559.095	562.513	328.199	210.454	0.00893365	0.512352	-0.00263732	-0.0119494	-2.1136
97	-0.0223245	-0.0202895	0.00705418	0.00857166	-0.0168677	-0.0414392	0.021148	0.0288818	-0.000881516	-0.0551652	-0.09289	-0.00589269	0.0512278	-0.00362066	0.0199713	-2.23299	0.0111055	-1.5418	0	0	0	0	-0	0	0	0	-0.1265	0	-0	0	0	0	0	0	-0	0	0.105	-0.015	0	0	-0	0	0	-0.098	0.1	0	-0	0	0	0	0	0	-0	0	0.05595	0	0	0	-0	0	0	0	0	0	-0	0	559.109	562.527	328.194	210.485	0.00868733	0.514797	-0.00262338	-0.011953	-2.12072
98	-0.0188101	-0.0202891	0.00705396	0.00857143	-0.0168672	-0.0414389	0.0211476	0.028882	-0.000881411	-0.0473988	-0.0936193	-0.00835913	0.0511569	-0.00362062	0.0201516	-2.22952	0.011009	-1.54175	0	0	0	0	-0	0	0	0	-0.1265	0	-0	0	0	0	0	0	-0	0	0.105	-0.015	0	0	-0	0	0	-0.098	0.1	0	-0	0	0	0	0	0	-0	0	0.05595	0	0	0	-0	0	0	0	0	0	-0	0	559.118	562.537	328.19	210.508	0.00844448	0.517104	-0.00261183	-0.0119557	-2.1272
99	-0.0202772	-0.0202887	0.0070538	0.00857127	-0.0168669	-0.0414387	0.0211476	0.0288813	-0.000881364	-0.0447228	-0.0934197	-0.0125887	0.0511859	-0.00362058	0.0200767	-2.23102	0.0110557	-1.54177	0	0	0	0	-0	0	0	0	-0.1265	0	-0	0	0	0	0	0	-0	0	0.105	-0.015	0	0	-0	0	0	-0.098	0.1	0	-0	0	0	0	0	0	-0	0	0.05595	0	0	0	-0	0	0	0	0	0	-0	0	559.126	562.545	328.187	210.526	0.00827192	0.518734	-0.00260377	-0.0119578	-2.13178
100	-0.0224833	-0.0202885	0.0070535	0.00857137	-0.0168666	-0.0414386	0.0211476	0.0288811	-0.000881485	-0.0422409	-0.0951507	-0.0119846	0.05123	-0.00362055	0.0199639	-2.23324	0.0111228	-1.54179	0	0	0	0	-0	0	0	0	-0.1265	0	-0	0	0	0	0	0	-0	0	0.105	-0.015	0	0	-0	0	0	-0.098	0.1	0	-0	0	0	0	0	0	-0	0	0.05595	0	0	0	-0	0	0	0	0	0	-0	0	559.131	562.551	328.185	210.539	0.00814614	0.519938	-0.00259852	-0.0119597	-2.13511
