Stefan210/kinematic_calibration/src/kinematic_calibration/validation/experiments/experiments/single_point_vs_pose/marker_single_point/rarm_220/optimization_intermediate_results.csv
iteration	HeadPitch_offset	HeadYaw_offset	RElbowRoll_offset	RElbowYaw_offset	RShoulderPitch_offset	RShoulderRoll_offset	marker_transform_rarm_tx	marker_transform_rarm_ty	marker_transform_rarm_tz	marker_transform_rarm_rr	marker_transform_rarm_rp	marker_transform_rarm_ry	camera_transform_tx	camera_transform_ty	camera_transform_tz	camera_transform_rr	camera_transform_rp	camera_transform_ry	HeadPitch_transform_tx	HeadPitch_transform_ty	HeadPitch_transform_tz	HeadPitch_transform_rr	HeadPitch_transform_rp	HeadPitch_transform_ry	HeadYaw_transform_tx	HeadYaw_transform_ty	HeadYaw_transform_tz	HeadYaw_transform_rr	HeadYaw_transform_rp	HeadYaw_transform_ry	RElbowRoll_transform_tx	RElbowRoll_transform_ty	RElbowRoll_transform_tz	RElbowRoll_transform_rr	RElbowRoll_transform_rp	RElbowRoll_transform_ry	RElbowYaw_transform_tx	RElbowYaw_transform_ty	RElbowYaw_transform_tz	RElbowYaw_transform_rr	RElbowYaw_transform_rp	RElbowYaw_transform_ry	RShoulderPitch_transform_tx	RShoulderPitch_transform_ty	RShoulderPitch_transform_tz	RShoulderPitch_transform_rr	RShoulderPitch_transform_rp	RShoulderPitch_transform_ry	RShoulderRoll_transform_tx	RShoulderRoll_transform_ty	RShoulderRoll_transform_tz	RShoulderRoll_transform_rr	RShoulderRoll_transform_rp	RShoulderRoll_transform_ry	RWristYaw_transform_tx	RWristYaw_transform_ty	RWristYaw_transform_tz	RWristYaw_transform_rr	RWristYaw_transform_rp	RWristYaw_transform_ry	r_wrist_joint_transform_tx	r_wrist_joint_transform_ty	r_wrist_joint_transform_tz	r_wrist_joint_transform_rr	r_wrist_joint_transform_rp	r_wrist_joint_transform_ry	camera_fx	camera_fy	camera_cx	camera_cy	camera_D0	camera_D1	camera_D2	camera_D3	camera_D4	
0	0.0230449	0.0294606	-0.0013508	-0.00116347	0.000678263	0.00258603	0.05071	0	0.01774	-2.26369	1.66533e-16	-1.5708	545.901	551.038	324.928	201.58	0.0255298	2.61142	-0.0636736	-0.0350419	0.213964
1	-0.0146064	-0.0175045	0.00629348	0.0128642	-0.0164223	-0.0330783	0.0208107	0.0285309	-0.000781486	-0.0011016	0.000638069	0.00276276	0.0541077	-0.00297027	0.018734	-2.20498	0.0133695	-1.53654	0	0	0	0	-0	0	0	0	-0.1265	0	-0	0	0	0	0	0	-0	0	0.105	-0.015	0	0	-0	0	0	-0.098	0.1	0	-0	0	0	0	0	0	-0	0	0.05595	0	0	0	-0	0	0	0	0	0	-0	0	545.901	551.039	324.929	201.581	-0.0436685	2.5876	-0.0777578	-0.0662544	0.208411
2	-0.0126231	-0.0355111	0.00092711	0.0125906	-0.0297483	-0.0308407	0.0208054	0.0286392	-0.000654563	-0.00108676	0.000627737	0.00277238	0.0532736	-0.00180203	0.0223631	-2.21345	0.0215988	-1.52732	0	0	0	0	-0	0	0	0	-0.1265	0	-0	0	0	0	0	0	-0	0	0.105	-0.015	0	0	-0	0	0	-0.098	0.1	0	-0	0	0	0	0	0	-0	0	0.05595	0	0	0	-0	0	0	0	0	0	-0	0	545.903	551.04	324.934	201.587	-0.237167	2.45674	-0.0156735	-0.034498	0.162358
3	-0.0140069	-0.0284518	0.00350673	0.0137264	-0.0235525	-0.0337487	0.0208772	0.0286754	-0.000940149	-0.00111773	0.000652008	0.00276742	0.054926	-0.00275048	0.0185417	-2.20698	0.0207999	-1.52931	0	0	0	0	-0	0	0	0	-0.1265	0	-0	0	0	0	0	0	-0	0	0.105	-0.015	0	0	-0	0	0	-0.098	0.1	0	-0	0	0	0	0	0	-0	0	0.05595	0	0	0	-0	0	0	0	0	0	-0	0	545.904	551.041	324.939	201.591	-0.462309	2.31493	-0.00970992	-0.0309102	0.114843
4	-0.014269	-0.0252878	0.0045902	0.0119786	-0.0202838	-0.0362876	0.0210323	0.0287284	-0.00106564	-0.00113027	0.000663312	0.00275626	0.0559134	-0.00327418	0.016147	-2.20534	0.0207026	-1.53255	0	0	0	0	-0	0	0	0	-0.1265	0	-0	0	0	0	0	0	-0	0	0.105	-0.015	0	0	-0	0	0	-0.098	0.1	0	-0	0	0	0	0	0	-0	0	0.05595	0	0	0	-0	0	0	0	0	0	-0	0	545.909	551.041	324.947	201.599	-0.693959	2.06705	0.0232596	-0.00966332	0.0166916
5	-0.0144882	-0.0232267	0.00600004	0.0111336	-0.0182089	-0.0379864	0.0211002	0.0287359	-0.00113435	-0.00113591	0.000676343	0.00274764	0.0558856	-0.00363466	0.0154065	-2.20429	0.0203275	-1.5338	0	0	0	0	-0	0	0	0	-0.1265	0	-0	0	0	0	0	0	-0	0	0.105	-0.015	0	0	-0	0	0	-0.098	0.1	0	-0	0	0	0	0	0	-0	0	0.05595	0	0	0	-0	0	0	0	0	0	-0	0	545.919	551.04	324.96	201.608	-0.668565	1.72261	0.0286317	-0.00456485	-0.147771
6	-0.0145814	-0.0221173	0.00757817	0.0104845	-0.017215	-0.0390297	0.021114	0.0287045	-0.00110565	-0.00114322	0.000652775	0.00274052	0.0548393	-0.00381279	0.0162097	-2.20422	0.0195176	-1.53431	0	0	0	0	-0	0	0	0	-0.1265	0	-0	0	0	0	0	0	-0	0	0.105	-0.015	0	0	-0	0	0	-0.098	0.1	0	-0	0	0	0	0	0	-0	0	0.05595	0	0	0	-0	0	0	0	0	0	-0	0	545.936	551.036	324.976	201.62	-0.433801	1.20854	0.0166175	-0.00845724	-0.411648
7	-0.0146447	-0.0214283	0.00884078	0.00979741	-0.0167182	-0.0397461	0.0211174	0.0286733	-0.00105055	-0.0011266	0.000597548	0.00270386	0.0537658	-0.00391031	0.0171989	-2.20448	0.0187953	-1.53473	0	0	0	0	-0	0	0	0	-0.1265	0	-0	0	0	0	0	0	-0	0	0.105	-0.015	0	0	-0	0	0	-0.098	0.1	0	-0	0	0	0	0	0	-0	0	0.05595	0	0	0	-0	0	0	0	0	0	-0	0	545.957	551.03	324.988	201.627	-0.185565	0.679449	0.00364269	-0.0130122	-0.686353
8	-0.0145992	-0.0213308	0.00937931	0.00934172	-0.016701	-0.0400244	0.0211167	0.0286577	-0.00101	-0.00115623	0.000559124	0.0027273	0.0531919	-0.00393006	0.0177982	-2.20481	0.0184964	-1.53488	0	0	0	0	-0	0	0	0	-0.1265	0	-0	0	0	0	0	0	-0	0	0.105	-0.015	0	0	-0	0	0	-0.098	0.1	0	-0	0	0	0	0	0	-0	0	0.05595	0	0	0	-0	0	0	0	0	0	-0	0	545.989	551.021	324.993	201.635	-0.0520075	0.380101	-0.00257073	-0.0151253	-0.846994
9	-0.0143751	-0.021354	0.00949831	0.00920163	-0.01674	-0.0400639	0.0211155	0.0286532	-0.000997537	-0.000806121	0.000602656	0.00334335	0.0530403	-0.00392883	0.0179767	-2.20478	0.018424	-1.53491	0	0	0	0	-0	0	0	0	-0.1265	0	-0	0	0	0	0	0	-0	0	0.105	-0.015	0	0	-0	0	0	-0.098	0.1	0	-0	0	0	0	0	0	-0	0	0.05595	0	0	0	-0	0	0	0	0	0	-0	0	546.066	551.002	324.997	201.664	-0.0203996	0.309944	-0.00378547	-0.0155736	-0.90308
10	-0.0138356	-0.0213644	0.00951223	0.00915989	-0.0167507	-0.0400482	0.0211146	0.0286516	-0.000995387	-0.00117721	-0.000440203	0.00311008	0.0530037	-0.00392557	0.0180356	-2.20444	0.0183949	-1.53494	0	0	0	0	-0	0	0	0	-0.1265	0	-0	0	0	0	0	0	-0	0	0.105	-0.015	0	0	-0	0	0	-0.098	0.1	0	-0	0	0	0	0	0	-0	0	0.05595	0	0	0	-0	0	0	0	0	0	-0	0	546.265	550.965	324.999	201.754	-0.0225529	0.326639	-0.00338455	-0.0155909	-0.952292
11	-0.0142672	-0.0213794	0.00951509	0.00910255	-0.0167604	-0.0400132	0.0211136	0.0286497	-0.000993493	-0.00207865	0.00151004	0.000202243	0.0529828	-0.00391928	0.0180436	-2.20541	0.0184301	-1.535	0	0	0	0	-0	0	0	0	-0.1265	0	-0	0	0	0	0	0	-0	0	0.105	-0.015	0	0	-0	0	0	-0.098	0.1	0	-0	0	0	0	0	0	-0	0	0.05595	0	0	0	-0	0	0	0	0	0	-0	0	546.72	550.961	324.985	202.029	-0.0344557	0.385333	-0.00230955	-0.0155575	-1.06713
12	-0.0121277	-0.0214018	0.00951689	0.00902694	-0.0167653	-0.0399652	0.0211138	0.0286486	-0.0009894	-0.00265547	-0.00534004	0.0118032	0.0528978	-0.00391047	0.0182091	-2.20488	0.0185038	-1.53496	0	0	0	0	-0	0	0	0	-0.1265	0	-0	0	0	0	0	0	-0	0	0.105	-0.015	0	0	-0	0	0	-0.098	0.1	0	-0	0	0	0	0	0	-0	0	0.05595	0	0	0	-0	0	0	0	0	0	-0	0	547.558	551.301	324.881	202.838	-0.0535652	0.49083	-0.000874304	-0.015581	-1.28059
13	-0.003275	-0.0214289	0.00951724	0.00895682	-0.0167496	-0.0399192	0.021113	0.0286485	-0.0009903	0.00841027	0.0049906	0.0288264	0.0526567	-0.00390112	0.0187724	-2.20046	0.0186991	-1.53457	0	0	0	0	-0	0	0	0	-0.1265	0	-0	0	0	0	0	0	-0	0	0.105	-0.015	0	0	-0	0	0	-0.098	0.1	0	-0	0	0	0	0	0	-0	0	0.05595	0	0	0	-0	0	0	0	0	0	-0	0	549.017	552.688	324.529	205.06	-0.0751485	0.636844	0.000355554	-0.0158428	-1.5981
14	-0.00388717	-0.0214458	0.00951288	0.00891881	-0.0167338	-0.0398931	0.0211192	0.0286554	-0.000982877	-0.0080062	0.0154651	0.00589353	0.0526222	-0.00389565	0.0187906	-2.20406	0.0190713	-1.53442	0	0	0	0	-0	0	0	0	-0.1265	0	-0	0	0	0	0	0	-0	0	0.105	-0.015	0	0	-0	0	0	-0.098	0.1	0	-0	0	0	0	0	0	-0	0	0.05595	0	0	0	-0	0	0	0	0	0	-0	0	549.867	553.669	324.291	206.575	-0.0874718	0.737551	0.000811888	-0.0160252	-1.83578
15	-0.00176226	-0.0214805	0.00950731	0.00887035	-0.0167143	-0.039858	0.0211276	0.0286561	-0.000976652	0.015915	-0.0138953	0.00903395	0.0525052	-0.00388875	0.0189974	-2.20763	0.0196883	-1.53404	0	0	0	0	-0	0	0	0	-0.1265	0	-0	0	0	0	0	0	-0	0	0.105	-0.015	0	0	-0	0	0	-0.098	0.1	0	-0	0	0	0	0	0	-0	0	0.05595	0	0	0	-0	0	0	0	0	0	-0	0	551.314	555.389	323.83	209.476	-0.103929	0.879423	0.00160515	-0.0164349	-2.179
16	-0.00453601	-0.0214971	0.00949871	0.00883957	-0.0167015	-0.0398352	0.0211144	0.0286425	-0.000976143	0.0200297	-0.0324444	-0.00260278	0.0525281	-0.00388411	0.018888	-2.21295	0.0200978	-1.53395	0	0	0	0	-0	0	0	0	-0.1265	0	-0	0	0	0	0	0	-0	0	0.105	-0.015	0	0	-0	0	0	-0.098	0.1	0	-0	0	0	0	0	0	-0	0	0.05595	0	0	0	-0	0	0	0	0	0	-0	0	551.943	556.156	323.628	210.797	-0.113732	0.970854	0.00194241	-0.0165918	-2.41231
17	0.0142943	-0.0215305	0.00949074	0.00881103	-0.0166986	-0.0398116	0.021109	0.0286394	-0.00097029	0.0238066	-0.0394874	-0.00929106	0.0521333	-0.00387996	0.0199271	-2.19752	0.0198244	-1.53336	0	0	0	0	-0	0	0	0	-0.1265	0	-0	0	0	0	0	0	-0	0	0.105	-0.015	0	0	-0	0	0	-0.098	0.1	0	-0	0	0	0	0	0	-0	0	0.05595	0	0	0	-0	0	0	0	0	0	-0	0	552.737	557.103	323.355	212.551	-0.123815	1.06477	0.00244083	-0.0168411	-2.65259
18	0.0081033	-0.0215512	0.00948381	0.00878767	-0.0166941	-0.0397936	0.021111	0.0286378	-0.000966943	0.0223161	-0.0219224	-0.0108874	0.0522213	-0.00387663	0.019631	-2.20598	0.0203314	-1.53335	0	0	0	0	-0	0	0	0	-0.1265	0	-0	0	0	0	0	0	-0	0	0.105	-0.015	0	0	-0	0	0	-0.098	0.1	0	-0	0	0	0	0	0	-0	0	0.05595	0	0	0	-0	0	0	0	0	0	-0	0	553.248	557.721	323.177	213.738	-0.130848	1.13381	0.00277222	-0.016996	-2.83542
19	0.0126274	-0.0215585	0.00948001	0.00877495	-0.0166908	-0.0397853	0.0211086	0.0286386	-0.000965108	0.0236244	-0.0180101	-0.0211191	0.0521232	-0.00387496	0.0198777	-2.20235	0.0202706	-1.53321	0	0	0	0	-0	0	0	0	-0.1265	0	-0	0	0	0	0	0	-0	0	0.105	-0.015	0	0	-0	0	0	-0.098	0.1	0	-0	0	0	0	0	0	-0	0	0.05595	0	0	0	-0	0	0	0	0	0	-0	0	553.444	557.961	323.108	214.203	-0.134128	1.16614	0.0029038	-0.0170458	-2.92207
20	0.000202191	-0.0215706	0.00947681	0.00876387	-0.0166901	-0.0397766	0.0211071	0.0286367	-0.000964604	0.0251872	-0.0161431	-0.0215381	0.0523577	-0.00387358	0.0192447	-2.21593	0.0208781	-1.53339	0	0	0	0	-0	0	0	0	-0.1265	0	-0	0	0	0	0	0	-0	0	0.105	-0.015	0	0	-0	0	0	-0.098	0.1	0	-0	0	0	0	0	0	-0	0	0.05595	0	0	0	-0	0	0	0	0	0	-0	0	553.697	558.259	323.019	214.809	-0.137631	1.20011	0.00309173	-0.0171295	-3.01208
21	0.00715588	-0.0215752	0.00947473	0.0087584	-0.0166892	-0.0397724	0.0211074	0.0286377	-0.000965174	0.0177936	-0.0219205	-0.0283867	0.0522155	-0.00387274	0.0196133	-2.20944	0.0206739	-1.53322	0	0	0	0	-0	0	0	0	-0.1265	0	-0	0	0	0	0	0	-0	0	0.105	-0.015	0	0	-0	0	0	-0.098	0.1	0	-0	0	0	0	0	0	-0	0	0.05595	0	0	0	-0	0	0	0	0	0	-0	0	553.797	558.38	322.984	215.05	-0.139153	1.2155	0.00316202	-0.0171558	-3.05408
22	0.0130459	-0.0215799	0.00947319	0.00875384	-0.0166888	-0.039769	0.021107	0.0286368	-0.000963575	0.0227575	-0.0218197	-0.0276661	0.0520943	-0.00387219	0.0199258	-2.204	0.020507	-1.53308	0	0	0	0	-0	0	0	0	-0.1265	0	-0	0	0	0	0	0	-0	0	0.105	-0.015	0	0	-0	0	0	-0.098	0.1	0	-0	0	0	0	0	0	-0	0	0.05595	0	0	0	-0	0	0	0	0	0	-0	0	553.894	558.496	322.95	215.288	-0.140588	1.22955	0.00323448	-0.0171869	-3.09158
23	0.022156	-0.0215985	0.00946833	0.0087407	-0.0166893	-0.0397579	0.0211117	0.0286396	-0.000961764	0.0116862	-0.00627508	-0.031519	0.0518917	-0.00387047	0.0204251	-2.19673	0.0203813	-1.53279	0	0	0	0	-0	0	0	0	-0.1265	0	-0	0	0	0	0	0	-0	0	0.105	-0.015	0	0	-0	0	0	-0.098	0.1	0	-0	0	0	0	0	0	-0	0	0.05595	0	0	0	-0	0	0	0	0	0	-0	0	554.274	558.946	322.815	216.248	-0.144572	1.27164	0.00352312	-0.0173313	-3.20778
24	0.0211235	-0.0216052	0.0094646	0.00873051	-0.0166868	-0.0397508	0.0211059	0.0286394	-0.000964882	0.0297565	0.00773001	-0.0217073	0.0519014	-0.00386905	0.0203812	-2.19862	0.0205172	-1.53277	0	0	0	0	-0	0	0	0	-0.1265	0	-0	0	0	0	0	0	-0	0	0.105	-0.015	0	0	-0	0	0	-0.098	0.1	0	-0	0	0	0	0	0	-0	0	0.05595	0	0	0	-0	0	0	0	0	0	-0	0	554.451	559.158	322.754	216.698	-0.14699	1.29731	0.00366058	-0.0173809	-3.28001
25	0.0218149	-0.0216136	0.00946263	0.00872211	-0.016688	-0.0397458	0.0211072	0.0286399	-0.000959345	0.0454481	0.00577211	-0.0278701	0.0518816	-0.00386822	0.0204244	-2.19855	0.0205621	-1.53272	0	0	0	0	-0	0	0	0	-0.1265	0	-0	0	0	0	0	0	-0	0	0.105	-0.015	0	0	-0	0	0	-0.098	0.1	0	-0	0	0	0	0	0	-0	0	0.05595	0	0	0	-0	0	0	0	0	0	-0	0	554.574	559.306	322.712	217.023	-0.148735	1.31547	0.00376234	-0.0174198	-3.33059
26	0.0260105	-0.021622	0.00945968	0.00871467	-0.0166873	-0.0397396	0.0211069	0.0286362	-0.000959224	0.0513966	0.000315238	-0.0267972	0.0517875	-0.00386724	0.0206525	-2.19522	0.0204983	-1.53259	0	0	0	0	-0	0	0	0	-0.1265	0	-0	0	0	0	0	0	-0	0	0.105	-0.015	0	0	-0	0	0	-0.098	0.1	0	-0	0	0	0	0	0	-0	0	0.05595	0	0	0	-0	0	0	0	0	0	-0	0	554.748	559.514	322.654	217.48	-0.15096	1.33904	0.00390132	-0.0174805	-3.39625
27	0.0326733	-0.0216552	0.00944986	0.00869473	-0.0166911	-0.039722	0.0211053	0.0286551	-0.000949599	0.0876026	0.00698025	-0.0425521	0.0516191	-0.0038647	0.0210344	-2.19157	0.0205843	-1.5323	0	0	0	0	-0	0	0	0	-0.1265	0	-0	0	0	0	0	0	-0	0	0.105	-0.015	0	0	-0	0	0	-0.098	0.1	0	-0	0	0	0	0	0	-0	0	0.05595	0	0	0	-0	0	0	0	0	0	-0	0	555.312	560.181	322.45	219.067	-0.156207	1.40118	0.00438663	-0.0177156	-3.57795
28	0.0354738	-0.0216549	0.00944957	0.00867476	-0.0166863	-0.0397155	0.0211068	0.0286352	-0.000955812	0.0892848	-0.00103815	-0.0495663	0.0515559	-0.00386309	0.0211815	-2.18915	0.0205101	-1.53225	0	0	0	0	-0	0	0	0	-0.1265	0	-0	0	0	0	0	0	-0	0	0.105	-0.015	0	0	-0	0	0	-0.098	0.1	0	-0	0	0	0	0	0	-0	0	0.05595	0	0	0	-0	0	0	0	0	0	-0	0	555.38	560.268	322.43	219.269	-0.157834	1.41921	0.00445818	-0.0177056	-3.6323
29	0.0299025	-0.0216656	0.00944355	0.00867915	-0.0166898	-0.0397117	0.0211054	0.0286349	-0.00095568	0.0845139	-0.00469045	-0.0538337	0.0516707	-0.00386266	0.0208985	-2.19522	0.0207751	-1.53234	0	0	0	0	-0	0	0	0	-0.1265	0	-0	0	0	0	0	0	-0	0	0.105	-0.015	0	0	-0	0	0	-0.098	0.1	0	-0	0	0	0	0	0	-0	0	0.05595	0	0	0	-0	0	0	0	0	0	-0	0	555.475	560.381	322.404	219.537	-0.159664	1.43777	0.00454683	-0.01774	-3.68313
30	0.031124	-0.0216681	0.00944246	0.00867607	-0.0166897	-0.0397097	0.0211057	0.0286348	-0.000954517	0.0858268	-0.000543773	-0.059404	0.0516429	-0.0038623	0.0209632	-2.1942	0.020747	-1.53231	0	0	0	0	-0	0	0	0	-0.1265	0	-0	0	0	0	0	0	-0	0	0.105	-0.015	0	0	-0	0	0	-0.098	0.1	0	-0	0	0	0	0	0	-0	0	0.05595	0	0	0	-0	0	0	0	0	0	-0	0	555.512	560.426	322.394	219.644	-0.160346	1.44494	0.00458425	-0.0177479	-3.70364
31	0.0315064	-0.0216714	0.00944117	0.0086738	-0.0166899	-0.0397076	0.0211053	0.0286355	-0.000954936	0.094711	0.000517707	-0.0570577	0.0516328	-0.003862	0.0209856	-2.19409	0.0207568	-1.53229	0	0	0	0	-0	0	0	0	-0.1265	0	-0	0	0	0	0	0	-0	0	0.105	-0.015	0	0	-0	0	0	-0.098	0.1	0	-0	0	0	0	0	0	-0	0	0.05595	0	0	0	-0	0	0	0	0	0	-0	0	555.562	560.487	322.381	219.787	-0.161139	1.45338	0.00463083	-0.0177638	-3.72751
32	0.0343497	-0.0216727	0.00944069	0.00867192	-0.01669	-0.0397066	0.0211055	0.0286347	-0.00095456	0.098993	-0.000683854	-0.0543291	0.0515722	-0.00386181	0.0211336	-2.19136	0.0206568	-1.53223	0	0	0	0	-0	0	0	0	-0.1265	0	-0	0	0	0	0	0	-0	0	0.105	-0.015	0	0	-0	0	0	-0.098	0.1	0	-0	0	0	0	0	0	-0	0	0.05595	0	0	0	-0	0	0	0	0	0	-0	0	555.582	560.511	322.376	219.844	-0.161447	1.45675	0.00465085	-0.0177677	-3.73743
33	0.0285117	-0.0216782	0.00943877	0.00866925	-0.0166909	-0.0397037	0.0211052	0.0286372	-0.000952808	0.11252	0.00339233	-0.0617005	0.0516916	-0.00386144	0.0208371	-2.19762	0.0209187	-1.53235	0	0	0	0	-0	0	0	0	-0.1265	0	-0	0	0	0	0	0	-0	0	0.105	-0.015	0	0	-0	0	0	-0.098	0.1	0	-0	0	0	0	0	0	-0	0	0.05595	0	0	0	-0	0	0	0	0	0	-0	0	555.661	560.605	322.357	220.071	-0.162459	1.46807	0.00472382	-0.0177955	-3.77014
34	0.0403718	-0.0216852	0.00943661	0.00866302	-0.0166915	-0.0396994	0.0211085	0.0286362	-0.000950803	0.113319	0.0174835	-0.0745751	0.0514381	-0.0038608	0.0214566	-2.18638	0.020512	-1.53209	0	0	0	0	-0	0	0	0	-0.1265	0	-0	0	0	0	0	0	-0	0	0.105	-0.015	0	0	-0	0	0	-0.098	0.1	0	-0	0	0	0	0	0	-0	0	0.05595	0	0	0	-0	0	0	0	0	0	-0	0	555.77	560.737	322.332	220.397	-0.163709	1.48297	0.00482738	-0.017831	-3.81467
35	0.0361535	-0.0216946	0.00943255	0.00865773	-0.0166925	-0.0396937	0.0211089	0.028639	-0.000949982	0.116008	0.0258493	-0.0935212	0.0515173	-0.00385993	0.0212473	-2.19141	0.0207372	-1.53217	0	0	0	0	-0	0	0	0	-0.1265	0	-0	0	0	0	0	0	-0	0	0.105	-0.015	0	0	-0	0	0	-0.098	0.1	0	-0	0	0	0	0	0	-0	0	0.05595	0	0	0	-0	0	0	0	0	0	-0	0	555.917	560.914	322.303	220.831	-0.165377	1.50302	0.00496537	-0.0178768	-3.87494
36	0.0329461	-0.0216987	0.00943082	0.00865118	-0.0166924	-0.0396905	0.0211072	0.0286359	-0.000951296	0.119725	0.0176401	-0.0825731	0.0515818	-0.0038593	0.0210859	-2.195	0.0208862	-1.53224	0	0	0	0	-0	0	0	0	-0.1265	0	-0	0	0	0	0	0	-0	0	0.105	-0.015	0	0	-0	0	0	-0.098	0.1	0	-0	0	0	0	0	0	-0	0	0.05595	0	0	0	-0	0	0	0	0	0	-0	0	555.983	560.998	322.293	221.034	-0.166356	1.51432	0.00503225	-0.0178877	-3.90898
37	0.0287959	-0.0217034	0.00942898	0.00864883	-0.0166937	-0.0396881	0.0211047	0.0286355	-0.000951512	0.109314	0.0156645	-0.0789271	0.0516669	-0.00385894	0.0208745	-2.19942	0.0210639	-1.53233	0	0	0	0	-0	0	0	0	-0.1265	0	-0	0	0	0	0	0	-0	0	0.105	-0.015	0	0	-0	0	0	-0.098	0.1	0	-0	0	0	0	0	0	-0	0	0.05595	0	0	0	-0	0	0	0	0	0	-0	0	556.031	561.055	322.286	221.18	-0.167102	1.52262	0.00508347	-0.0178987	-3.93347
38	0.0273228	-0.0217053	0.00942851	0.00864674	-0.0166942	-0.0396872	0.0211052	0.0286342	-0.000951651	0.106053	0.0196642	-0.0825157	0.0516965	-0.00385876	0.0207993	-2.201	0.0211272	-1.53236	0	0	0	0	-0	0	0	0	-0.1265	0	-0	0	0	0	0	0	-0	0	0.105	-0.015	0	0	-0	0	0	-0.098	0.1	0	-0	0	0	0	0	0	-0	0	0.05595	0	0	0	-0	0	0	0	0	0	-0	0	556.05	561.079	322.284	221.238	-0.167398	1.52608	0.00510139	-0.017901	-3.94392
39	0.0232397	-0.0217088	0.00942708	0.00864544	-0.016695	-0.0396855	0.0211052	0.0286343	-0.00095155	0.110468	0.0159292	-0.0796545	0.0517793	-0.00385853	0.0205908	-2.20534	0.0212986	-1.53245	0	0	0	0	-0	0	0	0	-0.1265	0	-0	0	0	0	0	0	-0	0	0.105	-0.015	0	0	-0	0	0	-0.098	0.1	0	-0	0	0	0	0	0	-0	0	0.05595	0	0	0	-0	0	0	0	0	0	-0	0	556.093	561.132	322.279	221.372	-0.167939	1.53255	0.00514438	-0.0179138	-3.96333
40	0.0244936	-0.0217103	0.0094264	0.00864383	-0.0166952	-0.0396844	0.0211051	0.028634	-0.000951167	0.109759	0.0206618	-0.0835923	0.051752	-0.00385834	0.0206569	-2.20421	0.0212571	-1.53243	0	0	0	0	-0	0	0	0	-0.1265	0	-0	0	0	0	0	0	-0	0	0.105	-0.015	0	0	-0	0	0	-0.098	0.1	0	-0	0	0	0	0	0	-0	0	0.05595	0	0	0	-0	0	0	0	0	0	-0	0	556.114	561.158	322.277	221.437	-0.16822	1.53592	0.00516684	-0.017917	-3.97371
41	0.0230055	-0.0217109	0.00942607	0.00864313	-0.0166952	-0.0396839	0.0211048	0.0286338	-0.000951401	0.108859	0.0227898	-0.0811124	0.0517823	-0.00385825	0.0205804	-2.20574	0.0213167	-1.53246	0	0	0	0	-0	0	0	0	-0.1265	0	-0	0	0	0	0	0	-0	0	0.105	-0.015	0	0	-0	0	0	-0.098	0.1	0	-0	0	0	0	0	0	-0	0	0.05595	0	0	0	-0	0	0	0	0	0	-0	0	556.122	561.168	322.276	221.464	-0.168354	1.53746	0.00517545	-0.0179178	-3.97834
42	0.0221944	-0.0217126	0.00942547	0.00864229	-0.0166957	-0.0396831	0.021105	0.0286337	-0.000951109	0.109268	0.0295362	-0.0825798	0.0517982	-0.00385815	0.0205394	-2.20667	0.0213537	-1.53248	0	0	0	0	-0	0	0	0	-0.1265	0	-0	0	0	0	0	0	-0	0	0.105	-0.015	0	0	-0	0	0	-0.098	0.1	0	-0	0	0	0	0	0	-0	0	0.05595	0	0	0	-0	0	0	0	0	0	-0	0	556.141	561.192	322.275	221.523	-0.16865	1.5408	0.00519516	-0.0179229	-3.98816
43	0.0277031	-0.0217147	0.00942467	0.00864093	-0.016696	-0.039682	0.0211051	0.0286343	-0.000951234	0.111844	0.0263151	-0.0878759	0.0516836	-0.00385797	0.0208265	-2.20132	0.0211501	-1.53237	0	0	0	0	-0	0	0	0	-0.1265	0	-0	0	0	0	0	0	-0	0	0.105	-0.015	0	0	-0	0	0	-0.098	0.1	0	-0	0	0	0	0	0	-0	0	0.05595	0	0	0	-0	0	0	0	0	0	-0	0	556.169	561.226	322.273	221.61	-0.169	1.54498	0.0052235	-0.0179296	-4.0008
44	0.0300204	-0.0217178	0.0094235	0.00863908	-0.0166966	-0.0396803	0.0211048	0.028634	-0.000950726	0.111746	0.024261	-0.0829432	0.0516327	-0.00385776	0.0209483	-2.19924	0.0210715	-1.53232	0	0	0	0	-0	0	0	0	-0.1265	0	-0	0	0	0	0	0	-0	0	0.105	-0.015	0	0	-0	0	0	-0.098	0.1	0	-0	0	0	0	0	0	-0	0	0.05595	0	0	0	-0	0	0	0	0	0	-0	0	556.207	561.274	322.271	221.733	-0.169487	1.55095	0.00526285	-0.0179389	-4.01902
45	0.0299083	-0.0217185	0.00942319	0.00863759	-0.0166967	-0.0396797	0.0211048	0.0286338	-0.000950953	0.111499	0.0203306	-0.0861009	0.0516344	-0.0038576	0.0209432	-2.19941	0.021078	-1.53233	0	0	0	0	-0	0	0	0	-0.1265	0	-0	0	0	0	0	0	-0	0	0.105	-0.015	0	0	-0	0	0	-0.098	0.1	0	-0	0	0	0	0	0	-0	0	0.05595	0	0	0	-0	0	0	0	0	0	-0	0	556.217	561.286	322.271	221.764	-0.169613	1.55249	0.00527506	-0.0179382	-4.02402
46	0.0240896	-0.0217203	0.00942252	0.00863676	-0.0166971	-0.0396788	0.0211045	0.0286336	-0.00095073	0.109385	0.0160415	-0.0869036	0.0517554	-0.00385749	0.0206438	-2.20534	0.0213062	-1.53246	0	0	0	0	-0	0	0	0	-0.1265	0	-0	0	0	0	0	0	-0	0	0.105	-0.015	0	0	-0	0	0	-0.098	0.1	0	-0	0	0	0	0	0	-0	0	0.05595	0	0	0	-0	0	0	0	0	0	-0	0	556.237	561.31	322.27	221.826	-0.169912	1.55592	0.00529583	-0.0179428	-4.03419
47	0.0217231	-0.0217227	0.00942159	0.00863545	-0.0166977	-0.0396775	0.0211053	0.0286339	-0.000950599	0.112698	0.00885808	-0.0877319	0.0518022	-0.00385732	0.0205226	-2.20787	0.0214032	-1.53251	0	0	0	0	-0	0	0	0	-0.1265	0	-0	0	0	0	0	0	-0	0	0.105	-0.015	0	0	-0	0	0	-0.098	0.1	0	-0	0	0	0	0	0	-0	0	0.05595	0	0	0	-0	0	0	0	0	0	-0	0	556.264	561.344	322.27	221.915	-0.170308	1.56057	0.00532643	-0.0179489	-4.04823
48	0.0221455	-0.0217256	0.00942042	0.00863349	-0.0166982	-0.039676	0.0211053	0.0286347	-0.000950324	0.111029	0.010175	-0.0790369	0.0517913	-0.0038571	0.020547	-2.20769	0.0213944	-1.53251	0	0	0	0	-0	0	0	0	-0.1265	0	-0	0	0	0	0	0	-0	0	0.105	-0.015	0	0	-0	0	0	-0.098	0.1	0	-0	0	0	0	0	0	-0	0	0.05595	0	0	0	-0	0	0	0	0	0	-0	0	556.303	561.393	322.271	222.042	-0.170707	1.56595	0.00536509	-0.017957	-4.06528
49	0.0167296	-0.0217271	0.00941984	0.00863148	-0.0166984	-0.0396749	0.0211047	0.0286339	-0.000950089	0.107317	0.0131127	-0.0808656	0.0519017	-0.0038569	0.0202677	-2.21322	0.0216045	-1.53264	0	0	0	0	-0	0	0	0	-0.1265	0	-0	0	0	0	0	0	-0	0	0.105	-0.015	0	0	-0	0	0	-0.098	0.1	0	-0	0	0	0	0	0	-0	0	0.05595	0	0	0	-0	0	0	0	0	0	-0	0	556.322	561.416	322.272	222.104	-0.170972	1.56908	0.00538894	-0.017958	-4.07507
50	0.0155049	-0.0217285	0.00941928	0.00863082	-0.0166988	-0.0396742	0.0211048	0.0286341	-0.000949922	0.107765	0.0138275	-0.0874724	0.0519251	-0.00385679	0.0202047	-2.21453	0.0216533	-1.53267	0	0	0	0	-0	0	0	0	-0.1265	0	-0	0	0	0	0	0	-0	0	0.105	-0.015	0	0	-0	0	0	-0.098	0.1	0	-0	0	0	0	0	0	-0	0	0.05595	0	0	0	-0	0	0	0	0	0	-0	0	556.335	561.433	322.272	222.149	-0.171168	1.57146	0.00540379	-0.0179599	-4.0824
51	0.0127319	-0.021731	0.00941833	0.00862914	-0.0166994	-0.0396729	0.021105	0.0286337	-0.000949134	0.105512	0.00503988	-0.0826348	0.0519798	-0.00385662	0.0200624	-2.21748	0.0217628	-1.53274	0	0	0	0	-0	0	0	0	-0.1265	0	-0	0	0	0	0	0	-0	0	0.105	-0.015	0	0	-0	0	0	-0.098	0.1	0	-0	0	0	0	0	0	-0	0	0.05595	0	0	0	-0	0	0	0	0	0	-0	0	556.365	561.47	322.274	222.246	-0.17161	1.5766	0.00543689	-0.0179653	-4.09782
52	0.00561816	-0.0217345	0.00941691	0.00862714	-0.0167002	-0.0396711	0.0211044	0.0286337	-0.000949562	0.106427	0.00549664	-0.0862934	0.0521205	-0.00385637	0.0196949	-2.22485	0.0220365	-1.53291	0	0	0	0	-0	0	0	0	-0.1265	0	-0	0	0	0	0	0	-0	0	0.105	-0.015	0	0	-0	0	0	-0.098	0.1	0	-0	0	0	0	0	0	-0	0	0.05595	0	0	0	-0	0	0	0	0	0	-0	0	556.404	561.519	322.279	222.381	-0.172094	1.58285	0.00548058	-0.0179718	-4.11744
53	0.00470039	-0.0217364	0.0094161	0.00862571	-0.0167007	-0.0396701	0.0211054	0.0286348	-0.000948223	0.10312	-0.000760482	-0.0762124	0.0521365	-0.0038562	0.0196478	-2.22589	0.022072	-1.53294	0	0	0	0	-0	0	0	0	-0.1265	0	-0	0	0	0	0	0	-0	0	0.105	-0.015	0	0	-0	0	0	-0.098	0.1	0	-0	0	0	0	0	0	-0	0	0.05595	0	0	0	-0	0	0	0	0	0	-0	0	556.422	561.544	322.282	222.446	-0.172351	1.58614	0.00550265	-0.017972	-4.12795
54	0.0115514	-0.0217372	0.00941573	0.00862429	-0.0167006	-0.0396693	0.0211045	0.0286334	-0.00094943	0.1031	-0.00571998	-0.0773539	0.0520011	-0.00385607	0.0200059	-2.21913	0.0218119	-1.53279	0	0	0	0	-0	0	0	0	-0.1265	0	-0	0	0	0	0	0	-0	0	0.105	-0.015	0	0	-0	0	0	-0.098	0.1	0	-0	0	0	0	0	0	-0	0	0.05595	0	0	0	-0	0	0	0	0	0	-0	0	556.437	561.563	322.284	222.494	-0.172553	1.58859	0.00551809	-0.0179723	-4.13553
55	0.0114776	-0.0217388	0.00941508	0.00862412	-0.0167012	-0.0396687	0.0211043	0.0286338	-0.000949284	0.107955	-0.00637211	-0.0781403	0.0520009	-0.00385599	0.0200022	-2.21927	0.021815	-1.5328	0	0	0	0	-0	0	0	0	-0.1265	0	-0	0	0	0	0	0	-0	0	0.105	-0.015	0	0	-0	0	0	-0.098	0.1	0	-0	0	0	0	0	0	-0	0	0.05595	0	0	0	-0	0	0	0	0	0	-0	0	556.448	561.576	322.286	222.529	-0.172753	1.59076	0.00553184	-0.0179731	-4.14201
56	0.0129448	-0.0217401	0.00941463	0.00862277	-0.0167016	-0.039668	0.0211041	0.0286342	-0.000949446	0.115685	-0.003707	-0.0760382	0.0519709	-0.00385588	0.0200794	-2.2179	0.0217588	-1.53278	0	0	0	0	-0	0	0	0	-0.1265	0	-0	0	0	0	0	0	-0	0	0.105	-0.015	0	0	-0	0	0	-0.098	0.1	0	-0	0	0	0	0	0	-0	0	0.05595	0	0	0	-0	0	0	0	0	0	-0	0	556.464	561.596	322.289	222.579	-0.173021	1.59379	0.00554958	-0.0179741	-4.15105
57	0.0119799	-0.0217431	0.00941361	0.00862108	-0.0167024	-0.0396666	0.0211048	0.0286345	-0.00094752	0.109496	-0.0117624	-0.0675861	0.0519888	-0.00385571	0.0200312	-2.21906	0.0217932	-1.53281	0	0	0	0	-0	0	0	0	-0.1265	0	-0	0	0	0	0	0	-0	0	0.105	-0.015	0	0	-0	0	0	-0.098	0.1	0	-0	0	0	0	0	0	-0	0	0.05595	0	0	0	-0	0	0	0	0	0	-0	0	556.494	561.635	322.297	222.686	-0.173399	1.59874	0.00558314	-0.0179773	-4.16668
58	0.00967906	-0.0217466	0.00941222	0.00861839	-0.0167031	-0.0396646	0.0211053	0.0286333	-0.000949862	0.106085	-0.0249079	-0.0722173	0.0520327	-0.00385541	0.0199145	-2.22163	0.021874	-1.53289	0	0	0	0	-0	0	0	0	-0.1265	0	-0	0	0	0	0	0	-0	0	0.105	-0.015	0	0	-0	0	0	-0.098	0.1	0	-0	0	0	0	0	0	-0	0	0.05595	0	0	0	-0	0	0	0	0	0	-0	0	556.536	561.69	322.31	222.83	-0.173915	1.6055	0.00562976	-0.0179791	-4.18818
59	0.0048196	-0.021749	0.00941087	0.00861768	-0.016704	-0.0396636	0.0211052	0.0286344	-0.000947725	0.105376	-0.0314153	-0.0634213	0.0521284	-0.00385523	0.0196628	-2.22662	0.0220538	-1.53301	0	0	0	0	-0	0	0	0	-0.1265	0	-0	0	0	0	0	0	-0	0	0.105	-0.015	0	0	-0	0	0	-0.098	0.1	0	-0	0	0	0	0	0	-0	0	0.05595	0	0	0	-0	0	0	0	0	0	-0	0	556.556	561.715	322.317	222.898	-0.174228	1.60919	0.00565563	-0.0179767	-4.19979
60	0.00438314	-0.0217489	0.0094109	0.00861645	-0.0167037	-0.0396631	0.0211042	0.0286334	-0.000948569	0.105648	-0.0301595	-0.0606734	0.0521362	-0.00385513	0.0196401	-2.22708	0.0220689	-1.53303	0	0	0	0	-0	0	0	0	-0.1265	0	-0	0	0	0	0	0	-0	0	0.105	-0.015	0	0	-0	0	0	-0.098	0.1	0	-0	0	0	0	0	0	-0	0	0.05595	0	0	0	-0	0	0	0	0	0	-0	0	556.56	561.72	322.319	222.912	-0.174301	1.61005	0.00566131	-0.0179745	-4.20257
61	0.00278323	-0.0217497	0.00941071	0.00861616	-0.0167041	-0.039663	0.0211042	0.0286334	-0.00094849	0.105231	-0.0300498	-0.0637735	0.0521675	-0.00385511	0.0195569	-2.2287	0.0221285	-1.53306	0	0	0	0	-0	0	0	0	-0.1265	0	-0	0	0	0	0	0	-0	0	0.105	-0.015	0	0	-0	0	0	-0.098	0.1	0	-0	0	0	0	0	0	-0	0	0.05595	0	0	0	-0	0	0	0	0	0	-0	0	556.563	561.725	322.321	222.925	-0.174354	1.61072	0.00566543	-0.0179744	-4.20469
62	0.00183282	-0.0217506	0.0094103	0.00861597	-0.0167044	-0.0396626	0.0211041	0.0286333	-0.00094851	0.104241	-0.0321019	-0.0652697	0.0521859	-0.00385508	0.0195076	-2.2297	0.022162	-1.53309	0	0	0	0	-0	0	0	0	-0.1265	0	-0	0	0	0	0	0	-0	0	0.105	-0.015	0	0	-0	0	0	-0.098	0.1	0	-0	0	0	0	0	0	-0	0	0.05595	0	0	0	-0	0	0	0	0	0	-0	0	556.57	561.736	322.324	222.953	-0.174509	1.61253	0.00567317	-0.0179743	-4.21007
63	-0.00039583	-0.021752	0.00940977	0.00861528	-0.0167048	-0.0396619	0.0211044	0.0286337	-0.00094839	0.107206	-0.0341837	-0.069354	0.0522288	-0.00385499	0.019392	-2.23201	0.0222421	-1.53315	0	0	0	0	-0	0	0	0	-0.1265	0	-0	0	0	0	0	0	-0	0	0.105	-0.015	0	0	-0	0	0	-0.098	0.1	0	-0	0	0	0	0	0	-0	0	0.05595	0	0	0	-0	0	0	0	0	0	-0	0	556.583	561.752	322.33	222.994	-0.174745	1.61517	0.00568784	-0.0179736	-4.21797
64	-0.0061788	-0.0217536	0.0094091	0.00861426	-0.0167052	-0.0396611	0.0211047	0.028633	-0.000947729	0.10114	-0.0485252	-0.0667364	0.0523401	-0.00385488	0.019091	-2.2379	0.0224528	-1.53329	0	0	0	0	-0	0	0	0	-0.1265	0	-0	0	0	0	0	0	-0	0	0.105	-0.015	0	0	-0	0	0	-0.098	0.1	0	-0	0	0	0	0	0	-0	0	0.05595	0	0	0	-0	0	0	0	0	0	-0	0	556.6	561.774	322.338	223.053	-0.175	1.61828	0.00570811	-0.0179724	-4.22767
65	-0.00365572	-0.0217558	0.00940811	0.00861322	-0.0167059	-0.0396599	0.0211045	0.0286335	-0.000948363	0.102544	-0.0535732	-0.0700925	0.0522898	-0.00385472	0.0192244	-2.23553	0.0223474	-1.53326	0	0	0	0	-0	0	0	0	-0.1265	0	-0	0	0	0	0	0	-0	0	0.105	-0.015	0	0	-0	0	0	-0.098	0.1	0	-0	0	0	0	0	0	-0	0	0.05595	0	0	0	-0	0	0	0	0	0	-0	0	556.623	561.805	322.351	223.134	-0.175271	1.62199	0.00573387	-0.0179705	-4.23974
66	-0.00407295	-0.0217563	0.00940793	0.00861218	-0.016706	-0.0396597	0.0211041	0.0286333	-0.000948015	0.10278	-0.0562584	-0.0687232	0.0522975	-0.00385463	0.0192028	-2.23597	0.0223616	-1.53327	0	0	0	0	-0	0	0	0	-0.1265	0	-0	0	0	0	0	0	-0	0	0.105	-0.015	0	0	-0	0	0	-0.098	0.1	0	-0	0	0	0	0	0	-0	0	0.05595	0	0	0	-0	0	0	0	0	0	-0	0	556.626	561.809	322.353	223.145	-0.175329	1.6226	0.00574092	-0.0179675	-4.24185
67	-0.00503808	-0.021757	0.00940772	0.00861163	-0.0167063	-0.0396593	0.0211042	0.0286334	-0.000947901	0.102947	-0.0542991	-0.0723868	0.0523157	-0.00385458	0.0191527	-2.23698	0.0223946	-1.5333	0	0	0	0	-0	0	0	0	-0.1265	0	-0	0	0	0	0	0	-0	0	0.105	-0.015	0	0	-0	0	0	-0.098	0.1	0	-0	0	0	0	0	0	-0	0	0.05595	0	0	0	-0	0	0	0	0	0	-0	0	556.632	561.816	322.356	223.167	-0.175439	1.6239	0.00574925	-0.0179668	-4.24585
68	-0.00725025	-0.021758	0.00940728	0.0086112	-0.0167066	-0.0396588	0.0211042	0.0286334	-0.00094795	0.105301	-0.057642	-0.0719299	0.0523578	-0.00385453	0.0190373	-2.23925	0.0224725	-1.53336	0	0	0	0	-0	0	0	0	-0.1265	0	-0	0	0	0	0	0	-0	0	0.105	-0.015	0	0	-0	0	0	-0.098	0.1	0	-0	0	0	0	0	0	-0	0	0.05595	0	0	0	-0	0	0	0	0	0	-0	0	556.64	561.828	322.362	223.2	-0.175603	1.62585	0.00575935	-0.0179654	-4.2518
69	-0.00691663	-0.0217585	0.00940703	0.00861076	-0.0167067	-0.0396585	0.0211043	0.0286333	-0.000947937	0.104297	-0.0530581	-0.0717779	0.0523512	-0.00385448	0.019055	-2.23894	0.0224574	-1.53336	0	0	0	0	-0	0	0	0	-0.1265	0	-0	0	0	0	0	0	-0	0	0.105	-0.015	0	0	-0	0	0	-0.098	0.1	0	-0	0	0	0	0	0	-0	0	0.05595	0	0	0	-0	0	0	0	0	0	-0	0	556.645	561.834	322.365	223.216	-0.175682	1.62675	0.00576681	-0.017964	-4.25466
70	-0.00930292	-0.0217595	0.00940661	0.00861025	-0.0167071	-0.039658	0.0211041	0.0286334	-0.000947891	0.101849	-0.0521013	-0.0741601	0.0523962	-0.00385442	0.0189307	-2.24139	0.0225407	-1.53342	0	0	0	0	-0	0	0	0	-0.1265	0	-0	0	0	0	0	0	-0	0	0.105	-0.015	0	0	-0	0	0	-0.098	0.1	0	-0	0	0	0	0	0	-0	0	0.05595	0	0	0	-0	0	0	0	0	0	-0	0	556.654	561.846	322.372	223.25	-0.175813	1.62846	0.00577822	-0.0179626	-4.26013
71	-0.0106104	-0.0217601	0.00940635	0.00860978	-0.0167073	-0.0396577	0.0211041	0.0286334	-0.000947826	0.104563	-0.0533723	-0.0742159	0.0524207	-0.00385437	0.0188624	-2.24273	0.0225865	-1.53346	0	0	0	0	-0	0	0	0	-0.1265	0	-0	0	0	0	0	0	-0	0	0.105	-0.015	0	0	-0	0	0	-0.098	0.1	0	-0	0	0	0	0	0	-0	0	0.05595	0	0	0	-0	0	0	0	0	0	-0	0	556.658	561.852	322.375	223.267	-0.17591	1.62953	0.00578498	-0.0179608	-4.26342
72	-0.0108519	-0.0217605	0.00940621	0.00860942	-0.0167074	-0.0396575	0.021104	0.0286333	-0.000947792	0.10569	-0.0539888	-0.0722754	0.052425	-0.00385433	0.01885	-2.243	0.022593	-1.53347	0	0	0	0	-0	0	0	0	-0.1265	0	-0	0	0	0	0	0	-0	0	0.105	-0.015	0	0	-0	0	0	-0.098	0.1	0	-0	0	0	0	0	0	-0	0	0.05595	0	0	0	-0	0	0	0	0	0	-0	0	556.662	561.857	322.378	223.28	-0.175959	1.63015	0.00578966	-0.0179598	-4.26546
73	-0.0113702	-0.0217608	0.00940607	0.00860924	-0.0167075	-0.0396573	0.0211041	0.0286332	-0.000947774	0.105409	-0.0572579	-0.072261	0.0524346	-0.00385431	0.018823	-2.24353	0.0226105	-1.53348	0	0	0	0	-0	0	0	0	-0.1265	0	-0	0	0	0	0	0	-0	0	0.105	-0.015	0	0	-0	0	0	-0.098	0.1	0	-0	0	0	0	0	0	-0	0	0.05595	0	0	0	-0	0	0	0	0	0	-0	0	556.665	561.861	322.38	223.289	-0.176011	1.63075	0.0057928	-0.017959	-4.26728
74	-0.013869	-0.0217615	0.00940576	0.00860907	-0.0167077	-0.039657	0.0211043	0.0286335	-0.000947765	0.108915	-0.0606009	-0.0732504	0.0524815	-0.00385428	0.0186923	-2.24607	0.0226995	-1.53355	0	0	0	0	-0	0	0	0	-0.1265	0	-0	0	0	0	0	0	-0	0	0.105	-0.015	0	0	-0	0	0	-0.098	0.1	0	-0	0	0	0	0	0	-0	0	0.05595	0	0	0	-0	0	0	0	0	0	-0	0	556.67	561.869	322.384	223.31	-0.176133	1.63218	0.00579864	-0.0179579	-4.27156
75	-0.0143578	-0.0217623	0.00940542	0.00860845	-0.016708	-0.0396566	0.0211041	0.0286335	-0.000947711	0.108721	-0.0608692	-0.0774681	0.05249	-0.00385421	0.0186672	-2.24661	0.0227114	-1.53357	0	0	0	0	-0	0	0	0	-0.1265	0	-0	0	0	0	0	0	-0	0	0.105	-0.015	0	0	-0	0	0	-0.098	0.1	0	-0	0	0	0	0	0	-0	0	0.05595	0	0	0	-0	0	0	0	0	0	-0	0	556.679	561.88	322.391	223.34	-0.176247	1.63358	0.0058105	-0.0179559	-4.27609
76	-0.0137426	-0.0217629	0.00940525	0.0086079	-0.0167082	-0.0396563	0.021104	0.0286333	-0.000947735	0.110181	-0.0590511	-0.0752262	0.0524783	-0.00385416	0.0186998	-2.24603	0.0226852	-1.53356	0	0	0	0	-0	0	0	0	-0.1265	0	-0	0	0	0	0	0	-0	0	0.105	-0.015	0	0	-0	0	0	-0.098	0.1	0	-0	0	0	0	0	0	-0	0	0.05595	0	0	0	-0	0	0	0	0	0	-0	0	556.683	561.886	322.394	223.354	-0.176321	1.63447	0.00581619	-0.0179541	-4.27894
77	-0.0143523	-0.021763	0.00940516	0.0086078	-0.0167082	-0.0396562	0.021104	0.0286332	-0.000947628	0.109134	-0.0579468	-0.0751776	0.0524896	-0.00385414	0.0186679	-2.24664	0.0227072	-1.53357	0	0	0	0	-0	0	0	0	-0.1265	0	-0	0	0	0	0	0	-0	0	0.105	-0.015	0	0	-0	0	0	-0.098	0.1	0	-0	0	0	0	0	0	-0	0	0.05595	0	0	0	-0	0	0	0	0	0	-0	0	556.684	561.887	322.395	223.357	-0.176338	1.63465	0.00581759	-0.0179535	-4.27954
78	-0.0137091	-0.0217632	0.00940509	0.00860771	-0.0167083	-0.0396561	0.0211039	0.0286332	-0.000947612	0.109396	-0.0573463	-0.0756192	0.0524775	-0.00385413	0.0187017	-2.24601	0.0226819	-1.53356	0	0	0	0	-0	0	0	0	-0.1265	0	-0	0	0	0	0	0	-0	0	0.105	-0.015	0	0	-0	0	0	-0.098	0.1	0	-0	0	0	0	0	0	-0	0	0.05595	0	0	0	-0	0	0	0	0	0	-0	0	556.686	561.889	322.396	223.364	-0.17636	1.63495	0.00581905	-0.0179531	-4.28051
79	-0.0138149	-0.0217635	0.00940499	0.00860752	-0.0167084	-0.039656	0.021104	0.0286332	-0.000947585	0.109507	-0.0595077	-0.075128	0.0524793	-0.00385411	0.0186964	-2.24613	0.0226837	-1.53357	0	0	0	0	-0	0	0	0	-0.1265	0	-0	0	0	0	0	0	-0	0	0.105	-0.015	0	0	-0	0	0	-0.098	0.1	0	-0	0	0	0	0	0	-0	0	0.05595	0	0	0	-0	0	0	0	0	0	-0	0	556.689	561.893	322.399	223.373	-0.176394	1.63539	0.00582232	-0.0179524	-4.28193
80	-0.015055	-0.0217638	0.00940486	0.00860725	-0.0167085	-0.0396558	0.021104	0.0286332	-0.000947541	0.111432	-0.0554454	-0.0757488	0.0525023	-0.00385408	0.0186316	-2.2474	0.0227266	-1.5336	0	0	0	0	-0	0	0	0	-0.1265	0	-0	0	0	0	0	0	-0	0	0.105	-0.015	0	0	-0	0	0	-0.098	0.1	0	-0	0	0	0	0	0	-0	0	0.05595	0	0	0	-0	0	0	0	0	0	-0	0	556.692	561.898	322.402	223.386	-0.176421	1.63587	0.00582689	-0.0179515	-4.28367
81	-0.0166271	-0.021764	0.00940475	0.00860711	-0.0167086	-0.0396557	0.021104	0.0286332	-0.000947538	0.112152	-0.0521672	-0.0762318	0.0525315	-0.00385406	0.0185492	-2.24898	0.0227835	-1.53364	0	0	0	0	-0	0	0	0	-0.1265	0	-0	0	0	0	0	0	-0	0	0.105	-0.015	0	0	-0	0	0	-0.098	0.1	0	-0	0	0	0	0	0	-0	0	0.05595	0	0	0	-0	0	0	0	0	0	-0	0	556.694	561.9	322.403	223.393	-0.176447	1.63619	0.00582915	-0.0179506	-4.28469
82	-0.017578	-0.0217645	0.00940452	0.00860693	-0.0167087	-0.0396555	0.021104	0.0286333	-0.000947549	0.114154	-0.0526527	-0.0754916	0.052549	-0.00385404	0.0184994	-2.24996	0.0228153	-1.53367	0	0	0	0	-0	0	0	0	-0.1265	0	-0	0	0	0	0	0	-0	0	0.105	-0.015	0	0	-0	0	0	-0.098	0.1	0	-0	0	0	0	0	0	-0	0	0.05595	0	0	0	-0	0	0	0	0	0	-0	0	556.697	561.905	322.407	223.407	-0.176533	1.63718	0.00583445	-0.0179495	-4.28767
83	-0.0172259	-0.0217648	0.00940443	0.00860666	-0.0167088	-0.0396554	0.021104	0.0286333	-0.000947536	0.115476	-0.0527858	-0.0734257	0.0525423	-0.00385402	0.018518	-2.24962	0.0228004	-1.53366	0	0	0	0	-0	0	0	0	-0.1265	0	-0	0	0	0	0	0	-0	0	0.105	-0.015	0	0	-0	0	0	-0.098	0.1	0	-0	0	0	0	0	0	-0	0	0.05595	0	0	0	-0	0	0	0	0	0	-0	0	556.699	561.908	322.409	223.415	-0.176567	1.63758	0.00583721	-0.0179485	-4.28897
84	-0.0173478	-0.021765	0.00940434	0.0086066	-0.0167089	-0.0396553	0.0211039	0.0286332	-0.000947474	0.115721	-0.0513013	-0.0746987	0.0525446	-0.00385401	0.0185117	-2.24976	0.0228036	-1.53367	0	0	0	0	-0	0	0	0	-0.1265	0	-0	0	0	0	0	0	-0	0	0.105	-0.015	0	0	-0	0	0	-0.098	0.1	0	-0	0	0	0	0	0	-0	0	0.05595	0	0	0	-0	0	0	0	0	0	-0	0	556.701	561.91	322.41	223.42	-0.176596	1.63794	0.00583878	-0.0179479	-4.2901
85	-0.0171727	-0.0217651	0.00940427	0.00860652	-0.0167089	-0.0396552	0.021104	0.0286333	-0.000947523	0.117867	-0.0516005	-0.0732138	0.0525413	-0.003854	0.0185209	-2.24959	0.022796	-1.53366	0	0	0	0	-0	0	0	0	-0.1265	0	-0	0	0	0	0	0	-0	0	0.105	-0.015	0	0	-0	0	0	-0.098	0.1	0	-0	0	0	0	0	0	-0	0	0.05595	0	0	0	-0	0	0	0	0	0	-0	0	556.702	561.911	322.411	223.424	-0.17662	1.63822	0.00584025	-0.0179475	-4.29094
86	-0.0184463	-0.0217654	0.00940414	0.00860642	-0.016709	-0.0396551	0.0211039	0.0286332	-0.000947481	0.11761	-0.053471	-0.0731345	0.0525648	-0.00385399	0.0184541	-2.25088	0.022841	-1.5337	0	0	0	0	-0	0	0	0	-0.1265	0	-0	0	0	0	0	0	-0	0	0.105	-0.015	0	0	-0	0	0	-0.098	0.1	0	-0	0	0	0	0	0	-0	0	0.05595	0	0	0	-0	0	0	0	0	0	-0	0	556.704	561.915	322.414	223.433	-0.176668	1.63879	0.00584279	-0.0179467	-4.29271
87	-0.018497	-0.0217656	0.00940407	0.00860633	-0.0167091	-0.039655	0.021104	0.0286333	-0.000947488	0.11535	-0.0528584	-0.0740652	0.0525656	-0.00385397	0.0184515	-2.25094	0.0228416	-1.5337	0	0	0	0	-0	0	0	0	-0.1265	0	-0	0	0	0	0	0	-0	0	0.105	-0.015	0	0	-0	0	0	-0.098	0.1	0	-0	0	0	0	0	0	-0	0	0.05595	0	0	0	-0	0	0	0	0	0	-0	0	556.705	561.916	322.415	223.438	-0.176682	1.63898	0.00584471	-0.0179462	-4.29338
88	-0.0170985	-0.0217658	0.00940398	0.00860608	-0.0167092	-0.0396549	0.0211041	0.0286334	-0.000947439	0.117777	-0.0540686	-0.0771898	0.0525396	-0.00385395	0.0185253	-2.24956	0.022787	-1.53367	0	0	0	0	-0	0	0	0	-0.1265	0	-0	0	0	0	0	0	-0	0	0.105	-0.015	0	0	-0	0	0	-0.098	0.1	0	-0	0	0	0	0	0	-0	0	0.05595	0	0	0	-0	0	0	0	0	0	-0	0	556.708	561.92	322.418	223.448	-0.176708	1.63938	0.0058479	-0.0179453	-4.29474
89	-0.0160401	-0.021766	0.00940391	0.00860591	-0.0167092	-0.0396548	0.0211039	0.0286333	-0.000947467	0.116189	-0.0543266	-0.0787059	0.0525199	-0.00385393	0.018581	-2.24851	0.0227463	-1.53365	0	0	0	0	-0	0	0	0	-0.1265	0	-0	0	0	0	0	0	-0	0	0.105	-0.015	0	0	-0	0	0	-0.098	0.1	0	-0	0	0	0	0	0	-0	0	0.05595	0	0	0	-0	0	0	0	0	0	-0	0	556.709	561.922	322.419	223.453	-0.176736	1.63969	0.00585037	-0.0179446	-4.29571
90	-0.0171064	-0.0217662	0.00940385	0.00860584	-0.0167093	-0.0396547	0.0211039	0.0286332	-0.000947435	0.11667	-0.0537223	-0.0783306	0.0525396	-0.00385392	0.0185251	-2.24958	0.0227849	-1.53368	0	0	0	0	-0	0	0	0	-0.1265	0	-0	0	0	0	0	0	-0	0	0.105	-0.015	0	0	-0	0	0	-0.098	0.1	0	-0	0	0	0	0	0	-0	0	0.05595	0	0	0	-0	0	0	0	0	0	-0	0	556.71	561.923	322.42	223.456	-0.176754	1.63992	0.0058517	-0.0179442	-4.29644
91	-0.0179859	-0.0217664	0.00940375	0.00860566	-0.0167094	-0.0396546	0.0211039	0.0286332	-0.000947432	0.116721	-0.0549358	-0.0793596	0.0525558	-0.0038539	0.018479	-2.25048	0.0228153	-1.5337	0	0	0	0	-0	0	0	0	-0.1265	0	-0	0	0	0	0	0	-0	0	0.105	-0.015	0	0	-0	0	0	-0.098	0.1	0	-0	0	0	0	0	0	-0	0	0.05595	0	0	0	-0	0	0	0	0	0	-0	0	556.713	561.926	322.422	223.465	-0.176795	1.64038	0.0058549	-0.0179434	-4.29786
92	-0.0192656	-0.0217668	0.00940359	0.00860546	-0.0167096	-0.0396544	0.0211041	0.0286333	-0.000947403	0.118871	-0.0578416	-0.0797208	0.0525793	-0.00385388	0.018412	-2.25178	0.0228593	-1.53373	0	0	0	0	-0	0	0	0	-0.1265	0	-0	0	0	0	0	0	-0	0	0.105	-0.015	0	0	-0	0	0	-0.098	0.1	0	-0	0	0	0	0	0	-0	0	0.05595	0	0	0	-0	0	0	0	0	0	-0	0	556.716	561.931	322.425	223.477	-0.176843	1.64101	0.00585894	-0.0179422	-4.29994
93	-0.019497	-0.021767	0.00940349	0.00860533	-0.0167096	-0.0396543	0.0211041	0.0286334	-0.000947297	0.118497	-0.0559633	-0.0830998	0.0525834	-0.00385386	0.0183999	-2.25202	0.0228661	-1.53374	0	0	0	0	-0	0	0	0	-0.1265	0	-0	0	0	0	0	0	-0	0	0.105	-0.015	0	0	-0	0	0	-0.098	0.1	0	-0	0	0	0	0	0	-0	0	0.05595	0	0	0	-0	0	0	0	0	0	-0	0	556.718	561.933	322.427	223.483	-0.176874	1.64133	0.0058616	-0.0179412	-4.30091
94	-0.0195936	-0.0217671	0.00940345	0.00860518	-0.0167096	-0.0396542	0.0211039	0.0286332	-0.000947405	0.119318	-0.0548948	-0.0815116	0.0525851	-0.00385385	0.0183949	-2.25213	0.0228684	-1.53375	0	0	0	0	-0	0	0	0	-0.1265	0	-0	0	0	0	0	0	-0	0	0.105	-0.015	0	0	-0	0	0	-0.098	0.1	0	-0	0	0	0	0	0	-0	0	0.05595	0	0	0	-0	0	0	0	0	0	-0	0	556.719	561.935	322.428	223.487	-0.176892	1.6416	0.00586283	-0.0179407	-4.3018
95	-0.0200473	-0.0217675	0.00940328	0.00860505	-0.0167098	-0.039654	0.0211041	0.0286335	-0.000947349	0.118505	-0.0543668	-0.0858734	0.0525934	-0.00385383	0.0183712	-2.2526	0.0228823	-1.53376	0	0	0	0	-0	0	0	0	-0.1265	0	-0	0	0	0	0	0	-0	0	0.105	-0.015	0	0	-0	0	0	-0.098	0.1	0	-0	0	0	0	0	0	-0	0	0.05595	0	0	0	-0	0	0	0	0	0	-0	0	556.722	561.939	322.431	223.497	-0.17696	1.64236	0.00586626	-0.0179397	-4.30407
96	-0.0201415	-0.0217676	0.0094032	0.0086049	-0.0167098	-0.0396539	0.0211039	0.0286332	-0.000947337	0.119038	-0.0562751	-0.0858142	0.0525951	-0.00385382	0.0183663	-2.2527	0.0228843	-1.53376	0	0	0	0	-0	0	0	0	-0.1265	0	-0	0	0	0	0	0	-0	0	0.105	-0.015	0	0	-0	0	0	-0.098	0.1	0	-0	0	0	0	0	0	-0	0	0.05595	0	0	0	-0	0	0	0	0	0	-0	0	556.723	561.941	322.433	223.502	-0.176992	1.64266	0.00586859	-0.0179388	-4.30496
97	-0.0209907	-0.0217681	0.00940302	0.00860481	-0.01671	-0.0396538	0.021104	0.0286335	-0.000947333	0.123291	-0.0579807	-0.0859797	0.0526106	-0.0038538	0.0183217	-2.25357	0.0229124	-1.53379	0	0	0	0	-0	0	0	0	-0.1265	0	-0	0	0	0	0	0	-0	0	0.105	-0.015	0	0	-0	0	0	-0.098	0.1	0	-0	0	0	0	0	0	-0	0	0.05595	0	0	0	-0	0	0	0	0	0	-0	0	556.725	561.944	322.436	223.513	-0.177036	1.64328	0.00587166	-0.0179378	-4.30697
98	-0.022127	-0.0217685	0.00940283	0.00860455	-0.0167102	-0.0396536	0.021104	0.0286332	-0.000947252	0.122416	-0.0548204	-0.0870676	0.0526313	-0.00385378	0.0182622	-2.25474	0.0229493	-1.53382	0	0	0	0	-0	0	0	0	-0.1265	0	-0	0	0	0	0	0	-0	0	0.105	-0.015	0	0	-0	0	0	-0.098	0.1	0	-0	0	0	0	0	0	-0	0	0.05595	0	0	0	-0	0	0	0	0	0	-0	0	556.729	561.95	322.441	223.529	-0.177088	1.64405	0.00587645	-0.0179359	-4.30956
99	-0.0238817	-0.0217688	0.00940268	0.00860443	-0.0167103	-0.0396535	0.0211039	0.0286333	-0.000947194	0.125065	-0.0537243	-0.0893727	0.0526631	-0.00385375	0.01817	-2.25651	0.0230115	-1.53387	0	0	0	0	-0	0	0	0	-0.1265	0	-0	0	0	0	0	0	-0	0	0.105	-0.015	0	0	-0	0	0	-0.098	0.1	0	-0	0	0	0	0	0	-0	0	0.05595	0	0	0	-0	0	0	0	0	0	-0	0	556.731	561.953	322.444	223.537	-0.177113	1.64442	0.00587921	-0.0179347	-4.31084
100	-0.0234277	-0.0217689	0.00940269	0.00860419	-0.0167103	-0.0396534	0.0211039	0.0286332	-0.000947269	0.124819	-0.0531583	-0.088278	0.0526548	-0.00385374	0.018194	-2.25606	0.0229941	-1.53386	0	0	0	0	-0	0	0	0	-0.1265	0	-0	0	0	0	0	0	-0	0	0.105	-0.015	0	0	-0	0	0	-0.098	0.1	0	-0	0	0	0	0	0	-0	0	0.05595	0	0	0	-0	0	0	0	0	0	-0	0	556.731	561.954	322.444	223.539	-0.17712	1.64448	0.00588042	-0.0179342	-4.31103
