Stefan210/kinematic_calibration/src/kinematic_calibration/validation/experiments/experiments/anzahl_messungen/AC_B/larm_16/optimization_intermediate_results.csv
iteration	HeadPitch_offset	HeadYaw_offset	LElbowRoll_offset	LElbowYaw_offset	LShoulderPitch_offset	LShoulderRoll_offset	marker_transform_larm_tx	marker_transform_larm_ty	marker_transform_larm_tz	marker_transform_larm_rr	marker_transform_larm_rp	marker_transform_larm_ry	camera_transform_tx	camera_transform_ty	camera_transform_tz	camera_transform_rr	camera_transform_rp	camera_transform_ry	HeadPitch_transform_tx	HeadPitch_transform_ty	HeadPitch_transform_tz	HeadPitch_transform_rr	HeadPitch_transform_rp	HeadPitch_transform_ry	HeadYaw_transform_tx	HeadYaw_transform_ty	HeadYaw_transform_tz	HeadYaw_transform_rr	HeadYaw_transform_rp	HeadYaw_transform_ry	LElbowRoll_transform_tx	LElbowRoll_transform_ty	LElbowRoll_transform_tz	LElbowRoll_transform_rr	LElbowRoll_transform_rp	LElbowRoll_transform_ry	LElbowYaw_transform_tx	LElbowYaw_transform_ty	LElbowYaw_transform_tz	LElbowYaw_transform_rr	LElbowYaw_transform_rp	LElbowYaw_transform_ry	LShoulderPitch_transform_tx	LShoulderPitch_transform_ty	LShoulderPitch_transform_tz	LShoulderPitch_transform_rr	LShoulderPitch_transform_rp	LShoulderPitch_transform_ry	LShoulderRoll_transform_tx	LShoulderRoll_transform_ty	LShoulderRoll_transform_tz	LShoulderRoll_transform_rr	LShoulderRoll_transform_rp	LShoulderRoll_transform_ry	LWristYaw_transform_tx	LWristYaw_transform_ty	LWristYaw_transform_tz	LWristYaw_transform_rr	LWristYaw_transform_rp	LWristYaw_transform_ry	l_wrist_joint_transform_tx	l_wrist_joint_transform_ty	l_wrist_joint_transform_tz	l_wrist_joint_transform_rr	l_wrist_joint_transform_rp	l_wrist_joint_transform_ry	camera_fx	camera_fy	camera_cx	camera_cy	camera_D0	camera_D1	camera_D2	camera_D3	camera_D4	
0	0.0249164	-0.0307543	0.000853157	4.65819e-06	-0.000318322	-0.00310766	0.05071	0	0.01774	-2.26369	1.66533e-16	-1.5708	545.901	551.038	324.928	201.58	0.0255298	2.61142	-0.0636736	-0.0350419	0.213964
1	-0.0151289	0.0179707	0.0348331	0.0340746	-0.0123918	0.00310577	0.0244682	-0.0293528	0.00196941	-0.000136402	-0.000430906	-0.0030236	0.0551789	-0.00104723	0.0176551	-2.20286	-0.0113594	-1.56606	0	0	0	0	-0	0	0	0	-0.1265	0	-0	0	0	0	0	0	-0	0	0.105	0.015	0	0	-0	0	0	0.098	0.1	0	-0	0	0	0	0	0	-0	0	0.05595	0	0	0	-0	0	0	0	0	0	-0	0	545.901	551.038	324.928	201.58	0.0038338	2.60397	-0.105808	0.0395685	0.212334
2	-0.0163161	0.019604	0.0409887	0.0491323	-0.0160631	0.00327465	0.0251585	-0.0297403	0.00262325	-0.000210056	-0.000490285	-0.00297959	0.0534249	-0.00240278	0.0194822	-2.19864	-0.0114715	-1.56135	0	0	0	0	-0	0	0	0	-0.1265	0	-0	0	0	0	0	0	-0	0	0.105	0.015	0	0	-0	0	0	0.098	0.1	0	-0	0	0	0	0	0	-0	0	0.05595	0	0	0	-0	0	0	0	0	0	-0	0	545.902	551.039	324.925	201.582	-0.0651705	2.55654	-0.104807	0.0064762	0.196359
3	-0.0162663	0.0196649	0.0370718	0.0446289	-0.0150402	0.00316653	0.0248168	-0.0296583	0.00243202	-0.000190418	-0.000476495	-0.00301041	0.0545792	-0.00145401	0.0180105	-2.19844	-0.0129	-1.5651	0	0	0	0	-0	0	0	0	-0.1265	0	-0	0	0	0	0	0	-0	0	0.105	0.015	0	0	-0	0	0	0.098	0.1	0	-0	0	0	0	0	0	-0	0	0.05595	0	0	0	-0	0	0	0	0	0	-0	0	545.904	551.039	324.92	201.587	-0.230092	2.44592	-0.0850426	0.00152926	0.159444
4	-0.0157511	0.021213	0.02727	0.0297147	-0.0140624	0.00486019	0.0240775	-0.0294794	0.00154118	-9.21943e-05	-0.000403458	-0.00307349	0.0561198	0.00056912	0.0159176	-2.19996	-0.0159791	-1.57251	0	0	0	0	-0	0	0	0	-0.1265	0	-0	0	0	0	0	0	-0	0	0.105	0.015	0	0	-0	0	0	0.098	0.1	0	-0	0	0	0	0	0	-0	0	0.05595	0	0	0	-0	0	0	0	0	0	-0	0	545.908	551.039	324.909	201.595	-0.530491	2.21281	-0.0343985	-0.0118422	0.0763626
5	-0.0154075	0.0233371	0.0175372	0.0139177	-0.0133167	0.00731944	0.0233933	-0.0293292	0.000588147	1.37115e-05	-0.000295126	-0.00312387	0.0574388	0.00243509	0.0141012	-2.20092	-0.0184329	-1.58068	0	0	0	0	-0	0	0	0	-0.1265	0	-0	0	0	0	0	0	-0	0	0.105	0.015	0	0	-0	0	0	0.098	0.1	0	-0	0	0	0	0	0	-0	0	0.05595	0	0	0	-0	0	0	0	0	0	-0	0	545.918	551.037	324.896	201.602	-0.748927	1.88418	0.00769915	-0.0234239	-0.0596328
6	-0.0153079	0.0254263	0.0136789	0.00942306	-0.0139336	0.0107678	0.0232952	-0.0293114	0.000353206	2.04856e-05	-0.00024907	-0.00318976	0.0569185	0.00284887	0.0147117	-2.20147	-0.0179825	-1.58466	0	0	0	0	-0	0	0	0	-0.1265	0	-0	0	0	0	0	0	-0	0	0.105	0.015	0	0	-0	0	0	0.098	0.1	0	-0	0	0	0	0	0	-0	0	0.05595	0	0	0	-0	0	0	0	0	0	-0	0	545.939	551.029	324.883	201.608	-0.621132	1.43778	0.0115694	-0.0218118	-0.286817
7	-0.015354	0.0270713	0.0118294	0.0101797	-0.0150186	0.014546	0.0234091	-0.0293499	0.000471441	-8.6882e-05	-0.000242276	-0.00318339	0.055535	0.00277622	0.0163846	-2.20192	-0.0164886	-1.58687	0	0	0	0	-0	0	0	0	-0.1265	0	-0	0	0	0	0	0	-0	0	0.105	0.015	0	0	-0	0	0	0.098	0.1	0	-0	0	0	0	0	0	-0	0	0.05595	0	0	0	-0	0	0	0	0	0	-0	0	545.97	551.013	324.867	201.606	-0.318697	0.838991	-0.000883614	-0.0122751	-0.64115
8	-0.0152095	0.0280654	0.0106115	0.0108961	-0.0157546	0.0173265	0.0234981	-0.0293921	0.000544593	-7.49012e-05	-0.000381205	-0.0033802	0.0544054	0.00269091	0.0177032	-2.20207	-0.0153659	-1.58768	0	0	0	0	-0	0	0	0	-0.1265	0	-0	0	0	0	0	0	-0	0	0.105	0.015	0	0	-0	0	0	0.098	0.1	0	-0	0	0	0	0	0	-0	0	0.05595	0	0	0	-0	0	0	0	0	0	-0	0	546.005	550.987	324.836	201.59	-0.0617608	0.342375	-0.0119884	-0.00469505	-1.08082
9	-0.0152216	0.0284971	0.010165	0.0110987	-0.0160784	0.0186178	0.023535	-0.0294143	0.000555172	0.00111884	-0.000755512	-0.0043604	0.0539479	0.00265323	0.0182332	-2.20215	-0.0148229	-1.58762	0	0	0	0	-0	0	0	0	-0.1265	0	-0	0	0	0	0	0	-0	0	0.105	0.015	0	0	-0	0	0	0.098	0.1	0	-0	0	0	0	0	0	-0	0	0.05595	0	0	0	-0	0	0	0	0	0	-0	0	546.049	550.933	324.735	201.574	0.034232	0.263696	-0.0164412	-0.00200003	-1.70122
10	-0.0154818	0.0285951	0.0102872	0.0110904	-0.0160948	0.0188252	0.0235354	-0.0294219	0.000550064	0.0045797	0.00426958	-0.00288922	0.0540735	0.00266593	0.0181099	-2.20199	-0.0144628	-1.58733	0	0	0	0	-0	0	0	0	-0.1265	0	-0	0	0	0	0	0	-0	0	0.105	0.015	0	0	-0	0	0	0.098	0.1	0	-0	0	0	0	0	0	-0	0	0.05595	0	0	0	-0	0	0	0	0	0	-0	0	546.146	550.79	324.418	201.56	-0.0212617	0.81528	-0.0173301	-0.00198392	-3.12106
11	-0.00785897	0.0285376	0.011014	0.0111546	-0.015875	0.0184182	0.0235155	-0.0294336	0.000552861	0.0185196	0.0145478	-9.55105e-05	0.054621	0.00272104	0.0178196	-2.1926	-0.0135513	-1.58685	0	0	0	0	-0	0	0	0	-0.1265	0	-0	0	0	0	0	0	-0	0	0.105	0.015	0	0	-0	0	0	0.098	0.1	0	-0	0	0	0	0	0	-0	0	0.05595	0	0	0	-0	0	0	0	0	0	-0	0	546.434	550.375	323.535	201.385	-0.253014	2.5865	-0.0184723	-0.00286267	-7.06538
12	-0.0198417	0.0282701	0.0132604	0.0116558	-0.0152142	0.0171318	0.0234593	-0.0294682	0.000581607	0.0444568	0.0253638	-0.0135961	0.0567623	0.00284825	0.015221	-2.19742	-0.0116865	-1.58523	0	0	0	0	-0	0	0	0	-0.1265	0	-0	0	0	0	0	0	-0	0	0.105	0.015	0	0	-0	0	0	0.098	0.1	0	-0	0	0	0	0	0	-0	0	0.05595	0	0	0	-0	0	0	0	0	0	-0	0	547.457	549.197	321.323	199.804	-0.887428	7.23851	-0.0223403	-0.00519164	-16.9439
13	-0.0335124	0.0276272	0.0166788	0.0133389	-0.014314	0.0153438	0.0233908	-0.0295254	0.000659927	0.0743248	0.0358204	-0.0116562	0.0594925	0.00297093	0.0117309	-2.19806	-0.0108027	-1.58472	0	0	0	0	-0	0	0	0	-0.1265	0	-0	0	0	0	0	0	-0	0	0.105	0.015	0	0	-0	0	0	0.098	0.1	0	-0	0	0	0	0	0	-0	0	0.05595	0	0	0	-0	0	0	0	0	0	-0	0	548.918	548.125	319.938	196.607	-1.60649	11.6247	-0.0317576	-0.00728078	-24.0315
14	-0.0676763	0.0276689	0.0201054	0.0187721	-0.0149499	0.0149052	0.0235099	-0.0296093	0.00101541	0.0278526	-0.00889927	-0.0215582	0.0613079	0.00276525	0.00825155	-2.22776	-0.000144191	-1.57221	0	0	0	0	-0	0	0	0	-0.1265	0	-0	0	0	0	0	0	-0	0	0.105	0.015	0	0	-0	0	0	0.098	0.1	0	-0	0	0	0	0	0	-0	0	0.05595	0	0	0	-0	0	0	0	0	0	-0	0	557.08	548.971	311.726	197.687	-2.27535	15.8853	-0.0317168	-0.0130524	-32.1496
15	-0.0548477	0.0274861	0.0195229	0.0215155	-0.0153819	0.0152651	0.0235357	-0.0295871	0.00124195	-0.0283895	0.0280151	-0.0101024	0.0609701	0.00268149	0.00917379	-2.21718	0.00329499	-1.56929	0	0	0	0	-0	0	0	0	-0.1265	0	-0	0	0	0	0	0	-0	0	0.105	0.015	0	0	-0	0	0	0.098	0.1	0	-0	0	0	0	0	0	-0	0	0.05595	0	0	0	-0	0	0	0	0	0	-0	0	557.443	552.839	309.584	199.117	-2.29264	17.1141	-0.046023	-0.0111004	-35.8303
16	-0.032049	0.0274285	0.0185844	0.0226636	-0.0157859	0.0155529	0.0235695	-0.0295632	0.00134355	-0.0340749	0.045362	-0.0134414	0.0606375	0.00268415	0.0107079	-2.20113	0.00898984	-1.5631	0	0	0	0	-0	0	0	0	-0.1265	0	-0	0	0	0	0	0	-0	0	0.105	0.015	0	0	-0	0	0	0.098	0.1	0	-0	0	0	0	0	0	-0	0	0.05595	0	0	0	-0	0	0	0	0	0	-0	0	557.543	558.592	305.195	202.103	-2.36848	19.2642	-0.0586988	-0.0119942	-42.7412
17	-0.0287814	0.0273898	0.0183083	0.0234207	-0.0159985	0.0155696	0.0235913	-0.0295638	0.00143745	-0.0213002	0.0576582	-0.0258912	0.060621	0.00267674	0.0109045	-2.19795	0.0104045	-1.56196	0	0	0	0	-0	0	0	0	-0.1265	0	-0	0	0	0	0	0	-0	0	0.105	0.015	0	0	-0	0	0	0.098	0.1	0	-0	0	0	0	0	0	-0	0	0.05595	0	0	0	-0	0	0	0	0	0	-0	0	556.718	560.225	304.08	202.296	-2.35584	19.7541	-0.0662712	-0.011209	-44.6279
18	-0.0501417	0.0274984	0.0172432	0.0241401	-0.0165862	0.0160506	0.0236134	-0.0296268	0.00157264	0.0486015	0.0505371	-0.0576006	0.0608401	0.00271196	0.00969805	-2.2254	0.0149553	-1.5578	0	0	0	0	-0	0	0	0	-0.1265	0	-0	0	0	0	0	0	-0	0	0.105	0.015	0	0	-0	0	0	0.098	0.1	0	-0	0	0	0	0	0	-0	0	0.05595	0	0	0	-0	0	0	0	0	0	-0	0	555.003	565.727	300.613	205.009	-2.39166	21.788	-0.0811563	-0.0119094	-51.7946
19	-0.0988612	0.0276813	0.0161129	0.0252921	-0.0173171	0.0165443	0.0236244	-0.0295187	0.001729	0.106951	-0.00438596	-0.0611113	0.0612862	0.00273586	0.00689444	-2.28185	0.0198946	-1.55508	0	0	0	0	-0	0	0	0	-0.1265	0	-0	0	0	0	0	0	-0	0	0.105	0.015	0	0	-0	0	0	0.098	0.1	0	-0	0	0	0	0	0	-0	0	0.05595	0	0	0	-0	0	0	0	0	0	-0	0	552.812	572.83	297.358	208.545	-2.43085	24.5691	-0.101704	-0.0121358	-62.131
20	-0.120509	0.0279921	0.0152494	0.0266218	-0.018027	0.0170533	0.0237498	-0.0295076	0.00193809	0.0935173	-0.078111	-0.0977193	0.0613645	0.00273791	0.00575388	-2.31196	0.0236623	-1.55311	0	0	0	0	-0	0	0	0	-0.1265	0	-0	0	0	0	0	0	-0	0	0.105	0.015	0	0	-0	0	0	0.098	0.1	0	-0	0	0	0	0	0	-0	0	0.05595	0	0	0	-0	0	0	0	0	0	-0	0	551.705	579.939	294.919	212.466	-2.53522	28.0935	-0.119427	-0.0130268	-75.4602
21	-0.13986	0.0280922	0.0148922	0.0273504	-0.0183021	0.017247	0.0236873	-0.0294519	0.00199674	0.102097	-0.0521336	-0.109006	0.0614621	0.00274179	0.00466373	-2.33361	0.0249173	-1.55321	0	0	0	0	-0	0	0	0	-0.1265	0	-0	0	0	0	0	0	-0	0	0.105	0.015	0	0	-0	0	0	0.098	0.1	0	-0	0	0	0	0	0	-0	0	0.05595	0	0	0	-0	0	0	0	0	0	-0	0	550.971	583.043	294.27	213.559	-2.55397	29.4817	-0.128649	-0.0127225	-81.3541
22	-0.142658	0.0281655	0.0148894	0.0274161	-0.0183763	0.0173417	0.0236858	-0.0294508	0.00201376	0.110006	-0.0330705	-0.0866233	0.0614951	0.00274398	0.0044861	-2.33754	0.0253342	-1.55309	0	0	0	0	-0	0	0	0	-0.1265	0	-0	0	0	0	0	0	-0	0	0.105	0.015	0	0	-0	0	0	0.098	0.1	0	-0	0	0	0	0	0	-0	0	0.05595	0	0	0	-0	0	0	0	0	0	-0	0	550.856	584.086	294.024	214.102	-2.58047	30.0882	-0.131102	-0.0129642	-83.6516
23	-0.159739	0.0282865	0.0147839	0.0278924	-0.0185454	0.0174887	0.0237083	-0.0294277	0.00206913	0.10368	0.0118763	-0.0802065	0.061536	0.00272298	0.00354011	-2.3572	0.0264026	-1.55293	0	0	0	0	-0	0	0	0	-0.1265	0	-0	0	0	0	0	0	-0	0	0.105	0.015	0	0	-0	0	0	0.098	0.1	0	-0	0	0	0	0	0	-0	0	0.05595	0	0	0	-0	0	0	0	0	0	-0	0	551.273	585.95	293.532	215.283	-2.64317	31.4195	-0.134084	-0.0135465	-88.7568
24	-0.153878	0.0283355	0.0147353	0.0281373	-0.0186143	0.0175375	0.0236904	-0.0294313	0.00209577	0.116375	0.00748833	-0.100489	0.0615005	0.00271559	0.00393572	-2.35231	0.0266176	-1.55259	0	0	0	0	-0	0	0	0	-0.1265	0	-0	0	0	0	0	0	-0	0	0.105	0.015	0	0	-0	0	0	0.098	0.1	0	-0	0	0	0	0	0	-0	0	0.05595	0	0	0	-0	0	0	0	0	0	-0	0	551.493	586.8	293.333	215.75	-2.67429	32.0402	-0.135546	-0.0137043	-91.1284
25	-0.172002	0.0284207	0.0147102	0.028448	-0.0187063	0.0176215	0.0236924	-0.0294182	0.00212363	0.124704	-5.87978e-05	-0.101953	0.0615453	0.00269789	0.00288822	-2.37187	0.0273991	-1.55273	0	0	0	0	-0	0	0	0	-0.1265	0	-0	0	0	0	0	0	-0	0	0.105	0.015	0	0	-0	0	0	0.098	0.1	0	-0	0	0	0	0	0	-0	0	0.05595	0	0	0	-0	0	0	0	0	0	-0	0	552.038	587.833	293.061	216.409	-2.7246	32.9149	-0.136431	-0.0141365	-94.4393
26	-0.16589	0.0285355	0.0146967	0.0288868	-0.0188177	0.0177135	0.0237064	-0.0294388	0.00217912	0.0824695	-0.00108807	-0.0818859	0.0614807	0.00267002	0.00335831	-2.36756	0.0278952	-1.55212	0	0	0	0	-0	0	0	0	-0.1265	0	-0	0	0	0	0	0	-0	0	0.105	0.015	0	0	-0	0	0	0.098	0.1	0	-0	0	0	0	0	0	-0	0	0.05595	0	0	0	-0	0	0	0	0	0	-0	0	553.002	589.056	292.718	217.241	-2.80016	34.1078	-0.136724	-0.014764	-98.9207
27	-0.16907	0.0285745	0.0146837	0.0290715	-0.0188554	0.0177449	0.0237166	-0.0294171	0.00218239	0.0910175	0.0173833	-0.101473	0.0614756	0.00266076	0.0031966	-2.37132	0.0281488	-1.55209	0	0	0	0	-0	0	0	0	-0.1265	0	-0	0	0	0	0	0	-0	0	0.105	0.015	0	0	-0	0	0	0.098	0.1	0	-0	0	0	0	0	0	-0	0	0.05595	0	0	0	-0	0	0	0	0	0	-0	0	553.345	589.553	292.608	217.517	-2.82721	34.5547	-0.137094	-0.0148883	-100.616
28	-0.176248	0.0286551	0.014682	0.0293855	-0.0189284	0.0178067	0.0237166	-0.0294011	0.00221753	0.0738828	0.0444351	-0.0973371	0.0614679	0.00263925	0.00282445	-2.37971	0.0287014	-1.55197	0	0	0	0	-0	0	0	0	-0.1265	0	-0	0	0	0	0	0	-0	0	0.105	0.015	0	0	-0	0	0	0.098	0.1	0	-0	0	0	0	0	0	-0	0	0.05595	0	0	0	-0	0	0	0	0	0	-0	0	554.127	590.398	292.378	218.066	-2.88395	35.4136	-0.136955	-0.0153806	-103.858
29	-0.178471	0.0286745	0.0146784	0.0294772	-0.0189455	0.0178185	0.0237145	-0.0294032	0.0022233	0.0722667	0.0370128	-0.106282	0.06147	0.00263537	0.00269819	-2.38218	0.0288309	-1.55199	0	0	0	0	-0	0	0	0	-0.1265	0	-0	0	0	0	0	0	-0	0	0.105	0.015	0	0	-0	0	0	0.098	0.1	0	-0	0	0	0	0	0	-0	0	0.05595	0	0	0	-0	0	0	0	0	0	-0	0	554.321	590.631	292.33	218.194	-2.89983	35.6453	-0.13706	-0.0154492	-104.706
30	-0.157372	0.0287599	0.0146808	0.0297857	-0.0190176	0.0178852	0.0237315	-0.0294159	0.00225208	0.0447692	0.0158742	-0.111236	0.0613771	0.00261217	0.00407228	-2.36222	0.0288513	-1.55105	0	0	0	0	-0	0	0	0	-0.1265	0	-0	0	0	0	0	0	-0	0	0.105	0.015	0	0	-0	0	0	0.098	0.1	0	-0	0	0	0	0	0	-0	0	0.05595	0	0	0	-0	0	0	0	0	0	-0	0	555.192	591.423	292.1	218.708	-2.95832	36.5059	-0.136541	-0.0159646	-107.977
31	-0.149374	0.0287952	0.0146832	0.0299366	-0.019043	0.017909	0.0237274	-0.0293996	0.00226555	0.0561713	0.0280048	-0.118001	0.0613132	0.00260212	0.00459486	-2.35473	0.0288565	-1.5507	0	0	0	0	-0	0	0	0	-0.1265	0	-0	0	0	0	0	0	-0	0	0.105	0.015	0	0	-0	0	0	0.098	0.1	0	-0	0	0	0	0	0	-0	0	0.05595	0	0	0	-0	0	0	0	0	0	-0	0	555.577	591.822	292.012	218.943	-2.98485	36.9111	-0.136529	-0.0161271	-109.523
32	-0.149285	0.0288094	0.0146802	0.0300014	-0.0190569	0.0179193	0.023725	-0.029396	0.00227138	0.0478091	0.0248483	-0.110829	0.061307	0.00259883	0.00460866	-2.35482	0.0289208	-1.55065	0	0	0	0	-0	0	0	0	-0.1265	0	-0	0	0	0	0	0	-0	0	0.105	0.015	0	0	-0	0	0	0.098	0.1	0	-0	0	0	0	0	0	-0	0	0.05595	0	0	0	-0	0	0	0	0	0	-0	0	555.731	591.979	291.974	219.03	-2.99662	37.0778	-0.136505	-0.0162059	-110.139
33	-0.153328	0.02883	0.0146793	0.0300809	-0.0190749	0.0179359	0.0237314	-0.0293964	0.00227989	0.042764	0.00797153	-0.120484	0.0613171	0.00259337	0.00437817	-2.35913	0.0291013	-1.55069	0	0	0	0	-0	0	0	0	-0.1265	0	-0	0	0	0	0	0	-0	0	0.105	0.015	0	0	-0	0	0	0.098	0.1	0	-0	0	0	0	0	0	-0	0	0.05595	0	0	0	-0	0	0	0	0	0	-0	0	555.948	592.186	291.92	219.151	-3.01158	37.2968	-0.136404	-0.0163284	-110.971
34	-0.141423	0.0288754	0.0146777	0.0302486	-0.019113	0.0179709	0.0237381	-0.0293978	0.00230268	0.053577	-0.0107874	-0.143131	0.0612428	0.0025808	0.00515043	-2.3478	0.0290825	-1.55016	0	0	0	0	-0	0	0	0	-0.1265	0	-0	0	0	0	0	0	-0	0	0.105	0.015	0	0	-0	0	0	0.098	0.1	0	-0	0	0	0	0	0	-0	0	0.05595	0	0	0	-0	0	0	0	0	0	-0	0	556.436	592.604	291.798	219.408	-3.04334	37.763	-0.136063	-0.0165966	-112.763
35	-0.150925	0.0289405	0.0146762	0.0304783	-0.0191651	0.01802	0.0237438	-0.029408	0.00232341	0.0246345	-0.0150562	-0.118286	0.0612554	0.00256322	0.00462663	-2.35809	0.0295831	-1.5502	0	0	0	0	-0	0	0	0	-0.1265	0	-0	0	0	0	0	0	-0	0	0.105	0.015	0	0	-0	0	0	0.098	0.1	0	-0	0	0	0	0	0	-0	0	0.05595	0	0	0	-0	0	0	0	0	0	-0	0	557.13	593.165	291.63	219.759	-3.08824	38.4159	-0.135507	-0.0169639	-115.279
36	-0.140096	0.0290286	0.0146792	0.0307774	-0.0192347	0.0180835	0.023748	-0.0293797	0.00233801	-0.0144929	0.0287816	-0.12377	0.0611626	0.00253944	0.00536767	-2.34829	0.0297707	-1.54956	0	0	0	0	-0	0	0	0	-0.1265	0	-0	0	0	0	0	0	-0	0	0.105	0.015	0	0	-0	0	0	0.098	0.1	0	-0	0	0	0	0	0	-0	0	0.05595	0	0	0	-0	0	0	0	0	0	-0	0	558.064	593.876	291.407	220.228	-3.14946	39.3024	-0.134671	-0.0174638	-118.707
37	-0.151538	0.0290726	0.0146844	0.0309501	-0.0192676	0.0181101	0.0237535	-0.0293868	0.00234855	-0.00353837	0.0133598	-0.100788	0.0612026	0.00252733	0.00470079	-2.36028	0.0302121	-1.54975	0	0	0	0	-0	0	0	0	-0.1265	0	-0	0	0	0	0	0	-0	0	0.105	0.015	0	0	-0	0	0	0.098	0.1	0	-0	0	0	0	0	0	-0	0	0.05595	0	0	0	-0	0	0	0	0	0	-0	0	558.573	594.307	291.299	220.483	-3.18519	39.8124	-0.134358	-0.0177233	-120.656
38	-0.168036	0.0291056	0.0146849	0.031069	-0.0192926	0.0181344	0.0237652	-0.0293911	0.00237207	-0.0143261	-0.0127271	-0.1205	0.0612609	0.00251834	0.00372119	-2.37719	0.030707	-1.55014	0	0	0	0	-0	0	0	0	-0.1265	0	-0	0	0	0	0	0	-0	0	0.105	0.015	0	0	-0	0	0	0.098	0.1	0	-0	0	0	0	0	0	-0	0	0.05595	0	0	0	-0	0	0	0	0	0	-0	0	558.929	594.618	291.219	220.667	-3.20902	40.1698	-0.134152	-0.0179025	-122.053
39	-0.173089	0.0291304	0.0146765	0.0311578	-0.019314	0.0181563	0.0237543	-0.0293793	0.00237516	-0.0218089	-0.0248436	-0.120298	0.0612589	0.00251208	0.00343625	-2.38253	0.0309288	-1.55021	0	0	0	0	-0	0	0	0	-0.1265	0	-0	0	0	0	0	0	-0	0	0.105	0.015	0	0	-0	0	0	0.098	0.1	0	-0	0	0	0	0	0	-0	0	0.05595	0	0	0	-0	0	0	0	0	0	-0	0	559.184	594.839	291.155	220.794	-3.22546	40.4233	-0.133981	-0.0180273	-123.06
40	-0.174785	0.0291403	0.014677	0.0311916	-0.0193219	0.0181633	0.023753	-0.0293774	0.00237839	-0.0208314	-0.0211413	-0.112904	0.0612616	0.00250983	0.00333832	-2.38433	0.0310063	-1.55024	0	0	0	0	-0	0	0	0	-0.1265	0	-0	0	0	0	0	0	-0	0	0.105	0.015	0	0	-0	0	0	0.098	0.1	0	-0	0	0	0	0	0	-0	0	0.05595	0	0	0	-0	0	0	0	0	0	-0	0	559.287	594.926	291.133	220.843	-3.23311	40.5301	-0.133914	-0.0180834	-123.465
41	-0.177253	0.0291803	0.0146778	0.0313184	-0.0193537	0.0181927	0.0237569	-0.0293789	0.00239081	-0.0355517	-0.0241867	-0.104451	0.0612524	0.0024992	0.00322207	-2.38725	0.0312475	-1.55017	0	0	0	0	-0	0	0	0	-0.1265	0	-0	0	0	0	0	0	-0	0	0.105	0.015	0	0	-0	0	0	0.098	0.1	0	-0	0	0	0	0	0	-0	0	0.05595	0	0	0	-0	0	0	0	0	0	-0	0	559.713	595.24	291.031	221.044	-3.26124	40.9374	-0.13347	-0.0183263	-125.063
42	-0.168169	0.0292177	0.014676	0.0314405	-0.0193831	0.0182206	0.0237667	-0.0293847	0.00239934	-0.048647	-0.0332312	-0.126802	0.0612061	0.00248936	0.00381232	-2.37858	0.0312328	-1.54976	0	0	0	0	-0	0	0	0	-0.1265	0	-0	0	0	0	0	0	-0	0	0.105	0.015	0	0	-0	0	0	0.098	0.1	0	-0	0	0	0	0	0	-0	0	0.05595	0	0	0	-0	0	0	0	0	0	-0	0	560.109	595.539	290.938	221.231	-3.28729	41.3221	-0.133105	-0.0185336	-126.582
43	-0.156328	0.0292437	0.0146761	0.0315266	-0.0194026	0.0182389	0.0237726	-0.0293801	0.00241898	-0.0396601	-0.0552787	-0.151913	0.0611458	0.00248232	0.00456094	-2.36704	0.0311	-1.54931	0	0	0	0	-0	0	0	0	-0.1265	0	-0	0	0	0	0	0	-0	0	0.105	0.015	0	0	-0	0	0	0.098	0.1	0	-0	0	0	0	0	0	-0	0	0.05595	0	0	0	-0	0	0	0	0	0	-0	0	560.38	595.751	290.875	221.368	-3.30543	41.5961	-0.132883	-0.0186728	-127.671
44	-0.143313	0.0293022	0.01467	0.0316954	-0.0194512	0.0182833	0.0237646	-0.0293807	0.00242298	-0.00966809	-0.0544192	-0.150395	0.0610557	0.00246797	0.00540581	-2.35463	0.0310827	-1.5487	0	0	0	0	-0	0	0	0	-0.1265	0	-0	0	0	0	0	0	-0	0	0.105	0.015	0	0	-0	0	0	0.098	0.1	0	-0	0	0	0	0	0	-0	0	0.05595	0	0	0	-0	0	0	0	0	0	-0	0	560.961	596.15	290.728	221.642	-3.34427	42.1672	-0.132198	-0.0190066	-129.947
45	-0.144731	0.0293092	0.0146756	0.0317183	-0.0194527	0.0182861	0.0237678	-0.0293691	0.00242736	-0.016951	-0.0442873	-0.141407	0.0610558	0.00246617	0.00532266	-2.35612	0.0311323	-1.54874	0	0	0	0	-0	0	0	0	-0.1265	0	-0	0	0	0	0	0	-0	0	0.105	0.015	0	0	-0	0	0	0.098	0.1	0	-0	0	0	0	0	0	-0	0	0.05595	0	0	0	-0	0	0	0	0	0	-0	0	561.032	596.21	290.72	221.68	-3.34965	42.2466	-0.132199	-0.0190236	-130.251
46	-0.141449	0.0293381	0.014674	0.0318053	-0.019478	0.0183065	0.0237703	-0.0293701	0.00243184	-0.00714657	-0.0419408	-0.131349	0.0610262	0.00245885	0.00554577	-2.35316	0.031193	-1.54853	0	0	0	0	-0	0	0	0	-0.1265	0	-0	0	0	0	0	0	-0	0	0.105	0.015	0	0	-0	0	0	0.098	0.1	0	-0	0	0	0	0	0	-0	0	0.05595	0	0	0	-0	0	0	0	0	0	-0	0	561.325	596.413	290.646	221.825	-3.37039	42.5502	-0.131854	-0.0192076	-131.458
47	-0.139853	0.029343	0.014674	0.0318226	-0.0194811	0.0183094	0.0237694	-0.0293672	0.00243417	-0.0126101	-0.0420969	-0.135616	0.061015	0.00245768	0.00564701	-2.35161	0.0311753	-1.54847	0	0	0	0	-0	0	0	0	-0.1265	0	-0	0	0	0	0	0	-0	0	0.105	0.015	0	0	-0	0	0	0.098	0.1	0	-0	0	0	0	0	0	-0	0	0.05595	0	0	0	-0	0	0	0	0	0	-0	0	561.371	596.452	290.637	221.85	-3.37372	42.602	-0.131843	-0.0192222	-131.662
48	-0.135478	0.0293628	0.0146744	0.0318771	-0.0194971	0.0183237	0.0237752	-0.0293731	0.00244073	0.00198461	-0.0333837	-0.149346	0.0609816	0.00245271	0.00592997	-2.34746	0.0311655	-1.54827	0	0	0	0	-0	0	0	0	-0.1265	0	-0	0	0	0	0	0	-0	0	0.105	0.015	0	0	-0	0	0	0.098	0.1	0	-0	0	0	0	0	0	-0	0	0.05595	0	0	0	-0	0	0	0	0	0	-0	0	561.563	596.589	290.588	221.949	-3.38733	42.8054	-0.131622	-0.0193429	-132.479
49	-0.147054	0.0293922	0.0146726	0.031958	-0.019521	0.0183452	0.0237765	-0.029378	0.00245906	-0.0275777	-0.0242274	-0.127194	0.0610357	0.0024454	0.00524913	-2.35935	0.0315546	-1.54853	0	0	0	0	-0	0	0	0	-0.1265	0	-0	0	0	0	0	0	-0	0	0.105	0.015	0	0	-0	0	0	0.098	0.1	0	-0	0	0	0	0	0	-0	0	0.05595	0	0	0	-0	0	0	0	0	0	-0	0	561.841	596.784	290.515	222.091	-3.40645	43.0972	-0.131311	-0.0195049	-133.662
50	-0.13973	0.029407	0.0146671	0.0319988	-0.0195331	0.0183592	0.0237824	-0.0293688	0.00244845	-0.0325091	-0.0411503	-0.111608	0.0609856	0.00244217	0.00570993	-2.35217	0.0314526	-1.54826	0	0	0	0	-0	0	0	0	-0.1265	0	-0	0	0	0	0	0	-0	0	0.105	0.015	0	0	-0	0	0	0.098	0.1	0	-0	0	0	0	0	0	-0	0	0.05595	0	0	0	-0	0	0	0	0	0	-0	0	561.975	596.884	290.481	222.156	-3.4152	43.2364	-0.131183	-0.0195698	-134.233
