Stefan210/kinematic_calibration/src/kinematic_calibration/validation/experiments/experiments/anzahl_messungen/AC_B/larm_51/optimization_intermediate_results.csv
iteration	HeadPitch_offset	HeadYaw_offset	LElbowRoll_offset	LElbowYaw_offset	LShoulderPitch_offset	LShoulderRoll_offset	marker_transform_larm_tx	marker_transform_larm_ty	marker_transform_larm_tz	marker_transform_larm_rr	marker_transform_larm_rp	marker_transform_larm_ry	camera_transform_tx	camera_transform_ty	camera_transform_tz	camera_transform_rr	camera_transform_rp	camera_transform_ry	HeadPitch_transform_tx	HeadPitch_transform_ty	HeadPitch_transform_tz	HeadPitch_transform_rr	HeadPitch_transform_rp	HeadPitch_transform_ry	HeadYaw_transform_tx	HeadYaw_transform_ty	HeadYaw_transform_tz	HeadYaw_transform_rr	HeadYaw_transform_rp	HeadYaw_transform_ry	LElbowRoll_transform_tx	LElbowRoll_transform_ty	LElbowRoll_transform_tz	LElbowRoll_transform_rr	LElbowRoll_transform_rp	LElbowRoll_transform_ry	LElbowYaw_transform_tx	LElbowYaw_transform_ty	LElbowYaw_transform_tz	LElbowYaw_transform_rr	LElbowYaw_transform_rp	LElbowYaw_transform_ry	LShoulderPitch_transform_tx	LShoulderPitch_transform_ty	LShoulderPitch_transform_tz	LShoulderPitch_transform_rr	LShoulderPitch_transform_rp	LShoulderPitch_transform_ry	LShoulderRoll_transform_tx	LShoulderRoll_transform_ty	LShoulderRoll_transform_tz	LShoulderRoll_transform_rr	LShoulderRoll_transform_rp	LShoulderRoll_transform_ry	LWristYaw_transform_tx	LWristYaw_transform_ty	LWristYaw_transform_tz	LWristYaw_transform_rr	LWristYaw_transform_rp	LWristYaw_transform_ry	l_wrist_joint_transform_tx	l_wrist_joint_transform_ty	l_wrist_joint_transform_tz	l_wrist_joint_transform_rr	l_wrist_joint_transform_rp	l_wrist_joint_transform_ry	camera_fx	camera_fy	camera_cx	camera_cy	camera_D0	camera_D1	camera_D2	camera_D3	camera_D4	
0	0.0249164	-0.0307543	0.000853157	4.65819e-06	-0.000318322	-0.00310766	0.05071	0	0.01774	-2.26369	1.66533e-16	-1.5708	545.901	551.038	324.928	201.58	0.0255298	2.61142	-0.0636736	-0.0350419	0.213964
1	-0.0173346	0.0199258	0.0101865	0.0115914	-0.010672	0.013024	0.0240599	-0.0290972	0.00057709	3.2472e-05	-0.000293471	-0.00304817	0.0557828	0.00157958	0.0151983	-2.1935	-0.0198912	-1.56637	0	0	0	0	-0	0	0	0	-0.1265	0	-0	0	0	0	0	0	-0	0	0.105	0.015	0	0	-0	0	0	0.098	0.1	0	-0	0	0	0	0	0	-0	0	0.05595	0	0	0	-0	0	0	0	0	0	-0	0	545.901	551.039	324.928	201.581	-0.0130103	2.59789	-0.100217	0.0536936	0.210975
2	-0.0166087	0.0321145	0.0136569	0.0179847	-0.0203683	0.018759	0.0242834	-0.0295204	0.000900577	-3.12733e-06	-0.00032417	-0.00306281	0.0520165	0.000460014	0.020464	-2.19782	-0.0222202	-1.57096	0	0	0	0	-0	0	0	0	-0.1265	0	-0	0	0	0	0	0	-0	0	0.105	0.015	0	0	-0	0	0	0.098	0.1	0	-0	0	0	0	0	0	-0	0	0.05595	0	0	0	-0	0	0	0	0	0	-0	0	545.903	551.039	324.924	201.586	-0.162044	2.49156	-0.0416543	0.0112895	0.174219
3	-0.0171734	0.030696	0.0122263	0.0158117	-0.0194171	0.0182757	0.0241146	-0.0295424	0.000792274	7.80249e-06	-0.000315685	-0.00308629	0.0539392	0.00129791	0.017947	-2.19488	-0.0236975	-1.57374	0	0	0	0	-0	0	0	0	-0.1265	0	-0	0	0	0	0	0	-0	0	0.105	0.015	0	0	-0	0	0	0.098	0.1	0	-0	0	0	0	0	0	-0	0	0.05595	0	0	0	-0	0	0	0	0	0	-0	0	545.906	551.039	324.92	201.591	-0.370535	2.35837	-0.0298496	0.00529822	0.131618
4	-0.0166034	0.0338129	0.01288	0.0205006	-0.0237942	0.0204106	0.0240349	-0.0296531	0.00119296	-4.41684e-05	-0.000355693	-0.00310425	0.0558808	0.00172979	0.016612	-2.19672	-0.0255015	-1.57663	0	0	0	0	-0	0	0	0	-0.1265	0	-0	0	0	0	0	0	-0	0	0.105	0.015	0	0	-0	0	0	0.098	0.1	0	-0	0	0	0	0	0	-0	0	0.05595	0	0	0	-0	0	0	0	0	0	-0	0	545.913	551.039	324.913	201.6	-0.63953	2.1188	0.0142094	-0.0137785	0.0467071
5	-0.0161901	0.0358388	0.0129658	0.023762	-0.0256067	0.0225383	0.0240094	-0.0297294	0.00146899	-8.43833e-05	-0.000385029	-0.00310612	0.0567563	0.00192302	0.0161596	-2.1982	-0.0259077	-1.5788	0	0	0	0	-0	0	0	0	-0.1265	0	-0	0	0	0	0	0	-0	0	0.105	0.015	0	0	-0	0	0	0.098	0.1	0	-0	0	0	0	0	0	-0	0	0.05595	0	0	0	-0	0	0	0	0	0	-0	0	545.931	551.033	324.904	201.609	-0.69981	1.79694	0.0324698	-0.0213027	-0.0845907
6	-0.0159259	0.0353072	0.0117924	0.0252056	-0.0235502	0.0237729	0.0240086	-0.0297858	0.00156822	-0.000100846	-0.000379454	-0.00314907	0.0559507	0.00191973	0.0168597	-2.19949	-0.0242611	-1.57848	0	0	0	0	-0	0	0	0	-0.1265	0	-0	0	0	0	0	0	-0	0	0.105	0.015	0	0	-0	0	0	0.098	0.1	0	-0	0	0	0	0	0	-0	0	0.05595	0	0	0	-0	0	0	0	0	0	-0	0	545.973	551.016	324.893	201.62	-0.484787	1.27594	0.0221946	-0.0186253	-0.311854
7	-0.0157242	0.0337439	0.0102131	0.0260907	-0.0203085	0.0246103	0.0240078	-0.0298497	0.00160971	-0.000157532	-0.000411149	-0.00305213	0.0545806	0.00186166	0.0179195	-2.20064	-0.0218942	-1.57712	0	0	0	0	-0	0	0	0	-0.1265	0	-0	0	0	0	0	0	-0	0	0.105	0.015	0	0	-0	0	0	0.098	0.1	0	-0	0	0	0	0	0	-0	0	0.05595	0	0	0	-0	0	0	0	0	0	-0	0	546.061	550.977	324.883	201.626	-0.157484	0.578639	0.00243333	-0.0130665	-0.597303
8	-0.0155002	0.0328684	0.00930711	0.0268028	-0.0183215	0.0252859	0.0240174	-0.0298954	0.00164561	-0.000170126	-0.000670649	-0.00298778	0.0535272	0.0017675	0.0188134	-2.20147	-0.0202028	-1.5761	0	0	0	0	-0	0	0	0	-0.1265	0	-0	0	0	0	0	0	-0	0	0.105	0.015	0	0	-0	0	0	0.098	0.1	0	-0	0	0	0	0	0	-0	0	0.05595	0	0	0	-0	0	0	0	0	0	-0	0	546.264	550.88	324.874	201.622	0.0881726	0.00612556	-0.0109007	-0.00929078	-0.745419
9	-0.0156004	0.0326842	0.00904384	0.0271579	-0.0177557	0.0256529	0.0240253	-0.0299078	0.00167027	6.37082e-05	-0.000950932	-0.00359532	0.0530448	0.00170401	0.0192744	-2.20214	-0.0194817	-1.57562	0	0	0	0	-0	0	0	0	-0.1265	0	-0	0	0	0	0	0	-0	0	0.105	0.015	0	0	-0	0	0	0.098	0.1	0	-0	0	0	0	0	0	-0	0	0.05595	0	0	0	-0	0	0	0	0	0	-0	0	546.811	550.614	324.86	201.627	0.181893	-0.309752	-0.0134757	-0.00815285	-0.558489
10	-0.0163245	0.0326795	0.00889326	0.0273316	-0.0176708	0.0259124	0.0240285	-0.0298999	0.0016932	-0.000785716	-0.00282938	-0.003842	0.0526815	0.00165961	0.0196514	-2.20341	-0.0190487	-1.57512	0	0	0	0	-0	0	0	0	-0.1265	0	-0	0	0	0	0	0	-0	0	0.105	0.015	0	0	-0	0	0	0.098	0.1	0	-0	0	0	0	0	0	-0	0	0.05595	0	0	0	-0	0	0	0	0	0	-0	0	548.313	549.872	324.844	201.673	0.206344	-0.622605	-0.00833543	-0.00818522	0.147045
11	-0.014675	0.0327022	0.00857213	0.027627	-0.0176393	0.0263499	0.0240337	-0.0298767	0.00174028	-0.000293105	-0.00517202	-0.00531091	0.0519022	0.00157774	0.0205737	-2.20298	-0.0183886	-1.57424	0	0	0	0	-0	0	0	0	-0.1265	0	-0	0	0	0	0	0	-0	0	0.105	0.015	0	0	-0	0	0	0.098	0.1	0	-0	0	0	0	0	0	-0	0	0.05595	0	0	0	-0	0	0	0	0	0	-0	0	551.966	547.994	324.896	201.87	0.214569	-1.17033	0.00613906	-0.00864938	1.60503
12	-0.022619	0.0328515	0.00803814	0.0282774	-0.0177411	0.0270072	0.0240496	-0.0298358	0.00183648	-0.0189357	0.00774496	0.000341383	0.0508479	0.00142813	0.0215289	-2.21378	-0.0180302	-1.57319	0	0	0	0	-0	0	0	0	-0.1265	0	-0	0	0	0	0	0	-0	0	0.105	0.015	0	0	-0	0	0	0.098	0.1	0	-0	0	0	0	0	0	-0	0	0.05595	0	0	0	-0	0	0	0	0	0	-0	0	558.66	544.328	325.445	202.814	0.162726	-1.75458	0.034877	-0.00957799	3.43382
13	0.0078938	0.0332033	0.00751113	0.0292025	-0.0180916	0.027556	0.0240979	-0.029875	0.00194447	0.0440221	0.0181257	0.0268711	0.0490798	0.00126047	0.0243964	-2.19061	-0.0201714	-1.57518	0	0	0	0	-0	0	0	0	-0.1265	0	-0	0	0	0	0	0	-0	0	0.105	0.015	0	0	-0	0	0	0.098	0.1	0	-0	0	0	0	0	0	-0	0	0.05595	0	0	0	-0	0	0	0	0	0	-0	0	566.088	540.191	327.877	206.522	0.0312939	-1.96777	0.0705595	-0.0102177	4.6238
14	0.0250993	0.0333699	0.00732645	0.0295371	-0.0182211	0.0276049	0.0240882	-0.0297849	0.00200019	0.0258125	0.0363454	0.0178043	0.0483648	0.00121838	0.0254591	-2.17655	-0.0216437	-1.57692	0	0	0	0	-0	0	0	0	-0.1265	0	-0	0	0	0	0	0	-0	0	0.105	0.015	0	0	-0	0	0	0.098	0.1	0	-0	0	0	0	0	0	-0	0	0.05595	0	0	0	-0	0	0	0	0	0	-0	0	568.063	539.293	329.27	208.269	-0.0137576	-1.9775	0.0808435	-0.0101727	4.88251
15	0.0125625	0.033494	0.0071903	0.0297871	-0.0183446	0.0276302	0.0241088	-0.0298128	0.00203363	-0.0094614	0.0217821	-0.00895528	0.0485443	0.00119423	0.0249848	-2.19337	-0.0239027	-1.57866	0	0	0	0	-0	0	0	0	-0.1265	0	-0	0	0	0	0	0	-0	0	0.105	0.015	0	0	-0	0	0	0.098	0.1	0	-0	0	0	0	0	0	-0	0	0.05595	0	0	0	-0	0	0	0	0	0	-0	0	569.434	539.152	331.089	210.662	-0.0338104	-2.01172	0.0867384	-0.00972828	5.07275
16	0.0136392	0.0335553	0.00712267	0.0299172	-0.0183875	0.0276212	0.0241028	-0.0297825	0.00205401	-0.0017385	0.0407175	0.000559728	0.0484885	0.00118575	0.0250669	-2.19527	-0.0255044	-1.58014	0	0	0	0	-0	0	0	0	-0.1265	0	-0	0	0	0	0	0	-0	0	0.105	0.015	0	0	-0	0	0	0.098	0.1	0	-0	0	0	0	0	0	-0	0	0.05595	0	0	0	-0	0	0	0	0	0	-0	0	569.998	539.449	332.364	212.34	-0.0342519	-2.04528	0.0883221	-0.00920459	5.16754
17	0.0129345	0.0335741	0.00708908	0.0299818	-0.0183874	0.0276201	0.024099	-0.0297813	0.00205652	-0.000240146	0.0481232	-0.0125497	0.0484935	0.00118239	0.0250439	-2.19718	-0.0261471	-1.58072	0	0	0	0	-0	0	0	0	-0.1265	0	-0	0	0	0	0	0	-0	0	0.105	0.015	0	0	-0	0	0	0.098	0.1	0	-0	0	0	0	0	0	-0	0	0.05595	0	0	0	-0	0	0	0	0	0	-0	0	570.167	539.622	332.881	213.016	-0.0300757	-2.06742	0.0885242	-0.00894045	5.19545
18	0.0255164	0.0336023	0.00707093	0.0300317	-0.0184175	0.0276058	0.0240986	-0.0297799	0.00206204	-0.00283228	0.0403791	-0.00572706	0.0481894	0.0011811	0.0256439	-2.18619	-0.026903	-1.58187	0	0	0	0	-0	0	0	0	-0.1265	0	-0	0	0	0	0	0	-0	0	0.105	0.015	0	0	-0	0	0	0.098	0.1	0	-0	0	0	0	0	0	-0	0	0.05595	0	0	0	-0	0	0	0	0	0	-0	0	570.348	539.925	333.57	213.92	-0.0278713	-2.0846	0.0886256	-0.00863596	5.2407
19	0.0290895	0.0336808	0.00703021	0.0301878	-0.0185357	0.0275286	0.0240989	-0.0298244	0.00207912	-0.0589865	0.040561	-0.0105569	0.0481631	0.00118043	0.0257476	-2.18901	-0.0303014	-1.58519	0	0	0	0	-0	0	0	0	-0.1265	0	-0	0	0	0	0	0	-0	0	0.105	0.015	0	0	-0	0	0	0.098	0.1	0	-0	0	0	0	0	0	-0	0	0.05595	0	0	0	-0	0	0	0	0	0	-0	0	571.075	541.745	336.25	217.523	-0.0155784	-2.16179	0.0875013	-0.00745865	5.47756
20	0.0371976	0.033685	0.00698418	0.0303065	-0.0185063	0.0275088	0.0241211	-0.0297944	0.0020765	-0.0516351	0.065743	-0.0366284	0.0479497	0.00117575	0.026133	-2.18404	-0.0317526	-1.58694	0	0	0	0	-0	0	0	0	-0.1265	0	-0	0	0	0	0	0	-0	0	0.105	0.015	0	0	-0	0	0	0.098	0.1	0	-0	0	0	0	0	0	-0	0	0.05595	0	0	0	-0	0	0	0	0	0	-0	0	571.389	542.725	337.518	219.27	0.00287759	-2.22142	0.0860258	-0.00660189	5.55192
21	0.0599619	0.0337362	0.00694983	0.0304786	-0.018592	0.0274321	0.0241127	-0.0297846	0.002085	-0.0402974	0.0377479	-0.0164689	0.0474057	0.00117205	0.0271686	-2.16778	-0.0346866	-1.59083	0	0	0	0	-0	0	0	0	-0.1265	0	-0	0	0	0	0	0	-0	0	0.105	0.015	0	0	-0	0	0	0.098	0.1	0	-0	0	0	0	0	0	-0	0	0.05595	0	0	0	-0	0	0	0	0	0	-0	0	572.263	545.019	340.146	222.927	0.0190152	-2.28324	0.0838067	-0.00525542	5.71805
22	0.0652299	0.0337389	0.00690959	0.030614	-0.0185631	0.0274098	0.0241041	-0.0297934	0.0021125	-0.0714045	0.0529627	-0.00434214	0.0472404	0.00116515	0.0274123	-2.16575	-0.0360631	-1.59254	0	0	0	0	-0	0	0	0	-0.1265	0	-0	0	0	0	0	0	-0	0	0.105	0.015	0	0	-0	0	0	0.098	0.1	0	-0	0	0	0	0	0	-0	0	0.05595	0	0	0	-0	0	0	0	0	0	-0	0	572.673	546.174	341.402	224.736	0.036334	-2.32189	0.0821127	-0.00433247	5.72646
23	0.0715722	0.0337689	0.00687467	0.0307912	-0.0186001	0.027364	0.0241022	-0.0298022	0.00209394	-0.0233131	0.0176389	0.0188927	0.047079	0.00115743	0.0276938	-2.16407	-0.0381607	-1.59495	0	0	0	0	-0	0	0	0	-0.1265	0	-0	0	0	0	0	0	-0	0	0.105	0.015	0	0	-0	0	0	0.098	0.1	0	-0	0	0	0	0	0	-0	0	0.05595	0	0	0	-0	0	0	0	0	0	-0	0	573.379	547.881	343.218	227.36	0.0496388	-2.35471	0.0803852	-0.0032205	5.78155
24	0.0867706	0.0337672	0.00686245	0.0308402	-0.0185624	0.0273675	0.0241087	-0.029784	0.00211644	-0.0223307	0.0185847	0.0232829	0.0466368	0.0011524	0.0284214	-2.14986	-0.0382015	-1.59597	0	0	0	0	-0	0	0	0	-0.1265	0	-0	0	0	0	0	0	-0	0	0.105	0.015	0	0	-0	0	0	0.098	0.1	0	-0	0	0	0	0	0	-0	0	0.05595	0	0	0	-0	0	0	0	0	0	-0	0	573.496	548.238	343.588	227.912	0.059545	-2.37489	0.0796269	-0.00280027	5.76274
25	0.107459	0.0337805	0.00685363	0.0308931	-0.0185781	0.0273517	0.0241094	-0.0297844	0.00211891	-0.0167615	0.0135671	0.0299127	0.0460535	0.00115068	0.0293723	-2.1305	-0.0382961	-1.5974	0	0	0	0	-0	0	0	0	-0.1265	0	-0	0	0	0	0	0	-0	0	0.105	0.015	0	0	-0	0	0	0.098	0.1	0	-0	0	0	0	0	0	-0	0	0.05595	0	0	0	-0	0	0	0	0	0	-0	0	573.676	548.72	344.104	228.674	0.06264	-2.3747	0.0791033	-0.00247372	5.74743
26	0.121834	0.0338036	0.00684097	0.0309948	-0.0186127	0.0273149	0.0241121	-0.029783	0.0021271	-0.0194162	0.0257359	0.0330947	0.0456385	0.0011463	0.0300117	-2.11904	-0.0392336	-1.59934	0	0	0	0	-0	0	0	0	-0.1265	0	-0	0	0	0	0	0	-0	0	0.105	0.015	0	0	-0	0	0	0.098	0.1	0	-0	0	0	0	0	0	-0	0	0.05595	0	0	0	-0	0	0	0	0	0	-0	0	574.135	549.785	345.213	230.329	0.0678046	-2.37474	0.0781251	-0.00177915	5.73718
27	0.0961042	0.0338543	0.00679921	0.0312824	-0.0186992	0.0272276	0.024109	-0.0298339	0.00215943	0.0422561	0.0127223	0.0206258	0.0464141	0.00113048	0.0288216	-2.15273	-0.0434546	-1.60186	0	0	0	0	-0	0	0	0	-0.1265	0	-0	0	0	0	0	0	-0	0	0.105	0.015	0	0	-0	0	0	0.098	0.1	0	-0	0	0	0	0	0	-0	0	0.05595	0	0	0	-0	0	0	0	0	0	-0	0	575.613	552.811	348.13	234.815	0.0810524	-2.388	0.0757812	7.7702e-05	5.76587
28	0.0974452	0.0338488	0.00676956	0.0313844	-0.0186201	0.0272411	0.0241248	-0.0297822	0.00215417	0.0442966	-0.0127509	0.014032	0.046311	0.0011203	0.0289062	-2.15254	-0.0438724	-1.60231	0	0	0	0	-0	0	0	0	-0.1265	0	-0	0	0	0	0	0	-0	0	0.105	0.015	0	0	-0	0	0	0.098	0.1	0	-0	0	0	0	0	0	-0	0	0.05595	0	0	0	-0	0	0	0	0	0	-0	0	575.77	553.221	348.522	235.461	0.0971856	-2.4119	0.074734	0.000809882	5.68789
29	0.102667	0.0338781	0.00677415	0.0314269	-0.0186486	0.027221	0.0241215	-0.0297867	0.00215267	0.0448142	-0.0132905	0.0314957	0.0461757	0.00111774	0.0291342	-2.14883	-0.0443775	-1.60321	0	0	0	0	-0	0	0	0	-0.1265	0	-0	0	0	0	0	0	-0	0	0.105	0.015	0	0	-0	0	0	0.098	0.1	0	-0	0	0	0	0	0	-0	0	0.05595	0	0	0	-0	0	0	0	0	0	-0	0	575.989	553.743	349.058	236.331	0.098411	-2.39349	0.0742647	0.0011916	5.61861
30	0.113015	0.0338871	0.00677115	0.0314572	-0.0186446	0.0272173	0.0241182	-0.0297828	0.00215443	0.051511	-0.0171322	0.0337249	0.0458711	0.00111538	0.0296125	-2.13911	-0.0442985	-1.60394	0	0	0	0	-0	0	0	0	-0.1265	0	-0	0	0	0	0	0	-0	0	0.105	0.015	0	0	-0	0	0	0.098	0.1	0	-0	0	0	0	0	0	-0	0	0.05595	0	0	0	-0	0	0	0	0	0	-0	0	576.078	553.96	349.276	236.689	0.101073	-2.39009	0.0739692	0.00141584	5.582
31	0.125368	0.0339002	0.0067704	0.0314929	-0.0186554	0.0272059	0.0241191	-0.0297824	0.002157	0.0499379	-0.0167876	0.0363853	0.0455091	0.00111339	0.030172	-2.1276	-0.0442501	-1.60486	0	0	0	0	-0	0	0	0	-0.1265	0	-0	0	0	0	0	0	-0	0	0.105	0.015	0	0	-0	0	0	0.098	0.1	0	-0	0	0	0	0	0	-0	0	0.05595	0	0	0	-0	0	0	0	0	0	-0	0	576.204	554.253	349.575	237.179	0.10205	-2.37912	0.0736947	0.00165109	5.5387
32	0.141115	0.033942	0.0067642	0.0316256	-0.0187106	0.0271541	0.0241124	-0.0297982	0.00215983	0.00416644	0.0132467	0.0265468	0.0450523	0.00110611	0.0308677	-2.11547	-0.045244	-1.60714	0	0	0	0	-0	0	0	0	-0.1265	0	-0	0	0	0	0	0	-0	0	0.105	0.015	0	0	-0	0	0	0.098	0.1	0	-0	0	0	0	0	0	-0	0	0.05595	0	0	0	-0	0	0	0	0	0	-0	0	576.84	555.529	350.842	239.262	0.10412	-2.345	0.0728058	0.00258302	5.43214
33	0.140316	0.0339476	0.00675418	0.0316674	-0.01868	0.0271608	0.0241252	-0.0297834	0.00216903	0.00868285	0.0241521	0.0347641	0.0450509	0.0011015	0.0308411	-2.1168	-0.0454342	-1.60732	0	0	0	0	-0	0	0	0	-0.1265	0	-0	0	0	0	0	0	-0	0	0.105	0.015	0	0	-0	0	0	0.098	0.1	0	-0	0	0	0	0	0	-0	0	0.05595	0	0	0	-0	0	0	0	0	0	-0	0	576.914	555.706	351.013	239.552	0.110875	-2.35368	0.072386	0.00290915	5.3913
34	0.154766	0.0339796	0.00675546	0.0317387	-0.0187166	0.0271298	0.0241253	-0.029782	0.00217316	0.00463308	0.016683	0.0291568	0.0446233	0.00109751	0.031478	-2.1044	-0.0457519	-1.60887	0	0	0	0	-0	0	0	0	-0.1265	0	-0	0	0	0	0	0	-0	0	0.105	0.015	0	0	-0	0	0	0.098	0.1	0	-0	0	0	0	0	0	-0	0	0.05595	0	0	0	-0	0	0	0	0	0	-0	0	577.258	556.418	351.715	240.738	0.111075	-2.3221	0.071883	0.00345105	5.29087
35	0.155331	0.0339885	0.00675031	0.0317675	-0.0187068	0.0271292	0.024126	-0.0297823	0.00217493	0.00856298	0.0253079	0.0341729	0.0445935	0.00109487	0.0315044	-2.10435	-0.0459123	-1.60911	0	0	0	0	-0	0	0	0	-0.1265	0	-0	0	0	0	0	0	-0	0	0.105	0.015	0	0	-0	0	0	0.098	0.1	0	-0	0	0	0	0	0	-0	0	0.05595	0	0	0	-0	0	0	0	0	0	-0	0	577.336	556.592	351.885	241.032	0.114382	-2.32124	0.0716167	0.00368057	5.2524
36	0.159656	0.0340019	0.00675115	0.0317955	-0.018716	0.0271203	0.0241273	-0.0297813	0.00217674	0.00929869	0.0391241	0.0358007	0.0444618	0.00109294	0.0316937	-2.10072	-0.0460259	-1.60961	0	0	0	0	-0	0	0	0	-0.1265	0	-0	0	0	0	0	0	-0	0	0.105	0.015	0	0	-0	0	0	0.098	0.1	0	-0	0	0	0	0	0	-0	0	0.05595	0	0	0	-0	0	0	0	0	0	-0	0	577.447	556.828	352.119	241.436	0.115017	-2.30976	0.0714175	0.00389171	5.20787
37	0.143109	0.0340191	0.00675149	0.0318355	-0.0187297	0.0271052	0.0241264	-0.0297838	0.00217763	0.0207717	0.0375598	0.0446316	0.0449933	0.0010904	0.0309518	-2.11831	-0.0470797	-1.60929	0	0	0	0	-0	0	0	0	-0.1265	0	-0	0	0	0	0	0	-0	0	0.105	0.015	0	0	-0	0	0	0.098	0.1	0	-0	0	0	0	0	0	-0	0	0.05595	0	0	0	-0	0	0	0	0	0	-0	0	577.617	557.179	352.466	242.035	0.115563	-2.29119	0.0711384	0.00419879	5.14056
38	0.13881	0.0340332	0.00675078	0.0318695	-0.0187359	0.0270959	0.0241282	-0.0297838	0.00218249	0.0279421	0.0353649	0.0327911	0.0451225	0.00108798	0.0307517	-2.12339	-0.0475597	-1.60941	0	0	0	0	-0	0	0	0	-0.1265	0	-0	0	0	0	0	0	-0	0	0.105	0.015	0	0	-0	0	0	0.098	0.1	0	-0	0	0	0	0	0	-0	0	0.05595	0	0	0	-0	0	0	0	0	0	-0	0	577.743	557.439	352.724	242.485	0.11682	-2.27962	0.0709027	0.00445415	5.08851
39	0.136922	0.034053	0.00675021	0.031915	-0.0187501	0.02708	0.0241296	-0.0297863	0.00218358	0.0117354	0.0301776	0.0252766	0.0451866	0.00108494	0.0306607	-2.12644	-0.0481008	-1.6098	0	0	0	0	-0	0	0	0	-0.1265	0	-0	0	0	0	0	0	-0	0	0.105	0.015	0	0	-0	0	0	0.098	0.1	0	-0	0	0	0	0	0	-0	0	0.05595	0	0	0	-0	0	0	0	0	0	-0	0	577.938	557.827	353.106	243.152	0.117572	-2.2595	0.0706072	0.00480653	5.01326
40	0.15492	0.0340818	0.00675041	0.0319808	-0.0187717	0.0270561	0.0241319	-0.0297925	0.00219275	0.0364702	0.0309439	0.0124951	0.0446437	0.00108041	0.0314665	-2.11013	-0.0480732	-1.61137	0	0	0	0	-0	0	0	0	-0.1265	0	-0	0	0	0	0	0	-0	0	0.105	0.015	0	0	-0	0	0	0.098	0.1	0	-0	0	0	0	0	0	-0	0	0.05595	0	0	0	-0	0	0	0	0	0	-0	0	578.233	558.398	353.665	244.135	0.118631	-2.231	0.0701927	0.00532739	4.90769
41	0.144492	0.0341058	0.00674795	0.0320378	-0.018781	0.0270414	0.0241363	-0.0297937	0.00218922	0.0572501	0.0356702	0.0333658	0.0449668	0.00107623	0.0309938	-2.12184	-0.0489826	-1.61139	0	0	0	0	-0	0	0	0	-0.1265	0	-0	0	0	0	0	0	-0	0	0.105	0.015	0	0	-0	0	0	0.098	0.1	0	-0	0	0	0	0	0	-0	0	0.05595	0	0	0	-0	0	0	0	0	0	-0	0	578.451	558.824	354.078	244.871	0.120639	-2.21049	0.0698317	0.00576618	4.81555
42	0.161877	0.0341263	0.00675002	0.032073	-0.0187896	0.02703	0.0241311	-0.0297805	0.00219398	0.0518321	0.0376643	0.0288096	0.0444287	0.00107314	0.031771	-2.10541	-0.0486447	-1.61263	0	0	0	0	-0	0	0	0	-0.1265	0	-0	0	0	0	0	0	-0	0	0.105	0.015	0	0	-0	0	0	0.098	0.1	0	-0	0	0	0	0	0	-0	0	0.05595	0	0	0	-0	0	0	0	0	0	-0	0	578.611	559.14	354.386	245.425	0.121985	-2.19379	0.069562	0.00609768	4.74317
43	0.168617	0.0341656	0.00675138	0.0321577	-0.0188228	0.0269992	0.0241372	-0.0298031	0.00221507	0.0855242	0.0277031	0.00433592	0.0442211	0.00106752	0.0320562	-2.10076	-0.0491702	-1.61382	0	0	0	0	-0	0	0	0	-0.1265	0	-0	0	0	0	0	0	-0	0	0.105	0.015	0	0	-0	0	0	0.098	0.1	0	-0	0	0	0	0	0	-0	0	0.05595	0	0	0	-0	0	0	0	0	0	-0	0	578.982	559.843	355.059	246.639	0.122418	-2.15432	0.0691095	0.00672462	4.60305
44	0.157549	0.0341882	0.00674639	0.032212	-0.0188219	0.0269908	0.0241353	-0.0297815	0.00220386	0.0833147	0.0269054	0.0166408	0.044571	0.00106309	0.031568	-2.1129	-0.0500324	-1.6137	0	0	0	0	-0	0	0	0	-0.1265	0	-0	0	0	0	0	0	-0	0	0.105	0.015	0	0	-0	0	0	0.098	0.1	0	-0	0	0	0	0	0	-0	0	0.05595	0	0	0	-0	0	0	0	0	0	-0	0	579.164	560.192	355.393	247.252	0.125504	-2.13842	0.0687659	0.00716293	4.51308
45	0.165855	0.0342242	0.00675343	0.0322677	-0.0188488	0.0269677	0.0241357	-0.0297799	0.00220616	0.0768056	0.0331044	0.00812204	0.0443176	0.00105866	0.0319282	-2.10615	-0.0502797	-1.61475	0	0	0	0	-0	0	0	0	-0.1265	0	-0	0	0	0	0	0	-0	0	0.105	0.015	0	0	-0	0	0	0.098	0.1	0	-0	0	0	0	0	0	-0	0	0.05595	0	0	0	-0	0	0	0	0	0	-0	0	579.435	560.712	355.887	248.162	0.125703	-2.10446	0.0684194	0.00764819	4.38999
46	0.166367	0.0342731	0.00675777	0.0323573	-0.0188812	0.0269351	0.0241405	-0.0297884	0.0022122	0.0985924	0.0385522	0.0192255	0.0443126	0.00105188	0.0319408	-2.10794	-0.0511252	-1.6157	0	0	0	0	-0	0	0	0	-0.1265	0	-0	0	0	0	0	0	-0	0	0.105	0.015	0	0	-0	0	0	0.098	0.1	0	-0	0	0	0	0	0	-0	0	0.05595	0	0	0	-0	0	0	0	0	0	-0	0	579.846	561.47	356.603	249.497	0.126475	-2.05531	0.0679237	0.00840424	4.20746
47	0.171465	0.0343007	0.00675809	0.0324006	-0.0188826	0.0269274	0.0241433	-0.0297846	0.00221366	0.0944999	0.0442604	-0.00181025	0.0441478	0.00104768	0.0321678	-2.1038	-0.051241	-1.61634	0	0	0	0	-0	0	0	0	-0.1265	0	-0	0	0	0	0	0	-0	0	0.105	0.015	0	0	-0	0	0	0.098	0.1	0	-0	0	0	0	0	0	-0	0	0.05595	0	0	0	-0	0	0	0	0	0	-0	0	580.003	561.774	356.894	250.051	0.129311	-2.03778	0.067614	0.00882345	4.11026
48	0.190195	0.0343479	0.00676565	0.0324723	-0.0189172	0.0268969	0.0241423	-0.0297808	0.00222177	0.0938606	0.0449595	0.0126856	0.0435622	0.00104237	0.0329827	-2.08699	-0.0510975	-1.61806	0	0	0	0	-0	0	0	0	-0.1265	0	-0	0	0	0	0	0	-0	0	0.105	0.015	0	0	-0	0	0	0.098	0.1	0	-0	0	0	0	0	0	-0	0	0.05595	0	0	0	-0	0	0	0	0	0	-0	0	580.34	562.39	357.484	251.175	0.128601	-1.98708	0.0672567	0.00945454	3.93357
49	0.194627	0.0343778	0.0067661	0.0325186	-0.0189244	0.0268869	0.0241433	-0.0297769	0.00222506	0.0990889	0.0261118	0.0130623	0.04341	0.00103846	0.0331694	-2.08353	-0.0512225	-1.61868	0	0	0	0	-0	0	0	0	-0.1265	0	-0	0	0	0	0	0	-0	0	0.105	0.015	0	0	-0	0	0	0.098	0.1	0	-0	0	0	0	0	0	-0	0	0.05595	0	0	0	-0	0	0	0	0	0	-0	0	580.501	562.698	357.775	251.741	0.130522	-1.96502	0.066982	0.00985336	3.8276
50	0.209085	0.0344179	0.00677275	0.0325739	-0.0189491	0.026865	0.0241426	-0.0297778	0.00222879	0.100532	0.0301493	0.0182083	0.0429431	0.00103411	0.0337886	-2.07051	-0.0510422	-1.62	0	0	0	0	-0	0	0	0	-0.1265	0	-0	0	0	0	0	0	-0	0	0.105	0.015	0	0	-0	0	0	0.098	0.1	0	-0	0	0	0	0	0	-0	0	0.05595	0	0	0	-0	0	0	0	0	0	-0	0	580.746	563.152	358.208	252.583	0.130279	-1.92392	0.0666962	0.0103548	3.67746
