Stefan210/kinematic_calibration/src/kinematic_calibration/validation/experiments/experiments/impact_noise/outlier/larm_randomize_20_measurements_rk_true/optimization_intermediate_results.csv
iteration	HeadPitch_offset	HeadYaw_offset	LElbowRoll_offset	LElbowYaw_offset	LShoulderPitch_offset	LShoulderRoll_offset	marker_transform_larm_tx	marker_transform_larm_ty	marker_transform_larm_tz	marker_transform_larm_rr	marker_transform_larm_rp	marker_transform_larm_ry	camera_transform_tx	camera_transform_ty	camera_transform_tz	camera_transform_rr	camera_transform_rp	camera_transform_ry	HeadPitch_transform_tx	HeadPitch_transform_ty	HeadPitch_transform_tz	HeadPitch_transform_rr	HeadPitch_transform_rp	HeadPitch_transform_ry	HeadYaw_transform_tx	HeadYaw_transform_ty	HeadYaw_transform_tz	HeadYaw_transform_rr	HeadYaw_transform_rp	HeadYaw_transform_ry	LElbowRoll_transform_tx	LElbowRoll_transform_ty	LElbowRoll_transform_tz	LElbowRoll_transform_rr	LElbowRoll_transform_rp	LElbowRoll_transform_ry	LElbowYaw_transform_tx	LElbowYaw_transform_ty	LElbowYaw_transform_tz	LElbowYaw_transform_rr	LElbowYaw_transform_rp	LElbowYaw_transform_ry	LShoulderPitch_transform_tx	LShoulderPitch_transform_ty	LShoulderPitch_transform_tz	LShoulderPitch_transform_rr	LShoulderPitch_transform_rp	LShoulderPitch_transform_ry	LShoulderRoll_transform_tx	LShoulderRoll_transform_ty	LShoulderRoll_transform_tz	LShoulderRoll_transform_rr	LShoulderRoll_transform_rp	LShoulderRoll_transform_ry	LWristYaw_transform_tx	LWristYaw_transform_ty	LWristYaw_transform_tz	LWristYaw_transform_rr	LWristYaw_transform_rp	LWristYaw_transform_ry	l_wrist_joint_transform_tx	l_wrist_joint_transform_ty	l_wrist_joint_transform_tz	l_wrist_joint_transform_rr	l_wrist_joint_transform_rp	l_wrist_joint_transform_ry	camera_fx	camera_fy	camera_cx	camera_cy	camera_D0	camera_D1	camera_D2	camera_D3	camera_D4	
0	0.0249164	-0.0307543	0.000853157	4.65819e-06	-0.000318322	-0.00310766	0.05071	0	0.01774	-2.26369	1.66533e-16	-1.5708	545.901	551.038	324.928	201.58	0.0255298	2.61142	-0.0636736	-0.0350419	0.213964
1	-0.0170461	0.0330156	0.0612623	0.0748858	0.0378257	0.00624538	0.029027	-0.0328239	0.00615583	-0.000635361	-0.000831084	-0.00280945	0.0470783	-0.00510267	0.016455	-2.19555	0.00362104	-1.61327	0	0	0	0	-0	0	0	0	-0.1265	0	-0	0	0	0	0	0	-0	0	0.105	0.015	0	0	-0	0	0	0.098	0.1	0	-0	0	0	0	0	0	-0	0	0.05595	0	0	0	-0	0	0	0	0	0	-0	0	545.901	551.038	324.928	201.58	0.0339172	2.61359	-0.0331963	0.00527996	0.214288
2	-0.0195364	0.0218138	0.0381052	0.0568539	0.00937151	0.0285251	0.026938	-0.0310806	0.00447764	-0.000465263	-0.000685023	-0.00287937	0.0523254	-0.00255319	0.0144981	-2.1848	0.000843513	-1.56867	0	0	0	0	-0	0	0	0	-0.1265	0	-0	0	0	0	0	0	-0	0	0.105	0.015	0	0	-0	0	0	0.098	0.1	0	-0	0	0	0	0	0	-0	0	0.05595	0	0	0	-0	0	0	0	0	0	-0	0	545.91	551.038	324.925	201.591	-0.293608	2.41825	-0.0388154	0.00100178	0.161832
3	-0.0184438	0.0246716	0.0318079	0.0517612	-0.000860451	0.030098	0.0261144	-0.0305607	0.00398886	-0.000416894	-0.000670938	-0.00290706	0.0543119	-0.00165611	0.0145222	-2.18905	-0.00231842	-1.5643	0	0	0	0	-0	0	0	0	-0.1265	0	-0	0	0	0	0	0	-0	0	0.105	0.015	0	0	-0	0	0	0.098	0.1	0	-0	0	0	0	0	0	-0	0	0.05595	0	0	0	-0	0	0	0	0	0	-0	0	545.947	551.033	324.918	201.622	-0.407353	1.8488	-0.010025	-0.0112131	-0.0344855
4	-0.0176732	0.0202044	0.0260833	0.0525591	1.01654e-05	0.0327703	0.0256897	-0.0302996	0.00403811	-0.000350555	-0.000644978	-0.00307971	0.0541987	-0.00139512	0.0149293	-2.19217	0.00195268	-1.55479	0	0	0	0	-0	0	0	0	-0.1265	0	-0	0	0	0	0	0	-0	0	0.105	0.015	0	0	-0	0	0	0.098	0.1	0	-0	0	0	0	0	0	-0	0	0.05595	0	0	0	-0	0	0	0	0	0	-0	0	546.029	551.016	324.919	201.662	-0.17752	0.894711	-0.0141446	-0.0113822	-0.379153
5	-0.0172374	0.0173833	0.0229525	0.0522628	0.00157886	0.0346085	0.025502	-0.0301849	0.00403986	-0.000436403	-0.000660003	-0.00284307	0.0537214	-0.00119397	0.0155973	-2.1947	0.00439197	-1.54995	0	0	0	0	-0	0	0	0	-0.1265	0	-0	0	0	0	0	0	-0	0	0.105	0.015	0	0	-0	0	0	0.098	0.1	0	-0	0	0	0	0	0	-0	0	0.05595	0	0	0	-0	0	0	0	0	0	-0	0	546.204	550.976	324.936	201.689	0.0405704	0.124015	-0.0202995	-0.0108954	-0.598207
6	-0.0166364	0.0162176	0.0218231	0.0517179	0.00234815	0.0348953	0.0254505	-0.0301409	0.0040225	-0.00127013	-0.0016049	-0.00322212	0.0535116	-0.0011636	0.0159548	-2.19581	0.00535292	-1.54799	0	0	0	0	-0	0	0	0	-0.1265	0	-0	0	0	0	0	0	-0	0	0.105	0.015	0	0	-0	0	0	0.098	0.1	0	-0	0	0	0	0	0	-0	0	0.05595	0	0	0	-0	0	0	0	0	0	-0	0	546.689	550.867	324.933	201.748	0.125416	-0.28053	-0.0209746	-0.011468	-0.427398
7	-0.0161643	0.0160947	0.021271	0.0514187	0.00256909	0.0348206	0.0254309	-0.0301118	0.0040147	0.00147166	-0.00201652	-0.00229508	0.0532196	-0.00118723	0.016368	-2.19672	0.00567699	-1.54727	0	0	0	0	-0	0	0	0	-0.1265	0	-0	0	0	0	0	0	-0	0	0.105	0.015	0	0	-0	0	0	0.098	0.1	0	-0	0	0	0	0	0	-0	0	0.05595	0	0	0	-0	0	0	0	0	0	-0	0	547.988	550.602	324.835	201.92	0.166439	-0.680616	-0.0178922	-0.0120427	0.394311
8	-0.010156	0.0162847	0.0209377	0.0513723	0.00260922	0.0347406	0.0254196	-0.0300899	0.00403308	0.00341913	-0.00452093	-0.00218426	0.0525059	-0.00124805	0.0174493	-2.19293	0.00603258	-1.54649	0	0	0	0	-0	0	0	0	-0.1265	0	-0	0	0	0	0	0	-0	0	0.105	0.015	0	0	-0	0	0	0.098	0.1	0	-0	0	0	0	0	0	-0	0	0.05595	0	0	0	-0	0	0	0	0	0	-0	0	550.913	550.269	324.498	202.361	0.214577	-1.37983	-0.0103132	-0.0126802	2.30499
9	-0.0123371	0.0166198	0.0206746	0.051578	0.00252938	0.0347261	0.0254066	-0.0300733	0.00407831	0.00860777	-0.0105768	-0.00288064	0.0515985	-0.00133303	0.0184628	-2.19906	0.00733702	-1.54502	0	0	0	0	-0	0	0	0	-0.1265	0	-0	0	0	0	0	0	-0	0	0.105	0.015	0	0	-0	0	0	0.098	0.1	0	-0	0	0	0	0	0	-0	0	0.05595	0	0	0	-0	0	0	0	0	0	-0	0	555.792	551.058	323.532	203.426	0.271853	-2.35036	-5.3643e-05	-0.0136039	5.26143
10	-0.00540191	0.016945	0.020555	0.0520702	0.00242013	0.0347943	0.0254071	-0.0300694	0.00413947	0.00820917	-0.0346376	-0.0135966	0.0509526	-0.00139622	0.0194471	-2.19479	0.00830591	-1.54385	0	0	0	0	-0	0	0	0	-0.1265	0	-0	0	0	0	0	0	-0	0	0.105	0.015	0	0	-0	0	0	0.098	0.1	0	-0	0	0	0	0	0	-0	0	0.05595	0	0	0	-0	0	0	0	0	0	-0	0	558.915	552.435	322.649	204.323	0.297232	-2.89525	0.00452615	-0.0142014	7.21572
11	-0.0423614	0.0174772	0.0203494	0.0526697	0.00229513	0.0348431	0.0253752	-0.0300834	0.00420342	0.0605982	-0.06746	-0.0212531	0.0509975	-0.0014756	0.018276	-2.24102	0.0138432	-1.53972	0	0	0	0	-0	0	0	0	-0.1265	0	-0	0	0	0	0	0	-0	0	0.105	0.015	0	0	-0	0	0	0.098	0.1	0	-0	0	0	0	0	0	-0	0	0.05595	0	0	0	-0	0	0	0	0	0	-0	0	564.651	558.55	318.95	208.612	0.314241	-3.43884	0.00578228	-0.0160113	9.66525
12	-0.0395384	0.0175027	0.0204791	0.0529933	0.00228085	0.0349053	0.0253935	-0.0300778	0.00422586	0.0804218	-0.066699	-0.0304864	0.0508626	-0.0015175	0.0185248	-2.23915	0.0144037	-1.53915	0	0	0	0	-0	0	0	0	-0.1265	0	-0	0	0	0	0	0	-0	0	0.105	0.015	0	0	-0	0	0	0.098	0.1	0	-0	0	0	0	0	0	-0	0	0.05595	0	0	0	-0	0	0	0	0	0	-0	0	565.303	559.652	318.569	209.114	0.33188	-3.58713	0.00369119	-0.0162797	10.3511
13	-0.0372305	0.0175976	0.0204416	0.0529947	0.00225118	0.0349611	0.0253943	-0.0300693	0.00422366	0.0768039	-0.0621433	-0.0160162	0.0507226	-0.00152613	0.0187425	-2.23835	0.0151072	-1.53844	0	0	0	0	-0	0	0	0	-0.1265	0	-0	0	0	0	0	0	-0	0	0.105	0.015	0	0	-0	0	0	0.098	0.1	0	-0	0	0	0	0	0	-0	0	0.05595	0	0	0	-0	0	0	0	0	0	-0	0	566.131	561.013	317.954	209.855	0.344068	-3.74214	0.00267728	-0.0164707	11.0423
14	-0.0261572	0.0177148	0.0203699	0.0530555	0.00223023	0.0349806	0.0253951	-0.0300744	0.00423604	0.0591327	-0.0514721	0.00933439	0.0504131	-0.00153189	0.0194088	-2.22957	0.0159263	-1.53718	0	0	0	0	-0	0	0	0	-0.1265	0	-0	0	0	0	0	0	-0	0	0.105	0.015	0	0	-0	0	0	0.098	0.1	0	-0	0	0	0	0	0	-0	0	0.05595	0	0	0	-0	0	0	0	0	0	-0	0	567.207	562.783	316.972	210.994	0.354331	-3.89672	0.00146354	-0.0168575	11.8125
15	-0.0154719	0.0177833	0.0203499	0.05319	0.0022633	0.0350374	0.0254037	-0.030092	0.00423187	0.0365829	-0.0561457	-0.0233851	0.050123	-0.00154353	0.0200264	-2.2213	0.0169154	-1.53569	0	0	0	0	-0	0	0	0	-0.1265	0	-0	0	0	0	0	0	-0	0	0.105	0.015	0	0	-0	0	0	0.098	0.1	0	-0	0	0	0	0	0	-0	0	0.05595	0	0	0	-0	0	0	0	0	0	-0	0	568.191	564.496	315.878	212.214	0.3649	-4.0339	-9.57302e-05	-0.0172837	12.539
16	0.00518258	0.0177909	0.020321	0.0530527	0.00234256	0.0351284	0.025397	-0.0300907	0.00422483	0.0681232	-0.0421912	-0.0158188	0.0496622	-0.00153712	0.0210914	-2.20236	0.0173047	-1.53422	0	0	0	0	-0	0	0	0	-0.1265	0	-0	0	0	0	0	0	-0	0	0.105	0.015	0	0	-0	0	0	0.098	0.1	0	-0	0	0	0	0	0	-0	0	0.05595	0	0	0	-0	0	0	0	0	0	-0	0	568.823	565.692	314.957	213.115	0.37066	-4.10053	-0.00135964	-0.0175314	12.984
17	0.00338643	0.0178741	0.020255	0.0530087	0.00232066	0.0351517	0.0253892	-0.0300702	0.0042231	0.0704232	-0.0579713	-0.0307642	0.0496531	-0.00153045	0.0210252	-2.20537	0.0181454	-1.53343	0	0	0	0	-0	0	0	0	-0.1265	0	-0	0	0	0	0	0	-0	0	0.105	0.015	0	0	-0	0	0	0.098	0.1	0	-0	0	0	0	0	0	-0	0	0.05595	0	0	0	-0	0	0	0	0	0	-0	0	569.26	566.531	314.24	213.77	0.374694	-4.14824	-0.00215822	-0.0178082	13.3017
18	0.00417761	0.0179747	0.0202082	0.0532719	0.00225511	0.035089	0.025384	-0.0300664	0.00424006	0.0629486	-0.0673314	-0.0406572	0.0495957	-0.00154021	0.021106	-2.20635	0.0192202	-1.53228	0	0	0	0	-0	0	0	0	-0.1265	0	-0	0	0	0	0	0	-0	0	0.105	0.015	0	0	-0	0	0	0.098	0.1	0	-0	0	0	0	0	0	-0	0	0.05595	0	0	0	-0	0	0	0	0	0	-0	0	569.863	567.612	313.261	214.698	0.381089	-4.23796	-0.00319365	-0.0183061	13.8165
19	-0.00181304	0.018037	0.0201575	0.0533217	0.0022063	0.0350553	0.0253799	-0.03007	0.00424459	0.042477	-0.0732304	-0.0289941	0.0497044	-0.00153849	0.0208255	-2.21301	0.0198944	-1.53197	0	0	0	0	-0	0	0	0	-0.1265	0	-0	0	0	0	0	0	-0	0	0.105	0.015	0	0	-0	0	0	0.098	0.1	0	-0	0	0	0	0	0	-0	0	0.05595	0	0	0	-0	0	0	0	0	0	-0	0	570.067	568.052	312.852	215.059	0.386249	-4.28294	-0.00383103	-0.0184722	14.0367
20	-0.0146293	0.0181186	0.0201169	0.0533835	0.00217509	0.035046	0.0253783	-0.0300656	0.00425433	0.0561975	-0.0901388	-0.0471802	0.04994	-0.00154124	0.0202183	-2.22716	0.0213534	-1.53128	0	0	0	0	-0	0	0	0	-0.1265	0	-0	0	0	0	0	0	-0	0	0.105	0.015	0	0	-0	0	0	0.098	0.1	0	-0	0	0	0	0	0	-0	0	0.05595	0	0	0	-0	0	0	0	0	0	-0	0	570.505	568.818	312.021	215.782	0.392088	-4.36334	-0.00454734	-0.0188727	14.4842
21	-0.018985	0.0181625	0.0200855	0.0534692	0.00215846	0.0350497	0.0253745	-0.0300621	0.00425366	0.0620402	-0.0857968	-0.0570461	0.0500101	-0.00154254	0.0200146	-2.23215	0.02202	-1.53092	0	0	0	0	-0	0	0	0	-0.1265	0	-0	0	0	0	0	0	-0	0	0.105	0.015	0	0	-0	0	0	0.098	0.1	0	-0	0	0	0	0	0	-0	0	0.05595	0	0	0	-0	0	0	0	0	0	-0	0	570.681	569.2	311.605	216.125	0.397971	-4.41378	-0.00517439	-0.0190496	14.7203
22	-0.0299386	0.0182473	0.0200261	0.0534631	0.0021017	0.0350207	0.0253721	-0.0300636	0.00424836	0.0681713	-0.0864172	-0.0380425	0.0502074	-0.0015388	0.019486	-2.24401	0.0231637	-1.5305	0	0	0	0	-0	0	0	0	-0.1265	0	-0	0	0	0	0	0	-0	0	0.105	0.015	0	0	-0	0	0	0.098	0.1	0	-0	0	0	0	0	0	-0	0	0.05595	0	0	0	-0	0	0	0	0	0	-0	0	570.961	569.699	310.975	216.629	0.402433	-4.47586	-0.00562181	-0.0193535	15.0599
23	-0.0307054	0.0183007	0.020003	0.053397	0.00208417	0.0350296	0.0253721	-0.0300636	0.00424414	0.053711	-0.102575	-0.037324	0.0502038	-0.00153507	0.0194615	-2.24543	0.0237575	-1.53001	0	0	0	0	-0	0	0	0	-0.1265	0	-0	0	0	0	0	0	-0	0	0.105	0.015	0	0	-0	0	0	0.098	0.1	0	-0	0	0	0	0	0	-0	0	0.05595	0	0	0	-0	0	0	0	0	0	-0	0	571.146	570.059	310.491	216.994	0.407221	-4.52427	-0.00605425	-0.0195508	15.3113
24	-0.0311515	0.0183657	0.0199767	0.0534903	0.00207114	0.0350314	0.0253647	-0.030062	0.00424966	0.0353881	-0.100532	-0.0417451	0.0501876	-0.00153899	0.0194651	-2.24731	0.0249938	-1.52885	0	0	0	0	-0	0	0	0	-0.1265	0	-0	0	0	0	0	0	-0	0	0.105	0.015	0	0	-0	0	0	0.098	0.1	0	-0	0	0	0	0	0	-0	0	0.05595	0	0	0	-0	0	0	0	0	0	-0	0	571.545	570.731	309.478	217.78	0.415303	-4.63029	-0.0067451	-0.0200655	15.8772
25	-0.0319348	0.0184914	0.019888	0.0535213	0.00197936	0.0349926	0.0253638	-0.0300628	0.00425223	0.02374	-0.105873	-0.0213018	0.0501728	-0.00153425	0.0194568	-2.24937	0.0261453	-1.52783	0	0	0	0	-0	0	0	0	-0.1265	0	-0	0	0	0	0	0	-0	0	0.105	0.015	0	0	-0	0	0	0.098	0.1	0	-0	0	0	0	0	0	-0	0	0.05595	0	0	0	-0	0	0	0	0	0	-0	0	571.892	571.313	308.489	218.503	0.424587	-4.7428	-0.0073538	-0.0205777	16.4439
26	-0.0358559	0.0185072	0.0198979	0.053557	0.00199956	0.0350249	0.0253595	-0.0300587	0.00425409	0.012342	-0.105354	-0.0259085	0.0502412	-0.00153554	0.0192713	-2.25355	0.0265849	-1.52771	0	0	0	0	-0	0	0	0	-0.1265	0	-0	0	0	0	0	0	-0	0	0.105	0.015	0	0	-0	0	0	0.098	0.1	0	-0	0	0	0	0	0	-0	0	0.05595	0	0	0	-0	0	0	0	0	0	-0	0	571.925	571.45	308.28	218.642	0.431208	-4.77872	-0.00788408	-0.0206422	16.5626
27	-0.0321758	0.0186192	0.0198239	0.0535842	0.00190562	0.0349823	0.0253603	-0.0300555	0.0042524	0.0156151	-0.0870233	-0.0376367	0.0501523	-0.0015316	0.0194736	-2.25084	0.0273751	-1.52673	0	0	0	0	-0	0	0	0	-0.1265	0	-0	0	0	0	0	0	-0	0	0.105	0.015	0	0	-0	0	0	0.098	0.1	0	-0	0	0	0	0	0	-0	0	0.05595	0	0	0	-0	0	0	0	0	0	-0	0	572.166	571.862	307.437	219.201	0.438165	-4.87562	-0.00826193	-0.0211055	17.0551
28	-0.0398756	0.0187122	0.0197903	0.0536083	0.00187497	0.0349857	0.0253629	-0.0300551	0.00426034	0.0146008	-0.112643	-0.0487673	0.0502813	-0.00153115	0.0191095	-2.2599	0.0290809	-1.52566	0	0	0	0	-0	0	0	0	-0.1265	0	-0	0	0	0	0	0	-0	0	0.105	0.015	0	0	-0	0	0	0.098	0.1	0	-0	0	0	0	0	0	-0	0	0.05595	0	0	0	-0	0	0	0	0	0	-0	0	572.448	572.385	306.284	219.976	0.451958	-5.03009	-0.009031	-0.0217067	17.7875
29	-0.0573494	0.018842	0.0197486	0.0537412	0.00183889	0.035005	0.0253616	-0.0300636	0.00426406	0.00722759	-0.112051	-0.0753152	0.0505899	-0.00153453	0.0182611	-2.27916	0.0316914	-1.52452	0	0	0	0	-0	0	0	0	-0.1265	0	-0	0	0	0	0	0	-0	0	0.105	0.015	0	0	-0	0	0	0.098	0.1	0	-0	0	0	0	0	0	-0	0	0.05595	0	0	0	-0	0	0	0	0	0	-0	0	572.737	572.981	304.775	221.004	0.47499	-5.28054	-0.0101363	-0.022539	18.911
30	-0.0755853	0.0189895	0.0197039	0.0535753	0.0017721	0.0350349	0.0253486	-0.0300552	0.00425476	-0.0094793	-0.103392	-0.0649366	0.0508968	-0.00152265	0.0173597	-2.29813	0.0334953	-1.52433	0	0	0	0	-0	0	0	0	-0.1265	0	-0	0	0	0	0	0	-0	0	0.105	0.015	0	0	-0	0	0	0.098	0.1	0	-0	0	0	0	0	0	-0	0	0.05595	0	0	0	-0	0	0	0	0	0	-0	0	572.818	573.274	303.934	221.452	0.490492	-5.41242	-0.0109246	-0.022961	19.4606
31	-0.0797988	0.0190972	0.0196259	0.0536132	0.00165072	0.0349905	0.0253474	-0.0300544	0.0042513	-0.00185302	-0.0912855	-0.0819191	0.0509464	-0.00151485	0.0171606	-2.30259	0.0340777	-1.52421	0	0	0	0	-0	0	0	0	-0.1265	0	-0	0	0	0	0	0	-0	0	0.105	0.015	0	0	-0	0	0	0.098	0.1	0	-0	0	0	0	0	0	-0	0	0.05595	0	0	0	-0	0	0	0	0	0	-0	0	572.855	573.38	303.561	221.62	0.497713	-5.47174	-0.01123	-0.0231806	19.6835
32	-0.0767072	0.0191881	0.0196272	0.053657	0.00162113	0.0349898	0.025345	-0.0300521	0.00425771	-0.00272164	-0.0812507	-0.0685278	0.0508846	-0.00151531	0.0173337	-2.30008	0.0347876	-1.5234	0	0	0	0	-0	0	0	0	-0.1265	0	-0	0	0	0	0	0	-0	0	0.105	0.015	0	0	-0	0	0	0.098	0.1	0	-0	0	0	0	0	0	-0	0	0.05595	0	0	0	-0	0	0	0	0	0	-0	0	572.918	573.572	302.854	221.955	0.509782	-5.58478	-0.0118234	-0.0235973	20.1481
33	-0.0797865	0.0192655	0.0195891	0.0537291	0.00156504	0.034975	0.0253417	-0.0300516	0.00426752	0.0108484	-0.0958112	-0.0841608	0.0509292	-0.00151364	0.0171909	-2.3035	0.0354703	-1.52308	0	0	0	0	-0	0	0	0	-0.1265	0	-0	0	0	0	0	0	-0	0	0.105	0.015	0	0	-0	0	0	0.098	0.1	0	-0	0	0	0	0	0	-0	0	0.05595	0	0	0	-0	0	0	0	0	0	-0	0	572.941	573.689	302.393	222.157	0.519646	-5.66817	-0.0123072	-0.0238782	20.4556
34	-0.0823812	0.0193275	0.0195617	0.0538111	0.00152416	0.0349673	0.0253384	-0.0300514	0.00426985	0.0238637	-0.0926396	-0.0915052	0.050968	-0.00151453	0.0170705	-2.30634	0.0360038	-1.52285	0	0	0	0	-0	0	0	0	-0.1265	0	-0	0	0	0	0	0	-0	0	0.105	0.015	0	0	-0	0	0	0.098	0.1	0	-0	0	0	0	0	0	-0	0	0.05595	0	0	0	-0	0	0	0	0	0	-0	0	572.948	573.768	302.05	222.301	0.527966	-5.73563	-0.01272	-0.0241005	20.6867
35	-0.0698295	0.0194033	0.019518	0.0537765	0.00146075	0.0349414	0.0253353	-0.0300486	0.00426405	0.0258038	-0.0892796	-0.0796147	0.0507464	-0.00151	0.0177199	-2.29412	0.0359848	-1.52191	0	0	0	0	-0	0	0	0	-0.1265	0	-0	0	0	0	0	0	-0	0	0.105	0.015	0	0	-0	0	0	0.098	0.1	0	-0	0	0	0	0	0	-0	0	0.05595	0	0	0	-0	0	0	0	0	0	-0	0	572.985	573.856	301.541	222.508	0.53616	-5.82188	-0.012975	-0.024414	21.0351
36	-0.0639689	0.0194992	0.019478	0.0537048	0.00139208	0.0349242	0.0253281	-0.0300582	0.0042556	-0.00614425	-0.0878968	-0.0825164	0.0506274	-0.00150434	0.0180305	-2.28874	0.0365401	-1.52096	0	0	0	0	-0	0	0	0	-0.1265	0	-0	0	0	0	0	0	-0	0	0.105	0.015	0	0	-0	0	0	0.098	0.1	0	-0	0	0	0	0	0	-0	0	0.05595	0	0	0	-0	0	0	0	0	0	-0	0	573.047	573.952	300.809	222.807	0.547112	-5.94303	-0.0132272	-0.0248567	21.5465
37	-0.0569053	0.0196331	0.0194265	0.0536705	0.00130679	0.0348983	0.0253249	-0.0300501	0.00425987	-0.0304275	-0.0722107	-0.0690097	0.0504799	-0.00150072	0.0184152	-2.28273	0.0378056	-1.51924	0	0	0	0	-0	0	0	0	-0.1265	0	-0	0	0	0	0	0	-0	0	0.105	0.015	0	0	-0	0	0	0.098	0.1	0	-0	0	0	0	0	0	-0	0	0.05595	0	0	0	-0	0	0	0	0	0	-0	0	573.18	574.089	299.438	223.437	0.568659	-6.19987	-0.0135692	-0.0257337	22.6399
38	-0.0575477	0.0197093	0.0193925	0.053789	0.00126962	0.0349088	0.0253262	-0.0300444	0.00426186	-0.0339246	-0.0584852	-0.0760139	0.0504757	-0.00149966	0.0184054	-2.28351	0.0380755	-1.5191	0	0	0	0	-0	0	0	0	-0.1265	0	-0	0	0	0	0	0	-0	0	0.105	0.015	0	0	-0	0	0	0.098	0.1	0	-0	0	0	0	0	0	-0	0	0.05595	0	0	0	-0	0	0	0	0	0	-0	0	573.139	574.139	299.216	223.516	0.580792	-6.2685	-0.014221	-0.0258882	22.7991
39	-0.0594227	0.0197855	0.0193725	0.0537512	0.00122265	0.0349009	0.0253233	-0.030043	0.00425698	-0.0291603	-0.062161	-0.067279	0.0505057	-0.00149495	0.0183168	-2.28554	0.0385178	-1.5189	0	0	0	0	-0	0	0	0	-0.1265	0	-0	0	0	0	0	0	-0	0	0.105	0.015	0	0	-0	0	0	0.098	0.1	0	-0	0	0	0	0	0	-0	0	0.05595	0	0	0	-0	0	0	0	0	0	-0	0	573.108	574.179	298.894	223.623	0.588624	-6.33278	-0.0145583	-0.0260885	23.0261
40	-0.0588891	0.01983	0.0193594	0.0537253	0.0011876	0.0348916	0.0253216	-0.0300415	0.00425512	-0.0269878	-0.0558924	-0.0652198	0.0504905	-0.00149211	0.0183501	-2.28506	0.038631	-1.51878	0	0	0	0	-0	0	0	0	-0.1265	0	-0	0	0	0	0	0	-0	0	0.105	0.015	0	0	-0	0	0	0.098	0.1	0	-0	0	0	0	0	0	-0	0	0.05595	0	0	0	-0	0	0	0	0	0	-0	0	573.094	574.197	298.754	223.664	0.592673	-6.36187	-0.0147221	-0.0261808	23.1169
41	-0.0643992	0.0198941	0.0193326	0.053738	0.00113858	0.0348755	0.0253222	-0.0300447	0.00425549	-0.0368294	-0.0645618	-0.0755717	0.050589	-0.00149012	0.0180772	-2.29083	0.0395248	-1.51845	0	0	0	0	-0	0	0	0	-0.1265	0	-0	0	0	0	0	0	-0	0	0.105	0.015	0	0	-0	0	0	0.098	0.1	0	-0	0	0	0	0	0	-0	0	0.05595	0	0	0	-0	0	0	0	0	0	-0	0	573.086	574.221	298.232	223.837	0.601941	-6.45886	-0.0149729	-0.0265254	23.4958
42	-0.0659062	0.0199408	0.0193401	0.0537102	0.00113288	0.0348928	0.025321	-0.0300421	0.00425261	-0.032334	-0.0692656	-0.0674134	0.0506105	-0.0014899	0.0180103	-2.29247	0.0399213	-1.51826	0	0	0	0	-0	0	0	0	-0.1265	0	-0	0	0	0	0	0	-0	0	0.105	0.015	0	0	-0	0	0	0.098	0.1	0	-0	0	0	0	0	0	-0	0	0.05595	0	0	0	-0	0	0	0	0	0	-0	0	573.061	574.243	297.966	223.917	0.609514	-6.51614	-0.0152794	-0.0267019	23.6833
43	-0.0555467	0.0199961	0.0193096	0.0537059	0.00108439	0.0348758	0.0253186	-0.030042	0.00425419	-0.0216087	-0.0732443	-0.0775989	0.0504193	-0.00148672	0.0185405	-2.28229	0.0398185	-1.51746	0	0	0	0	-0	0	0	0	-0.1265	0	-0	0	0	0	0	0	-0	0	0.105	0.015	0	0	-0	0	0	0.098	0.1	0	-0	0	0	0	0	0	-0	0	0.05595	0	0	0	-0	0	0	0	0	0	-0	0	573.048	574.253	297.576	224.035	0.617132	-6.59089	-0.015482	-0.0269645	23.9628
44	-0.0524057	0.0200355	0.0192989	0.0537019	0.0010582	0.034876	0.025318	-0.030041	0.00425195	-0.0287441	-0.078979	-0.0795517	0.0503525	-0.00148583	0.0187064	-2.27921	0.0398338	-1.51719	0	0	0	0	-0	0	0	0	-0.1265	0	-0	0	0	0	0	0	-0	0	0.105	0.015	0	0	-0	0	0	0.098	0.1	0	-0	0	0	0	0	0	-0	0	0.05595	0	0	0	-0	0	0	0	0	0	-0	0	573.036	574.26	297.41	224.081	0.622052	-6.62723	-0.0156535	-0.0270817	24.0732
45	-0.0572563	0.020072	0.019287	0.0537047	0.00103411	0.0348694	0.0253174	-0.0300395	0.00425137	-0.0274512	-0.0707954	-0.0835156	0.0504398	-0.00148453	0.0184671	-2.28415	0.0403462	-1.51717	0	0	0	0	-0	0	0	0	-0.1265	0	-0	0	0	0	0	0	-0	0	0.105	0.015	0	0	-0	0	0	0.098	0.1	0	-0	0	0	0	0	0	-0	0	0.05595	0	0	0	-0	0	0	0	0	0	-0	0	573.022	574.265	297.186	224.142	0.627168	-6.67198	-0.0158187	-0.0272369	24.2269
46	-0.0520278	0.0201147	0.0192704	0.0537002	0.00100529	0.0348616	0.0253171	-0.0300421	0.00425316	-0.0384142	-0.0688914	-0.0702276	0.0503394	-0.00148293	0.0187359	-2.27906	0.0404381	-1.51662	0	0	0	0	-0	0	0	0	-0.1265	0	-0	0	0	0	0	0	-0	0	0.105	0.015	0	0	-0	0	0	0.098	0.1	0	-0	0	0	0	0	0	-0	0	0.05595	0	0	0	-0	0	0	0	0	0	-0	0	573.009	574.263	296.862	224.234	0.633668	-6.73459	-0.0159858	-0.0274573	24.4559
47	-0.0436292	0.0201537	0.0192671	0.0537167	0.000994435	0.034872	0.0253153	-0.0300395	0.0042531	-0.0461796	-0.0638849	-0.0701575	0.0501777	-0.00148318	0.0191665	-2.27078	0.0402615	-1.51604	0	0	0	0	-0	0	0	0	-0.1265	0	-0	0	0	0	0	0	-0	0	0.105	0.015	0	0	-0	0	0	0.098	0.1	0	-0	0	0	0	0	0	-0	0	0.05595	0	0	0	-0	0	0	0	0	0	-0	0	572.989	574.263	296.623	224.301	0.640087	-6.78652	-0.016206	-0.0276263	24.6235
48	-0.0421448	0.0202006	0.0192355	0.0536896	0.000946364	0.0348512	0.0253139	-0.0300411	0.00425065	-0.0593631	-0.0657826	-0.0619255	0.0501428	-0.00147976	0.0192449	-2.26943	0.0405717	-1.51562	0	0	0	0	-0	0	0	0	-0.1265	0	-0	0	0	0	0	0	-0	0	0.105	0.015	0	0	-0	0	0	0.098	0.1	0	-0	0	0	0	0	0	-0	0	0.05595	0	0	0	-0	0	0	0	0	0	-0	0	572.981	574.248	296.27	224.399	0.646449	-6.85304	-0.0163039	-0.0278689	24.874
49	-0.0455837	0.0202575	0.0192221	0.053701	0.000921309	0.0348515	0.0253166	-0.0300411	0.00425225	-0.0633625	-0.0786175	-0.0726171	0.0502042	-0.00147896	0.0190819	-2.2731	0.0413215	-1.51525	0	0	0	0	-0	0	0	0	-0.1265	0	-0	0	0	0	0	0	-0	0	0.105	0.015	0	0	-0	0	0	0.098	0.1	0	-0	0	0	0	0	0	-0	0	0.05595	0	0	0	-0	0	0	0	0	0	-0	0	572.96	574.221	295.788	224.545	0.656849	-6.95433	-0.0165282	-0.0282064	25.2409
50	-0.0439998	0.0202904	0.0192314	0.0537078	0.000928475	0.0348753	0.0253147	-0.0300389	0.00425264	-0.0611547	-0.0826362	-0.0780837	0.0501673	-0.00147965	0.0191722	-2.27157	0.0413587	-1.51509	0	0	0	0	-0	0	0	0	-0.1265	0	-0	0	0	0	0	0	-0	0	0.105	0.015	0	0	-0	0	0	0.098	0.1	0	-0	0	0	0	0	0	-0	0	0.05595	0	0	0	-0	0	0	0	0	0	-0	0	572.941	574.224	295.682	224.574	0.662109	-6.98483	-0.0167557	-0.0282894	25.3123
51	-0.0520529	0.0203416	0.0191934	0.0537076	0.000874205	0.0348524	0.0253162	-0.0300402	0.00425256	-0.0559986	-0.0672699	-0.0690682	0.0503193	-0.00147602	0.0187706	-2.27977	0.0422641	-1.51501	0	0	0	0	-0	0	0	0	-0.1265	0	-0	0	0	0	0	0	-0	0	0.105	0.015	0	0	-0	0	0	0.098	0.1	0	-0	0	0	0	0	0	-0	0	0.05595	0	0	0	-0	0	0	0	0	0	-0	0	572.915	574.19	295.274	224.69	0.669682	-7.06585	-0.0168683	-0.0285757	25.615
52	-0.0508276	0.0203815	0.0192058	0.0536885	0.000877537	0.0348741	0.0253142	-0.0300383	0.00424948	-0.0568327	-0.0615915	-0.0761969	0.0502902	-0.00147663	0.0188403	-2.27864	0.0424436	-1.51476	0	0	0	0	-0	0	0	0	-0.1265	0	-0	0	0	0	0	0	-0	0	0.105	0.015	0	0	-0	0	0	0.098	0.1	0	-0	0	0	0	0	0	-0	0	0.05595	0	0	0	-0	0	0	0	0	0	-0	0	572.885	574.182	295.067	224.746	0.676284	-7.11416	-0.0170992	-0.0287269	25.7616
53	-0.0384048	0.0204245	0.0191745	0.0536756	0.000830563	0.0348526	0.0253101	-0.0300376	0.00424794	-0.0467608	-0.0617115	-0.0788951	0.0500524	-0.00147289	0.0194684	-2.26633	0.0420802	-1.51393	0	0	0	0	-0	0	0	0	-0.1265	0	-0	0	0	0	0	0	-0	0	0.105	0.015	0	0	-0	0	0	0.098	0.1	0	-0	0	0	0	0	0	-0	0	0.05595	0	0	0	-0	0	0	0	0	0	-0	0	572.863	574.153	294.761	224.828	0.682305	-7.1751	-0.0171881	-0.0289453	25.9815
54	-0.0262845	0.0204885	0.0191437	0.0536334	0.000771839	0.0348289	0.0253082	-0.0300371	0.00424356	-0.0377364	-0.061933	-0.0873616	0.0498065	-0.0014697	0.0200806	-2.25448	0.0420938	-1.51274	0	0	0	0	-0	0	0	0	-0.1265	0	-0	0	0	0	0	0	-0	0	0.105	0.015	0	0	-0	0	0	0.098	0.1	0	-0	0	0	0	0	0	-0	0	0.05595	0	0	0	-0	0	0	0	0	0	-0	0	572.85	574.066	294.137	225.018	0.693145	-7.29914	-0.0171941	-0.0293894	26.4616
55	-0.0224283	0.0205455	0.0191315	0.0536165	0.000741676	0.0348283	0.0253057	-0.0300378	0.00424051	-0.0533128	-0.0590001	-0.0892146	0.0497165	-0.0014674	0.0202824	-2.25075	0.0422125	-1.51227	0	0	0	0	-0	0	0	0	-0.1265	0	-0	0	0	0	0	0	-0	0	0.105	0.015	0	0	-0	0	0	0.098	0.1	0	-0	0	0	0	0	0	-0	0	0.05595	0	0	0	-0	0	0	0	0	0	-0	0	572.818	574.037	293.82	225.104	0.701997	-7.3714	-0.0174119	-0.0296237	26.6925
56	-0.0247351	0.0206046	0.019107	0.0536256	0.000700542	0.0348167	0.0253075	-0.0300377	0.00424189	-0.0493417	-0.0497197	-0.078267	0.0497571	-0.00146471	0.0201761	-2.25325	0.0428427	-1.51189	0	0	0	0	-0	0	0	0	-0.1265	0	-0	0	0	0	0	0	-0	0	0.105	0.015	0	0	-0	0	0	0.098	0.1	0	-0	0	0	0	0	0	-0	0	0.05595	0	0	0	-0	0	0	0	0	0	-0	0	572.786	573.978	293.372	225.234	0.711981	-7.468	-0.0175657	-0.0299532	27.0285
57	-0.0175312	0.0206618	0.0191042	0.0536438	0.000691391	0.0348353	0.0253072	-0.0300373	0.00424307	-0.0455957	-0.0484349	-0.0670567	0.0496068	-0.0014643	0.0205447	-2.2462	0.0427877	-1.51125	0	0	0	0	-0	0	0	0	-0.1265	0	-0	0	0	0	0	0	-0	0	0.105	0.015	0	0	-0	0	0	0.098	0.1	0	-0	0	0	0	0	0	-0	0	0.05595	0	0	0	-0	0	0	0	0	0	-0	0	572.737	573.939	293.047	225.328	0.721806	-7.54722	-0.017846	-0.0301998	27.2733
58	-0.0195044	0.0207211	0.0190837	0.0536229	0.00065296	0.0348301	0.0253061	-0.0300338	0.00424049	-0.0394953	-0.0630883	-0.0643479	0.0496412	-0.00146149	0.0204523	-2.24833	0.0433509	-1.51091	0	0	0	0	-0	0	0	0	-0.1265	0	-0	0	0	0	0	0	-0	0	0.105	0.015	0	0	-0	0	0	0.098	0.1	0	-0	0	0	0	0	0	-0	0	0.05595	0	0	0	-0	0	0	0	0	0	-0	0	572.697	573.877	292.641	225.446	0.730894	-7.63423	-0.0179758	-0.0305026	27.5751
59	-0.0295366	0.0207629	0.019065	0.0536295	0.000626364	0.0348275	0.0253037	-0.0300336	0.00424135	-0.0397363	-0.068484	-0.0681468	0.0498396	-0.00145918	0.0199625	-2.25842	0.0441314	-1.5112	0	0	0	0	-0	0	0	0	-0.1265	0	-0	0	0	0	0	0	-0	0	0.105	0.015	0	0	-0	0	0	0.098	0.1	0	-0	0	0	0	0	0	-0	0	0.05595	0	0	0	-0	0	0	0	0	0	-0	0	572.67	573.853	292.468	225.491	0.736728	-7.67736	-0.0181344	-0.0306408	27.6936
60	-0.0374938	0.020809	0.0190459	0.053612	0.000587604	0.0348159	0.0253024	-0.0300346	0.00423901	-0.0487782	-0.0733747	-0.0667175	0.0499926	-0.00145703	0.0195691	-2.26649	0.0449911	-1.51119	0	0	0	0	-0	0	0	0	-0.1265	0	-0	0	0	0	0	0	-0	0	0.105	0.015	0	0	-0	0	0	0.098	0.1	0	-0	0	0	0	0	0	-0	0	0.05595	0	0	0	-0	0	0	0	0	0	-0	0	572.641	573.787	292.122	225.585	0.743685	-7.74714	-0.0181808	-0.0309009	27.9371
61	-0.0410738	0.0208463	0.0190388	0.0536024	0.000569047	0.0348163	0.025302	-0.0300333	0.00423778	-0.0472462	-0.0659168	-0.0695177	0.0500561	-0.00145563	0.0193966	-2.27014	0.0454187	-1.51117	0	0	0	0	-0	0	0	0	-0.1265	0	-0	0	0	0	0	0	-0	0	0.105	0.015	0	0	-0	0	0	0.098	0.1	0	-0	0	0	0	0	0	-0	0	0.05595	0	0	0	-0	0	0	0	0	0	-0	0	572.615	573.756	291.928	225.635	0.749226	-7.79102	-0.0183003	-0.0310531	28.0665
62	-0.0422345	0.0208842	0.0190243	0.0536099	0.000546334	0.0348138	0.0253016	-0.0300354	0.0042376	-0.0382995	-0.0634716	-0.0602644	0.0500758	-0.001454	0.0193429	-2.2714	0.0458048	-1.51093	0	0	0	0	-0	0	0	0	-0.1265	0	-0	0	0	0	0	0	-0	0	0.105	0.015	0	0	-0	0	0	0.098	0.1	0	-0	0	0	0	0	0	-0	0	0.05595	0	0	0	-0	0	0	0	0	0	-0	0	572.583	573.699	291.65	225.711	0.755685	-7.84981	-0.0183943	-0.0312657	28.2564
63	-0.0435629	0.0209211	0.0190204	0.0535977	0.000533222	0.034818	0.0253008	-0.0300333	0.00423719	-0.0371321	-0.0599856	-0.0656538	0.050098	-0.00145284	0.019282	-2.27281	0.0461217	-1.51079	0	0	0	0	-0	0	0	0	-0.1265	0	-0	0	0	0	0	0	-0	0	0.105	0.015	0	0	-0	0	0	0.098	0.1	0	-0	0	0	0	0	0	-0	0	0.05595	0	0	0	-0	0	0	0	0	0	-0	0	572.554	573.663	291.44	225.767	0.761245	-7.89539	-0.0185065	-0.0314303	28.3941
64	-0.044383	0.0209453	0.019006	0.0536048	0.000513708	0.0348147	0.0252998	-0.030033	0.0042376	-0.036752	-0.0604034	-0.058283	0.0501097	-0.00145142	0.0192461	-2.27366	0.0462643	-1.51075	0	0	0	0	-0	0	0	0	-0.1265	0	-0	0	0	0	0	0	-0	0	0.105	0.015	0	0	-0	0	0	0.098	0.1	0	-0	0	0	0	0	0	-0	0	0.05595	0	0	0	-0	0	0	0	0	0	-0	0	572.541	573.648	291.35	225.789	0.764346	-7.91764	-0.0185832	-0.0315062	28.4496
65	-0.0441853	0.0209747	0.0189943	0.0536046	0.000494167	0.034811	0.0252996	-0.0300337	0.00423808	-0.0442776	-0.0628256	-0.0502478	0.0501046	-0.00145024	0.0192585	-2.27354	0.0464972	-1.51052	0	0	0	0	-0	0	0	0	-0.1265	0	-0	0	0	0	0	0	-0	0	0.105	0.015	0	0	-0	0	0	0.098	0.1	0	-0	0	0	0	0	0	-0	0	0.05595	0	0	0	-0	0	0	0	0	0	-0	0	572.518	573.607	291.135	225.845	0.768973	-7.96054	-0.0186461	-0.0316706	28.5885
66	-0.0546425	0.0210109	0.0189842	0.0536068	0.000478517	0.0348139	0.0253014	-0.0300337	0.00424077	-0.0479216	-0.0499832	-0.0388627	0.0503044	-0.00144917	0.0187384	-2.28411	0.0474778	-1.51069	0	0	0	0	-0	0	0	0	-0.1265	0	-0	0	0	0	0	0	-0	0	0.105	0.015	0	0	-0	0	0	0.098	0.1	0	-0	0	0	0	0	0	-0	0	0.05595	0	0	0	-0	0	0	0	0	0	-0	0	572.485	573.541	290.832	225.931	0.775616	-8.02265	-0.0187195	-0.0319024	28.7922
67	-0.043069	0.0210578	0.0189778	0.0536072	0.000465944	0.0348279	0.0253053	-0.0300311	0.0042412	-0.0537107	-0.0250503	-0.0352799	0.0500828	-0.00144854	0.0193244	-2.27273	0.0472763	-1.5097	0	0	0	0	-0	0	0	0	-0.1265	0	-0	0	0	0	0	0	-0	0	0.105	0.015	0	0	-0	0	0	0.098	0.1	0	-0	0	0	0	0	0	-0	0	0.05595	0	0	0	-0	0	0	0	0	0	-0	0	572.439	573.438	290.414	226.062	0.784747	-8.10935	-0.018792	-0.0322257	29.0842
68	-0.0408456	0.0211014	0.0189791	0.0535992	0.000462288	0.034848	0.0253017	-0.030033	0.00423854	-0.0513081	-0.0208086	-0.0273688	0.050031	-0.00144777	0.0194425	-2.2706	0.0473884	-1.50938	0	0	0	0	-0	0	0	0	-0.1265	0	-0	0	0	0	0	0	-0	0	0.105	0.015	0	0	-0	0	0	0.098	0.1	0	-0	0	0	0	0	0	-0	0	0.05595	0	0	0	-0	0	0	0	0	0	-0	0	572.397	573.393	290.197	226.125	0.791799	-8.16064	-0.0189629	-0.0324086	29.225
69	-0.0364626	0.021128	0.0189584	0.0535971	0.000431092	0.034834	0.025298	-0.0300315	0.00423705	-0.0498541	-0.022563	-0.0279051	0.0499411	-0.00144472	0.0196658	-2.26624	0.0472079	-1.5091	0	0	0	0	-0	0	0	0	-0.1265	0	-0	0	0	0	0	0	-0	0	0.105	0.015	0	0	-0	0	0	0.098	0.1	0	-0	0	0	0	0	0	-0	0	0.05595	0	0	0	-0	0	0	0	0	0	-0	0	572.382	573.373	290.099	226.15	0.794611	-8.18197	-0.0190056	-0.0324891	29.2794
70	-0.035339	0.0211504	0.0189393	0.0535888	0.000399486	0.0348156	0.0252976	-0.0300314	0.00423537	-0.0533194	-0.0324976	-0.0270727	0.049916	-0.00144237	0.0197237	-2.26515	0.0472757	-1.50892	0	0	0	0	-0	0	0	0	-0.1265	0	-0	0	0	0	0	0	-0	0	0.105	0.015	0	0	-0	0	0	0.098	0.1	0	-0	0	0	0	0	0	-0	0	0.05595	0	0	0	-0	0	0	0	0	0	-0	0	572.371	573.345	289.966	226.183	0.797308	-8.20721	-0.0190162	-0.0325926	29.3567
71	-0.0371341	0.0211703	0.0189391	0.0535847	0.000394057	0.0348181	0.0252966	-0.0300309	0.00423489	-0.0541319	-0.0382616	-0.0246295	0.0499492	-0.00144202	0.0196379	-2.26699	0.0474991	-1.50891	0	0	0	0	-0	0	0	0	-0.1265	0	-0	0	0	0	0	0	-0	0	0.105	0.015	0	0	-0	0	0	0.098	0.1	0	-0	0	0	0	0	0	-0	0	0.05595	0	0	0	-0	0	0	0	0	0	-0	0	572.357	573.323	289.865	226.208	0.800139	-8.22833	-0.0190721	-0.0326749	29.4118
72	-0.0365671	0.0211898	0.0189273	0.053581	0.000376383	0.0348115	0.0252951	-0.0300318	0.00423457	-0.0638951	-0.0387205	-0.0231248	0.0499366	-0.00144059	0.0196678	-2.26647	0.0476283	-1.50873	0	0	0	0	-0	0	0	0	-0.1265	0	-0	0	0	0	0	0	-0	0	0.105	0.015	0	0	-0	0	0	0.098	0.1	0	-0	0	0	0	0	0	-0	0	0.05595	0	0	0	-0	0	0	0	0	0	-0	0	572.343	573.287	289.717	226.246	0.803084	-8.25533	-0.0190893	-0.0327901	29.4952
73	-0.0341363	0.0212135	0.0189175	0.0535787	0.000360509	0.0348079	0.0252948	-0.0300304	0.00423349	-0.0608595	-0.046793	-0.0199925	0.0498874	-0.00143937	0.0197915	-2.26411	0.0477207	-1.50838	0	0	0	0	-0	0	0	0	-0.1265	0	-0	0	0	0	0	0	-0	0	0.105	0.015	0	0	-0	0	0	0.098	0.1	0	-0	0	0	0	0	0	-0	0	0.05595	0	0	0	-0	0	0	0	0	0	-0	0	572.324	573.233	289.503	226.304	0.807194	-8.29392	-0.019101	-0.0329557	29.6173
74	-0.0298611	0.0212447	0.0189054	0.0535708	0.000342473	0.0348051	0.0252943	-0.0300324	0.00423123	-0.0701793	-0.0439356	-0.0296915	0.0498008	-0.00143752	0.0200071	-2.25996	0.0477992	-1.50785	0	0	0	0	-0	0	0	0	-0.1265	0	-0	0	0	0	0	0	-0	0	0.105	0.015	0	0	-0	0	0	0.098	0.1	0	-0	0	0	0	0	0	-0	0	0.05595	0	0	0	-0	0	0	0	0	0	-0	0	572.299	573.152	289.199	226.391	0.812926	-8.34913	-0.0191019	-0.0331904	29.7985
75	-0.0306727	0.0212793	0.0189043	0.0535408	0.00032977	0.0348073	0.0252945	-0.0300368	0.00423183	-0.0894709	-0.0458249	-0.023433	0.0498129	-0.00143578	0.0199709	-2.26086	0.0481074	-1.50765	0	0	0	0	-0	0	0	0	-0.1265	0	-0	0	0	0	0	0	-0	0	0.105	0.015	0	0	-0	0	0	0.098	0.1	0	-0	0	0	0	0	0	-0	0	0.05595	0	0	0	-0	0	0	0	0	0	-0	0	572.274	573.097	288.967	226.455	0.818	-8.39178	-0.0191413	-0.033376	29.9285
76	-0.0343749	0.0213091	0.0189073	0.0535608	0.000328343	0.0348243	0.0252947	-0.0300328	0.004233	-0.0830681	-0.0420224	-0.0248902	0.0498833	-0.00143613	0.0197937	-2.26463	0.0485432	-1.50765	0	0	0	0	-0	0	0	0	-0.1265	0	-0	0	0	0	0	0	-0	0	0.105	0.015	0	0	-0	0	0	0.098	0.1	0	-0	0	0	0	0	0	-0	0	0.05595	0	0	0	-0	0	0	0	0	0	-0	0	572.253	573.062	288.792	226.504	0.822927	-8.42777	-0.0192432	-0.0335231	30.0213
77	-0.0328088	0.0213294	0.0188917	0.053563	0.000308092	0.0348191	0.0252935	-0.0300307	0.00423249	-0.0834966	-0.037296	-0.0224016	0.0498481	-0.00143427	0.0198754	-2.26309	0.0485184	-1.50751	0	0	0	0	-0	0	0	0	-0.1265	0	-0	0	0	0	0	0	-0	0	0.105	0.015	0	0	-0	0	0	0.098	0.1	0	-0	0	0	0	0	0	-0	0	0.05595	0	0	0	-0	0	0	0	0	0	-0	0	572.244	573.047	288.717	226.523	0.825279	-8.44409	-0.0192899	-0.0335885	30.059
78	-0.0265109	0.0213565	0.0188756	0.0535654	0.000285651	0.0348116	0.0252918	-0.0300304	0.00423163	-0.0927021	-0.0317987	-0.0242938	0.0497222	-0.00143249	0.0201901	-2.2569	0.0484437	-1.5069	0	0	0	0	-0	0	0	0	-0.1265	0	-0	0	0	0	0	0	-0	0	0.105	0.015	0	0	-0	0	0	0.098	0.1	0	-0	0	0	0	0	0	-0	0	0.05595	0	0	0	-0	0	0	0	0	0	-0	0	572.224	572.971	288.431	226.605	0.830004	-8.49079	-0.0192718	-0.0338092	30.2107
79	-0.0281551	0.0213861	0.0188644	0.053547	0.000264265	0.0348052	0.0252918	-0.0300301	0.00422896	-0.0943357	-0.0262889	-0.0308197	0.0497507	-0.00143035	0.0201115	-2.25861	0.048764	-1.50678	0	0	0	0	-0	0	0	0	-0.1265	0	-0	0	0	0	0	0	-0	0	0.105	0.015	0	0	-0	0	0	0.098	0.1	0	-0	0	0	0	0	0	-0	0	0.05595	0	0	0	-0	0	0	0	0	0	-0	0	572.208	572.923	288.232	226.659	0.834073	-8.52517	-0.019287	-0.033968	30.3112
80	-0.0324269	0.0214082	0.0188636	0.0535411	0.000257793	0.0348092	0.0252915	-0.0300299	0.00422913	-0.0971597	-0.0302778	-0.0323169	0.0498323	-0.00142951	0.0199045	-2.26291	0.0491273	-1.50691	0	0	0	0	-0	0	0	0	-0.1265	0	-0	0	0	0	0	0	-0	0	0.105	0.015	0	0	-0	0	0	0.098	0.1	0	-0	0	0	0	0	0	-0	0	0.05595	0	0	0	-0	0	0	0	0	0	-0	0	572.198	572.905	288.147	226.681	0.83691	-8.54355	-0.0193451	-0.0340443	30.3515
81	-0.0358976	0.0214257	0.0188583	0.0535435	0.000246912	0.0348097	0.025291	-0.0300309	0.00422961	-0.0874455	-0.0295187	-0.0341747	0.0498988	-0.00142881	0.0197342	-2.26641	0.0494519	-1.50699	0	0	0	0	-0	0	0	0	-0.1265	0	-0	0	0	0	0	0	-0	0	0.105	0.015	0	0	-0	0	0	0.098	0.1	0	-0	0	0	0	0	0	-0	0	0.05595	0	0	0	-0	0	0	0	0	0	-0	0	572.188	572.884	288.053	226.705	0.839213	-8.56064	-0.0193796	-0.0341233	30.3943
82	-0.0412293	0.021453	0.0188501	0.0535445	0.000232708	0.0348096	0.0252927	-0.0300322	0.00422785	-0.0840494	-0.033821	-0.020816	0.0500037	-0.00142771	0.0194692	-2.27186	0.0501636	-1.5069	0	0	0	0	-0	0	0	0	-0.1265	0	-0	0	0	0	0	0	-0	0	0.105	0.015	0	0	-0	0	0	0.098	0.1	0	-0	0	0	0	0	0	-0	0	0.05595	0	0	0	-0	0	0	0	0	0	-0	0	572.169	572.803	287.734	226.798	0.844231	-8.60945	-0.0193564	-0.0343721	30.5516
83	-0.0451124	0.0214837	0.0188566	0.0535129	0.000232677	0.0348189	0.0252951	-0.0300305	0.00422486	-0.0816276	-0.0501944	-0.0128428	0.0500747	-0.00142667	0.0192796	-2.2758	0.050601	-1.50694	0	0	0	0	-0	0	0	0	-0.1265	0	-0	0	0	0	0	0	-0	0	0.105	0.015	0	0	-0	0	0	0.098	0.1	0	-0	0	0	0	0	0	-0	0	0.05595	0	0	0	-0	0	0	0	0	0	-0	0	572.147	572.769	287.566	226.843	0.848626	-8.63913	-0.0194465	-0.0345112	30.6269
84	-0.0443923	0.0215217	0.0188536	0.0535058	0.000223501	0.0348254	0.0252922	-0.0300327	0.00422828	-0.0961329	-0.0439708	-0.00472506	0.050059	-0.00142521	0.0193177	-2.27522	0.0509628	-1.50653	0	0	0	0	-0	0	0	0	-0.1265	0	-0	0	0	0	0	0	-0	0	0.105	0.015	0	0	-0	0	0	0.098	0.1	0	-0	0	0	0	0	0	-0	0	0.05595	0	0	0	-0	0	0	0	0	0	-0	0	572.114	572.689	287.217	226.944	0.855245	-8.69461	-0.0195124	-0.0347878	30.7954
85	-0.0458763	0.0215483	0.0188357	0.0535512	0.000201508	0.0348283	0.0252909	-0.0300308	0.00423027	-0.09282	-0.041794	-0.00821591	0.0500822	-0.00142405	0.0192517	-2.27674	0.0511659	-1.50652	0	0	0	0	-0	0	0	0	-0.1265	0	-0	0	0	0	0	0	-0	0	0.105	0.015	0	0	-0	0	0	0.098	0.1	0	-0	0	0	0	0	0	-0	0	0.05595	0	0	0	-0	0	0	0	0	0	-0	0	572.102	572.667	287.114	226.97	0.858988	-8.71852	-0.0195932	-0.0348803	30.8369
86	-0.0486407	0.0215728	0.0188216	0.0535456	0.000178567	0.0348204	0.0252907	-0.0300317	0.00422958	-0.0843239	-0.0393019	-0.0161904	0.0501327	-0.00142215	0.0191161	-2.27955	0.0514968	-1.50652	0	0	0	0	-0	0	0	0	-0.1265	0	-0	0	0	0	0	0	-0	0	0.105	0.015	0	0	-0	0	0	0.098	0.1	0	-0	0	0	0	0	0	-0	0	0.05595	0	0	0	-0	0	0	0	0	0	-0	0	572.092	572.632	286.972	227.007	0.861841	-8.74119	-0.0196067	-0.0349972	30.8929
87	-0.0554521	0.0215941	0.0188206	0.0535371	0.000172862	0.0348235	0.0252896	-0.0300298	0.00422819	-0.0867543	-0.0376526	-0.0179265	0.05026	-0.0014217	0.0187786	-2.28639	0.052057	-1.50677	0	0	0	0	-0	0	0	0	-0.1265	0	-0	0	0	0	0	0	-0	0	0.105	0.015	0	0	-0	0	0	0.098	0.1	0	-0	0	0	0	0	0	-0	0	0.05595	0	0	0	-0	0	0	0	0	0	-0	0	572.08	572.61	286.863	227.035	0.864772	-8.76019	-0.0196699	-0.0350901	30.9325
88	-0.0524901	0.0216148	0.0188083	0.0535212	0.000150697	0.0348144	0.0252904	-0.0300296	0.00422581	-0.0892546	-0.0478317	-0.0139954	0.0502015	-0.0014197	0.0189281	-2.28348	0.0520479	-1.50646	0	0	0	0	-0	0	0	0	-0.1265	0	-0	0	0	0	0	0	-0	0	0.105	0.015	0	0	-0	0	0	0.098	0.1	0	-0	0	0	0	0	0	-0	0	0.05595	0	0	0	-0	0	0	0	0	0	-0	0	572.072	572.57	286.7	227.077	0.867138	-8.78189	-0.01964	-0.0352209	30.996
89	-0.054785	0.0216349	0.01881	0.0535148	0.000150181	0.0348201	0.0252894	-0.0300299	0.00422552	-0.0840631	-0.0459148	-0.010377	0.0502419	-0.00141924	0.0188168	-2.28581	0.0523377	-1.50646	0	0	0	0	-0	0	0	0	-0.1265	0	-0	0	0	0	0	0	-0	0	0.105	0.015	0	0	-0	0	0	0.098	0.1	0	-0	0	0	0	0	0	-0	0	0.05595	0	0	0	-0	0	0	0	0	0	-0	0	572.059	572.543	286.577	227.108	0.870295	-8.80223	-0.0197072	-0.0353242	31.0405
90	-0.0585565	0.0216556	0.0188003	0.053516	0.000134073	0.0348165	0.0252896	-0.0300316	0.00422532	-0.0755613	-0.0410158	-0.00353393	0.050311	-0.0014178	0.0186294	-2.28964	0.0527873	-1.50647	0	0	0	0	-0	0	0	0	-0.1265	0	-0	0	0	0	0	0	-0	0	0.105	0.015	0	0	-0	0	0	0.098	0.1	0	-0	0	0	0	0	0	-0	0	0.05595	0	0	0	-0	0	0	0	0	0	-0	0	572.05	572.499	286.396	227.154	0.873274	-8.82706	-0.0197046	-0.0354694	31.1074
91	-0.0714432	0.0216883	0.0187986	0.0535064	0.000126283	0.0348214	0.0252889	-0.0300294	0.00422528	-0.0873928	-0.0248455	-0.00339151	0.0505494	-0.00141672	0.0179835	-2.30267	0.0540592	-1.50675	0	0	0	0	-0	0	0	0	-0.1265	0	-0	0	0	0	0	0	-0	0	0.105	0.015	0	0	-0	0	0	0.098	0.1	0	-0	0	0	0	0	0	-0	0	0.05595	0	0	0	-0	0	0	0	0	0	-0	0	572.036	572.406	286.022	227.262	0.878939	-8.87624	-0.0196814	-0.0357657	31.2517
92	-0.0735438	0.0217139	0.0187898	0.0534833	0.000103246	0.0348188	0.0252879	-0.030029	0.00422206	-0.0882456	-0.0191331	-0.00188926	0.0505769	-0.00141452	0.0178817	-2.30477	0.0542432	-1.50684	0	0	0	0	-0	0	0	0	-0.1265	0	-0	0	0	0	0	0	-0	0	0.105	0.015	0	0	-0	0	0	0.098	0.1	0	-0	0	0	0	0	0	-0	0	0.05595	0	0	0	-0	0	0	0	0	0	-0	0	572.033	572.393	285.964	227.275	0.880786	-8.88688	-0.0196787	-0.0358254	31.2702
93	-0.0760424	0.0217282	0.018784	0.0535025	9.44409e-05	0.034818	0.0252876	-0.0300293	0.00422322	-0.0886549	-0.0158699	-0.00713469	0.0506185	-0.00141374	0.0177597	-2.3073	0.0544927	-1.5069	0	0	0	0	-0	0	0	0	-0.1265	0	-0	0	0	0	0	0	-0	0	0.105	0.015	0	0	-0	0	0	0.098	0.1	0	-0	0	0	0	0	0	-0	0	0.05595	0	0	0	-0	0	0	0	0	0	-0	0	572.027	572.377	285.885	227.294	0.883121	-8.9011	-0.0197357	-0.0358951	31.294
94	-0.0853648	0.0217499	0.0187778	0.053504	8.36028e-05	0.0348171	0.0252879	-0.0300293	0.00422294	-0.0887163	-0.00790857	-0.0122323	0.0507827	-0.00141275	0.0172902	-2.31668	0.0553109	-1.50722	0	0	0	0	-0	0	0	0	-0.1265	0	-0	0	0	0	0	0	-0	0	0.105	0.015	0	0	-0	0	0	0.098	0.1	0	-0	0	0	0	0	0	-0	0	0.05595	0	0	0	-0	0	0	0	0	0	-0	0	572.019	572.336	285.695	227.342	0.886285	-8.92551	-0.0197561	-0.0360461	31.354
95	-0.0825577	0.0217795	0.0187756	0.0534793	7.16322e-05	0.0348179	0.0252874	-0.030031	0.00422272	-0.0990079	-0.00340587	-0.00429495	0.0507298	-0.00141135	0.0174346	-2.31396	0.0554637	-1.50679	0	0	0	0	-0	0	0	0	-0.1265	0	-0	0	0	0	0	0	-0	0	0.105	0.015	0	0	-0	0	0	0.098	0.1	0	-0	0	0	0	0	0	-0	0	0.05595	0	0	0	-0	0	0	0	0	0	-0	0	572.013	572.27	285.418	227.414	0.890229	-8.95843	-0.0197243	-0.0362684	31.4466
96	-0.0867095	0.0218096	0.018767	0.0535098	6.26556e-05	0.0348266	0.0252874	-0.0300302	0.00422397	-0.0965643	0.00167633	-0.00919626	0.0507983	-0.00141034	0.0172306	-2.31822	0.0560515	-1.50675	0	0	0	0	-0	0	0	0	-0.1265	0	-0	0	0	0	0	0	-0	0	0.105	0.015	0	0	-0	0	0	0.098	0.1	0	-0	0	0	0	0	0	-0	0	0.05595	0	0	0	-0	0	0	0	0	0	-0	0	572.002	572.208	285.15	227.486	0.895427	-8.99504	-0.0197741	-0.0364879	31.5261
97	-0.0872768	0.0218377	0.0187593	0.0535024	4.86994e-05	0.0348276	0.0252866	-0.0300296	0.00422293	-0.0952	0.0052641	-0.0128137	0.0508028	-0.00140858	0.0172078	-2.31882	0.056216	-1.50668	0	0	0	0	-0	0	0	0	-0.1265	0	-0	0	0	0	0	0	-0	0	0.105	0.015	0	0	-0	0	0	0.098	0.1	0	-0	0	0	0	0	0	-0	0	0.05595	0	0	0	-0	0	0	0	0	0	-0	0	571.995	572.185	285.032	227.515	0.898613	-9.01383	-0.0198302	-0.0365926	31.5562
98	-0.0844564	0.0218616	0.0187502	0.053501	3.28365e-05	0.034825	0.025287	-0.0300301	0.00422338	-0.0961152	-0.00192029	-0.0202798	0.0507514	-0.00140708	0.0173548	-2.31605	0.0562224	-1.50637	0	0	0	0	-0	0	0	0	-0.1265	0	-0	0	0	0	0	0	-0	0	0.105	0.015	0	0	-0	0	0	0.098	0.1	0	-0	0	0	0	0	0	-0	0	0.05595	0	0	0	-0	0	0	0	0	0	-0	0	571.987	572.15	284.869	227.555	0.901627	-9.03432	-0.0198546	-0.0367278	31.5965
99	-0.0879089	0.0218847	0.0187486	0.0535037	2.79333e-05	0.0348314	0.0252864	-0.0300298	0.0042231	-0.0975244	-0.00311862	-0.0143613	0.0508079	-0.00140668	0.0171848	-2.31954	0.0565901	-1.50645	0	0	0	0	-0	0	0	0	-0.1265	0	-0	0	0	0	0	0	-0	0	0.105	0.015	0	0	-0	0	0	0.098	0.1	0	-0	0	0	0	0	0	-0	0	0.05595	0	0	0	-0	0	0	0	0	0	-0	0	571.979	572.128	284.746	227.586	0.904775	-9.05263	-0.0199272	-0.0368355	31.6255
100	-0.0790792	0.0219073	0.0187402	0.0534961	1.20092e-05	0.0348279	0.0252865	-0.0300306	0.00422218	-0.101143	-0.00753335	-0.0227099	0.0506538	-0.00140512	0.0176358	-2.31077	0.056235	-1.50577	0	0	0	0	-0	0	0	0	-0.1265	0	-0	0	0	0	0	0	-0	0	0.105	0.015	0	0	-0	0	0	0.098	0.1	0	-0	0	0	0	0	0	-0	0	0.05595	0	0	0	-0	0	0	0	0	0	-0	0	571.975	572.087	284.561	227.631	0.907466	-9.07221	-0.0199211	-0.0369859	31.6676
