Stefan210/kinematic_calibration/src/kinematic_calibration/validation/experiments/experiments/impact_noise/bad_precision/larm_noise_8_pixel_rk_true/optimization_intermediate_results.csv
iteration	HeadPitch_offset	HeadYaw_offset	LElbowRoll_offset	LElbowYaw_offset	LShoulderPitch_offset	LShoulderRoll_offset	marker_transform_larm_tx	marker_transform_larm_ty	marker_transform_larm_tz	marker_transform_larm_rr	marker_transform_larm_rp	marker_transform_larm_ry	camera_transform_tx	camera_transform_ty	camera_transform_tz	camera_transform_rr	camera_transform_rp	camera_transform_ry	HeadPitch_transform_tx	HeadPitch_transform_ty	HeadPitch_transform_tz	HeadPitch_transform_rr	HeadPitch_transform_rp	HeadPitch_transform_ry	HeadYaw_transform_tx	HeadYaw_transform_ty	HeadYaw_transform_tz	HeadYaw_transform_rr	HeadYaw_transform_rp	HeadYaw_transform_ry	LElbowRoll_transform_tx	LElbowRoll_transform_ty	LElbowRoll_transform_tz	LElbowRoll_transform_rr	LElbowRoll_transform_rp	LElbowRoll_transform_ry	LElbowYaw_transform_tx	LElbowYaw_transform_ty	LElbowYaw_transform_tz	LElbowYaw_transform_rr	LElbowYaw_transform_rp	LElbowYaw_transform_ry	LShoulderPitch_transform_tx	LShoulderPitch_transform_ty	LShoulderPitch_transform_tz	LShoulderPitch_transform_rr	LShoulderPitch_transform_rp	LShoulderPitch_transform_ry	LShoulderRoll_transform_tx	LShoulderRoll_transform_ty	LShoulderRoll_transform_tz	LShoulderRoll_transform_rr	LShoulderRoll_transform_rp	LShoulderRoll_transform_ry	LWristYaw_transform_tx	LWristYaw_transform_ty	LWristYaw_transform_tz	LWristYaw_transform_rr	LWristYaw_transform_rp	LWristYaw_transform_ry	l_wrist_joint_transform_tx	l_wrist_joint_transform_ty	l_wrist_joint_transform_tz	l_wrist_joint_transform_rr	l_wrist_joint_transform_rp	l_wrist_joint_transform_ry	camera_fx	camera_fy	camera_cx	camera_cy	camera_D0	camera_D1	camera_D2	camera_D3	camera_D4	
0	0.0249164	-0.0307543	0.000853157	4.65819e-06	-0.000318322	-0.00310766	0.05071	0	0.01774	-2.26369	1.66533e-16	-1.5708	545.901	551.038	324.928	201.58	0.0255298	2.61142	-0.0636736	-0.0350419	0.213964
1	-0.0161219	-0.00458944	0.0443676	0.0170757	0.0203996	0.0230077	0.0269645	-0.0308245	0.00116075	-3.27963e-05	-0.000342194	-0.002864	0.0555595	-0.00269689	0.0133453	-2.19778	0.00865185	-1.53363	0	0	0	0	-0	0	0	0	-0.1265	0	-0	0	0	0	0	0	-0	0	0.105	0.015	0	0	-0	0	0	0.098	0.1	0	-0	0	0	0	0	0	-0	0	0.05595	0	0	0	-0	0	0	0	0	0	-0	0	545.901	551.039	324.928	201.581	-0.00556813	2.60201	-0.088966	0.0210681	0.212076
2	-0.015246	0.00552934	0.047839	0.0113475	0.0135533	0.0203011	0.0267522	-0.0311334	0.000690285	2.69113e-05	-0.000287566	-0.00292436	0.0556255	-0.00274697	0.0143843	-2.2016	0.00588081	-1.54578	0	0	0	0	-0	0	0	0	-0.1265	0	-0	0	0	0	0	0	-0	0	0.105	0.015	0	0	-0	0	0	0.098	0.1	0	-0	0	0	0	0	0	-0	0	0.05595	0	0	0	-0	0	0	0	0	0	-0	0	545.909	551.039	324.925	201.594	-0.306785	2.36101	-0.0344908	-0.00916176	0.13659
3	-0.0150349	0.0102141	0.0458087	0.00945701	0.0103122	0.0184283	0.0264643	-0.0311183	0.000510087	5.24918e-05	-0.000266947	-0.00295135	0.0559525	-0.0026565	0.0139806	-2.20229	0.0059058	-1.55203	0	0	0	0	-0	0	0	0	-0.1265	0	-0	0	0	0	0	0	-0	0	0.105	0.015	0	0	-0	0	0	0.098	0.1	0	-0	0	0	0	0	0	-0	0	0.05595	0	0	0	-0	0	0	0	0	0	-0	0	545.926	551.038	324.923	201.61	-0.523179	2.01006	0.00586585	-0.0228354	0.0160459
4	-0.0149217	0.0124977	0.0433876	0.0102039	0.00782756	0.0163515	0.0262463	-0.031032	0.000505403	8.87701e-05	-0.000321196	-0.00296804	0.0558282	-0.00265399	0.0139092	-2.20243	0.0060783	-1.55549	0	0	0	0	-0	0	0	0	-0.1265	0	-0	0	0	0	0	0	-0	0	0.105	0.015	0	0	-0	0	0	0.098	0.1	0	-0	0	0	0	0	0	-0	0	0.05595	0	0	0	-0	0	0	0	0	0	-0	0	545.959	551.035	324.917	201.626	-0.548203	1.50054	0.0244928	-0.0273263	-0.179158
5	-0.0151235	0.0151285	0.0418485	0.0112224	0.00561624	0.0147886	0.0261178	-0.0309481	0.000542406	2.52457e-05	-0.000547263	-0.0031524	0.0554025	-0.00272116	0.0143271	-2.20309	0.00527545	-1.55862	0	0	0	0	-0	0	0	0	-0.1265	0	-0	0	0	0	0	0	-0	0	0.105	0.015	0	0	-0	0	0	0.098	0.1	0	-0	0	0	0	0	0	-0	0	0.05595	0	0	0	-0	0	0	0	0	0	-0	0	546.012	551.025	324.913	201.635	-0.463231	0.927742	0.0305021	-0.0292589	-0.422089
6	-0.0152865	0.0175716	0.0406619	0.0117904	0.00383085	0.0139516	0.026039	-0.0308772	0.000558744	-0.00012086	-0.000739068	-0.00341613	0.0550849	-0.00275446	0.0147296	-2.20353	0.00394214	-1.56104	0	0	0	0	-0	0	0	0	-0.1265	0	-0	0	0	0	0	0	-0	0	0.105	0.015	0	0	-0	0	0	0.098	0.1	0	-0	0	0	0	0	0	-0	0	0.05595	0	0	0	-0	0	0	0	0	0	-0	0	546.097	551.01	324.914	201.635	-0.381663	0.52948	0.0312691	-0.0305498	-0.621598
7	-0.0150838	0.0192291	0.0398951	0.0118369	0.00268164	0.0136026	0.0259992	-0.0308366	0.000536479	-0.0026167	-0.000460075	-0.000883081	0.0549729	-0.00274777	0.014948	-2.20352	0.00280838	-1.56271	0	0	0	0	-0	0	0	0	-0.1265	0	-0	0	0	0	0	0	-0	0	0.105	0.015	0	0	-0	0	0	0.098	0.1	0	-0	0	0	0	0	0	-0	0	0.05595	0	0	0	-0	0	0	0	0	0	-0	0	546.287	550.995	324.929	201.652	-0.351897	0.376072	0.0313836	-0.0315017	-0.631357
8	-0.0174283	0.0199622	0.0394821	0.0115231	0.00219319	0.0135024	0.0259826	-0.030816	0.000495882	-0.00185682	-0.00205433	0.0018833	0.0548927	-0.00272029	0.0150161	-2.20643	0.00216581	-1.5636	0	0	0	0	-0	0	0	0	-0.1265	0	-0	0	0	0	0	0	-0	0	0.105	0.015	0	0	-0	0	0	0.098	0.1	0	-0	0	0	0	0	0	-0	0	0.05595	0	0	0	-0	0	0	0	0	0	-0	0	546.803	551.006	324.967	201.731	-0.336977	0.231283	0.0327137	-0.0320817	-0.373228
9	-0.0068408	0.0204151	0.0391821	0.0111268	0.00191687	0.0134655	0.0259733	-0.0308027	0.000462313	0.00263459	-0.00961437	-0.0104102	0.0545114	-0.00269292	0.0159089	-2.19693	0.00163441	-1.5641	0	0	0	0	-0	0	0	0	-0.1265	0	-0	0	0	0	0	0	-0	0	0.105	0.015	0	0	-0	0	0	0.098	0.1	0	-0	0	0	0	0	0	-0	0	0.05595	0	0	0	-0	0	0	0	0	0	-0	0	547.973	551.212	324.973	201.963	-0.321462	0.00453701	0.0355109	-0.0325101	0.176824
10	-0.0353496	0.0208154	0.0389301	0.0107202	0.00170339	0.0134036	0.0259753	-0.0307853	0.000420759	0.0235639	-0.054609	0.000868581	0.0546452	-0.00267476	0.0147595	-2.2274	0.00206954	-1.56388	0	0	0	0	-0	0	0	0	-0.1265	0	-0	0	0	0	0	0	-0	0	0.105	0.015	0	0	-0	0	0	0.098	0.1	0	-0	0	0	0	0	0	-0	0	0.05595	0	0	0	-0	0	0	0	0	0	-0	0	550.11	552.258	324.454	202.542	-0.31608	-0.189581	0.0388437	-0.0329304	0.725208
11	-0.0500504	0.0212126	0.0387567	0.0102798	0.00156807	0.0133161	0.025955	-0.030789	0.000390715	0.0147885	-0.0531422	-0.0103429	0.0545973	-0.00266416	0.0142975	-2.24413	0.00354035	-1.56263	0	0	0	0	-0	0	0	0	-0.1265	0	-0	0	0	0	0	0	-0	0	0.105	0.015	0	0	-0	0	0	0.098	0.1	0	-0	0	0	0	0	0	-0	0	0.05595	0	0	0	-0	0	0	0	0	0	-0	0	552.297	553.896	323.1	203.213	-0.318245	-0.273488	0.0405818	-0.0332861	1.02268
12	-0.050794	0.0213783	0.0386363	0.0100656	0.00143777	0.0133365	0.0259495	-0.0307847	0.000371113	0.0143972	-0.0567076	-0.00651386	0.0545815	-0.00264146	0.0143261	-2.24513	0.00337606	-1.56283	0	0	0	0	-0	0	0	0	-0.1265	0	-0	0	0	0	0	0	-0	0	0.105	0.015	0	0	-0	0	0	0.098	0.1	0	-0	0	0	0	0	0	-0	0	0.05595	0	0	0	-0	0	0	0	0	0	-0	0	552.407	553.963	323.041	203.24	-0.311158	-0.312507	0.0406907	-0.0333682	1.073
13	-0.0528947	0.0214411	0.0385211	0.00990714	0.00135323	0.0133877	0.0259471	-0.030782	0.000356195	0.0086859	-0.0608487	0.000762754	0.054553	-0.00262166	0.0143066	-2.24764	0.00351285	-1.56268	0	0	0	0	-0	0	0	0	-0.1265	0	-0	0	0	0	0	0	-0	0	0.105	0.015	0	0	-0	0	0	0.098	0.1	0	-0	0	0	0	0	0	-0	0	0.05595	0	0	0	-0	0	0	0	0	0	-0	0	552.761	554.21	322.824	203.337	-0.302425	-0.386862	0.040945	-0.0334521	1.24054
14	-0.0632761	0.0214741	0.0384228	0.00979001	0.00129293	0.0134291	0.0259464	-0.0307815	0.000339388	-0.00298168	-0.048197	-0.0135036	0.0546489	-0.00260571	0.0138203	-2.25838	0.0037841	-1.56249	0	0	0	0	-0	0	0	0	-0.1265	0	-0	0	0	0	0	0	-0	0	0.105	0.015	0	0	-0	0	0	0.098	0.1	0	-0	0	0	0	0	0	-0	0	0.05595	0	0	0	-0	0	0	0	0	0	-0	0	553.094	554.469	322.588	203.432	-0.294691	-0.452967	0.0410926	-0.0335242	1.39495
15	-0.0783435	0.0215644	0.0383191	0.00966241	0.00126114	0.0134381	0.0259353	-0.0307847	0.000344354	0.0392584	-0.0836239	-0.0267202	0.0547297	-0.00259808	0.013166	-2.2746	0.00530228	-1.56122	0	0	0	0	-0	0	0	0	-0.1265	0	-0	0	0	0	0	0	-0	0	0.105	0.015	0	0	-0	0	0	0.098	0.1	0	-0	0	0	0	0	0	-0	0	0.05595	0	0	0	-0	0	0	0	0	0	-0	0	554.264	555.555	321.429	203.842	-0.289341	-0.536421	0.0413387	-0.0336585	1.65927
16	-0.0839788	0.0215617	0.0382271	0.00969922	0.00120144	0.0134956	0.0259418	-0.0307742	0.000344297	0.0414379	-0.0765509	-0.0152698	0.0547727	-0.00258549	0.0129199	-2.28063	0.0057503	-1.56088	0	0	0	0	-0	0	0	0	-0.1265	0	-0	0	0	0	0	0	-0	0	0.105	0.015	0	0	-0	0	0	0.098	0.1	0	-0	0	0	0	0	0	-0	0	0.05595	0	0	0	-0	0	0	0	0	0	-0	0	554.584	555.86	321.087	203.957	-0.282446	-0.603212	0.0414115	-0.0337116	1.82865
17	-0.0775837	0.0215794	0.0381779	0.00961792	0.00116126	0.0135198	0.0259407	-0.0307707	0.000333342	0.0413147	-0.0696912	-0.0209703	0.0546679	-0.00257557	0.0133047	-2.27437	0.0058008	-1.56073	0	0	0	0	-0	0	0	0	-0.1265	0	-0	0	0	0	0	0	-0	0	0.105	0.015	0	0	-0	0	0	0.098	0.1	0	-0	0	0	0	0	0	-0	0	0.05595	0	0	0	-0	0	0	0	0	0	-0	0	554.705	555.978	320.952	203.998	-0.27717	-0.63863	0.0413248	-0.0337591	1.90421
18	-0.0849417	0.0216054	0.0381251	0.00955489	0.0011421	0.013536	0.0259493	-0.0307779	0.000326144	0.0562048	-0.0505165	-0.0353789	0.0547101	-0.00256954	0.0129773	-2.28221	0.00657081	-1.56012	0	0	0	0	-0	0	0	0	-0.1265	0	-0	0	0	0	0	0	-0	0	0.105	0.015	0	0	-0	0	0	0.098	0.1	0	-0	0	0	0	0	0	-0	0	0.05595	0	0	0	-0	0	0	0	0	0	-0	0	555.15	556.441	320.379	204.166	-0.268854	-0.717906	0.0412079	-0.0338117	2.1242
19	-0.0910374	0.0217398	0.0380752	0.00955299	0.0011251	0.0135205	0.025946	-0.0307879	0.00031745	0.0812338	-0.0549856	-0.0106165	0.0547242	-0.00256828	0.0127315	-2.28891	0.00778199	-1.55925	0	0	0	0	-0	0	0	0	-0.1265	0	-0	0	0	0	0	0	-0	0	0.105	0.015	0	0	-0	0	0	0.098	0.1	0	-0	0	0	0	0	0	-0	0	0.05595	0	0	0	-0	0	0	0	0	0	-0	0	555.748	557.094	319.46	204.379	-0.261423	-0.800102	0.0410695	-0.0338921	2.37836
20	-0.092496	0.0218753	0.0380705	0.0094416	0.00109717	0.01348	0.0259381	-0.0307761	0.000312706	0.0791172	-0.0479405	-0.0216693	0.054691	-0.00257132	0.0127267	-2.2907	0.00834672	-1.55883	0	0	0	0	-0	0	0	0	-0.1265	0	-0	0	0	0	0	0	-0	0	0.105	0.015	0	0	-0	0	0	0.098	0.1	0	-0	0	0	0	0	0	-0	0	0.05595	0	0	0	-0	0	0	0	0	0	-0	0	556.048	557.419	318.975	204.475	-0.253546	-0.856391	0.0408588	-0.0338939	2.52674
21	-0.122068	0.0219531	0.0380288	0.00942489	0.0010629	0.0135081	0.025937	-0.0307693	0.000318734	0.0780022	-0.034242	-0.0112518	0.0550319	-0.00256399	0.0111743	-2.32072	0.00960793	-1.55833	0	0	0	0	-0	0	0	0	-0.1265	0	-0	0	0	0	0	0	-0	0	0.105	0.015	0	0	-0	0	0	0.098	0.1	0	-0	0	0	0	0	0	-0	0	0.05595	0	0	0	-0	0	0	0	0	0	-0	0	556.462	557.88	318.231	204.626	-0.246098	-0.93503	0.0407217	-0.0339332	2.75855
22	-0.121986	0.0219291	0.0380428	0.00919532	0.00102679	0.0135026	0.0259375	-0.0307714	0.000304053	0.0737888	-0.0199192	0.00710729	0.0549688	-0.00256626	0.011255	-2.32098	0.0103625	-1.5576	0	0	0	0	-0	0	0	0	-0.1265	0	-0	0	0	0	0	0	-0	0	0.105	0.015	0	0	-0	0	0	0.098	0.1	0	-0	0	0	0	0	0	-0	0	0.05595	0	0	0	-0	0	0	0	0	0	-0	0	556.785	558.223	317.651	204.745	-0.234489	-1.01381	0.0402712	-0.0339057	2.9593
23	-0.159104	0.0219536	0.0379406	0.00942114	0.00105353	0.0135506	0.0259494	-0.0308043	0.000351147	0.0307199	-0.0135348	0.0443546	0.0553304	-0.00256321	0.00930129	-2.35924	0.0145267	-1.55513	0	0	0	0	-0	0	0	0	-0.1265	0	-0	0	0	0	0	0	-0	0	0.105	0.015	0	0	-0	0	0	0.098	0.1	0	-0	0	0	0	0	0	-0	0	0.05595	0	0	0	-0	0	0	0	0	0	-0	0	557.903	559.355	314.995	205.221	-0.223138	-1.18313	0.0400434	-0.0340659	3.5394
24	-0.171935	0.0219435	0.037963	0.00942983	0.00102226	0.0134973	0.0259399	-0.0307701	0.000339897	0.0269354	-0.0140583	0.0394972	0.0553955	-0.00258124	0.00864497	-2.37225	0.0154197	-1.55488	0	0	0	0	-0	0	0	0	-0.1265	0	-0	0	0	0	0	0	-0	0	0.105	0.015	0	0	-0	0	0	0.098	0.1	0	-0	0	0	0	0	0	-0	0	0.05595	0	0	0	-0	0	0	0	0	0	-0	0	558.077	559.53	314.589	205.274	-0.212631	-1.26285	0.0397944	-0.0340533	3.76136
25	-0.170691	0.0219881	0.0379221	0.00940266	0.000982229	0.0135321	0.0259434	-0.0307631	0.000337069	0.0190982	-0.0317504	0.0261501	0.055357	-0.00257005	0.00875831	-2.37125	0.0161206	-1.55434	0	0	0	0	-0	0	0	0	-0.1265	0	-0	0	0	0	0	0	-0	0	0.105	0.015	0	0	-0	0	0	0.098	0.1	0	-0	0	0	0	0	0	-0	0	0.05595	0	0	0	-0	0	0	0	0	0	-0	0	558.287	559.75	314.015	205.349	-0.201995	-1.37134	0.0397043	-0.034071	4.07323
26	-0.17444	0.0220096	0.0378527	0.00955426	0.000990962	0.0135641	0.0259446	-0.0307515	0.000355812	0.0238629	-0.05657	0.0151704	0.0553619	-0.00256802	0.00859295	-2.37538	0.0181025	-1.55304	0	0	0	0	-0	0	0	0	-0.1265	0	-0	0	0	0	0	0	-0	0	0.105	0.015	0	0	-0	0	0	0.098	0.1	0	-0	0	0	0	0	0	-0	0	0.05595	0	0	0	-0	0	0	0	0	0	-0	0	558.68	560.167	312.661	205.497	-0.18431	-1.57053	0.0394708	-0.0341291	4.68632
27	-0.192842	0.0220478	0.0377805	0.00969197	0.000983863	0.0136118	0.0259376	-0.0307457	0.000368372	0.00674977	-0.0485788	0.0187802	0.0555024	-0.00256062	0.00760612	-2.39402	0.0199636	-1.55232	0	0	0	0	-0	0	0	0	-0.1265	0	-0	0	0	0	0	0	-0	0	0.105	0.015	0	0	-0	0	0	0.098	0.1	0	-0	0	0	0	0	0	-0	0	0.05595	0	0	0	-0	0	0	0	0	0	-0	0	558.942	560.457	311.562	205.585	-0.16691	-1.76129	0.0392591	-0.0341736	5.26345
28	-0.191515	0.0220358	0.0377364	0.00966458	0.000977317	0.0136577	0.0259606	-0.0307344	0.000363395	0.000947974	-0.00150385	0.0166784	0.055441	-0.00255685	0.00775911	-2.39302	0.0224128	-1.55048	0	0	0	0	-0	0	0	0	-0.1265	0	-0	0	0	0	0	0	-0	0	0.105	0.015	0	0	-0	0	0	0.098	0.1	0	-0	0	0	0	0	0	-0	0	0.05595	0	0	0	-0	0	0	0	0	0	-0	0	559.338	560.805	309.804	205.708	-0.137292	-2.04429	0.0387305	-0.0341501	6.09968
29	-0.20472	0.0219514	0.0376661	0.00998153	0.00106955	0.0136429	0.0259679	-0.0307194	0.000410546	-0.0272737	0.0562978	0.0247852	0.0555046	-0.00257501	0.00707283	-2.40647	0.0289111	-1.54641	0	0	0	0	-0	0	0	0	-0.1265	0	-0	0	0	0	0	0	-0	0	0.105	0.015	0	0	-0	0	0	0.098	0.1	0	-0	0	0	0	0	0	-0	0	0.05595	0	0	0	-0	0	0	0	0	0	-0	0	559.898	561.194	305.588	205.819	-0.0817522	-2.62166	0.0377709	-0.0342363	7.90133
30	-0.242131	0.0219827	0.0375542	0.0102448	0.00107131	0.0136709	0.0259659	-0.0307298	0.00047455	-0.0627333	0.0992179	0.0552067	0.0557488	-0.00257037	0.00503545	-2.4438	0.0335929	-1.5451	0	0	0	0	-0	0	0	0	-0.1265	0	-0	0	0	0	0	0	-0	0	0.105	0.015	0	0	-0	0	0	0.098	0.1	0	-0	0	0	0	0	0	-0	0	0.05595	0	0	0	-0	0	0	0	0	0	-0	0	560.026	561.324	303.003	205.747	-0.0279509	-3.1795	0.0369584	-0.0342896	9.62631
31	-0.212706	0.0219786	0.0375295	0.01027	0.00101853	0.0136985	0.025951	-0.0307117	0.000457164	-0.0592504	0.0969355	0.0487751	0.0555536	-0.00256392	0.0067346	-2.41428	0.0345619	-1.54303	0	0	0	0	-0	0	0	0	-0.1265	0	-0	0	0	0	0	0	-0	0	0.105	0.015	0	0	-0	0	0	0.098	0.1	0	-0	0	0	0	0	0	-0	0	0.05595	0	0	0	-0	0	0	0	0	0	-0	0	560.093	561.382	301.809	205.669	0.00495735	-3.48565	0.0363639	-0.0342962	10.5372
32	-0.231468	0.0218964	0.037539	0.0100279	0.000996964	0.0137016	0.0259633	-0.0307247	0.000428174	-0.0310288	0.120298	0.0621789	0.0555892	-0.00256611	0.00581274	-2.43288	0.0386999	-1.54098	0	0	0	0	-0	0	0	0	-0.1265	0	-0	0	0	0	0	0	-0	0	0.105	0.015	0	0	-0	0	0	0.098	0.1	0	-0	0	0	0	0	0	-0	0	0.05595	0	0	0	-0	0	0	0	0	0	-0	0	560.236	561.399	299.264	205.532	0.0694066	-4.07092	0.0350675	-0.0342623	12.2859
33	-0.274877	0.0217813	0.0374428	0.0102077	0.00104651	0.013624	0.0259418	-0.0307518	0.000489165	-0.0983295	0.158085	0.0811981	0.0557962	-0.00258528	0.00345853	-2.47588	0.0457583	-1.53896	0	0	0	0	-0	0	0	0	-0.1265	0	-0	0	0	0	0	0	-0	0	0.105	0.015	0	0	-0	0	0	0.098	0.1	0	-0	0	0	0	0	0	-0	0	0.05595	0	0	0	-0	0	0	0	0	0	-0	0	560.131	561.221	295.456	205.295	0.159435	-4.9401	0.0333067	-0.0344436	14.9627
34	-0.273098	0.0215951	0.0374794	0.0100633	0.000980983	0.0136087	0.0259499	-0.0307078	0.000453548	-0.0869112	0.163714	0.0937462	0.0557385	-0.00258491	0.00363395	-2.47403	0.0469858	-1.53799	0	0	0	0	-0	0	0	0	-0.1265	0	-0	0	0	0	0	0	-0	0	0.105	0.015	0	0	-0	0	0	0.098	0.1	0	-0	0	0	0	0	0	-0	0	0.05595	0	0	0	-0	0	0	0	0	0	-0	0	560.16	561.171	294.649	205.201	0.18799	-5.1828	0.032817	-0.0345075	15.667
35	-0.264113	0.021626	0.0373197	0.010051	0.00097879	0.013642	0.0259415	-0.0306998	0.000438914	-0.0544776	0.150248	0.113263	0.0556632	-0.00256546	0.00420874	-2.46463	0.0509308	-1.53496	0	0	0	0	-0	0	0	0	-0.1265	0	-0	0	0	0	0	0	-0	0	0.105	0.015	0	0	-0	0	0	0.098	0.1	0	-0	0	0	0	0	0	-0	0	0.05595	0	0	0	-0	0	0	0	0	0	-0	0	559.883	560.909	291.732	204.951	0.278608	-6.03834	0.0310927	-0.0347961	18.2378
36	-0.245629	0.0215266	0.0372728	0.0100022	0.00104815	0.0136012	0.0259531	-0.0306755	0.000444935	-0.0679965	0.193131	0.115862	0.0555433	-0.00257275	0.00531105	-2.44584	0.0539802	-1.53152	0	0	0	0	-0	0	0	0	-0.1265	0	-0	0	0	0	0	0	-0	0	0.105	0.015	0	0	-0	0	0	0.098	0.1	0	-0	0	0	0	0	0	-0	0	0.05595	0	0	0	-0	0	0	0	0	0	-0	0	559.456	560.497	289.242	204.774	0.373139	-6.89181	0.0291462	-0.0352211	20.7504
37	-0.213006	0.0214051	0.0371951	0.0100185	0.00111825	0.013571	0.0259331	-0.0306798	0.000449802	-0.0142686	0.13115	0.126034	0.0553376	-0.0025773	0.00717413	-2.41324	0.0564929	-1.52704	0	0	0	0	-0	0	0	0	-0.1265	0	-0	0	0	0	0	0	-0	0	0.105	0.015	0	0	-0	0	0	0.098	0.1	0	-0	0	0	0	0	0	-0	0	0.05595	0	0	0	-0	0	0	0	0	0	-0	0	558.574	559.735	286.664	204.82	0.497087	-8.01507	0.0267671	-0.0358905	24.0397
38	-0.214869	0.0212408	0.0373556	0.00974634	0.00119532	0.0135496	0.0259607	-0.0306869	0.000437423	-0.0255982	0.108983	0.104897	0.0552606	-0.0025889	0.00721437	-2.41555	0.0584231	-1.52548	0	0	0	0	-0	0	0	0	-0.1265	0	-0	0	0	0	0	0	-0	0	0.105	0.015	0	0	-0	0	0	0.098	0.1	0	-0	0	0	0	0	0	-0	0	0.05595	0	0	0	-0	0	0	0	0	0	-0	0	558.107	558.999	285.327	204.998	0.587691	-8.81346	0.0255792	-0.036371	26.3587
39	-0.212046	0.0210697	0.0373301	0.00985444	0.00122203	0.0135042	0.0259567	-0.0306749	0.00045105	-0.0338311	0.110693	0.100267	0.0552454	-0.00259421	0.00737702	-2.41286	0.0585668	-1.52504	0	0	0	0	-0	0	0	0	-0.1265	0	-0	0	0	0	0	0	-0	0	0.105	0.015	0	0	-0	0	0	0.098	0.1	0	-0	0	0	0	0	0	-0	0	0.05595	0	0	0	-0	0	0	0	0	0	-0	0	558.06	558.96	285.242	205.01	0.598316	-8.87902	0.0253306	-0.0367158	26.5006
40	-0.205767	0.0209844	0.0372801	0.0098859	0.0012615	0.0135857	0.0259628	-0.0306806	0.000458572	-0.0169605	0.113289	0.0827599	0.055194	-0.00257877	0.00774259	-2.40673	0.0586711	-1.52434	0	0	0	0	-0	0	0	0	-0.1265	0	-0	0	0	0	0	0	-0	0	0.105	0.015	0	0	-0	0	0	0.098	0.1	0	-0	0	0	0	0	0	-0	0	0.05595	0	0	0	-0	0	0	0	0	0	-0	0	557.913	558.816	284.961	205.066	0.621132	-9.0658	0.0249241	-0.036892	27.0021
41	-0.206394	0.0208866	0.0372247	0.00996156	0.00130843	0.0136372	0.0259664	-0.0306786	0.00046431	-0.0377864	0.102071	0.0745466	0.0551951	-0.00257314	0.00771267	-2.40759	0.0593032	-1.52389	0	0	0	0	-0	0	0	0	-0.1265	0	-0	0	0	0	0	0	-0	0	0.105	0.015	0	0	-0	0	0	0.098	0.1	0	-0	0	0	0	0	0	-0	0	0.05595	0	0	0	-0	0	0	0	0	0	-0	0	557.69	558.608	284.582	205.189	0.648925	-9.31278	0.024467	-0.0371192	27.7134
42	-0.19857	0.0207977	0.037181	0.0100242	0.00136762	0.013676	0.0259674	-0.0306809	0.000468949	-0.0118347	0.108712	0.0847396	0.0551323	-0.00257035	0.0081442	-2.40018	0.0596475	-1.52286	0	0	0	0	-0	0	0	0	-0.1265	0	-0	0	0	0	0	0	-0	0	0.105	0.015	0	0	-0	0	0	0.098	0.1	0	-0	0	0	0	0	0	-0	0	0.05595	0	0	0	-0	0	0	0	0	0	-0	0	557.357	558.294	284.125	205.436	0.684756	-9.64429	0.0239233	-0.0373768	28.6997
43	-0.210107	0.0207231	0.037179	0.0100359	0.00140885	0.013696	0.0259669	-0.0306688	0.000472305	-0.0120988	0.122998	0.0880073	0.0552179	-0.00257051	0.0075212	-2.41198	0.0605313	-1.52323	0	0	0	0	-0	0	0	0	-0.1265	0	-0	0	0	0	0	0	-0	0	0.105	0.015	0	0	-0	0	0	0.098	0.1	0	-0	0	0	0	0	0	-0	0	0.05595	0	0	0	-0	0	0	0	0	0	-0	0	557.206	558.126	283.914	205.573	0.704027	-9.81178	0.023632	-0.0375383	29.1863
44	-0.210842	0.0206943	0.0371718	0.0100139	0.00142875	0.0137542	0.0259661	-0.0306677	0.000470434	-0.0143509	0.120073	0.0786449	0.055217	-0.0025612	0.00749432	-2.41285	0.0606422	-1.52317	0	0	0	0	-0	0	0	0	-0.1265	0	-0	0	0	0	0	0	-0	0	0.105	0.015	0	0	-0	0	0	0.098	0.1	0	-0	0	0	0	0	0	-0	0	0.05595	0	0	0	-0	0	0	0	0	0	-0	0	557.148	558.055	283.834	205.631	0.713575	-9.88742	0.0234787	-0.0375957	29.3862
45	-0.204243	0.0206751	0.0371271	0.0100521	0.00147975	0.0138179	0.0259727	-0.0306698	0.000477002	-0.0166824	0.104012	0.0608306	0.0551706	-0.00255391	0.00784831	-2.40671	0.0606909	-1.5225	0	0	0	0	-0	0	0	0	-0.1265	0	-0	0	0	0	0	0	-0	0	0.105	0.015	0	0	-0	0	0	0.098	0.1	0	-0	0	0	0	0	0	-0	0	0.05595	0	0	0	-0	0	0	0	0	0	-0	0	556.889	557.757	283.58	205.914	0.736932	-10.1325	0.0233835	-0.0377061	30.155
46	-0.203937	0.0206493	0.0370783	0.0101119	0.00151397	0.0138404	0.0259688	-0.0306657	0.000479809	-0.0238743	0.101431	0.0506413	0.0551717	-0.0025529	0.00785269	-2.40666	0.060889	-1.52233	0	0	0	0	-0	0	0	0	-0.1265	0	-0	0	0	0	0	0	-0	0	0.105	0.015	0	0	-0	0	0	0.098	0.1	0	-0	0	0	0	0	0	-0	0	0.05595	0	0	0	-0	0	0	0	0	0	-0	0	556.745	557.61	283.464	206.067	0.748395	-10.2525	0.023358	-0.0378204	30.5284
47	-0.204403	0.0206367	0.0370528	0.0101306	0.00155679	0.0138791	0.0259727	-0.0306671	0.000483587	-0.0228095	0.114388	0.0677259	0.055178	-0.00254909	0.0078169	-2.40752	0.0611174	-1.52219	0	0	0	0	-0	0	0	0	-0.1265	0	-0	0	0	0	0	0	-0	0	0.105	0.015	0	0	-0	0	0	0.098	0.1	0	-0	0	0	0	0	0	-0	0	0.05595	0	0	0	-0	0	0	0	0	0	-0	0	556.543	557.384	283.321	206.309	0.764517	-10.4224	0.0233001	-0.0379016	31.0675
48	-0.174772	0.0205902	0.0370214	0.0102149	0.00161702	0.013915	0.0259671	-0.030666	0.000491446	-0.0472348	0.13411	0.0694867	0.0549669	-0.00254839	0.00940774	-2.3788	0.0600447	-1.52011	0	0	0	0	-0	0	0	0	-0.1265	0	-0	0	0	0	0	0	-0	0	0.105	0.015	0	0	-0	0	0	0.098	0.1	0	-0	0	0	0	0	0	-0	0	0.05595	0	0	0	-0	0	0	0	0	0	-0	0	556.079	556.906	283.096	206.891	0.795524	-10.7627	0.0231557	-0.0381048	32.1828
49	-0.173332	0.0205763	0.0371215	0.0100725	0.00163906	0.0139292	0.0259727	-0.0306753	0.000471489	-0.0610405	0.135919	0.0504362	0.0549176	-0.0025541	0.00951951	-2.37785	0.060045	-1.51984	0	0	0	0	-0	0	0	0	-0.1265	0	-0	0	0	0	0	0	-0	0	0.105	0.015	0	0	-0	0	0	0.098	0.1	0	-0	0	0	0	0	0	-0	0	0.05595	0	0	0	-0	0	0	0	0	0	-0	0	555.94	556.615	283.004	207.172	0.813148	-10.9402	0.0232054	-0.0381449	32.7593
50	-0.166728	0.0205561	0.0371214	0.0101011	0.00164797	0.0139145	0.0259745	-0.030669	0.000471579	-0.0513183	0.115432	0.0612394	0.0548512	-0.00255971	0.00988616	-2.37147	0.0597922	-1.51936	0	0	0	0	-0	0	0	0	-0.1265	0	-0	0	0	0	0	0	-0	0	0.105	0.015	0	0	-0	0	0	0.098	0.1	0	-0	0	0	0	0	0	-0	0	0.05595	0	0	0	-0	0	0	0	0	0	-0	0	555.861	556.502	282.965	207.296	0.820415	-11.0111	0.0231835	-0.0382436	32.9867
51	-0.171456	0.0205396	0.0371146	0.0101168	0.00167593	0.0139268	0.0259755	-0.0306693	0.000472608	-0.0578345	0.128267	0.0475729	0.0549031	-0.00256062	0.00961565	-2.37664	0.0601539	-1.51954	0	0	0	0	-0	0	0	0	-0.1265	0	-0	0	0	0	0	0	-0	0	0.105	0.015	0	0	-0	0	0	0.098	0.1	0	-0	0	0	0	0	0	-0	0	0.05595	0	0	0	-0	0	0	0	0	0	-0	0	555.686	556.28	282.898	207.556	0.832763	-11.1487	0.0232085	-0.03834	33.4421
52	-0.181106	0.0205098	0.0371079	0.01015	0.00171711	0.0139512	0.025981	-0.0306795	0.000479562	-0.0344333	0.139212	0.0443184	0.0550086	-0.00256066	0.00906172	-2.38693	0.0608053	-1.51999	0	0	0	0	-0	0	0	0	-0.1265	0	-0	0	0	0	0	0	-0	0	0.105	0.015	0	0	-0	0	0	0.098	0.1	0	-0	0	0	0	0	0	-0	0	0.05595	0	0	0	-0	0	0	0	0	0	-0	0	555.421	555.958	282.814	207.95	0.849748	-11.3451	0.0232564	-0.0384603	34.1044
53	-0.179233	0.0204432	0.0371073	0.0102262	0.00176669	0.0139613	0.0259827	-0.0306718	0.000489304	-0.0310855	0.15298	0.0549024	0.0550135	-0.00256512	0.00912046	-2.38601	0.0609943	-1.51966	0	0	0	0	-0	0	0	0	-0.1265	0	-0	0	0	0	0	0	-0	0	0.105	0.015	0	0	-0	0	0	0.098	0.1	0	-0	0	0	0	0	0	-0	0	0.05595	0	0	0	-0	0	0	0	0	0	-0	0	555.029	555.528	282.687	208.543	0.873592	-11.6205	0.0232163	-0.0386675	35.0491
54	-0.172887	0.0203465	0.0370929	0.0103937	0.00188716	0.0140542	0.0259773	-0.0306877	0.000526075	-0.0822224	0.194696	0.0639649	0.0550275	-0.00255918	0.00933569	-2.38226	0.0610581	-1.519	0	0	0	0	-0	0	0	0	-0.1265	0	-0	0	0	0	0	0	-0	0	0.105	0.015	0	0	-0	0	0	0.098	0.1	0	-0	0	0	0	0	0	-0	0	0.05595	0	0	0	-0	0	0	0	0	0	-0	0	554.003	554.491	282.515	210.174	0.932358	-12.3389	0.023111	-0.0390209	37.5744
55	-0.188701	0.0203528	0.0369481	0.0106366	0.00195945	0.0142353	0.0259971	-0.0306902	0.000530244	-0.0482153	0.210761	0.0779135	0.0552364	-0.00253222	0.00836466	-2.39952	0.0620697	-1.5199	0	0	0	0	-0	0	0	0	-0.1265	0	-0	0	0	0	0	0	-0	0	0.105	0.015	0	0	-0	0	0	0.098	0.1	0	-0	0	0	0	0	0	-0	0	0.05595	0	0	0	-0	0	0	0	0	0	-0	0	553.398	553.98	282.387	211.075	0.959637	-12.6922	0.0231455	-0.039165	38.8298
56	-0.187909	0.0202859	0.0369861	0.0106192	0.00197601	0.0141891	0.0259921	-0.030673	0.000525056	-0.0392197	0.219603	0.0716513	0.0552061	-0.00255306	0.00842643	-2.39902	0.0622124	-1.51961	0	0	0	0	-0	0	0	0	-0.1265	0	-0	0	0	0	0	0	-0	0	0.105	0.015	0	0	-0	0	0	0.098	0.1	0	-0	0	0	0	0	0	-0	0	0.05595	0	0	0	-0	0	0	0	0	0	-0	0	553.282	553.869	282.344	211.261	0.972824	-12.7812	0.0227661	-0.0394384	39.0845
57	-0.186688	0.020318	0.0369623	0.0105973	0.00199526	0.0142313	0.0259864	-0.0306665	0.00052198	-0.0329021	0.220383	0.0793976	0.0551914	-0.00254708	0.00850382	-2.39796	0.0621272	-1.51954	0	0	0	0	-0	0	0	0	-0.1265	0	-0	0	0	0	0	0	-0	0	0.105	0.015	0	0	-0	0	0	0.098	0.1	0	-0	0	0	0	0	0	-0	0	0.05595	0	0	0	-0	0	0	0	0	0	-0	0	553.234	553.823	282.331	211.335	0.97749	-12.8171	0.0226968	-0.0394778	39.1798
58	-0.180057	0.0203508	0.0369431	0.0105745	0.00201806	0.0142924	0.0259849	-0.030664	0.000518998	-0.0293988	0.224525	0.0769618	0.0551369	-0.00253981	0.00886925	-2.39151	0.0617613	-1.51915	0	0	0	0	-0	0	0	0	-0.1265	0	-0	0	0	0	0	0	-0	0	0.105	0.015	0	0	-0	0	0	0.098	0.1	0	-0	0	0	0	0	0	-0	0	0.05595	0	0	0	-0	0	0	0	0	0	-0	0	553.172	553.757	282.317	211.439	0.981623	-12.8594	0.0226791	-0.0394768	39.313
59	-0.173926	0.0203358	0.0369467	0.010585	0.00206318	0.0143545	0.0259866	-0.0306643	0.000518879	-0.0261205	0.215983	0.0727856	0.055102	-0.00253523	0.00917064	-2.38609	0.0615244	-1.5187	0	0	0	0	-0	0	0	0	-0.1265	0	-0	0	0	0	0	0	-0	0	0.105	0.015	0	0	-0	0	0	0.098	0.1	0	-0	0	0	0	0	0	-0	0	0.05595	0	0	0	-0	0	0	0	0	0	-0	0	552.915	553.471	282.27	211.883	0.995002	-13.0265	0.0226718	-0.0395514	39.9152
60	-0.170187	0.020345	0.0369244	0.0105977	0.00208299	0.0144031	0.0259873	-0.0306644	0.000518921	-0.0313265	0.209789	0.068105	0.0550704	-0.0025307	0.00937111	-2.38256	0.0613356	-1.51846	0	0	0	0	-0	0	0	0	-0.1265	0	-0	0	0	0	0	0	-0	0	0.105	0.015	0	0	-0	0	0	0.098	0.1	0	-0	0	0	0	0	0	-0	0	0.05595	0	0	0	-0	0	0	0	0	0	-0	0	552.841	553.39	282.257	212.009	0.999583	-13.0763	0.0226811	-0.0395823	40.0773
61	-0.174474	0.0203374	0.0369103	0.0106165	0.00210684	0.0144378	0.0259905	-0.0306662	0.000518556	-0.0260478	0.219452	0.0584142	0.0551173	-0.00252848	0.00912141	-2.38713	0.0615974	-1.51869	0	0	0	0	-0	0	0	0	-0.1265	0	-0	0	0	0	0	0	-0	0	0.105	0.015	0	0	-0	0	0	0.098	0.1	0	-0	0	0	0	0	0	-0	0	0.05595	0	0	0	-0	0	0	0	0	0	-0	0	552.738	553.281	282.239	212.182	1.00517	-13.1414	0.0226689	-0.0396314	40.3037
62	-0.172817	0.0202942	0.0369168	0.0106503	0.00214401	0.0144574	0.0259913	-0.030683	0.000521338	-0.05994	0.21801	0.0494226	0.0551189	-0.00253015	0.00917975	-2.38607	0.0616358	-1.51848	0	0	0	0	-0	0	0	0	-0.1265	0	-0	0	0	0	0	0	-0	0	0.105	0.015	0	0	-0	0	0	0.098	0.1	0	-0	0	0	0	0	0	-0	0	0.05595	0	0	0	-0	0	0	0	0	0	-0	0	552.519	553.046	282.194	212.557	1.01666	-13.2801	0.0226139	-0.0397495	40.8061
63	-0.16472	0.0202528	0.0369275	0.0106893	0.00216286	0.0144535	0.0259935	-0.0306711	0.000523319	-0.0594315	0.208281	0.0597265	0.0550501	-0.00253476	0.00961649	-2.37828	0.0613216	-1.51787	0	0	0	0	-0	0	0	0	-0.1265	0	-0	0	0	0	0	0	-0	0	0.105	0.015	0	0	-0	0	0	0.098	0.1	0	-0	0	0	0	0	0	-0	0	0.05595	0	0	0	-0	0	0	0	0	0	-0	0	552.411	552.933	282.151	212.747	1.02346	-13.3509	0.0225349	-0.0398458	41.057
64	-0.172596	0.0202431	0.0369348	0.0106899	0.00218371	0.0144796	0.0259957	-0.0306697	0.000521566	-0.0598856	0.222343	0.048405	0.0551349	-0.00253303	0.00916609	-2.38661	0.0618103	-1.51828	0	0	0	0	-0	0	0	0	-0.1265	0	-0	0	0	0	0	0	-0	0	0.105	0.015	0	0	-0	0	0	0.098	0.1	0	-0	0	0	0	0	0	-0	0	0.05595	0	0	0	-0	0	0	0	0	0	-0	0	552.256	552.76	282.105	213.023	1.03253	-13.4566	0.0224996	-0.0399202	41.4326
65	-0.149901	0.0201964	0.0369559	0.0107193	0.00223156	0.014512	0.0259963	-0.0306711	0.000523649	-0.057366	0.215049	0.0598948	0.0549507	-0.00253357	0.0103718	-2.36484	0.0607805	-1.51674	0	0	0	0	-0	0	0	0	-0.1265	0	-0	0	0	0	0	0	-0	0	0.105	0.015	0	0	-0	0	0	0.098	0.1	0	-0	0	0	0	0	0	-0	0	0.05595	0	0	0	-0	0	0	0	0	0	-0	0	551.931	552.401	282.024	213.608	1.051	-13.6858	0.0224428	-0.0400776	42.272
66	-0.154	0.0201835	0.0370201	0.010661	0.00224453	0.0145276	0.0259952	-0.030674	0.000515226	-0.0272614	0.176998	0.07086	0.054981	-0.00253774	0.0101529	-2.36942	0.0610512	-1.51688	0	0	0	0	-0	0	0	0	-0.1265	0	-0	0	0	0	0	0	-0	0	0.105	0.015	0	0	-0	0	0	0.098	0.1	0	-0	0	0	0	0	0	-0	0	0.05595	0	0	0	-0	0	0	0	0	0	-0	0	551.806	552.203	281.98	213.893	1.06215	-13.8067	0.0224432	-0.0401559	42.6996
67	-0.142795	0.0201622	0.0370236	0.0106983	0.002282	0.0145706	0.0259997	-0.0306752	0.000517963	-0.0329617	0.193373	0.0597874	0.0548836	-0.00253493	0.0107409	-2.35892	0.0605489	-1.51611	0	0	0	0	-0	0	0	0	-0.1265	0	-0	0	0	0	0	0	-0	0	0.105	0.015	0	0	-0	0	0	0.098	0.1	0	-0	0	0	0	0	0	-0	0	0.05595	0	0	0	-0	0	0	0	0	0	-0	0	551.58	551.928	281.92	214.321	1.07554	-13.9779	0.0224884	-0.040258	43.3302
68	-0.135942	0.020163	0.0370108	0.0107137	0.00229311	0.0145916	0.0259977	-0.0306742	0.00052322	-0.0370164	0.195777	0.0589277	0.0548074	-0.00253528	0.0111183	-2.35223	0.0602044	-1.51566	0	0	0	0	-0	0	0	0	-0.1265	0	-0	0	0	0	0	0	-0	0	0.105	0.015	0	0	-0	0	0	0.098	0.1	0	-0	0	0	0	0	0	-0	0	0.05595	0	0	0	-0	0	0	0	0	0	-0	0	551.529	551.871	281.906	214.412	1.07982	-14.0181	0.0224716	-0.0403221	43.456
69	-0.119754	0.0201526	0.0369832	0.0107667	0.00233047	0.0146485	0.0259981	-0.0306763	0.000527837	-0.0508485	0.19861	0.0526264	0.0546491	-0.00252848	0.0119687	-2.33663	0.0594023	-1.51464	0	0	0	0	-0	0	0	0	-0.1265	0	-0	0	0	0	0	0	-0	0	0.105	0.015	0	0	-0	0	0	0.098	0.1	0	-0	0	0	0	0	0	-0	0	0.05595	0	0	0	-0	0	0	0	0	0	-0	0	551.316	551.657	281.851	214.78	1.09032	-14.1595	0.02249	-0.0403956	43.9814
70	-0.12111	0.0201463	0.0369872	0.0107707	0.00234864	0.0146813	0.026002	-0.0306778	0.000528313	-0.0594859	0.188883	0.057264	0.0546634	-0.00252727	0.0118881	-2.33828	0.0595195	-1.51466	0	0	0	0	-0	0	0	0	-0.1265	0	-0	0	0	0	0	0	-0	0	0.105	0.015	0	0	-0	0	0	0.098	0.1	0	-0	0	0	0	0	0	-0	0	0.05595	0	0	0	-0	0	0	0	0	0	-0	0	551.22	551.543	281.821	214.964	1.09696	-14.2345	0.0224847	-0.0404464	44.2455
71	-0.116698	0.0201204	0.0369554	0.0108381	0.00238065	0.0147113	0.026003	-0.0306748	0.000532222	-0.0658078	0.204643	0.0479427	0.0546288	-0.00252516	0.0120981	-2.33431	0.0593877	-1.51432	0	0	0	0	-0	0	0	0	-0.1265	0	-0	0	0	0	0	0	-0	0	0.105	0.015	0	0	-0	0	0	0.098	0.1	0	-0	0	0	0	0	0	-0	0	0.05595	0	0	0	-0	0	0	0	0	0	-0	0	551.049	551.391	281.775	215.242	1.10541	-14.3395	0.0224201	-0.0405537	44.6291
72	-0.096216	0.0200916	0.0369395	0.0108893	0.00242294	0.014752	0.0260048	-0.030678	0.000538002	-0.0626328	0.207069	0.0340053	0.0544032	-0.00252243	0.0131786	-2.31447	0.0583483	-1.51301	0	0	0	0	-0	0	0	0	-0.1265	0	-0	0	0	0	0	0	-0	0	0.105	0.015	0	0	-0	0	0	0.098	0.1	0	-0	0	0	0	0	0	-0	0	0.05595	0	0	0	-0	0	0	0	0	0	-0	0	550.807	551.172	281.714	215.644	1.1182	-14.4958	0.0223004	-0.0406749	45.201
73	-0.0930125	0.020068	0.0369738	0.0108779	0.00244353	0.0147686	0.0260158	-0.0306825	0.000537577	-0.0514516	0.23225	0.0376986	0.0543586	-0.00252562	0.0133433	-2.31174	0.0582525	-1.5127	0	0	0	0	-0	0	0	0	-0.1265	0	-0	0	0	0	0	0	-0	0	0.105	0.015	0	0	-0	0	0	0.098	0.1	0	-0	0	0	0	0	0	-0	0	0.05595	0	0	0	-0	0	0	0	0	0	-0	0	550.656	551	281.661	215.938	1.12914	-14.6175	0.0222161	-0.0407772	45.6403
74	-0.0934236	0.0200268	0.0369377	0.0109627	0.00246938	0.014762	0.026009	-0.0306792	0.000547006	-0.0556604	0.229302	0.0237202	0.0543812	-0.00253019	0.0132923	-2.31252	0.0584478	-1.51259	0	0	0	0	-0	0	0	0	-0.1265	0	-0	0	0	0	0	0	-0	0	0.105	0.015	0	0	-0	0	0	0.098	0.1	0	-0	0	0	0	0	0	-0	0	0.05595	0	0	0	-0	0	0	0	0	0	-0	0	550.491	550.897	281.612	216.168	1.13761	-14.7071	0.0220004	-0.0409593	45.9559
75	-0.0930779	0.0200444	0.0368992	0.0109909	0.00249131	0.0148109	0.0260049	-0.0306755	0.000549623	-0.0520468	0.225241	0.031778	0.054383	-0.00252258	0.0133028	-2.31235	0.058448	-1.51258	0	0	0	0	-0	0	0	0	-0.1265	0	-0	0	0	0	0	0	-0	0	0.105	0.015	0	0	-0	0	0	0.098	0.1	0	-0	0	0	0	0	0	-0	0	0.05595	0	0	0	-0	0	0	0	0	0	-0	0	550.424	550.854	281.589	216.266	1.14102	-14.7458	0.0219793	-0.0409777	46.0843
76	-0.0812864	0.0200441	0.0368816	0.0110278	0.00252887	0.0148791	0.0260042	-0.0306756	0.000549852	-0.0660196	0.239847	0.0230414	0.0542515	-0.0025146	0.0139055	-2.30117	0.057853	-1.51183	0	0	0	0	-0	0	0	0	-0.1265	0	-0	0	0	0	0	0	-0	0	0.105	0.015	0	0	-0	0	0	0.098	0.1	0	-0	0	0	0	0	0	-0	0	0.05595	0	0	0	-0	0	0	0	0	0	-0	0	550.195	550.666	281.52	216.65	1.15226	-14.8888	0.0218497	-0.0410383	46.6181
77	-0.0718826	0.020019	0.0368979	0.0110564	0.00257365	0.0149407	0.0260109	-0.0306849	0.000557558	-0.078748	0.247812	0.0404281	0.0541433	-0.00251096	0.014377	-2.29263	0.0574169	-1.51115	0	0	0	0	-0	0	0	0	-0.1265	0	-0	0	0	0	0	0	-0	0	0.105	0.015	0	0	-0	0	0	0.098	0.1	0	-0	0	0	0	0	0	-0	0	0.05595	0	0	0	-0	0	0	0	0	0	-0	0	549.914	550.382	281.442	217.19	1.1689	-15.0995	0.0217493	-0.0411502	47.4113
78	-0.0644251	0.0199999	0.0368546	0.0111502	0.00260136	0.0149853	0.0260118	-0.0306946	0.000563842	-0.0474265	0.253004	0.0449946	0.0540556	-0.00250794	0.0147503	-2.28565	0.0571015	-1.51063	0	0	0	0	-0	0	0	0	-0.1265	0	-0	0	0	0	0	0	-0	0	0.105	0.015	0	0	-0	0	0	0.098	0.1	0	-0	0	0	0	0	0	-0	0	0.05595	0	0	0	-0	0	0	0	0	0	-0	0	549.724	550.251	281.384	217.487	1.17883	-15.215	0.0215943	-0.0412788	47.8284
79	-0.082543	0.0199378	0.0368598	0.0112378	0.00265797	0.0150178	0.0260141	-0.0306901	0.000576641	-0.066095	0.26624	0.0583965	0.0543579	-0.00251109	0.0137177	-2.30477	0.0584752	-1.5114	0	0	0	0	-0	0	0	0	-0.1265	0	-0	0	0	0	0	0	-0	0	0.105	0.015	0	0	-0	0	0	0.098	0.1	0	-0	0	0	0	0	0	-0	0	0.05595	0	0	0	-0	0	0	0	0	0	-0	0	549.378	549.959	281.234	218.117	1.19916	-15.4598	0.0212781	-0.0415093	48.7522
80	-0.0775959	0.0199569	0.0368523	0.0112461	0.00266529	0.0150645	0.0260151	-0.0306885	0.000572486	-0.0833419	0.25625	0.05685	0.0542838	-0.00250674	0.013986	-2.30013	0.058216	-1.51107	0	0	0	0	-0	0	0	0	-0.1265	0	-0	0	0	0	0	0	-0	0	0.105	0.015	0	0	-0	0	0	0.098	0.1	0	-0	0	0	0	0	0	-0	0	0.05595	0	0	0	-0	0	0	0	0	0	-0	0	549.275	549.877	281.195	218.295	1.20695	-15.5367	0.0211947	-0.0415747	49.0084
81	-0.0749957	0.0199595	0.0368313	0.0112775	0.00268415	0.0150943	0.0260132	-0.0306832	0.000574765	-0.0816923	0.252131	0.0453785	0.0542498	-0.0025062	0.0141207	-2.29775	0.0581193	-1.51087	0	0	0	0	-0	0	0	0	-0.1265	0	-0	0	0	0	0	0	-0	0	0.105	0.015	0	0	-0	0	0	0.098	0.1	0	-0	0	0	0	0	0	-0	0	0.05595	0	0	0	-0	0	0	0	0	0	-0	0	549.194	549.822	281.167	218.423	1.21245	-15.5886	0.0210698	-0.0416571	49.1802
82	-0.0571961	0.0199454	0.0368134	0.0113342	0.00273315	0.0151613	0.0260165	-0.0306937	0.000575446	-0.0558022	0.258482	0.05943	0.0540343	-0.0024996	0.0150335	-2.28081	0.0571982	-1.50973	0	0	0	0	-0	0	0	0	-0.1265	0	-0	0	0	0	0	0	-0	0	0.105	0.015	0	0	-0	0	0	0.098	0.1	0	-0	0	0	0	0	0	-0	0	0.05595	0	0	0	-0	0	0	0	0	0	-0	0	548.887	549.575	281.076	218.958	1.22829	-15.7918	0.0208533	-0.0417821	49.9539
83	-0.0546828	0.0199139	0.0368584	0.0113293	0.00275399	0.0151638	0.0260182	-0.0306883	0.000576797	-0.0585145	0.245916	0.0494586	0.0539916	-0.00250756	0.0151666	-2.27874	0.0571575	-1.50942	0	0	0	0	-0	0	0	0	-0.1265	0	-0	0	0	0	0	0	-0	0	0.105	0.015	0	0	-0	0	0	0.098	0.1	0	-0	0	0	0	0	0	-0	0	0.05595	0	0	0	-0	0	0	0	0	0	-0	0	548.762	549.444	281.013	219.225	1.23907	-15.9004	0.0206759	-0.041922	50.345
84	-0.0486188	0.0199355	0.036819	0.0113694	0.00276954	0.0152143	0.0260143	-0.0306834	0.000579991	-0.0608657	0.250288	0.047194	0.0539066	-0.00250171	0.0154865	-2.27288	0.0568197	-1.50907	0	0	0	0	-0	0	0	0	-0.1265	0	-0	0	0	0	0	0	-0	0	0.105	0.015	0	0	-0	0	0	0.098	0.1	0	-0	0	0	0	0	0	-0	0	0.05595	0	0	0	-0	0	0	0	0	0	-0	0	548.688	549.394	280.989	219.341	1.2433	-15.9468	0.0206318	-0.0419704	50.5007
85	-0.0515249	0.0199554	0.0367942	0.0113835	0.00279107	0.0152725	0.0260164	-0.0306851	0.000580276	-0.0512109	0.26062	0.0450608	0.0539602	-0.00249408	0.0153168	-2.27605	0.0570145	-1.50923	0	0	0	0	-0	0	0	0	-0.1265	0	-0	0	0	0	0	0	-0	0	0.105	0.015	0	0	-0	0	0	0.098	0.1	0	-0	0	0	0	0	0	-0	0	0.05595	0	0	0	-0	0	0	0	0	0	-0	0	548.596	549.323	280.961	219.501	1.24813	-16.006	0.0205929	-0.041985	50.7139
86	-0.0424585	0.0199374	0.0367794	0.0114332	0.00282673	0.0153178	0.0260255	-0.0306847	0.000590515	-0.0472091	0.231915	0.0332843	0.0538449	-0.00249221	0.0157719	-2.26754	0.0565762	-1.50862	0	0	0	0	-0	0	0	0	-0.1265	0	-0	0	0	0	0	0	-0	0	0.105	0.015	0	0	-0	0	0	0.098	0.1	0	-0	0	0	0	0	0	-0	0	0.05595	0	0	0	-0	0	0	0	0	0	-0	0	548.403	549.167	280.9	219.847	1.25824	-16.1332	0.0204353	-0.0420926	51.1993
87	-0.0538046	0.0199348	0.0367217	0.0115141	0.00285518	0.0153666	0.0260184	-0.0306815	0.000594939	-0.0457576	0.227022	0.027397	0.0540419	-0.00249141	0.0151366	-2.27918	0.05741	-1.5092	0	0	0	0	-0	0	0	0	-0.1265	0	-0	0	0	0	0	0	-0	0	0.105	0.015	0	0	-0	0	0	0.098	0.1	0	-0	0	0	0	0	0	-0	0	0.05595	0	0	0	-0	0	0	0	0	0	-0	0	548.277	549.099	280.862	220.029	1.26426	-16.2006	0.0202877	-0.0422205	51.4355
88	-0.0693056	0.0199401	0.0367273	0.0115081	0.00288569	0.0154173	0.0260171	-0.0306838	0.000590902	-0.0395352	0.225858	0.0366833	0.0542849	-0.00248632	0.0142816	-2.2951	0.0584079	-1.51004	0	0	0	0	-0	0	0	0	-0.1265	0	-0	0	0	0	0	0	-0	0	0.105	0.015	0	0	-0	0	0	0.098	0.1	0	-0	0	0	0	0	0	-0	0	0.05595	0	0	0	-0	0	0	0	0	0	-0	0	548.135	548.977	280.811	220.291	1.27246	-16.2969	0.0201847	-0.042267	51.7926
89	-0.0581783	0.0199353	0.0367631	0.0114826	0.00289657	0.0154367	0.0260195	-0.0306858	0.000587799	-0.0370678	0.239671	0.0396447	0.0541202	-0.00248607	0.0148833	-2.2843	0.0577462	-1.50932	0	0	0	0	-0	0	0	0	-0.1265	0	-0	0	0	0	0	0	-0	0	0.105	0.015	0	0	-0	0	0	0.098	0.1	0	-0	0	0	0	0	0	-0	0	0.05595	0	0	0	-0	0	0	0	0	0	-0	0	548.047	548.882	280.775	220.484	1.27944	-16.3713	0.0201023	-0.0423094	52.0657
90	-0.0446279	0.0199181	0.0367666	0.0115169	0.00291717	0.015463	0.0260241	-0.0306861	0.000594877	-0.0278579	0.212866	0.0325937	0.0539303	-0.00248528	0.0155951	-2.27121	0.0569993	-1.50845	0	0	0	0	-0	0	0	0	-0.1265	0	-0	0	0	0	0	0	-0	0	0.105	0.015	0	0	-0	0	0	0.098	0.1	0	-0	0	0	0	0	0	-0	0	0.05595	0	0	0	-0	0	0	0	0	0	-0	0	547.903	548.745	280.722	220.767	1.2879	-16.4772	0.0200128	-0.0423993	52.4733
91	-0.034889	0.0199224	0.0367342	0.0115642	0.00292994	0.0154972	0.0260198	-0.0306855	0.000596258	-0.0290268	0.206427	0.0327045	0.0537826	-0.00248368	0.0161103	-2.26165	0.0564534	-1.50787	0	0	0	0	-0	0	0	0	-0.1265	0	-0	0	0	0	0	0	-0	0	0.105	0.015	0	0	-0	0	0	0.098	0.1	0	-0	0	0	0	0	0	-0	0	0.05595	0	0	0	-0	0	0	0	0	0	-0	0	547.838	548.7	280.7	220.873	1.29159	-16.5183	0.0199654	-0.0424673	52.6156
92	-0.0424683	0.0199067	0.0367353	0.0115971	0.00296912	0.0155446	0.0260219	-0.0306895	0.000598147	-0.0282085	0.199439	0.0207035	0.0539273	-0.00247971	0.0156674	-2.26989	0.0570488	-1.50818	0	0	0	0	-0	0	0	0	-0.1265	0	-0	0	0	0	0	0	-0	0	0.105	0.015	0	0	-0	0	0	0.098	0.1	0	-0	0	0	0	0	0	-0	0	0.05595	0	0	0	-0	0	0	0	0	0	-0	0	547.632	548.517	280.621	221.283	1.30309	-16.6711	0.0198459	-0.0425602	53.2149
93	-0.045884	0.0199098	0.0367146	0.011637	0.00298687	0.0155841	0.0260208	-0.0306895	0.000600514	-0.0369308	0.197202	0.0224287	0.0539829	-0.00247794	0.0154778	-2.27351	0.0573104	-1.50834	0	0	0	0	-0	0	0	0	-0.1265	0	-0	0	0	0	0	0	-0	0	0.105	0.015	0	0	-0	0	0	0.098	0.1	0	-0	0	0	0	0	0	-0	0	0.05595	0	0	0	-0	0	0	0	0	0	-0	0	547.565	548.467	280.595	221.4	1.30782	-16.7187	0.0197766	-0.0426197	53.3756
94	-0.0273536	0.0198887	0.0367046	0.0116929	0.00303166	0.0156389	0.0260302	-0.0306987	0.000606233	-0.0371547	0.204544	0.046915	0.0537248	-0.00247397	0.0164373	-2.25572	0.0562996	-1.50716	0	0	0	0	-0	0	0	0	-0.1265	0	-0	0	0	0	0	0	-0	0	0.105	0.015	0	0	-0	0	0	0.098	0.1	0	-0	0	0	0	0	0	-0	0	0.05595	0	0	0	-0	0	0	0	0	0	-0	0	547.336	548.268	280.503	221.853	1.32069	-16.8904	0.0196333	-0.0427396	54.0494
95	-0.0239543	0.0198565	0.0367269	0.0117214	0.00305024	0.0156346	0.0260319	-0.0307014	0.000607112	-0.0272168	0.211038	0.0682601	0.0536683	-0.00248434	0.0166121	-2.2527	0.0562404	-1.50679	0	0	0	0	-0	0	0	0	-0.1265	0	-0	0	0	0	0	0	-0	0	0.105	0.015	0	0	-0	0	0	0.098	0.1	0	-0	0	0	0	0	0	-0	0	0.05595	0	0	0	-0	0	0	0	0	0	-0	0	547.219	548.17	280.437	222.081	1.33015	-16.9827	0.0194233	-0.0429205	54.381
96	-0.0130425	0.0198258	0.0367229	0.0117911	0.00309973	0.0156698	0.0260351	-0.0307013	0.000623334	-0.0397026	0.233122	0.0862161	0.0535192	-0.0024868	0.0171569	-2.2426	0.0558095	-1.50593	0	0	0	0	-0	0	0	0	-0.1265	0	-0	0	0	0	0	0	-0	0	0.105	0.015	0	0	-0	0	0	0.098	0.1	0	-0	0	0	0	0	0	-0	0	0.05595	0	0	0	-0	0	0	0	0	0	-0	0	546.959	547.965	280.289	222.575	1.34604	-17.1746	0.0191161	-0.0431405	55.1193
97	-0.0205181	0.0198491	0.0366633	0.0119075	0.00312897	0.0157539	0.0260306	-0.0306964	0.000628474	-0.036455	0.239567	0.0965965	0.0536686	-0.00247988	0.016732	-2.25051	0.0564536	-1.50627	0	0	0	0	-0	0	0	0	-0.1265	0	-0	0	0	0	0	0	-0	0	0.105	0.015	0	0	-0	0	0	0.098	0.1	0	-0	0	0	0	0	0	-0	0	0.05595	0	0	0	-0	0	0	0	0	0	-0	0	546.794	547.872	280.2	222.839	1.35483	-17.2752	0.018959	-0.043261	55.4814
98	-0.0183595	0.0198769	0.036649	0.0119185	0.00315105	0.0158129	0.0260282	-0.0306961	0.00062618	-0.0438455	0.23822	0.0873075	0.0536292	-0.00247473	0.016849	-2.24856	0.0563317	-1.50613	0	0	0	0	-0	0	0	0	-0.1265	0	-0	0	0	0	0	0	-0	0	0.105	0.015	0	0	-0	0	0	0.098	0.1	0	-0	0	0	0	0	0	-0	0	0.05595	0	0	0	-0	0	0	0	0	0	-0	0	546.732	547.83	280.167	222.952	1.36012	-17.3223	0.0188774	-0.043296	55.6265
99	-0.0135919	0.0198872	0.0366431	0.011932	0.00317309	0.0158587	0.0260295	-0.0306953	0.000628151	-0.0393557	0.222173	0.0809855	0.0535535	-0.0024706	0.0170972	-2.24405	0.0560589	-1.50582	0	0	0	0	-0	0	0	0	-0.1265	0	-0	0	0	0	0	0	-0	0	0.105	0.015	0	0	-0	0	0	0.098	0.1	0	-0	0	0	0	0	0	-0	0	0.05595	0	0	0	-0	0	0	0	0	0	-0	0	546.654	547.769	280.124	223.109	1.3654	-17.3786	0.0187828	-0.0433339	55.828
100	-0.00546037	0.019895	0.0366263	0.0119791	0.00318749	0.0159016	0.0260295	-0.0306999	0.000630944	-0.0532865	0.219884	0.0870681	0.0534223	-0.00246659	0.0175215	-2.23616	0.0555785	-1.50532	0	0	0	0	-0	0	0	0	-0.1265	0	-0	0	0	0	0	0	-0	0	0.105	0.015	0	0	-0	0	0	0.098	0.1	0	-0	0	0	0	0	0	-0	0	0.05595	0	0	0	-0	0	0	0	0	0	-0	0	546.576	547.713	280.084	223.256	1.36983	-17.4295	0.0187162	-0.0433757	56.0161
