Stefan210/kinematic_calibration/src/kinematic_calibration/validation/experiments/experiments/single_point_vs_pose/marker_pose/rarm_180/optimization_intermediate_results.csv
iteration	HeadPitch_offset	HeadYaw_offset	RElbowRoll_offset	RElbowYaw_offset	RShoulderPitch_offset	RShoulderRoll_offset	marker_transform_rarm_tx	marker_transform_rarm_ty	marker_transform_rarm_tz	marker_transform_rarm_rr	marker_transform_rarm_rp	marker_transform_rarm_ry	camera_transform_tx	camera_transform_ty	camera_transform_tz	camera_transform_rr	camera_transform_rp	camera_transform_ry	HeadPitch_transform_tx	HeadPitch_transform_ty	HeadPitch_transform_tz	HeadPitch_transform_rr	HeadPitch_transform_rp	HeadPitch_transform_ry	HeadYaw_transform_tx	HeadYaw_transform_ty	HeadYaw_transform_tz	HeadYaw_transform_rr	HeadYaw_transform_rp	HeadYaw_transform_ry	RElbowRoll_transform_tx	RElbowRoll_transform_ty	RElbowRoll_transform_tz	RElbowRoll_transform_rr	RElbowRoll_transform_rp	RElbowRoll_transform_ry	RElbowYaw_transform_tx	RElbowYaw_transform_ty	RElbowYaw_transform_tz	RElbowYaw_transform_rr	RElbowYaw_transform_rp	RElbowYaw_transform_ry	RShoulderPitch_transform_tx	RShoulderPitch_transform_ty	RShoulderPitch_transform_tz	RShoulderPitch_transform_rr	RShoulderPitch_transform_rp	RShoulderPitch_transform_ry	RShoulderRoll_transform_tx	RShoulderRoll_transform_ty	RShoulderRoll_transform_tz	RShoulderRoll_transform_rr	RShoulderRoll_transform_rp	RShoulderRoll_transform_ry	RWristYaw_transform_tx	RWristYaw_transform_ty	RWristYaw_transform_tz	RWristYaw_transform_rr	RWristYaw_transform_rp	RWristYaw_transform_ry	r_wrist_joint_transform_tx	r_wrist_joint_transform_ty	r_wrist_joint_transform_tz	r_wrist_joint_transform_rr	r_wrist_joint_transform_rp	r_wrist_joint_transform_ry	camera_fx	camera_fy	camera_cx	camera_cy	camera_D0	camera_D1	camera_D2	camera_D3	camera_D4	
0	0.0230449	0.0294606	-0.0013508	-0.00116347	0.000678263	0.00258603	0.05071	0	0.01774	-2.26369	1.66533e-16	-1.5708	545.901	551.038	324.928	201.58	0.0255298	2.61142	-0.0636736	-0.0350419	0.213964
1	-0.0133057	-0.032634	-0.0154029	-0.0115038	-0.0129798	-0.0440806	0.0256146	0.0366956	-0.00206407	-0.603043	0.270009	0.18324	0.0522832	0.00139114	0.023577	-2.21137	0.0103235	-1.53964	0	0	0	0	-0	0	0	0	-0.1265	0	-0	0	0	0	0	0	-0	0	0.105	-0.015	0	0	-0	0	0	-0.098	0.1	0	-0	0	0	0	0	0	-0	0	0.05595	0	0	0	-0	0	0	0	0	0	-0	0	545.902	551.039	324.931	201.582	-0.0757062	2.55599	-0.0748402	-0.072795	0.196939
2	-0.00813787	-0.0564881	-0.0412332	0.0200608	-0.0260344	-0.0383406	0.0229292	0.0299629	-0.000135225	-0.871479	0.281594	0.0642758	0.0506505	0.00251581	0.0300694	-2.23291	0.0287666	-1.53057	0	0	0	0	-0	0	0	0	-0.1265	0	-0	0	0	0	0	0	-0	0	0.105	-0.015	0	0	-0	0	0	-0.098	0.1	0	-0	0	0	0	0	0	-0	0	0.05595	0	0	0	-0	0	0	0	0	0	-0	0	545.905	551.039	324.937	201.588	-0.204902	2.41111	0.0366107	-0.0258879	0.133128
3	-0.0130847	-0.0353	-0.0345669	0.0125495	-0.0130515	-0.0473312	0.0236286	0.0277511	-0.000571631	-1.07128	0.245589	0.0257952	0.0532977	0.00150639	0.0230463	-2.21176	0.0164166	-1.546	0	0	0	0	-0	0	0	0	-0.1265	0	-0	0	0	0	0	0	-0	0	0.105	-0.015	0	0	-0	0	0	-0.098	0.1	0	-0	0	0	0	0	0	-0	0	0.05595	0	0	0	-0	0	0	0	0	0	-0	0	545.911	551.039	324.948	201.596	-0.556476	2.11715	-0.0183122	0.000557295	0.0209381
4	-0.0133611	-0.0300066	-0.0276068	0.00275291	-0.00982308	-0.0525089	0.0236017	0.0282512	-0.000251366	-1.23811	0.179157	0.0860471	0.055288	-0.000181138	0.0189751	-2.20965	0.014501	-1.54708	0	0	0	0	-0	0	0	0	-0.1265	0	-0	0	0	0	0	0	-0	0	0.105	-0.015	0	0	-0	0	0	-0.098	0.1	0	-0	0	0	0	0	0	-0	0	0.05595	0	0	0	-0	0	0	0	0	0	-0	0	545.919	551.039	324.958	201.607	-0.81581	1.73213	0.0301842	0.0298103	-0.164453
5	-0.0141967	-0.020333	-0.0124726	-0.0060783	-0.00633287	-0.0551831	0.0229475	0.0296371	0.000527862	-1.49268	0.1251	0.208666	0.0561243	-0.00225558	0.0159769	-2.20563	0.0124237	-1.54753	0	0	0	0	-0	0	0	0	-0.1265	0	-0	0	0	0	0	0	-0	0	0.105	-0.015	0	0	-0	0	0	-0.098	0.1	0	-0	0	0	0	0	0	-0	0	0.05595	0	0	0	-0	0	0	0	0	0	-0	0	545.932	551.036	324.966	201.615	-0.728231	1.26003	0.0237185	0.0264497	-0.45195
6	-0.0140917	-0.0217192	0.00284887	-0.00344255	-0.0136214	-0.0452679	0.0220278	0.0291216	0.000118893	-1.69489	0.140407	0.252169	0.054436	-0.00309334	0.0173391	-2.2064	0.0156867	-1.53824	0	0	0	0	-0	0	0	0	-0.1265	0	-0	0	0	0	0	0	-0	0	0.105	-0.015	0	0	-0	0	0	-0.098	0.1	0	-0	0	0	0	0	0	-0	0	0.05595	0	0	0	-0	0	0	0	0	0	-0	0	545.949	551.028	324.969	201.619	-0.398543	0.906854	0.0117393	0.00568305	-0.709927
7	-0.0142085	-0.021615	0.00594836	0.00110042	-0.0149151	-0.0427658	0.021769	0.0285858	-0.000481886	-1.70245	0.151854	0.230556	0.0535645	-0.00331872	0.0180682	-2.20618	0.0166077	-1.53619	0	0	0	0	-0	0	0	0	-0.1265	0	-0	0	0	0	0	0	-0	0	0.105	-0.015	0	0	-0	0	0	-0.098	0.1	0	-0	0	0	0	0	0	-0	0	0.05595	0	0	0	-0	0	0	0	0	0	-0	0	545.979	551.012	324.971	201.619	-0.189505	0.642166	0.000815379	-0.00689401	-0.856308
8	-0.014219	-0.0214107	0.00632218	0.00171843	-0.0148548	-0.0427936	0.0217645	0.0285536	-0.000512518	-1.70325	0.15308	0.226804	0.0532094	-0.00331333	0.0184389	-2.20622	0.0163023	-1.53636	0	0	0	0	-0	0	0	0	-0.1265	0	-0	0	0	0	0	0	-0	0	0.105	-0.015	0	0	-0	0	0	-0.098	0.1	0	-0	0	0	0	0	0	-0	0	0.05595	0	0	0	-0	0	0	0	0	0	-0	0	546.062	550.965	324.982	201.618	-0.104914	0.483456	-0.00418763	-0.010433	-0.808922
9	-0.0142543	-0.0213115	0.00642048	0.00174941	-0.0148524	-0.0428319	0.0217603	0.0285461	-0.000512508	-1.70295	0.153228	0.225754	0.0530175	-0.00329829	0.0186423	-2.20647	0.0160464	-1.53669	0	0	0	0	-0	0	0	0	-0.1265	0	-0	0	0	0	0	0	-0	0	0.105	-0.015	0	0	-0	0	0	-0.098	0.1	0	-0	0	0	0	0	0	-0	0	0.05595	0	0	0	-0	0	0	0	0	0	-0	0	546.292	550.83	325.015	201.615	-0.0605891	0.301186	-0.00505472	-0.0112271	-0.5702
10	-0.014284	-0.0211809	0.00653839	0.00168976	-0.0148514	-0.0428821	0.0217523	0.0285408	-0.000510008	-1.70215	0.15322	0.225011	0.0527697	-0.00327707	0.0188955	-2.20675	0.0156383	-1.53725	0	0	0	0	-0	0	0	0	-0.1265	0	-0	0	0	0	0	0	-0	0	0.105	-0.015	0	0	-0	0	0	-0.098	0.1	0	-0	0	0	0	0	0	-0	0	0.05595	0	0	0	-0	0	0	0	0	0	-0	0	546.894	550.477	325.097	201.601	-0.0107897	0.0522614	-0.00497718	-0.0118913	-0.20409
11	-0.014759	-0.0210805	0.0066678	0.00162618	-0.0148612	-0.0428184	0.021736	0.0285385	-0.000511778	-1.70076	0.153111	0.224905	0.0525125	-0.00324646	0.0191206	-2.20727	0.0151035	-1.53801	0	0	0	0	-0	0	0	0	-0.1265	0	-0	0	0	0	0	0	-0	0	0.105	-0.015	0	0	-0	0	0	-0.098	0.1	0	-0	0	0	0	0	0	-0	0	0.05595	0	0	0	-0	0	0	0	0	0	-0	0	548.229	549.742	325.28	201.578	0.0186374	-0.115662	-0.00342444	-0.0126587	0.0550586
12	-0.0175875	-0.0210331	0.00679098	0.00157975	-0.014869	-0.0426189	0.0217131	0.0285401	-0.000519267	-1.69895	0.152918	0.225627	0.0523307	-0.00321036	0.0191664	-2.21004	0.0145027	-1.53897	0	0	0	0	-0	0	0	0	-0.1265	0	-0	0	0	0	0	0	-0	0	0.105	-0.015	0	0	-0	0	0	-0.098	0.1	0	-0	0	0	0	0	0	-0	0	0.05595	0	0	0	-0	0	0	0	0	0	-0	0	550.395	548.939	325.611	201.609	0.00988999	-0.110644	-0.000323129	-0.0133413	0.0666107
13	-0.0181636	-0.0209921	0.00687538	0.00154594	-0.0148568	-0.0424523	0.0216965	0.0285408	-0.000524508	-1.69765	0.152783	0.226215	0.0521174	-0.00317172	0.0193422	-2.21133	0.0135844	-1.54013	0	0	0	0	-0	0	0	0	-0.1265	0	-0	0	0	0	0	0	-0	0	0.105	-0.015	0	0	-0	0	0	-0.098	0.1	0	-0	0	0	0	0	0	-0	0	0.05595	0	0	0	-0	0	0	0	0	0	-0	0	552.87	549.456	326.141	201.891	-0.0123978	-0.0317762	0.00207869	-0.0135658	-0.0328432
14	-0.0288457	-0.0209528	0.00690634	0.00151536	-0.0148437	-0.0423805	0.0216912	0.0285366	-0.000523068	-1.6974	0.152777	0.225941	0.0520435	-0.00312224	0.019103	-2.2248	0.0120663	-1.54241	0	0	0	0	-0	0	0	0	-0.1265	0	-0	0	0	0	0	0	-0	0	0.105	-0.015	0	0	-0	0	0	-0.098	0.1	0	-0	0	0	0	0	0	-0	0	0.05595	0	0	0	-0	0	0	0	0	0	-0	0	555.911	552.546	327.363	202.884	-0.0357041	0.0693884	0.0027294	-0.0130026	-0.169342
15	-0.0717579	-0.0209771	0.00690821	0.00144649	-0.0148856	-0.0423057	0.021689	0.0285283	-0.000515865	-1.69768	0.152767	0.225148	0.0525093	-0.00305922	0.0173074	-2.27386	0.00903888	-1.54751	0	0	0	0	-0	0	0	0	-0.1265	0	-0	0	0	0	0	0	-0	0	0.105	-0.015	0	0	-0	0	0	-0.098	0.1	0	-0	0	0	0	0	0	-0	0	0.05595	0	0	0	-0	0	0	0	0	0	-0	0	559.827	557.606	330.46	205.433	-0.0637191	0.212358	0.00291655	-0.0114984	-0.379515
16	-0.0898258	-0.0210028	0.00690252	0.00140369	-0.0149158	-0.0422698	0.0216885	0.0285246	-0.000512146	-1.69785	0.152716	0.2248	0.0526806	-0.00303695	0.0165079	-2.29447	0.00764942	-1.54935	0	0	0	0	-0	0	0	0	-0.1265	0	-0	0	0	0	0	0	-0	0	0.105	-0.015	0	0	-0	0	0	-0.098	0.1	0	-0	0	0	0	0	0	-0	0	0.05595	0	0	0	-0	0	0	0	0	0	-0	0	561.102	559.271	331.747	206.597	-0.0731929	0.272004	0.00309146	-0.0108767	-0.48276
17	-0.0864679	-0.0210029	0.00690041	0.00139168	-0.0149189	-0.0422663	0.0216887	0.0285239	-0.000511352	-1.69787	0.152692	0.224744	0.0526111	-0.00303478	0.0166958	-2.29127	0.00746341	-1.54941	0	0	0	0	-0	0	0	0	-0.1265	0	-0	0	0	0	0	0	-0	0	0.105	-0.015	0	0	-0	0	0	-0.098	0.1	0	-0	0	0	0	0	0	-0	0	0.05595	0	0	0	-0	0	0	0	0	0	-0	0	561.176	559.365	331.82	206.669	-0.0735706	0.274446	0.00313444	-0.0108121	-0.488844
18	-0.0867545	-0.0210083	0.00689906	0.00138509	-0.0149241	-0.0422601	0.0216886	0.0285235	-0.000510748	-1.69789	0.152686	0.224703	0.0525966	-0.0030311	0.016707	-2.29208	0.00713278	-1.54976	0	0	0	0	-0	0	0	0	-0.1265	0	-0	0	0	0	0	0	-0	0	0.105	-0.015	0	0	-0	0	0	-0.098	0.1	0	-0	0	0	0	0	0	-0	0	0.05595	0	0	0	-0	0	0	0	0	0	-0	0	561.41	559.669	332.073	206.913	-0.0753547	0.285313	0.00317434	-0.0106989	-0.507091
19	-0.102401	-0.0210268	0.00689508	0.00136762	-0.0149405	-0.042244	0.0216881	0.0285225	-0.000509141	-1.69793	0.15267	0.224619	0.0528149	-0.00302283	0.0159449	-2.30909	0.00651272	-1.55082	0	0	0	0	-0	0	0	0	-0.1265	0	-0	0	0	0	0	0	-0	0	0.105	-0.015	0	0	-0	0	0	-0.098	0.1	0	-0	0	0	0	0	0	-0	0	0.05595	0	0	0	-0	0	0	0	0	0	-0	0	561.946	560.391	332.789	207.558	-0.0794301	0.311298	0.00327852	-0.0103815	-0.551813
20	-0.0845149	-0.0210555	0.00688833	0.00134336	-0.0149655	-0.042223	0.0216875	0.0285215	-0.000507039	-1.69798	0.15264	0.224538	0.0524803	-0.00301421	0.0169529	-2.29285	0.0048847	-1.55195	0	0	0	0	-0	0	0	0	-0.1265	0	-0	0	0	0	0	0	-0	0	0.105	-0.015	0	0	-0	0	0	-0.098	0.1	0	-0	0	0	0	0	0	-0	0	0.05595	0	0	0	-0	0	0	0	0	0	-0	0	562.501	561.163	333.758	208.357	-0.0836543	0.339978	0.00342844	-0.00994721	-0.603476
21	-0.105368	-0.021095	0.00687827	0.0013133	-0.014999	-0.0421989	0.0216869	0.0285208	-0.000504571	-1.69802	0.152597	0.224488	0.0527834	-0.00300652	0.0159138	-2.3155	0.00369028	-1.55362	0	0	0	0	-0	0	0	0	-0.1265	0	-0	0	0	0	0	0	-0	0	0.105	-0.015	0	0	-0	0	0	-0.098	0.1	0	-0	0	0	0	0	0	-0	0	0.05595	0	0	0	-0	0	0	0	0	0	-0	0	563.009	561.905	334.996	209.251	-0.087718	0.36982	0.00361272	-0.00938952	-0.659967
22	-0.086768	-0.021145	0.00686603	0.00127848	-0.0150406	-0.0421742	0.0216862	0.0285205	-0.000501857	-1.69803	0.152545	0.224485	0.0524465	-0.00300072	0.0169409	-2.29863	0.0014784	-1.55532	0	0	0	0	-0	0	0	0	-0.1265	0	-0	0	0	0	0	0	-0	0	0.105	-0.015	0	0	-0	0	0	-0.098	0.1	0	-0	0	0	0	0	0	-0	0	0.05595	0	0	0	-0	0	0	0	0	0	-0	0	563.404	562.534	336.457	210.124	-0.0911228	0.397449	0.00380278	-0.00872002	-0.715495
23	-0.097564	-0.0211514	0.00686309	0.00126892	-0.0150482	-0.0421708	0.0216861	0.0285204	-0.000501244	-1.69804	0.152524	0.224489	0.0526135	-0.00299929	0.0163799	-2.30967	0.00141939	-1.55559	0	0	0	0	-0	0	0	0	-0.1265	0	-0	0	0	0	0	0	-0	0	0.105	-0.015	0	0	-0	0	0	-0.098	0.1	0	-0	0	0	0	0	0	-0	0	0.05595	0	0	0	-0	0	0	0	0	0	-0	0	563.451	562.599	336.646	210.245	-0.0910015	0.3963	0.00388315	-0.00859958	-0.715068
24	-0.0938261	-0.0211542	0.00686241	0.00126541	-0.0150506	-0.0421695	0.0216861	0.0285204	-0.000501005	-1.69803	0.152519	0.224492	0.0525477	-0.00299891	0.0165781	-2.30602	0.00127342	-1.55567	0	0	0	0	-0	0	0	0	-0.1265	0	-0	0	0	0	0	0	-0	0	0.105	-0.015	0	0	-0	0	0	-0.098	0.1	0	-0	0	0	0	0	0	-0	0	0.05595	0	0	0	-0	0	0	0	0	0	-0	0	563.468	562.623	336.715	210.289	-0.0910673	0.39682	0.00390146	-0.00856423	-0.716351
25	-0.089371	-0.0211637	0.00686008	0.00125935	-0.0150581	-0.0421653	0.0216859	0.0285204	-0.000500537	-1.69803	0.15251	0.224499	0.0524698	-0.00299831	0.0168179	-2.30187	0.00086636	-1.55599	0	0	0	0	-0	0	0	0	-0.1265	0	-0	0	0	0	0	0	-0	0	0.105	-0.015	0	0	-0	0	0	-0.098	0.1	0	-0	0	0	0	0	0	-0	0	0.05595	0	0	0	-0	0	0	0	0	0	-0	0	563.52	562.712	336.983	210.448	-0.0915843	0.401572	0.00393608	-0.00844502	-0.726282
26	-0.0843508	-0.0211663	0.00685925	0.00125694	-0.0150606	-0.0421641	0.0216859	0.0285204	-0.000500372	-1.69803	0.152505	0.224502	0.0523833	-0.00299798	0.0170834	-2.29693	0.00070139	-1.55608	0	0	0	0	-0	0	0	0	-0.1265	0	-0	0	0	0	0	0	-0	0	0.105	-0.015	0	0	-0	0	0	-0.098	0.1	0	-0	0	0	0	0	0	-0	0	0.05595	0	0	0	-0	0	0	0	0	0	-0	0	563.535	562.736	337.055	210.49	-0.0916392	0.401997	0.0039549	-0.00840671	-0.727442
27	-0.0900734	-0.0211689	0.00685859	0.00125519	-0.0150628	-0.0421629	0.0216859	0.0285204	-0.00050024	-1.69803	0.152503	0.224503	0.0524793	-0.00299778	0.0167852	-2.30274	0.000692774	-1.55617	0	0	0	0	-0	0	0	0	-0.1265	0	-0	0	0	0	0	0	-0	0	0.105	-0.015	0	0	-0	0	0	-0.098	0.1	0	-0	0	0	0	0	0	-0	0	0.05595	0	0	0	-0	0	0	0	0	0	-0	0	563.549	562.76	337.129	210.534	-0.0917262	0.402889	0.00396615	-0.00837268	-0.729439
28	-0.0940554	-0.0211709	0.00685807	0.00125382	-0.0150645	-0.042162	0.0216858	0.0285204	-0.000500139	-1.69803	0.1525	0.224505	0.0525444	-0.00299763	0.0165773	-2.30678	0.000680913	-1.55624	0	0	0	0	-0	0	0	0	-0.1265	0	-0	0	0	0	0	0	-0	0	0.105	-0.015	0	0	-0	0	0	-0.098	0.1	0	-0	0	0	0	0	0	-0	0	0.05595	0	0	0	-0	0	0	0	0	0	-0	0	563.559	562.777	337.184	210.565	-0.0918016	0.403598	0.00397533	-0.00834671	-0.73101
29	-0.102034	-0.0211738	0.00685733	0.00125198	-0.0150668	-0.0421608	0.0216858	0.0285204	-0.0005	-1.69803	0.152497	0.224508	0.0526753	-0.00299746	0.0161596	-2.31485	0.000693425	-1.55634	0	0	0	0	-0	0	0	0	-0.1265	0	-0	0	0	0	0	0	-0	0	0.105	-0.015	0	0	-0	0	0	-0.098	0.1	0	-0	0	0	0	0	0	-0	0	0.05595	0	0	0	-0	0	0	0	0	0	-0	0	563.573	562.803	337.265	210.611	-0.0919478	0.404926	0.00398667	-0.00830955	-0.733832
30	-0.104225	-0.0211801	0.00685579	0.00124848	-0.0150719	-0.0421581	0.0216857	0.0285204	-0.000499731	-1.69803	0.152492	0.224513	0.052707	-0.00299714	0.016047	-2.31722	0.000499707	-1.55655	0	0	0	0	-0	0	0	0	-0.1265	0	-0	0	0	0	0	0	-0	0	0.105	-0.015	0	0	-0	0	0	-0.098	0.1	0	-0	0	0	0	0	0	-0	0	0.05595	0	0	0	-0	0	0	0	0	0	-0	0	563.602	562.855	337.441	210.707	-0.0922388	0.407694	0.00400792	-0.00823012	-0.739753
31	-0.0988288	-0.0211819	0.00685522	0.00124668	-0.0150735	-0.0421574	0.0216857	0.0285205	-0.00049961	-1.69803	0.152489	0.224515	0.0526195	-0.00299696	0.0163327	-2.31187	0.000361711	-1.55661	0	0	0	0	-0	0	0	0	-0.1265	0	-0	0	0	0	0	0	-0	0	0.105	-0.015	0	0	-0	0	0	-0.098	0.1	0	-0	0	0	0	0	0	-0	0	0.05595	0	0	0	-0	0	0	0	0	0	-0	0	563.61	562.868	337.488	210.732	-0.0922682	0.407932	0.00401945	-0.00820468	-0.740443
32	-0.101301	-0.0211853	0.00685439	0.00124476	-0.0150763	-0.042156	0.0216856	0.0285205	-0.000499461	-1.69803	0.152486	0.224518	0.052658	-0.00299679	0.0162042	-2.31444	0.000274586	-1.55672	0	0	0	0	-0	0	0	0	-0.1265	0	-0	0	0	0	0	0	-0	0	0.105	-0.015	0	0	-0	0	0	-0.098	0.1	0	-0	0	0	0	0	0	-0	0	0.05595	0	0	0	-0	0	0	0	0	0	-0	0	563.624	562.896	337.584	210.783	-0.0923962	0.409258	0.0040302	-0.00816121	-0.743357
33	-0.105575	-0.0211886	0.00685353	0.00124251	-0.0150791	-0.0421546	0.0216856	0.0285205	-0.000499298	-1.69803	0.152482	0.224522	0.052726	-0.0029966	0.0159809	-2.31881	0.000214495	-1.55684	0	0	0	0	-0	0	0	0	-0.1265	0	-0	0	0	0	0	0	-0	0	0.105	-0.015	0	0	-0	0	0	-0.098	0.1	0	-0	0	0	0	0	0	-0	0	0.05595	0	0	0	-0	0	0	0	0	0	-0	0	563.639	562.922	337.678	210.831	-0.0925315	0.410524	0.00404342	-0.00811732	-0.746137
34	-0.109648	-0.0211935	0.00685235	0.00123963	-0.015083	-0.0421527	0.0216855	0.0285205	-0.000499084	-1.69803	0.152477	0.224527	0.0527893	-0.00299639	0.0157683	-2.32301	9.64706e-05	-1.557	0	0	0	0	-0	0	0	0	-0.1265	0	-0	0	0	0	0	0	-0	0	0.105	-0.015	0	0	-0	0	0	-0.098	0.1	0	-0	0	0	0	0	0	-0	0	0.05595	0	0	0	-0	0	0	0	0	0	-0	0	563.657	562.957	337.813	210.899	-0.0927116	0.412327	0.00406011	-0.00805493	-0.750127
35	-0.104108	-0.0211955	0.00685178	0.00123809	-0.0150848	-0.0421518	0.0216855	0.0285205	-0.00049898	-1.69803	0.152474	0.22453	0.0527008	-0.00299625	0.0160618	-2.31753	-5.0865e-05	-1.55706	0	0	0	0	-0	0	0	0	-0.1265	0	-0	0	0	0	0	0	-0	0	0.105	-0.015	0	0	-0	0	0	-0.098	0.1	0	-0	0	0	0	0	0	-0	0	0.05595	0	0	0	-0	0	0	0	0	0	-0	0	563.665	562.971	337.868	210.926	-0.0927627	0.412774	0.00407093	-0.00802728	-0.751218
36	-0.0975729	-0.0211994	0.00685083	0.0012359	-0.015088	-0.0421503	0.0216855	0.0285206	-0.000498815	-1.69803	0.152471	0.224534	0.0525941	-0.00299612	0.0164076	-2.31109	-0.000280723	-1.55719	0	0	0	0	-0	0	0	0	-0.1265	0	-0	0	0	0	0	0	-0	0	0.105	-0.015	0	0	-0	0	0	-0.098	0.1	0	-0	0	0	0	0	0	-0	0	0.05595	0	0	0	-0	0	0	0	0	0	-0	0	563.678	562.998	337.978	210.978	-0.0928959	0.414197	0.00408271	-0.00797718	-0.754403
37	-0.0985592	-0.021205	0.00684942	0.00123262	-0.0150926	-0.0421482	0.0216854	0.0285206	-0.000498573	-1.69803	0.152465	0.224541	0.0526078	-0.00299592	0.0163577	-2.31222	-0.000468617	-1.55738	0	0	0	0	-0	0	0	0	-0.1265	0	-0	0	0	0	0	0	-0	0	0.105	-0.015	0	0	-0	0	0	-0.098	0.1	0	-0	0	0	0	0	0	-0	0	0.05595	0	0	0	-0	0	0	0	0	0	-0	0	563.697	563.037	338.136	211.051	-0.0931042	0.41628	0.0040991	-0.00790382	-0.759013
38	-0.105344	-0.0212104	0.00684805	0.00122909	-0.0150971	-0.0421463	0.0216853	0.0285206	-0.00049832	-1.69802	0.15246	0.224548	0.0527173	-0.0029957	0.0160032	-2.31913	-0.000572104	-1.55755	0	0	0	0	-0	0	0	0	-0.1265	0	-0	0	0	0	0	0	-0	0	0.105	-0.015	0	0	-0	0	0	-0.098	0.1	0	-0	0	0	0	0	0	-0	0	0.05595	0	0	0	-0	0	0	0	0	0	-0	0	563.714	563.073	338.287	211.117	-0.0932761	0.418023	0.00411616	-0.00783201	-0.762976
39	-0.100473	-0.0212212	0.00684539	0.00122321	-0.0151059	-0.0421425	0.0216852	0.0285207	-0.000497883	-1.69802	0.15245	0.224561	0.0526358	-0.00299538	0.0162639	-2.3145	-0.001038	-1.55792	0	0	0	0	-0	0	0	0	-0.1265	0	-0	0	0	0	0	0	-0	0	0.105	-0.015	0	0	-0	0	0	-0.098	0.1	0	-0	0	0	0	0	0	-0	0	0.05595	0	0	0	-0	0	0	0	0	0	-0	0	563.747	563.145	338.599	211.241	-0.0937	0.42224	0.0041387	-0.00768758	-0.772231
40	-0.0904692	-0.021244	0.00683979	0.0012104	-0.0151247	-0.0421352	0.021685	0.028521	-0.00049695	-1.69801	0.152431	0.224592	0.0524677	-0.00299477	0.0167992	-2.3049	-0.00204127	-1.55873	0	0	0	0	-0	0	0	0	-0.1265	0	-0	0	0	0	0	0	-0	0	0.105	-0.015	0	0	-0	0	0	-0.098	0.1	0	-0	0	0	0	0	0	-0	0	0.05595	0	0	0	-0	0	0	0	0	0	-0	0	563.811	563.294	339.28	211.452	-0.0946268	0.431205	0.00416637	-0.00736777	-0.791794
41	-0.0857172	-0.0212476	0.00683873	0.0012069	-0.0151288	-0.0421343	0.021685	0.028521	-0.00049675	-1.69801	0.152423	0.224601	0.0523836	-0.00299444	0.0170502	-2.30022	-0.00220688	-1.55885	0	0	0	0	-0	0	0	0	-0.1265	0	-0	0	0	0	0	0	-0	0	0.105	-0.015	0	0	-0	0	0	-0.098	0.1	0	-0	0	0	0	0	0	-0	0	0.05595	0	0	0	-0	0	0	0	0	0	-0	0	563.816	563.305	339.368	211.485	-0.0943691	0.429095	0.00419845	-0.00731338	-0.788341
42	-0.0787626	-0.0212518	0.0068377	0.00120413	-0.0151323	-0.0421329	0.0216849	0.0285211	-0.000496561	-1.69801	0.152419	0.22461	0.0522639	-0.00299439	0.0174153	-2.29334	-0.00243634	-1.55901	0	0	0	0	-0	0	0	0	-0.1265	0	-0	0	0	0	0	0	-0	0	0.105	-0.015	0	0	-0	0	0	-0.098	0.1	0	-0	0	0	0	0	0	-0	0	0.05595	0	0	0	-0	0	0	0	0	0	-0	0	563.823	563.323	339.485	211.525	-0.0944707	0.430227	0.00420964	-0.0072581	-0.791024
43	-0.0762118	-0.0212526	0.00683744	0.00120344	-0.0151332	-0.0421327	0.0216849	0.0285211	-0.000496518	-1.69801	0.152417	0.224612	0.0522179	-0.00299433	0.0175487	-2.29081	-0.00249569	-1.55904	0	0	0	0	-0	0	0	0	-0.1265	0	-0	0	0	0	0	0	-0	0	0.105	-0.015	0	0	-0	0	0	-0.098	0.1	0	-0	0	0	0	0	0	-0	0	0.05595	0	0	0	-0	0	0	0	0	0	-0	0	563.824	563.326	339.508	211.533	-0.094422	0.429882	0.0042152	-0.00724491	-0.790503
44	-0.0724884	-0.0212537	0.00683717	0.00120262	-0.0151341	-0.0421324	0.0216849	0.0285211	-0.00049646	-1.69801	0.152416	0.224614	0.0521523	-0.00299432	0.0177433	-2.2871	-0.00257944	-1.55909	0	0	0	0	-0	0	0	0	-0.1265	0	-0	0	0	0	0	0	-0	0	0.105	-0.015	0	0	-0	0	0	-0.098	0.1	0	-0	0	0	0	0	0	-0	0	0.05595	0	0	0	-0	0	0	0	0	0	-0	0	563.825	563.331	339.54	211.544	-0.0944251	0.430062	0.00421749	-0.00722979	-0.79102
45	-0.0749836	-0.0212562	0.00683657	0.0012013	-0.0151361	-0.0421317	0.0216849	0.0285211	-0.000496367	-1.69801	0.152414	0.224618	0.0521961	-0.00299433	0.0176134	-2.28964	-0.00263715	-1.55917	0	0	0	0	-0	0	0	0	-0.1265	0	-0	0	0	0	0	0	-0	0	0.105	-0.015	0	0	-0	0	0	-0.098	0.1	0	-0	0	0	0	0	0	-0	0	0.05595	0	0	0	-0	0	0	0	0	0	-0	0	563.828	563.34	339.61	211.567	-0.0944832	0.43078	0.00422201	-0.00719725	-0.792719
46	-0.0734041	-0.0212567	0.00683639	0.00120088	-0.0151366	-0.0421316	0.0216849	0.0285212	-0.000496341	-1.69801	0.152413	0.224619	0.0521679	-0.0029943	0.0176961	-2.28807	-0.00267147	-1.55919	0	0	0	0	-0	0	0	0	-0.1265	0	-0	0	0	0	0	0	-0	0	0.105	-0.015	0	0	-0	0	0	-0.098	0.1	0	-0	0	0	0	0	0	-0	0	0.05595	0	0	0	-0	0	0	0	0	0	-0	0	563.828	563.342	339.623	211.571	-0.0944732	0.430689	0.00422506	-0.00718991	-0.792609
47	-0.0743117	-0.0212576	0.0068362	0.00120033	-0.0151374	-0.0421313	0.0216848	0.0285212	-0.000496301	-1.698	0.152412	0.224621	0.0521838	-0.0029943	0.0176489	-2.289	-0.0026931	-1.55921	0	0	0	0	-0	0	0	0	-0.1265	0	-0	0	0	0	0	0	-0	0	0.105	-0.015	0	0	-0	0	0	-0.098	0.1	0	-0	0	0	0	0	0	-0	0	0.05595	0	0	0	-0	0	0	0	0	0	-0	0	563.829	563.346	339.648	211.58	-0.0944738	0.430827	0.00422644	-0.00717795	-0.793008
48	-0.0741103	-0.0212589	0.00683586	0.00119963	-0.0151385	-0.0421309	0.0216848	0.0285212	-0.000496252	-1.698	0.152411	0.224623	0.0521801	-0.0029943	0.0176598	-2.28882	-0.00274285	-1.55926	0	0	0	0	-0	0	0	0	-0.1265	0	-0	0	0	0	0	0	-0	0	0.105	-0.015	0	0	-0	0	0	-0.098	0.1	0	-0	0	0	0	0	0	-0	0	0.05595	0	0	0	-0	0	0	0	0	0	-0	0	563.831	563.352	339.686	211.592	-0.0944969	0.43116	0.00422871	-0.00716009	-0.79383
49	-0.0698371	-0.0212609	0.00683539	0.00119851	-0.0151401	-0.0421303	0.0216848	0.0285212	-0.000496176	-1.698	0.152409	0.224627	0.0521045	-0.00299429	0.0178831	-2.28458	-0.00286106	-1.55934	0	0	0	0	-0	0	0	0	-0.1265	0	-0	0	0	0	0	0	-0	0	0.105	-0.015	0	0	-0	0	0	-0.098	0.1	0	-0	0	0	0	0	0	-0	0	0.05595	0	0	0	-0	0	0	0	0	0	-0	0	563.834	563.36	339.741	211.61	-0.0945562	0.431763	0.00423334	-0.00713395	-0.795213
50	-0.0664523	-0.0212619	0.00683515	0.00119794	-0.015141	-0.04213	0.0216848	0.0285212	-0.000496139	-1.698	0.152408	0.224629	0.0520433	-0.00299427	0.0180596	-2.28121	-0.00293361	-1.55938	0	0	0	0	-0	0	0	0	-0.1265	0	-0	0	0	0	0	0	-0	0	0.105	-0.015	0	0	-0	0	0	-0.098	0.1	0	-0	0	0	0	0	0	-0	0	0.05595	0	0	0	-0	0	0	0	0	0	-0	0	563.835	563.364	339.769	211.618	-0.0945511	0.431804	0.00423661	-0.00712043	-0.79543
51	-0.0692506	-0.0212626	0.00683496	0.00119749	-0.0151416	-0.0421298	0.0216848	0.0285212	-0.000496107	-1.698	0.152407	0.22463	0.0520934	-0.00299426	0.0179141	-2.28402	-0.00292684	-1.5594	0	0	0	0	-0	0	0	0	-0.1265	0	-0	0	0	0	0	0	-0	0	0.105	-0.015	0	0	-0	0	0	-0.098	0.1	0	-0	0	0	0	0	0	-0	0	0.05595	0	0	0	-0	0	0	0	0	0	-0	0	563.836	563.367	339.789	211.625	-0.0945634	0.431955	0.00423812	-0.00711046	-0.795809
52	-0.0723868	-0.0212641	0.00683462	0.00119661	-0.0151428	-0.0421293	0.0216848	0.0285213	-0.000496047	-1.698	0.152406	0.224632	0.0521492	-0.00299423	0.0177511	-2.28718	-0.00294675	-1.55944	0	0	0	0	-0	0	0	0	-0.1265	0	-0	0	0	0	0	0	-0	0	0.105	-0.015	0	0	-0	0	0	-0.098	0.1	0	-0	0	0	0	0	0	-0	0	0.05595	0	0	0	-0	0	0	0	0	0	-0	0	563.839	563.375	339.833	211.638	-0.0946125	0.432459	0.00424111	-0.00708964	-0.796951
53	-0.075542	-0.0212649	0.00683441	0.00119612	-0.0151435	-0.0421291	0.0216848	0.0285213	-0.000496012	-1.698	0.152405	0.224634	0.0522048	-0.00299422	0.0175867	-2.29035	-0.00293857	-1.55946	0	0	0	0	-0	0	0	0	-0.1265	0	-0	0	0	0	0	0	-0	0	0.105	-0.015	0	0	-0	0	0	-0.098	0.1	0	-0	0	0	0	0	0	-0	0	0.05595	0	0	0	-0	0	0	0	0	0	-0	0	563.84	563.378	339.855	211.645	-0.0945987	0.432445	0.00424279	-0.00707862	-0.797046
54	-0.0721731	-0.0212654	0.00683425	0.00119577	-0.015144	-0.0421289	0.0216848	0.0285213	-0.000495989	-1.698	0.152404	0.224635	0.0521452	-0.00299422	0.0177626	-2.28699	-0.00299728	-1.55949	0	0	0	0	-0	0	0	0	-0.1265	0	-0	0	0	0	0	0	-0	0	0.105	-0.015	0	0	-0	0	0	-0.098	0.1	0	-0	0	0	0	0	0	-0	0	0.05595	0	0	0	-0	0	0	0	0	0	-0	0	563.84	563.381	339.872	211.65	-0.0946091	0.432565	0.00424435	-0.00707063	-0.797347
55	-0.0681093	-0.0212667	0.00683394	0.00119509	-0.0151451	-0.0421286	0.0216848	0.0285213	-0.000495939	-1.698	0.152403	0.224637	0.0520726	-0.00299422	0.0179747	-2.28295	-0.0030883	-1.55954	0	0	0	0	-0	0	0	0	-0.1265	0	-0	0	0	0	0	0	-0	0	0.105	-0.015	0	0	-0	0	0	-0.098	0.1	0	-0	0	0	0	0	0	-0	0	0.05595	0	0	0	-0	0	0	0	0	0	-0	0	563.842	563.386	339.908	211.66	-0.0946385	0.432936	0.00424547	-0.0070536	-0.798221
56	-0.0693885	-0.0212686	0.00683348	0.00119414	-0.0151466	-0.042128	0.0216847	0.0285213	-0.000495874	-1.698	0.152402	0.22464	0.052095	-0.00299421	0.0179083	-2.28425	-0.00313954	-1.5596	0	0	0	0	-0	0	0	0	-0.1265	0	-0	0	0	0	0	0	-0	0	0.105	-0.015	0	0	-0	0	0	-0.098	0.1	0	-0	0	0	0	0	0	-0	0	0.05595	0	0	0	-0	0	0	0	0	0	-0	0	563.845	563.395	339.96	211.676	-0.0947107	0.433614	0.00424888	-0.00702855	-0.799727
57	-0.0728226	-0.0212697	0.00683321	0.00119334	-0.0151476	-0.0421278	0.0216847	0.0285213	-0.000495819	-1.698	0.152401	0.224642	0.0521562	-0.00299418	0.0177299	-2.28771	-0.00314193	-1.55963	0	0	0	0	-0	0	0	0	-0.1265	0	-0	0	0	0	0	0	-0	0	0.105	-0.015	0	0	-0	0	0	-0.098	0.1	0	-0	0	0	0	0	0	-0	0	0.05595	0	0	0	-0	0	0	0	0	0	-0	0	563.846	563.4	339.993	211.685	-0.094701	0.433657	0.00425113	-0.00701245	-0.799969
58	-0.0700744	-0.0212705	0.006833	0.00119288	-0.0151483	-0.0421275	0.0216847	0.0285214	-0.000495788	-1.698	0.1524	0.224644	0.052107	-0.00299416	0.0178734	-2.28497	-0.00320293	-1.55967	0	0	0	0	-0	0	0	0	-0.1265	0	-0	0	0	0	0	0	-0	0	0.105	-0.015	0	0	-0	0	0	-0.098	0.1	0	-0	0	0	0	0	0	-0	0	0.05595	0	0	0	-0	0	0	0	0	0	-0	0	563.848	563.405	340.017	211.692	-0.0947107	0.433796	0.00425271	-0.00700066	-0.800334
59	-0.0721541	-0.0212723	0.00683256	0.00119189	-0.0151498	-0.042127	0.0216847	0.0285214	-0.000495719	-1.698	0.152398	0.224647	0.0521439	-0.00299416	0.0177653	-2.28708	-0.00324536	-1.55972	0	0	0	0	-0	0	0	0	-0.1265	0	-0	0	0	0	0	0	-0	0	0.105	-0.015	0	0	-0	0	0	-0.098	0.1	0	-0	0	0	0	0	0	-0	0	0.05595	0	0	0	-0	0	0	0	0	0	-0	0	563.85	563.412	340.069	211.706	-0.0947647	0.434377	0.00425532	-0.00697591	-0.801668
60	-0.077442	-0.0212749	0.00683192	0.00119047	-0.015152	-0.0421263	0.0216847	0.0285214	-0.000495622	-1.69799	0.152396	0.224652	0.0522376	-0.00299418	0.0174899	-2.2924	-0.00328106	-1.55979	0	0	0	0	-0	0	0	0	-0.1265	0	-0	0	0	0	0	0	-0	0	0.105	-0.015	0	0	-0	0	0	-0.098	0.1	0	-0	0	0	0	0	0	-0	0	0.05595	0	0	0	-0	0	0	0	0	0	-0	0	563.851	563.421	340.144	211.725	-0.0948111	0.435006	0.00425883	-0.00694017	-0.803221
61	-0.072285	-0.0212762	0.0068316	0.00118974	-0.0151532	-0.042126	0.0216847	0.0285214	-0.000495572	-1.69799	0.152395	0.224654	0.0521464	-0.00299415	0.0177596	-2.28726	-0.00338436	-1.55986	0	0	0	0	-0	0	0	0	-0.1265	0	-0	0	0	0	0	0	-0	0	0.105	-0.015	0	0	-0	0	0	-0.098	0.1	0	-0	0	0	0	0	0	-0	0	0.05595	0	0	0	-0	0	0	0	0	0	-0	0	563.853	563.427	340.181	211.735	-0.0947985	0.435016	0.00426152	-0.00692167	-0.803409
62	-0.0750881	-0.0212765	0.0068315	0.00118949	-0.0151535	-0.0421259	0.0216847	0.0285214	-0.000495558	-1.69799	0.152394	0.224655	0.0521954	-0.00299413	0.0176133	-2.29007	-0.003363	-1.55986	0	0	0	0	-0	0	0	0	-0.1265	0	-0	0	0	0	0	0	-0	0	0.105	-0.015	0	0	-0	0	0	-0.098	0.1	0	-0	0	0	0	0	0	-0	0	0.05595	0	0	0	-0	0	0	0	0	0	-0	0	563.854	563.428	340.189	211.737	-0.0948023	0.435011	0.00426345	-0.00691737	-0.80342
63	-0.0738771	-0.021277	0.00683141	0.00118908	-0.0151539	-0.0421257	0.0216847	0.0285215	-0.000495531	-1.69799	0.152393	0.224656	0.0521737	-0.00299412	0.0176766	-2.28887	-0.00339554	-1.55988	0	0	0	0	-0	0	0	0	-0.1265	0	-0	0	0	0	0	0	-0	0	0.105	-0.015	0	0	-0	0	0	-0.098	0.1	0	-0	0	0	0	0	0	-0	0	0.05595	0	0	0	-0	0	0	0	0	0	-0	0	563.855	563.431	340.204	211.741	-0.0948089	0.435115	0.00426447	-0.00691018	-0.803687
64	-0.0719298	-0.0212778	0.00683119	0.00118868	-0.0151545	-0.0421255	0.0216847	0.0285215	-0.000495502	-1.69799	0.152393	0.224658	0.0521392	-0.00299412	0.0177783	-2.28693	-0.00344513	-1.55991	0	0	0	0	-0	0	0	0	-0.1265	0	-0	0	0	0	0	0	-0	0	0.105	-0.015	0	0	-0	0	0	-0.098	0.1	0	-0	0	0	0	0	0	-0	0	0.05595	0	0	0	-0	0	0	0	0	0	-0	0	563.855	563.434	340.227	211.747	-0.0948342	0.435379	0.00426527	-0.00689935	-0.804292
65	-0.0681235	-0.0212789	0.00683091	0.00118805	-0.0151555	-0.0421252	0.0216846	0.0285215	-0.000495459	-1.69799	0.152392	0.22466	0.0520714	-0.00299412	0.017977	-2.28314	-0.00352807	-1.55996	0	0	0	0	-0	0	0	0	-0.1265	0	-0	0	0	0	0	0	-0	0	0.105	-0.015	0	0	-0	0	0	-0.098	0.1	0	-0	0	0	0	0	0	-0	0	0.05595	0	0	0	-0	0	0	0	0	0	-0	0	563.857	563.439	340.26	211.755	-0.0948718	0.435751	0.00426669	-0.00688343	-0.80513
66	-0.0655845	-0.0212806	0.00683051	0.00118722	-0.0151569	-0.0421248	0.0216846	0.0285215	-0.000495401	-1.69799	0.15239	0.224663	0.0520251	-0.00299411	0.0181095	-2.28063	-0.0036158	-1.56003	0	0	0	0	-0	0	0	0	-0.1265	0	-0	0	0	0	0	0	-0	0	0.105	-0.015	0	0	-0	0	0	-0.098	0.1	0	-0	0	0	0	0	0	-0	0	0.05595	0	0	0	-0	0	0	0	0	0	-0	0	563.859	563.447	340.308	211.767	-0.0949156	0.436229	0.00426822	-0.00686037	-0.806242
67	-0.0637498	-0.0212808	0.00683043	0.00118692	-0.0151572	-0.0421247	0.0216846	0.0285215	-0.000495384	-1.69799	0.15239	0.224663	0.0519916	-0.00299408	0.018205	-2.2788	-0.0036437	-1.56005	0	0	0	0	-0	0	0	0	-0.1265	0	-0	0	0	0	0	0	-0	0	0.105	-0.015	0	0	-0	0	0	-0.098	0.1	0	-0	0	0	0	0	0	-0	0	0.05595	0	0	0	-0	0	0	0	0	0	-0	0	563.86	563.448	340.314	211.769	-0.0949015	0.436096	0.00427026	-0.00685633	-0.806012
68	-0.0614665	-0.0212813	0.00683033	0.00118666	-0.0151576	-0.0421245	0.0216846	0.0285215	-0.000495368	-1.69799	0.152389	0.224665	0.0519499	-0.00299408	0.0183238	-2.27652	-0.00368486	-1.56007	0	0	0	0	-0	0	0	0	-0.1265	0	-0	0	0	0	0	0	-0	0	0.105	-0.015	0	0	-0	0	0	-0.098	0.1	0	-0	0	0	0	0	0	-0	0	0.05595	0	0	0	-0	0	0	0	0	0	-0	0	563.861	563.449	340.328	211.772	-0.0949165	0.436238	0.0042714	-0.00685004	-0.806337
69	-0.060186	-0.0212819	0.00683019	0.00118627	-0.0151581	-0.0421244	0.0216846	0.0285215	-0.000495339	-1.69799	0.152389	0.224665	0.0519262	-0.00299408	0.0183905	-2.27525	-0.0037231	-1.5601	0	0	0	0	-0	0	0	0	-0.1265	0	-0	0	0	0	0	0	-0	0	0.105	-0.015	0	0	-0	0	0	-0.098	0.1	0	-0	0	0	0	0	0	-0	0	0.05595	0	0	0	-0	0	0	0	0	0	-0	0	563.861	563.452	340.348	211.777	-0.0949052	0.436269	0.00427147	-0.00684067	-0.806506
70	-0.0576854	-0.0212823	0.00683009	0.00118602	-0.0151584	-0.0421243	0.0216846	0.0285215	-0.000495323	-1.69799	0.152388	0.224666	0.0518802	-0.00299408	0.0185204	-2.27275	-0.00376201	-1.56012	0	0	0	0	-0	0	0	0	-0.1265	0	-0	0	0	0	0	0	-0	0	0.105	-0.015	0	0	-0	0	0	-0.098	0.1	0	-0	0	0	0	0	0	-0	0	0.05595	0	0	0	-0	0	0	0	0	0	-0	0	563.861	563.453	340.357	211.779	-0.0949053	0.436289	0.00427235	-0.00683569	-0.806586
71	-0.0555629	-0.0212825	0.00683001	0.00118591	-0.0151587	-0.0421242	0.0216846	0.0285215	-0.000495316	-1.69799	0.152388	0.224667	0.0518407	-0.00299408	0.0186305	-2.27063	-0.00379367	-1.56014	0	0	0	0	-0	0	0	0	-0.1265	0	-0	0	0	0	0	0	-0	0	0.105	-0.015	0	0	-0	0	0	-0.098	0.1	0	-0	0	0	0	0	0	-0	0	0.05595	0	0	0	-0	0	0	0	0	0	-0	0	563.861	563.454	340.365	211.781	-0.0949211	0.436406	0.00427312	-0.00683205	-0.80683
72	-0.0566554	-0.0212831	0.0068299	0.00118557	-0.0151591	-0.0421241	0.0216846	0.0285215	-0.000495292	-1.69799	0.152388	0.224668	0.0518609	-0.00299409	0.0185739	-2.27173	-0.00380211	-1.56015	0	0	0	0	-0	0	0	0	-0.1265	0	-0	0	0	0	0	0	-0	0	0.105	-0.015	0	0	-0	0	0	-0.098	0.1	0	-0	0	0	0	0	0	-0	0	0.05595	0	0	0	-0	0	0	0	0	0	-0	0	563.861	563.456	340.381	211.785	-0.0949167	0.436463	0.00427315	-0.00682439	-0.807026
73	-0.0582353	-0.0212834	0.00682984	0.00118538	-0.0151594	-0.0421241	0.0216846	0.0285216	-0.000495279	-1.69799	0.152387	0.224668	0.0518901	-0.00299407	0.0184921	-2.27332	-0.00379537	-1.56016	0	0	0	0	-0	0	0	0	-0.1265	0	-0	0	0	0	0	0	-0	0	0.105	-0.015	0	0	-0	0	0	-0.098	0.1	0	-0	0	0	0	0	0	-0	0	0.05595	0	0	0	-0	0	0	0	0	0	-0	0	563.862	563.457	340.389	211.787	-0.0949086	0.43643	0.00427395	-0.00682038	-0.807005
74	-0.0600478	-0.0212836	0.00682978	0.00118526	-0.0151596	-0.042124	0.0216846	0.0285216	-0.000495272	-1.69799	0.152387	0.224669	0.0519236	-0.00299408	0.018398	-2.27513	-0.00378355	-1.56016	0	0	0	0	-0	0	0	0	-0.1265	0	-0	0	0	0	0	0	-0	0	0.105	-0.015	0	0	-0	0	0	-0.098	0.1	0	-0	0	0	0	0	0	-0	0	0.05595	0	0	0	-0	0	0	0	0	0	-0	0	563.862	563.458	340.395	211.788	-0.0949229	0.43654	0.00427447	-0.00681738	-0.807238
75	-0.0614471	-0.021284	0.00682967	0.00118503	-0.0151599	-0.0421239	0.0216846	0.0285216	-0.000495256	-1.69799	0.152387	0.22467	0.0519492	-0.00299407	0.0183255	-2.27654	-0.0037854	-1.56017	0	0	0	0	-0	0	0	0	-0.1265	0	-0	0	0	0	0	0	-0	0	0.105	-0.015	0	0	-0	0	0	-0.098	0.1	0	-0	0	0	0	0	0	-0	0	0.05595	0	0	0	-0	0	0	0	0	0	-0	0	563.863	563.46	340.409	211.791	-0.0949303	0.436638	0.004275	-0.00681101	-0.807476
76	-0.0646485	-0.0212847	0.00682952	0.00118462	-0.0151605	-0.0421237	0.0216846	0.0285216	-0.000495228	-1.69799	0.152386	0.224671	0.0520077	-0.00299407	0.0181593	-2.27975	-0.0037761	-1.56018	0	0	0	0	-0	0	0	0	-0.1265	0	-0	0	0	0	0	0	-0	0	0.105	-0.015	0	0	-0	0	0	-0.098	0.1	0	-0	0	0	0	0	0	-0	0	0.05595	0	0	0	-0	0	0	0	0	0	-0	0	563.863	563.463	340.428	211.796	-0.0949462	0.436816	0.004276	-0.00680154	-0.8079
77	-0.0626451	-0.0212857	0.00682924	0.00118418	-0.0151614	-0.0421234	0.0216846	0.0285216	-0.000495198	-1.69799	0.152385	0.224673	0.0519711	-0.00299408	0.0182635	-2.27776	-0.00383364	-1.56022	0	0	0	0	-0	0	0	0	-0.1265	0	-0	0	0	0	0	0	-0	0	0.105	-0.015	0	0	-0	0	0	-0.098	0.1	0	-0	0	0	0	0	0	-0	0	0.05595	0	0	0	-0	0	0	0	0	0	-0	0	563.864	563.466	340.458	211.803	-0.0949771	0.43714	0.0042769	-0.00678755	-0.808644
78	-0.0614417	-0.0212859	0.00682918	0.001184	-0.0151615	-0.0421234	0.0216846	0.0285216	-0.000495187	-1.69799	0.152385	0.224673	0.051949	-0.00299407	0.0183261	-2.27655	-0.00385128	-1.56023	0	0	0	0	-0	0	0	0	-0.1265	0	-0	0	0	0	0	0	-0	0	0.105	-0.015	0	0	-0	0	0	-0.098	0.1	0	-0	0	0	0	0	0	-0	0	0.05595	0	0	0	-0	0	0	0	0	0	-0	0	563.864	563.467	340.461	211.804	-0.0949712	0.437082	0.00427768	-0.00678501	-0.808546
79	-0.0600712	-0.0212862	0.00682912	0.00118385	-0.0151618	-0.0421233	0.0216846	0.0285216	-0.000495177	-1.69799	0.152385	0.224674	0.0519238	-0.00299407	0.0183973	-2.27519	-0.00387589	-1.56025	0	0	0	0	-0	0	0	0	-0.1265	0	-0	0	0	0	0	0	-0	0	0.105	-0.015	0	0	-0	0	0	-0.098	0.1	0	-0	0	0	0	0	0	-0	0	0.05595	0	0	0	-0	0	0	0	0	0	-0	0	563.864	563.468	340.47	211.806	-0.0949745	0.43714	0.0042778	-0.00678117	-0.808692
80	-0.0578592	-0.0212866	0.00682904	0.00118359	-0.0151621	-0.0421233	0.0216846	0.0285216	-0.000495158	-1.69799	0.152384	0.224675	0.051883	-0.00299408	0.0185122	-2.27298	-0.00391418	-1.56027	0	0	0	0	-0	0	0	0	-0.1265	0	-0	0	0	0	0	0	-0	0	0.105	-0.015	0	0	-0	0	0	-0.098	0.1	0	-0	0	0	0	0	0	-0	0	0.05595	0	0	0	-0	0	0	0	0	0	-0	0	563.864	563.47	340.482	211.808	-0.0949682	0.437163	0.00427788	-0.00677543	-0.808807
81	-0.061078	-0.0212872	0.00682887	0.00118331	-0.0151626	-0.0421231	0.0216846	0.0285216	-0.000495139	-1.69799	0.152384	0.224676	0.0519425	-0.00299409	0.0183452	-2.27621	-0.0039024	-1.56028	0	0	0	0	-0	0	0	0	-0.1265	0	-0	0	0	0	0	0	-0	0	0.105	-0.015	0	0	-0	0	0	-0.098	0.1	0	-0	0	0	0	0	0	-0	0	0.05595	0	0	0	-0	0	0	0	0	0	-0	0	563.864	563.472	340.5	211.812	-0.0949876	0.43736	0.00427862	-0.00676686	-0.809257
82	-0.0631879	-0.0212875	0.00682881	0.0011831	-0.0151629	-0.042123	0.0216846	0.0285216	-0.000495126	-1.69799	0.152383	0.224677	0.0519808	-0.00299408	0.0182356	-2.27832	-0.00389129	-1.56028	0	0	0	0	-0	0	0	0	-0.1265	0	-0	0	0	0	0	0	-0	0	0.105	-0.015	0	0	-0	0	0	-0.098	0.1	0	-0	0	0	0	0	0	-0	0	0.05595	0	0	0	-0	0	0	0	0	0	-0	0	563.865	563.473	340.508	211.814	-0.0949811	0.437336	0.00427954	-0.00676244	-0.809256
83	-0.0622624	-0.0212881	0.00682865	0.00118274	-0.0151634	-0.0421228	0.0216846	0.0285216	-0.000495101	-1.69799	0.152383	0.224678	0.0519638	-0.00299408	0.0182838	-2.2774	-0.00392554	-1.56031	0	0	0	0	-0	0	0	0	-0.1265	0	-0	0	0	0	0	0	-0	0	0.105	-0.015	0	0	-0	0	0	-0.098	0.1	0	-0	0	0	0	0	0	-0	0	0.05595	0	0	0	-0	0	0	0	0	0	-0	0	563.865	563.475	340.528	211.819	-0.0949998	0.437541	0.00427998	-0.0067531	-0.80973
84	-0.0636767	-0.0212885	0.00682854	0.00118253	-0.0151638	-0.0421228	0.0216846	0.0285216	-0.000495086	-1.69799	0.152383	0.224678	0.0519896	-0.00299408	0.0182105	-2.27882	-0.00392287	-1.56031	0	0	0	0	-0	0	0	0	-0.1265	0	-0	0	0	0	0	0	-0	0	0.105	-0.015	0	0	-0	0	0	-0.098	0.1	0	-0	0	0	0	0	0	-0	0	0.05595	0	0	0	-0	0	0	0	0	0	-0	0	563.866	563.477	340.538	211.821	-0.094999	0.437563	0.00428029	-0.0067481	-0.809813
85	-0.06308	-0.0212893	0.00682839	0.00118212	-0.0151644	-0.0421225	0.0216846	0.0285217	-0.00049506	-1.69799	0.152382	0.22468	0.0519786	-0.00299408	0.0182415	-2.27823	-0.00395592	-1.56034	0	0	0	0	-0	0	0	0	-0.1265	0	-0	0	0	0	0	0	-0	0	0.105	-0.015	0	0	-0	0	0	-0.098	0.1	0	-0	0	0	0	0	0	-0	0	0.05595	0	0	0	-0	0	0	0	0	0	-0	0	563.866	563.479	340.559	211.826	-0.0950231	0.437793	0.00428163	-0.00673794	-0.810335
86	-0.0656432	-0.0212903	0.00682813	0.00118154	-0.0151653	-0.0421223	0.0216845	0.0285217	-0.000495019	-1.69799	0.152381	0.224682	0.0520252	-0.00299408	0.0181086	-2.28081	-0.00396844	-1.56037	0	0	0	0	-0	0	0	0	-0.1265	0	-0	0	0	0	0	0	-0	0	0.105	-0.015	0	0	-0	0	0	-0.098	0.1	0	-0	0	0	0	0	0	-0	0	0.05595	0	0	0	-0	0	0	0	0	0	-0	0	563.867	563.484	340.591	211.832	-0.0950438	0.438059	0.00428191	-0.00672279	-0.810978
87	-0.0631006	-0.0212908	0.006828	0.00118122	-0.0151658	-0.0421222	0.0216845	0.0285217	-0.000494997	-1.69799	0.15238	0.224683	0.0519789	-0.00299407	0.018241	-2.27827	-0.00401446	-1.5604	0	0	0	0	-0	0	0	0	-0.1265	0	-0	0	0	0	0	0	-0	0	0.105	-0.015	0	0	-0	0	0	-0.098	0.1	0	-0	0	0	0	0	0	-0	0	0.05595	0	0	0	-0	0	0	0	0	0	-0	0	563.868	563.487	340.606	211.836	-0.0950261	0.437995	0.00428228	-0.00671498	-0.810937
88	-0.0641565	-0.021292	0.00682773	0.00118061	-0.0151667	-0.0421219	0.0216845	0.0285217	-0.000494955	-1.69798	0.152379	0.224685	0.0519979	-0.00299407	0.0181863	-2.27934	-0.00404577	-1.56043	0	0	0	0	-0	0	0	0	-0.1265	0	-0	0	0	0	0	0	-0	0	0.105	-0.015	0	0	-0	0	0	-0.098	0.1	0	-0	0	0	0	0	0	-0	0	0.05595	0	0	0	-0	0	0	0	0	0	-0	0	563.869	563.491	340.64	211.842	-0.0950564	0.438334	0.00428298	-0.00669885	-0.811726
89	-0.0625035	-0.0212926	0.00682758	0.00118021	-0.0151673	-0.0421218	0.0216845	0.0285217	-0.00049493	-1.69798	0.152379	0.224686	0.0519678	-0.00299406	0.0182724	-2.2777	-0.00408378	-1.56046	0	0	0	0	-0	0	0	0	-0.1265	0	-0	0	0	0	0	0	-0	0	0.105	-0.015	0	0	-0	0	0	-0.098	0.1	0	-0	0	0	0	0	0	-0	0	0.05595	0	0	0	-0	0	0	0	0	0	-0	0	563.869	563.493	340.657	211.846	-0.0950665	0.438421	0.00428444	-0.00669031	-0.811952
90	-0.0607632	-0.021293	0.00682748	0.00118	-0.0151676	-0.0421217	0.0216845	0.0285217	-0.000494915	-1.69798	0.152378	0.224687	0.0519358	-0.00299406	0.018363	-2.27596	-0.00411722	-1.56048	0	0	0	0	-0	0	0	0	-0.1265	0	-0	0	0	0	0	0	-0	0	0.105	-0.015	0	0	-0	0	0	-0.098	0.1	0	-0	0	0	0	0	0	-0	0	0.05595	0	0	0	-0	0	0	0	0	0	-0	0	563.87	563.495	340.669	211.848	-0.0950563	0.438405	0.00428465	-0.00668426	-0.811986
91	-0.0589045	-0.0212939	0.00682727	0.00117947	-0.0151684	-0.0421214	0.0216845	0.0285217	-0.000494881	-1.69798	0.152378	0.224689	0.0519015	-0.00299405	0.0184596	-2.27411	-0.00417016	-1.56052	0	0	0	0	-0	0	0	0	-0.1265	0	-0	0	0	0	0	0	-0	0	0.105	-0.015	0	0	-0	0	0	-0.098	0.1	0	-0	0	0	0	0	0	-0	0	0.05595	0	0	0	-0	0	0	0	0	0	-0	0	563.871	563.499	340.696	211.854	-0.0950855	0.438687	0.00428569	-0.00667134	-0.812622
92	-0.0584308	-0.0212951	0.00682696	0.00117877	-0.0151695	-0.0421211	0.0216845	0.0285217	-0.000494832	-1.69798	0.152376	0.224691	0.0518924	-0.00299404	0.0184846	-2.27366	-0.00422394	-1.56057	0	0	0	0	-0	0	0	0	-0.1265	0	-0	0	0	0	0	0	-0	0	0.105	-0.015	0	0	-0	0	0	-0.098	0.1	0	-0	0	0	0	0	0	-0	0	0.05595	0	0	0	-0	0	0	0	0	0	-0	0	563.873	563.506	340.736	211.861	-0.0951306	0.439123	0.00428618	-0.00665238	-0.8136
93	-0.0567293	-0.0212958	0.00682679	0.00117831	-0.0151701	-0.0421209	0.0216845	0.0285218	-0.000494803	-1.69798	0.152376	0.224692	0.0518609	-0.00299402	0.0185731	-2.27196	-0.00426523	-1.5606	0	0	0	0	-0	0	0	0	-0.1265	0	-0	0	0	0	0	0	-0	0	0.105	-0.015	0	0	-0	0	0	-0.098	0.1	0	-0	0	0	0	0	0	-0	0	0.05595	0	0	0	-0	0	0	0	0	0	-0	0	563.874	563.508	340.755	211.865	-0.0951289	0.439149	0.00428748	-0.00664261	-0.813729
94	-0.0581992	-0.0212963	0.0068267	0.00117801	-0.0151705	-0.0421208	0.0216845	0.0285218	-0.000494784	-1.69798	0.152375	0.224693	0.051888	-0.00299401	0.018497	-2.27344	-0.00426788	-1.56061	0	0	0	0	-0	0	0	0	-0.1265	0	-0	0	0	0	0	0	-0	0	0.105	-0.015	0	0	-0	0	0	-0.098	0.1	0	-0	0	0	0	0	0	-0	0	0.05595	0	0	0	-0	0	0	0	0	0	-0	0	563.874	563.51	340.769	211.868	-0.0951238	0.439147	0.00428869	-0.00663571	-0.813788
95	-0.059155	-0.0212964	0.00682666	0.00117794	-0.0151707	-0.0421208	0.0216845	0.0285218	-0.00049478	-1.69798	0.152375	0.224694	0.0519056	-0.002994	0.0184475	-2.27439	-0.00426175	-1.56061	0	0	0	0	-0	0	0	0	-0.1265	0	-0	0	0	0	0	0	-0	0	0.105	-0.015	0	0	-0	0	0	-0.098	0.1	0	-0	0	0	0	0	0	-0	0	0.05595	0	0	0	-0	0	0	0	0	0	-0	0	563.875	563.51	340.772	211.869	-0.095132	0.439187	0.00428942	-0.00663404	-0.813867
96	-0.0609995	-0.0212966	0.00682662	0.00117781	-0.0151708	-0.0421207	0.0216845	0.0285218	-0.000494771	-1.69798	0.152375	0.224694	0.0519396	-0.002994	0.0183518	-2.27624	-0.00425038	-1.56061	0	0	0	0	-0	0	0	0	-0.1265	0	-0	0	0	0	0	0	-0	0	0.105	-0.015	0	0	-0	0	0	-0.098	0.1	0	-0	0	0	0	0	0	-0	0	0.05595	0	0	0	-0	0	0	0	0	0	-0	0	563.875	563.511	340.778	211.87	-0.095131	0.439209	0.00428926	-0.00663119	-0.813937
97	-0.0603154	-0.0212968	0.00682656	0.00117764	-0.0151711	-0.0421207	0.0216845	0.0285218	-0.000494759	-1.69798	0.152375	0.224695	0.0519269	-0.002994	0.0183874	-2.27556	-0.00426838	-1.56063	0	0	0	0	-0	0	0	0	-0.1265	0	-0	0	0	0	0	0	-0	0	0.105	-0.015	0	0	-0	0	0	-0.098	0.1	0	-0	0	0	0	0	0	-0	0	0.05595	0	0	0	-0	0	0	0	0	0	-0	0	563.875	563.512	340.787	211.872	-0.0951318	0.439247	0.00428941	-0.00662696	-0.814047
98	-0.0573565	-0.0212973	0.00682642	0.00117741	-0.0151715	-0.0421206	0.0216845	0.0285218	-0.000494741	-1.69798	0.152374	0.224695	0.0518724	-0.00299401	0.0185411	-2.27261	-0.0043147	-1.56065	0	0	0	0	-0	0	0	0	-0.1265	0	-0	0	0	0	0	0	-0	0	0.105	-0.015	0	0	-0	0	0	-0.098	0.1	0	-0	0	0	0	0	0	-0	0	0.05595	0	0	0	-0	0	0	0	0	0	-0	0	563.875	563.514	340.8	211.874	-0.0951381	0.439353	0.0042888	-0.00662058	-0.814307
99	-0.0606716	-0.021298	0.00682625	0.00117713	-0.015172	-0.0421204	0.0216845	0.0285218	-0.000494723	-1.69798	0.152374	0.224697	0.0519336	-0.002994	0.0183692	-2.27593	-0.00430505	-1.56066	0	0	0	0	-0	0	0	0	-0.1265	0	-0	0	0	0	0	0	-0	0	0.105	-0.015	0	0	-0	0	0	-0.098	0.1	0	-0	0	0	0	0	0	-0	0	0.05595	0	0	0	-0	0	0	0	0	0	-0	0	563.877	563.518	340.819	211.878	-0.0951812	0.439699	0.00428925	-0.00661124	-0.815027
100	-0.062417	-0.0212989	0.00682603	0.00117664	-0.0151728	-0.0421202	0.0216845	0.0285218	-0.000494688	-1.69798	0.152373	0.224698	0.0519653	-0.00299402	0.0182786	-2.27768	-0.00432228	-1.56069	0	0	0	0	-0	0	0	0	-0.1265	0	-0	0	0	0	0	0	-0	0	0.105	-0.015	0	0	-0	0	0	-0.098	0.1	0	-0	0	0	0	0	0	-0	0	0.05595	0	0	0	-0	0	0	0	0	0	-0	0	563.877	563.521	340.847	211.883	-0.0951753	0.439784	0.00428915	-0.00659781	-0.815325
