Stefan210/kinematic_calibration/src/kinematic_calibration/validation/experiments/experiments/impact_noise/outlier/larm_randomize_11_measurements_rk_true/optimization_intermediate_results.csv
iteration	HeadPitch_offset	HeadYaw_offset	LElbowRoll_offset	LElbowYaw_offset	LShoulderPitch_offset	LShoulderRoll_offset	marker_transform_larm_tx	marker_transform_larm_ty	marker_transform_larm_tz	marker_transform_larm_rr	marker_transform_larm_rp	marker_transform_larm_ry	camera_transform_tx	camera_transform_ty	camera_transform_tz	camera_transform_rr	camera_transform_rp	camera_transform_ry	HeadPitch_transform_tx	HeadPitch_transform_ty	HeadPitch_transform_tz	HeadPitch_transform_rr	HeadPitch_transform_rp	HeadPitch_transform_ry	HeadYaw_transform_tx	HeadYaw_transform_ty	HeadYaw_transform_tz	HeadYaw_transform_rr	HeadYaw_transform_rp	HeadYaw_transform_ry	LElbowRoll_transform_tx	LElbowRoll_transform_ty	LElbowRoll_transform_tz	LElbowRoll_transform_rr	LElbowRoll_transform_rp	LElbowRoll_transform_ry	LElbowYaw_transform_tx	LElbowYaw_transform_ty	LElbowYaw_transform_tz	LElbowYaw_transform_rr	LElbowYaw_transform_rp	LElbowYaw_transform_ry	LShoulderPitch_transform_tx	LShoulderPitch_transform_ty	LShoulderPitch_transform_tz	LShoulderPitch_transform_rr	LShoulderPitch_transform_rp	LShoulderPitch_transform_ry	LShoulderRoll_transform_tx	LShoulderRoll_transform_ty	LShoulderRoll_transform_tz	LShoulderRoll_transform_rr	LShoulderRoll_transform_rp	LShoulderRoll_transform_ry	LWristYaw_transform_tx	LWristYaw_transform_ty	LWristYaw_transform_tz	LWristYaw_transform_rr	LWristYaw_transform_rp	LWristYaw_transform_ry	l_wrist_joint_transform_tx	l_wrist_joint_transform_ty	l_wrist_joint_transform_tz	l_wrist_joint_transform_rr	l_wrist_joint_transform_rp	l_wrist_joint_transform_ry	camera_fx	camera_fy	camera_cx	camera_cy	camera_D0	camera_D1	camera_D2	camera_D3	camera_D4	
0	0.0249164	-0.0307543	0.000853157	4.65819e-06	-0.000318322	-0.00310766	0.05071	0	0.01774	-2.26369	1.66533e-16	-1.5708	545.901	551.038	324.928	201.58	0.0255298	2.61142	-0.0636736	-0.0350419	0.213964
1	-0.0174045	0.0273882	0.0334319	0.0152926	0.0412047	0.00708043	0.027566	-0.0298663	0.00135614	-5.94149e-05	-0.000359164	-0.00269585	0.0513348	-0.00236259	0.0122327	-2.19282	-0.00414945	-1.60323	0	0	0	0	-0	0	0	0	-0.1265	0	-0	0	0	0	0	0	-0	0	0.105	0.015	0	0	-0	0	0	0.098	0.1	0	-0	0	0	0	0	0	-0	0	0.05595	0	0	0	-0	0	0	0	0	0	-0	0	545.902	551.038	324.928	201.58	0.0150802	2.60844	-0.0666034	0.0677628	0.213408
2	-0.0184936	0.025302	0.0284071	0.0347489	0.00829162	0.0249152	0.0262026	-0.030163	0.00278183	-0.000222534	-0.000521486	-0.00288892	0.0527401	-0.00106437	0.0147698	-2.18886	-0.00697683	-1.57128	0	0	0	0	-0	0	0	0	-0.1265	0	-0	0	0	0	0	0	-0	0	0.105	0.015	0	0	-0	0	0	0.098	0.1	0	-0	0	0	0	0	0	-0	0	0.05595	0	0	0	-0	0	0	0	0	0	-0	0	545.917	551.036	324.916	201.596	-0.312684	2.32274	-0.0219037	0.00165878	0.125852
3	-0.0178541	0.0252824	0.0249897	0.0403376	0.00153672	0.028659	0.0257527	-0.030166	0.00306913	-0.000257692	-0.000510218	-0.00295395	0.0545322	-0.00119635	0.0142535	-2.19139	-0.00349091	-1.56465	0	0	0	0	-0	0	0	0	-0.1265	0	-0	0	0	0	0	0	-0	0	0.105	0.015	0	0	-0	0	0	0.098	0.1	0	-0	0	0	0	0	0	-0	0	0.05595	0	0	0	-0	0	0	0	0	0	-0	0	545.964	551.026	324.909	201.627	-0.348554	1.69524	-0.0113428	-0.00572237	-0.0880445
4	-0.0170546	0.0205866	0.0221017	0.0446463	0.00231387	0.0314514	0.0255389	-0.0301256	0.00343123	-0.000399225	-0.000560366	-0.00303254	0.0544762	-0.00122878	0.0147945	-2.19469	0.00170049	-1.55527	0	0	0	0	-0	0	0	0	-0.1265	0	-0	0	0	0	0	0	-0	0	0.105	0.015	0	0	-0	0	0	0.098	0.1	0	-0	0	0	0	0	0	-0	0	0.05595	0	0	0	-0	0	0	0	0	0	-0	0	546.057	551.001	324.911	201.664	-0.126203	0.720985	-0.0165014	-0.00839434	-0.432185
5	-0.016437	0.0180734	0.0201137	0.0455786	0.00333225	0.0329596	0.0254139	-0.0300628	0.00354148	-0.000545549	-0.000448559	-0.00300259	0.0540227	-0.00113109	0.0155241	-2.19687	0.00415714	-1.55112	0	0	0	0	-0	0	0	0	-0.1265	0	-0	0	0	0	0	0	-0	0	0.105	0.015	0	0	-0	0	0	0.098	0.1	0	-0	0	0	0	0	0	-0	0	0.05595	0	0	0	-0	0	0	0	0	0	-0	0	546.26	550.934	324.929	201.683	0.0700024	-0.0241935	-0.0212419	-0.00936406	-0.612753
6	-0.0160588	0.0171766	0.0192219	0.0453545	0.00384992	0.0334551	0.0253702	-0.0300288	0.00355382	-0.000467598	-8.54493e-05	-0.00296471	0.0537201	-0.00108071	0.0160206	-2.19812	0.00482992	-1.54952	0	0	0	0	-0	0	0	0	-0.1265	0	-0	0	0	0	0	0	-0	0	0.105	0.015	0	0	-0	0	0	0.098	0.1	0	-0	0	0	0	0	0	-0	0	0.05595	0	0	0	-0	0	0	0	0	0	-0	0	546.809	550.744	324.907	201.719	0.166988	-0.475116	-0.0223875	-0.00979378	-0.374089
7	-0.0180085	0.0174362	0.0187867	0.0451323	0.00382823	0.0335689	0.0253524	-0.0300107	0.00355652	0.00204648	-0.000963104	-0.00371043	0.0533645	-0.00108313	0.0164528	-2.20129	0.00499524	-1.54927	0	0	0	0	-0	0	0	0	-0.1265	0	-0	0	0	0	0	0	-0	0	0.105	0.015	0	0	-0	0	0	0.098	0.1	0	-0	0	0	0	0	0	-0	0	0.05595	0	0	0	-0	0	0	0	0	0	-0	0	548.266	550.251	324.73	201.812	0.218025	-0.949099	-0.0186003	-0.0100635	0.602173
8	-0.0157546	0.0178362	0.0185683	0.0451191	0.00369642	0.0335957	0.0253429	-0.0300023	0.00358307	0.00672013	-0.00257059	-0.00448411	0.05259	-0.00112221	0.01752	-2.20095	0.00543945	-1.5486	0	0	0	0	-0	0	0	0	-0.1265	0	-0	0	0	0	0	0	-0	0	0.105	0.015	0	0	-0	0	0	0.098	0.1	0	-0	0	0	0	0	0	-0	0	0.05595	0	0	0	-0	0	0	0	0	0	-0	0	551.478	549.367	324.186	202.02	0.276193	-1.77042	-0.00922812	-0.0106165	2.82747
9	-0.0159279	0.0181857	0.0183957	0.0453124	0.00355361	0.0335758	0.02534	-0.0300175	0.0036274	0.0298878	0.00169548	0.0198184	0.0515502	-0.00118873	0.0188021	-2.20407	0.0069971	-1.54673	0	0	0	0	-0	0	0	0	-0.1265	0	-0	0	0	0	0	0	-0	0	0.105	0.015	0	0	-0	0	0	0.098	0.1	0	-0	0	0	0	0	0	-0	0	0.05595	0	0	0	-0	0	0	0	0	0	-0	0	556.394	549.08	322.83	202.486	0.347326	-2.92708	0.00322234	-0.0116276	6.31859
10	-0.00904418	0.01834	0.0184346	0.0454332	0.00354044	0.0335251	0.02535	-0.0300367	0.00365144	0.0122456	0.00574236	-0.0210806	0.0509104	-0.0012486	0.0197887	-2.19892	0.00808527	-1.54531	0	0	0	0	-0	0	0	0	-0.1265	0	-0	0	0	0	0	0	-0	0	0.105	0.015	0	0	-0	0	0	0.098	0.1	0	-0	0	0	0	0	0	-0	0	0.05595	0	0	0	-0	0	0	0	0	0	-0	0	559.247	549.706	321.835	202.865	0.379035	-3.55467	0.00859189	-0.0121728	8.515
11	-3.99911e-05	0.0185517	0.0184264	0.0453608	0.00343979	0.0335189	0.0253235	-0.0300213	0.00366151	0.0312209	6.08536e-05	-0.0152955	0.0504655	-0.00126428	0.0205549	-2.191	0.00847771	-1.54464	0	0	0	0	-0	0	0	0	-0.1265	0	-0	0	0	0	0	0	-0	0	0.105	0.015	0	0	-0	0	0	0.098	0.1	0	-0	0	0	0	0	0	-0	0	0.05595	0	0	0	-0	0	0	0	0	0	-0	0	560.81	550.348	321.242	203.203	0.391551	-3.86095	0.011184	-0.0123675	9.66509
12	-0.00968316	0.0188341	0.0183189	0.0455481	0.00338639	0.0334472	0.0253196	-0.0300101	0.00367921	0.0278003	-0.0156342	-0.00438981	0.0504049	-0.00128598	0.0203343	-2.20227	0.00951204	-1.54395	0	0	0	0	-0	0	0	0	-0.1265	0	-0	0	0	0	0	0	-0	0	0.105	0.015	0	0	-0	0	0	0.098	0.1	0	-0	0	0	0	0	0	-0	0	0.05595	0	0	0	-0	0	0	0	0	0	-0	0	562.32	551.527	320.488	203.828	0.408039	-4.15115	0.0124868	-0.0128007	10.7382
13	-0.0147438	0.0188956	0.0182927	0.0457128	0.00341817	0.0334394	0.0253157	-0.0300096	0.00369435	0.0149632	-0.0151251	-0.0140297	0.0504297	-0.00129812	0.0201583	-2.20794	0.00999187	-1.54369	0	0	0	0	-0	0	0	0	-0.1265	0	-0	0	0	0	0	0	-0	0	0.105	0.015	0	0	-0	0	0	0.098	0.1	0	-0	0	0	0	0	0	-0	0	0.05595	0	0	0	-0	0	0	0	0	0	-0	0	562.835	552.044	320.215	204.091	0.415999	-4.25226	0.0123098	-0.0128866	11.1264
14	-0.0321008	0.0190649	0.0182145	0.0458986	0.00340328	0.0334327	0.0253164	-0.0300143	0.00371529	0.028573	-0.0152999	-0.0356547	0.0506142	-0.00131169	0.0194578	-2.22799	0.0117524	-1.54263	0	0	0	0	-0	0	0	0	-0.1265	0	-0	0	0	0	0	0	-0	0	0.105	0.015	0	0	-0	0	0	0.098	0.1	0	-0	0	0	0	0	0	-0	0	0.05595	0	0	0	-0	0	0	0	0	0	-0	0	564.327	553.956	319.108	205.347	0.427681	-4.47113	0.0119474	-0.0133709	12.0653
15	-0.0345093	0.019071	0.0181952	0.0460173	0.00344165	0.0334736	0.0253208	-0.0300182	0.00372367	0.0395176	-0.00952723	-0.0596647	0.050599	-0.00131875	0.019393	-2.23184	0.0125761	-1.54195	0	0	0	0	-0	0	0	0	-0.1265	0	-0	0	0	0	0	0	-0	0	0.105	0.015	0	0	-0	0	0	0.098	0.1	0	-0	0	0	0	0	0	-0	0	0.05595	0	0	0	-0	0	0	0	0	0	-0	0	564.992	555.042	318.523	206.064	0.436333	-4.57366	0.0109056	-0.0135313	12.528
16	-0.0364949	0.0191075	0.0181555	0.0461659	0.00347634	0.0335193	0.0253161	-0.0300131	0.00373281	0.0349193	-0.0138849	-0.0753737	0.0505556	-0.00132763	0.0193712	-2.23707	0.0141896	-1.54047	0	0	0	0	-0	0	0	0	-0.1265	0	-0	0	0	0	0	0	-0	0	0.105	0.015	0	0	-0	0	0	0.098	0.1	0	-0	0	0	0	0	0	-0	0	0.05595	0	0	0	-0	0	0	0	0	0	-0	0	566.23	557.051	317.275	207.719	0.442889	-4.71209	0.0095971	-0.0140137	13.2752
17	-0.0543563	0.0191613	0.0181033	0.0462659	0.00349454	0.0335397	0.0253172	-0.0300218	0.00372983	0.0170041	-0.00987036	-0.103203	0.050842	-0.00133287	0.0185178	-2.25795	0.0161221	-1.5394	0	0	0	0	-0	0	0	0	-0.1265	0	-0	0	0	0	0	0	-0	0	0.105	0.015	0	0	-0	0	0	0.098	0.1	0	-0	0	0	0	0	0	-0	0	0.05595	0	0	0	-0	0	0	0	0	0	-0	0	567.231	558.779	316.142	209.314	0.448475	-4.82904	0.00838227	-0.0144985	13.9438
18	-0.0488149	0.0192036	0.0180863	0.0461133	0.0034628	0.0335634	0.0253065	-0.0300127	0.00372206	0.0246716	-0.00853596	-0.0942374	0.0507253	-0.00132192	0.0188049	-2.25298	0.0162145	-1.53909	0	0	0	0	-0	0	0	0	-0.1265	0	-0	0	0	0	0	0	-0	0	0.105	0.015	0	0	-0	0	0	0.098	0.1	0	-0	0	0	0	0	0	-0	0	0.05595	0	0	0	-0	0	0	0	0	0	-0	0	567.398	559.171	315.886	209.63	0.451041	-4.85202	0.00791772	-0.0144928	14.0754
19	-0.0464868	0.0192386	0.0180459	0.0462143	0.00346541	0.0335611	0.025304	-0.030009	0.00372996	0.0150957	-0.0128906	-0.101234	0.0506622	-0.00132406	0.0189332	-2.25147	0.0165483	-1.53866	0	0	0	0	-0	0	0	0	-0.1265	0	-0	0	0	0	0	0	-0	0	0.105	0.015	0	0	-0	0	0	0.098	0.1	0	-0	0	0	0	0	0	-0	0	0.05595	0	0	0	-0	0	0	0	0	0	-0	0	567.649	559.644	315.552	210.065	0.452625	-4.88294	0.00755272	-0.0146846	14.2575
20	-0.043822	0.0192479	0.0180205	0.046293	0.00347489	0.033562	0.0253097	-0.0300138	0.00373749	0.0182531	-0.00445083	-0.0786732	0.0505901	-0.00132749	0.0190829	-2.24999	0.0170659	-1.53805	0	0	0	0	-0	0	0	0	-0.1265	0	-0	0	0	0	0	0	-0	0	0.105	0.015	0	0	-0	0	0	0.098	0.1	0	-0	0	0	0	0	0	-0	0	0.05595	0	0	0	-0	0	0	0	0	0	-0	0	568.014	560.258	315.074	210.707	0.454428	-4.92643	0.00713106	-0.0149048	14.5237
21	-0.0356215	0.019223	0.0180121	0.0463593	0.00350344	0.0335986	0.0253057	-0.0300085	0.00374143	0.0164949	-0.000963354	-0.0871862	0.0504226	-0.00132952	0.0195041	-2.24267	0.0172695	-1.53747	0	0	0	0	-0	0	0	0	-0.1265	0	-0	0	0	0	0	0	-0	0	0.105	0.015	0	0	-0	0	0	0.098	0.1	0	-0	0	0	0	0	0	-0	0	0.05595	0	0	0	-0	0	0	0	0	0	-0	0	568.252	560.702	314.722	211.186	0.457422	-4.96148	0.00659967	-0.0150103	14.7237
22	-0.0477024	0.0192708	0.0179831	0.046387	0.00348792	0.0335934	0.0253031	-0.0300073	0.00374185	0.0232789	0.00366889	-0.0795059	0.0506374	-0.00133073	0.0189086	-2.25602	0.0182744	-1.5371	0	0	0	0	-0	0	0	0	-0.1265	0	-0	0	0	0	0	0	-0	0	0.105	0.015	0	0	-0	0	0	0.098	0.1	0	-0	0	0	0	0	0	-0	0	0.05595	0	0	0	-0	0	0	0	0	0	-0	0	568.61	561.284	314.21	211.878	0.458231	-5.00687	0.00639847	-0.0152701	15.0102
23	-0.0509273	0.0193141	0.0179485	0.0464193	0.00348186	0.0335942	0.0253048	-0.0300146	0.00374027	0.037968	0.0075254	-0.0595374	0.0506728	-0.00133089	0.0187609	-2.26103	0.0192371	-1.53636	0	0	0	0	-0	0	0	0	-0.1265	0	-0	0	0	0	0	0	-0	0	0.105	0.015	0	0	-0	0	0	0.098	0.1	0	-0	0	0	0	0	0	-0	0	0.05595	0	0	0	-0	0	0	0	0	0	-0	0	569.086	562.036	313.503	212.86	0.459512	-5.06985	0.00611869	-0.0156079	15.4126
24	-0.0703008	0.0193199	0.017927	0.0464465	0.00350144	0.0336176	0.0252996	-0.0300075	0.00374477	0.0348187	0.0127786	-0.056817	0.051024	-0.00132934	0.0177854	-2.28168	0.0205388	-1.53617	0	0	0	0	-0	0	0	0	-0.1265	0	-0	0	0	0	0	0	-0	0	0.105	0.015	0	0	-0	0	0	0.098	0.1	0	-0	0	0	0	0	0	-0	0	0.05595	0	0	0	-0	0	0	0	0	0	-0	0	569.382	562.578	312.999	213.567	0.463381	-5.12454	0.00559042	-0.0157826	15.7212
25	-0.074271	0.0193833	0.0179022	0.0464125	0.00346404	0.0336071	0.0252978	-0.0300148	0.00374554	0.010974	0.0152631	-0.0439123	0.0510776	-0.00132708	0.017587	-2.28656	0.0211126	-1.53588	0	0	0	0	-0	0	0	0	-0.1265	0	-0	0	0	0	0	0	-0	0	0.105	0.015	0	0	-0	0	0	0.098	0.1	0	-0	0	0	0	0	0	-0	0	0.05595	0	0	0	-0	0	0	0	0	0	-0	0	569.599	562.957	312.617	214.075	0.463896	-5.15876	0.0055066	-0.0159694	15.9402
26	-0.0729531	0.0193292	0.0179015	0.0465316	0.00349444	0.0336245	0.0252989	-0.0300086	0.00374929	0.00316855	0.0194579	-0.0535659	0.0510467	-0.00133168	0.0176549	-2.2856	0.0213156	-1.53562	0	0	0	0	-0	0	0	0	-0.1265	0	-0	0	0	0	0	0	-0	0	0.105	0.015	0	0	-0	0	0	0.098	0.1	0	-0	0	0	0	0	0	-0	0	0.05595	0	0	0	-0	0	0	0	0	0	-0	0	569.678	563.109	312.47	214.281	0.466677	-5.17838	0.00514584	-0.0160304	16.0358
27	-0.0885343	0.0193588	0.0178879	0.0465671	0.0034865	0.033621	0.0253053	-0.0300059	0.00375714	0.00894218	-0.00624001	-0.0635503	0.05131	-0.00133382	0.0168673	-2.30263	0.0225885	-1.53533	0	0	0	0	-0	0	0	0	-0.1265	0	-0	0	0	0	0	0	-0	0	0.105	0.015	0	0	-0	0	0	0.098	0.1	0	-0	0	0	0	0	0	-0	0	0.05595	0	0	0	-0	0	0	0	0	0	-0	0	570.008	563.618	311.895	215.09	0.468037	-5.23967	0.00503672	-0.0163208	16.4135
28	-0.0976742	0.0193219	0.0178777	0.0465964	0.00351318	0.0336538	0.0253001	-0.0300087	0.00375161	-0.00574826	6.48458e-05	-0.0756327	0.0514551	-0.00133429	0.0163955	-2.31246	0.0233112	-1.53519	0	0	0	0	-0	0	0	0	-0.1265	0	-0	0	0	0	0	0	-0	0	0.105	0.015	0	0	-0	0	0	0.098	0.1	0	-0	0	0	0	0	0	-0	0	0.05595	0	0	0	-0	0	0	0	0	0	-0	0	570.126	563.871	311.618	215.484	0.471836	-5.27543	0.0046186	-0.016392	16.6008
29	-0.105615	0.0193779	0.0178586	0.0465557	0.00349019	0.03364	0.0252967	-0.0300062	0.00374758	0.000750524	-0.00498464	-0.066863	0.0515795	-0.00133046	0.0159886	-2.32091	0.023819	-1.53521	0	0	0	0	-0	0	0	0	-0.1265	0	-0	0	0	0	0	0	-0	0	0.105	0.015	0	0	-0	0	0	0.098	0.1	0	-0	0	0	0	0	0	-0	0	0.05595	0	0	0	-0	0	0	0	0	0	-0	0	570.22	564.059	311.405	215.768	0.472923	-5.30109	0.00457309	-0.0164832	16.7392
30	-0.0988103	0.0193964	0.0178498	0.0465643	0.00347862	0.0336299	0.0252941	-0.030005	0.0037489	-0.00952652	-0.000847714	-0.0672029	0.0514661	-0.00132965	0.0163403	-2.31457	0.0238167	-1.53486	0	0	0	0	-0	0	0	0	-0.1265	0	-0	0	0	0	0	0	-0	0	0.105	0.015	0	0	-0	0	0	0.098	0.1	0	-0	0	0	0	0	0	-0	0	0.05595	0	0	0	-0	0	0	0	0	0	-0	0	570.31	564.223	311.21	216.031	0.474008	-5.32433	0.0044859	-0.0165752	16.8712
31	-0.109218	0.0194085	0.0178469	0.0466038	0.00346826	0.033623	0.0252965	-0.0300075	0.00375615	-0.0221021	0.00877132	-0.0528176	0.0516305	-0.00133145	0.0158067	-2.32566	0.0245508	-1.53482	0	0	0	0	-0	0	0	0	-0.1265	0	-0	0	0	0	0	0	-0	0	0.105	0.015	0	0	-0	0	0	0.098	0.1	0	-0	0	0	0	0	0	-0	0	0.05595	0	0	0	-0	0	0	0	0	0	-0	0	570.45	564.447	310.932	216.413	0.47504	-5.35666	0.00441584	-0.0167271	17.0645
32	-0.11061	0.0193773	0.0178431	0.0466648	0.0034891	0.0336435	0.0252971	-0.030004	0.00375739	-0.0151472	-0.00539293	-0.0519938	0.0516463	-0.00133411	0.0157342	-2.32756	0.0249141	-1.53458	0	0	0	0	-0	0	0	0	-0.1265	0	-0	0	0	0	0	0	-0	0	0.105	0.015	0	0	-0	0	0	0.098	0.1	0	-0	0	0	0	0	0	-0	0	0.05595	0	0	0	-0	0	0	0	0	0	-0	0	570.545	564.607	310.723	216.704	0.477211	-5.38512	0.00421664	-0.016826	17.2185
33	-0.110841	0.0193832	0.0178367	0.0466914	0.00348712	0.0336451	0.0252948	-0.0300147	0.0037565	-0.0427638	-0.00420139	-0.0599619	0.0516455	-0.00133521	0.0157234	-2.32852	0.0253221	-1.53426	0	0	0	0	-0	0	0	0	-0.1265	0	-0	0	0	0	0	0	-0	0	0.105	0.015	0	0	-0	0	0	0.098	0.1	0	-0	0	0	0	0	0	-0	0	0.05595	0	0	0	-0	0	0	0	0	0	-0	0	570.682	564.825	310.422	217.122	0.478854	-5.42389	0.00413593	-0.0169781	17.4414
34	-0.110965	0.0194016	0.0178301	0.0466546	0.00349077	0.0336455	0.0252947	-0.0300068	0.00375512	-0.0469316	-0.00251929	-0.055031	0.0516461	-0.00133327	0.0157188	-2.3288	0.025388	-1.53422	0	0	0	0	-0	0	0	0	-0.1265	0	-0	0	0	0	0	0	-0	0	0.105	0.015	0	0	-0	0	0	0.098	0.1	0	-0	0	0	0	0	0	-0	0	0.05595	0	0	0	-0	0	0	0	0	0	-0	0	570.703	564.877	310.359	217.205	0.480206	-5.43616	0.00407332	-0.0169947	17.4861
35	-0.113295	0.0194004	0.0178247	0.0466803	0.00348295	0.0336417	0.0252947	-0.030005	0.00375575	-0.0424618	-0.00508819	-0.0471796	0.0516816	-0.0013336	0.0155978	-2.33133	0.0255886	-1.53419	0	0	0	0	-0	0	0	0	-0.1265	0	-0	0	0	0	0	0	-0	0	0.105	0.015	0	0	-0	0	0	0.098	0.1	0	-0	0	0	0	0	0	-0	0	0.05595	0	0	0	-0	0	0	0	0	0	-0	0	570.736	564.942	310.274	217.319	0.480786	-5.44703	0.00401387	-0.0170354	17.5504
36	-0.115989	0.0194104	0.017818	0.0466984	0.00348096	0.0336412	0.0252974	-0.0300055	0.00375785	-0.0489022	-0.0185415	-0.0498668	0.0517206	-0.00133419	0.0154589	-2.33478	0.0260953	-1.53392	0	0	0	0	-0	0	0	0	-0.1265	0	-0	0	0	0	0	0	-0	0	0.105	0.015	0	0	-0	0	0	0.098	0.1	0	-0	0	0	0	0	0	-0	0	0.05595	0	0	0	-0	0	0	0	0	0	-0	0	570.871	565.16	309.963	217.748	0.482441	-5.48865	0.00395435	-0.0171941	17.7886
37	-0.118407	0.0193874	0.017814	0.0467169	0.00350027	0.0336588	0.0252963	-0.0300042	0.00376109	-0.0417863	-0.0310088	-0.0562622	0.0517565	-0.00133463	0.0153328	-2.33756	0.0264101	-1.5338	0	0	0	0	-0	0	0	0	-0.1265	0	-0	0	0	0	0	0	-0	0	0.105	0.015	0	0	-0	0	0	0.098	0.1	0	-0	0	0	0	0	0	-0	0	0.05595	0	0	0	-0	0	0	0	0	0	-0	0	570.922	565.268	309.81	217.957	0.48483	-5.51221	0.00375201	-0.0172447	17.906
38	-0.121246	0.0193894	0.017811	0.0467519	0.00349476	0.0336624	0.0252962	-0.0300061	0.00376021	-0.0508555	-0.0303671	-0.0673118	0.0517987	-0.00133602	0.0151855	-2.34078	0.0267391	-1.53369	0	0	0	0	-0	0	0	0	-0.1265	0	-0	0	0	0	0	0	-0	0	0.105	0.015	0	0	-0	0	0	0.098	0.1	0	-0	0	0	0	0	0	-0	0	0.05595	0	0	0	-0	0	0	0	0	0	-0	0	570.984	565.376	309.646	218.176	0.485946	-5.53485	0.00368918	-0.0173354	18.0329
39	-0.109689	0.0194083	0.0177975	0.046747	0.00349503	0.0336607	0.0252913	-0.0300077	0.00375901	-0.0776038	-0.0138447	-0.0716682	0.0516199	-0.00133508	0.0157836	-2.33006	0.0267543	-1.53303	0	0	0	0	-0	0	0	0	-0.1265	0	-0	0	0	0	0	0	-0	0	0.105	0.015	0	0	-0	0	0	0.098	0.1	0	-0	0	0	0	0	0	-0	0	0.05595	0	0	0	-0	0	0	0	0	0	-0	0	571.116	565.591	309.296	218.653	0.488398	-5.58703	0.00365414	-0.0175107	18.3132
40	-0.10694	0.0194572	0.0177873	0.0467019	0.00346796	0.0336398	0.0252967	-0.0300084	0.00375593	-0.089116	-0.0288229	-0.0725412	0.0515726	-0.00133277	0.015926	-2.32773	0.0268264	-1.53282	0	0	0	0	-0	0	0	0	-0.1265	0	-0	0	0	0	0	0	-0	0	0.105	0.015	0	0	-0	0	0	0.098	0.1	0	-0	0	0	0	0	0	-0	0	0.05595	0	0	0	-0	0	0	0	0	0	-0	0	571.177	565.709	309.125	218.881	0.489492	-5.61407	0.00367622	-0.0175886	18.4518
41	-0.104474	0.0194076	0.0177823	0.0467348	0.00350857	0.0336686	0.0252956	-0.0300044	0.00375898	-0.086552	-0.0420798	-0.0711405	0.0515318	-0.00133322	0.016051	-2.32555	0.0269398	-1.53257	0	0	0	0	-0	0	0	0	-0.1265	0	-0	0	0	0	0	0	-0	0	0.105	0.015	0	0	-0	0	0	0.098	0.1	0	-0	0	0	0	0	0	-0	0	0.05595	0	0	0	-0	0	0	0	0	0	-0	0	571.208	565.792	309.001	219.05	0.492772	-5.63694	0.00337541	-0.0176171	18.5539
42	-0.110786	0.0194109	0.0177734	0.0467643	0.00350294	0.0336697	0.025293	-0.0300034	0.00376045	-0.0935706	-0.0387839	-0.0725997	0.0516317	-0.00133374	0.0157236	-2.33228	0.0274273	-1.53253	0	0	0	0	-0	0	0	0	-0.1265	0	-0	0	0	0	0	0	-0	0	0.105	0.015	0	0	-0	0	0	0.098	0.1	0	-0	0	0	0	0	0	-0	0	0.05595	0	0	0	-0	0	0	0	0	0	-0	0	571.265	565.895	308.814	219.295	0.494182	-5.6648	0.00332631	-0.017716	18.7072
43	-0.0953728	0.0194368	0.0177558	0.0468097	0.00349419	0.0336623	0.0252954	-0.0300024	0.00376461	-0.090235	-0.0553594	-0.077479	0.0513825	-0.00133519	0.0165186	-2.31857	0.0277339	-1.53136	0	0	0	0	-0	0	0	0	-0.1265	0	-0	0	0	0	0	0	-0	0	0.105	0.015	0	0	-0	0	0	0.098	0.1	0	-0	0	0	0	0	0	-0	0	0.05595	0	0	0	-0	0	0	0	0	0	-0	0	571.522	566.241	308.116	220.265	0.498594	-5.78283	0.00348003	-0.0181163	19.3485
44	-0.0890615	0.0194368	0.0177483	0.0467773	0.00349676	0.0336724	0.0252926	-0.0300032	0.00376006	-0.0907406	-0.0548538	-0.0837138	0.0512723	-0.00133289	0.0168406	-2.31247	0.0275907	-1.53109	0	0	0	0	-0	0	0	0	-0.1265	0	-0	0	0	0	0	0	-0	0	0.105	0.015	0	0	-0	0	0	0.098	0.1	0	-0	0	0	0	0	0	-0	0	0.05595	0	0	0	-0	0	0	0	0	0	-0	0	571.523	566.306	308.027	220.391	0.501793	-5.80426	0.00324893	-0.0181116	19.43
45	-0.0795407	0.0194387	0.0177377	0.046801	0.00349558	0.0336701	0.0252913	-0.0300034	0.00376235	-0.0825772	-0.0575548	-0.0898225	0.0511103	-0.00133241	0.0173252	-2.30325	0.0273721	-1.53069	0	0	0	0	-0	0	0	0	-0.1265	0	-0	0	0	0	0	0	-0	0	0.105	0.015	0	0	-0	0	0	0.098	0.1	0	-0	0	0	0	0	0	-0	0	0.05595	0	0	0	-0	0	0	0	0	0	-0	0	571.547	566.381	307.901	220.559	0.503683	-5.82869	0.00313817	-0.0181753	19.5491
46	-0.0863129	0.0194421	0.017734	0.0468141	0.00349242	0.0336692	0.0252908	-0.030004	0.00376253	-0.0931608	-0.0587984	-0.0883915	0.0512258	-0.00133259	0.0169765	-2.31022	0.0277627	-1.53078	0	0	0	0	-0	0	0	0	-0.1265	0	-0	0	0	0	0	0	-0	0	0.105	0.015	0	0	-0	0	0	0.098	0.1	0	-0	0	0	0	0	0	-0	0	0.05595	0	0	0	-0	0	0	0	0	0	-0	0	571.565	566.431	307.807	220.681	0.504983	-5.8473	0.00308294	-0.0182253	19.6389
47	-0.0917685	0.0194425	0.0177334	0.0468246	0.00349215	0.0336693	0.0252923	-0.0300032	0.00376343	-0.0909061	-0.0496878	-0.0839774	0.0513174	-0.00133298	0.0166957	-2.31585	0.0280803	-1.53084	0	0	0	0	-0	0	0	0	-0.1265	0	-0	0	0	0	0	0	-0	0	0.105	0.015	0	0	-0	0	0	0.098	0.1	0	-0	0	0	0	0	0	-0	0	0.05595	0	0	0	-0	0	0	0	0	0	-0	0	571.581	566.47	307.732	220.777	0.506061	-5.86207	0.00303364	-0.0182656	19.7099
48	-0.0974269	0.0194337	0.0177342	0.0468452	0.00349933	0.033676	0.0252912	-0.0300039	0.00376517	-0.0796009	-0.0510882	-0.0871135	0.0514119	-0.00133413	0.0164028	-2.32186	0.0285299	-1.53081	0	0	0	0	-0	0	0	0	-0.1265	0	-0	0	0	0	0	0	-0	0	0.105	0.015	0	0	-0	0	0	0.098	0.1	0	-0	0	0	0	0	0	-0	0	0.05595	0	0	0	-0	0	0	0	0	0	-0	0	571.619	566.545	307.57	220.986	0.508135	-5.89301	0.00295151	-0.0183472	19.8663
49	-0.101973	0.0194389	0.0177327	0.0468549	0.00349344	0.0336749	0.0252912	-0.0300027	0.00376477	-0.076779	-0.0519446	-0.0820915	0.0514852	-0.00133432	0.0161689	-2.3265	0.0287645	-1.5309	0	0	0	0	-0	0	0	0	-0.1265	0	-0	0	0	0	0	0	-0	0	0.105	0.015	0	0	-0	0	0	0.098	0.1	0	-0	0	0	0	0	0	-0	0	0.05595	0	0	0	-0	0	0	0	0	0	-0	0	571.627	566.565	307.528	221.039	0.508805	-5.90213	0.00293211	-0.0183716	19.9075
50	-0.0987996	0.0194398	0.0177314	0.0468538	0.00349215	0.0336734	0.0252908	-0.0300022	0.00376447	-0.0812785	-0.0503744	-0.0844729	0.0514331	-0.00133412	0.0163318	-2.32339	0.0286749	-1.53078	0	0	0	0	-0	0	0	0	-0.1265	0	-0	0	0	0	0	0	-0	0	0.105	0.015	0	0	-0	0	0	0.098	0.1	0	-0	0	0	0	0	0	-0	0	0.05595	0	0	0	-0	0	0	0	0	0	-0	0	571.632	566.579	307.499	221.075	0.509285	-5.90813	0.00291358	-0.0183836	19.9356
51	-0.0941267	0.0194418	0.01773	0.0468598	0.00349053	0.033672	0.0252913	-0.0300022	0.00376482	-0.0793996	-0.0463733	-0.0895443	0.0513564	-0.00133424	0.0165714	-2.31886	0.0285703	-1.53058	0	0	0	0	-0	0	0	0	-0.1265	0	-0	0	0	0	0	0	-0	0	0.105	0.015	0	0	-0	0	0	0.098	0.1	0	-0	0	0	0	0	0	-0	0	0.05595	0	0	0	-0	0	0	0	0	0	-0	0	571.648	566.609	307.435	221.155	0.509971	-5.92044	0.0029004	-0.0184189	19.9987
52	-0.0976174	0.0194407	0.0177282	0.046864	0.00349327	0.0336744	0.0252914	-0.0300022	0.00376541	-0.0813429	-0.0517387	-0.0926457	0.0514138	-0.00133432	0.0163909	-2.32255	0.0288335	-1.53057	0	0	0	0	-0	0	0	0	-0.1265	0	-0	0	0	0	0	0	-0	0	0.105	0.015	0	0	-0	0	0	0.098	0.1	0	-0	0	0	0	0	0	-0	0	0.05595	0	0	0	-0	0	0	0	0	0	-0	0	571.668	566.65	307.342	221.273	0.511245	-5.9393	0.00286353	-0.0184642	20.0914
53	-0.0984266	0.019439	0.0177264	0.0468773	0.00349544	0.0336772	0.0252918	-0.0300025	0.00376834	-0.0902145	-0.0421663	-0.0849635	0.0514267	-0.00133485	0.0163479	-2.32365	0.0290459	-1.53045	0	0	0	0	-0	0	0	0	-0.1265	0	-0	0	0	0	0	0	-0	0	0.105	0.015	0	0	-0	0	0	0.098	0.1	0	-0	0	0	0	0	0	-0	0	0.05595	0	0	0	-0	0	0	0	0	0	-0	0	571.698	566.7	307.208	221.444	0.512965	-5.96726	0.00283781	-0.0185359	20.23
54	-0.100136	0.0194297	0.0177317	0.0469074	0.00349793	0.0336846	0.0252918	-0.0300023	0.00376836	-0.0838066	-0.0459907	-0.0804083	0.0514555	-0.00133674	0.0162596	-2.32551	0.0292177	-1.53041	0	0	0	0	-0	0	0	0	-0.1265	0	-0	0	0	0	0	0	-0	0	0.105	0.015	0	0	-0	0	0	0.098	0.1	0	-0	0	0	0	0	0	-0	0	0.05595	0	0	0	-0	0	0	0	0	0	-0	0	571.71	566.728	307.141	221.526	0.514142	-5.98167	0.00276969	-0.0185743	20.2993
55	-0.103058	0.0194385	0.0177257	0.0468996	0.00349452	0.0336811	0.0252908	-0.0300028	0.00376746	-0.0736034	-0.0477013	-0.0787296	0.051502	-0.00133594	0.0161084	-2.32863	0.0294531	-1.5304	0	0	0	0	-0	0	0	0	-0.1265	0	-0	0	0	0	0	0	-0	0	0.105	0.015	0	0	-0	0	0	0.098	0.1	0	-0	0	0	0	0	0	-0	0	0.05595	0	0	0	-0	0	0	0	0	0	-0	0	571.731	566.768	307.044	221.647	0.515402	-6.00291	0.00277152	-0.0186232	20.4013
56	-0.103005	0.0194435	0.0177213	0.0468954	0.00349236	0.0336787	0.0252911	-0.0300018	0.00376739	-0.0735673	-0.0537143	-0.0811671	0.0515005	-0.00133525	0.0161109	-2.32866	0.0294961	-1.53036	0	0	0	0	-0	0	0	0	-0.1265	0	-0	0	0	0	0	0	-0	0	0.105	0.015	0	0	-0	0	0	0.098	0.1	0	-0	0	0	0	0	0	-0	0	0.05595	0	0	0	-0	0	0	0	0	0	-0	0	571.737	566.784	307.005	221.696	0.516097	-6.01216	0.00275966	-0.0186409	20.4422
57	-0.104222	0.0194398	0.0177205	0.0469042	0.00349498	0.0336808	0.0252911	-0.0300019	0.00376758	-0.0760465	-0.0527399	-0.0864698	0.0515203	-0.00133561	0.0160472	-2.33005	0.0296543	-1.5303	0	0	0	0	-0	0	0	0	-0.1265	0	-0	0	0	0	0	0	-0	0	0.105	0.015	0	0	-0	0	0	0.098	0.1	0	-0	0	0	0	0	0	-0	0	0.05595	0	0	0	-0	0	0	0	0	0	-0	0	571.752	566.816	306.926	221.795	0.517293	-6.02928	0.00271994	-0.0186806	20.5262
58	-0.105389	0.0194408	0.0177182	0.0469035	0.00349509	0.0336812	0.0252911	-0.0300021	0.00376752	-0.0729502	-0.051153	-0.0813288	0.0515386	-0.00133535	0.0159869	-2.3313	0.029752	-1.5303	0	0	0	0	-0	0	0	0	-0.1265	0	-0	0	0	0	0	0	-0	0	0.105	0.015	0	0	-0	0	0	0.098	0.1	0	-0	0	0	0	0	0	-0	0	0.05595	0	0	0	-0	0	0	0	0	0	-0	0	571.758	566.832	306.887	221.844	0.518033	-6.0385	0.0026985	-0.018697	20.5681
59	-0.106497	0.0194407	0.0177168	0.0469047	0.00349583	0.0336821	0.0252908	-0.0300015	0.00376747	-0.0707652	-0.0551018	-0.078521	0.0515564	-0.00133527	0.0159294	-2.33247	0.0298358	-1.5303	0	0	0	0	-0	0	0	0	-0.1265	0	-0	0	0	0	0	0	-0	0	0.105	0.015	0	0	-0	0	0	0.098	0.1	0	-0	0	0	0	0	0	-0	0	0.05595	0	0	0	-0	0	0	0	0	0	-0	0	571.762	566.844	306.857	221.88	0.518607	-6.04535	0.00267551	-0.0187096	20.5991
60	-0.104219	0.0194421	0.0177152	0.0469055	0.00349444	0.0336812	0.0252906	-0.0300014	0.0037676	-0.0720493	-0.0573997	-0.0763332	0.05152	-0.00133513	0.0160465	-2.33024	0.0297712	-1.53021	0	0	0	0	-0	0	0	0	-0.1265	0	-0	0	0	0	0	0	-0	0	0.105	0.015	0	0	-0	0	0	0.098	0.1	0	-0	0	0	0	0	0	-0	0	0.05595	0	0	0	-0	0	0	0	0	0	-0	0	571.765	566.853	306.835	221.907	0.518962	-6.05025	0.00266522	-0.0187202	20.6222
61	-0.103927	0.0194429	0.0177141	0.0469094	0.00349403	0.0336811	0.0252905	-0.0300012	0.00376795	-0.0734786	-0.0545472	-0.0748397	0.0515155	-0.00133519	0.0160605	-2.33005	0.0298233	-1.53015	0	0	0	0	-0	0	0	0	-0.1265	0	-0	0	0	0	0	0	-0	0	0.105	0.015	0	0	-0	0	0	0.098	0.1	0	-0	0	0	0	0	0	-0	0	0.05595	0	0	0	-0	0	0	0	0	0	-0	0	571.772	566.871	306.786	221.967	0.519627	-6.06094	0.00265416	-0.0187468	20.6744
62	-0.103564	0.0194426	0.017714	0.0469143	0.0034934	0.0336814	0.0252907	-0.0300015	0.00376828	-0.0760178	-0.0558897	-0.0703917	0.0515097	-0.00133537	0.0160789	-2.32974	0.0298417	-1.53011	0	0	0	0	-0	0	0	0	-0.1265	0	-0	0	0	0	0	0	-0	0	0.105	0.015	0	0	-0	0	0	0.098	0.1	0	-0	0	0	0	0	0	-0	0	0.05595	0	0	0	-0	0	0	0	0	0	-0	0	571.775	566.88	306.762	221.996	0.520038	-6.06642	0.00263987	-0.01876	20.7001
63	-0.102544	0.0194411	0.0177143	0.0469163	0.00349474	0.0336829	0.0252908	-0.0300013	0.00376849	-0.0755434	-0.0515859	-0.0690714	0.0514934	-0.00133552	0.0161312	-2.32876	0.0298261	-1.53006	0	0	0	0	-0	0	0	0	-0.1265	0	-0	0	0	0	0	0	-0	0	0.105	0.015	0	0	-0	0	0	0.098	0.1	0	-0	0	0	0	0	0	-0	0	0.05595	0	0	0	-0	0	0	0	0	0	-0	0	571.778	566.886	306.744	222.018	0.520425	-6.07081	0.00262337	-0.0187681	20.7196
64	-0.0981254	0.0194409	0.0177136	0.0469197	0.00349502	0.0336834	0.025291	-0.0300014	0.00376823	-0.0773899	-0.0469554	-0.0735644	0.0514222	-0.00133565	0.0163582	-2.32443	0.0296995	-1.52988	0	0	0	0	-0	0	0	0	-0.1265	0	-0	0	0	0	0	0	-0	0	0.105	0.015	0	0	-0	0	0	0.098	0.1	0	-0	0	0	0	0	0	-0	0	0.05595	0	0	0	-0	0	0	0	0	0	-0	0	571.785	566.9	306.704	222.068	0.520972	-6.07967	0.00261536	-0.0187896	20.7632
65	-0.0972713	0.0194433	0.0177097	0.0469142	0.0034958	0.0336832	0.0252912	-0.0300015	0.00376721	-0.0741041	-0.0540296	-0.0675985	0.0514075	-0.00133507	0.0164013	-2.3237	0.0297378	-1.52979	0	0	0	0	-0	0	0	0	-0.1265	0	-0	0	0	0	0	0	-0	0	0.105	0.015	0	0	-0	0	0	0.098	0.1	0	-0	0	0	0	0	0	-0	0	0.05595	0	0	0	-0	0	0	0	0	0	-0	0	571.794	566.92	306.644	222.14	0.521881	-6.09338	0.00260953	-0.018817	20.8277
66	-0.091269	0.0194424	0.0177064	0.0469139	0.00349945	0.0336847	0.0252918	-0.0300017	0.00376765	-0.0721926	-0.0451484	-0.0709999	0.0513093	-0.00133474	0.0167083	-2.31788	0.0296034	-1.52952	0	0	0	0	-0	0	0	0	-0.1265	0	-0	0	0	0	0	0	-0	0	0.105	0.015	0	0	-0	0	0	0.098	0.1	0	-0	0	0	0	0	0	-0	0	0.05595	0	0	0	-0	0	0	0	0	0	-0	0	571.807	566.948	306.558	222.247	0.523233	-6.1124	0.00257975	-0.0188578	20.9184
67	-0.0994412	0.0194406	0.017702	0.0469163	0.0035041	0.0336886	0.025292	-0.0300048	0.00377232	-0.0860743	-0.0365172	-0.0582656	0.0514455	-0.00133452	0.0162867	-2.32631	0.0301026	-1.52962	0	0	0	0	-0	0	0	0	-0.1265	0	-0	0	0	0	0	0	-0	0	0.105	0.015	0	0	-0	0	0	0.098	0.1	0	-0	0	0	0	0	0	-0	0	0.05595	0	0	0	-0	0	0	0	0	0	-0	0	571.822	566.986	306.434	222.401	0.525334	-6.14196	0.00253885	-0.0189169	21.0574
68	-0.0967109	0.0194293	0.0177083	0.0469535	0.00350883	0.0337008	0.0252927	-0.0300021	0.00377138	-0.0830283	-0.0455987	-0.0542212	0.0514012	-0.00133695	0.0164259	-2.32371	0.0300916	-1.52945	0	0	0	0	-0	0	0	0	-0.1265	0	-0	0	0	0	0	0	-0	0	0.105	0.015	0	0	-0	0	0	0.098	0.1	0	-0	0	0	0	0	0	-0	0	0.05595	0	0	0	-0	0	0	0	0	0	-0	0	571.827	567.003	306.372	222.474	0.526723	-6.15738	0.0024613	-0.0189563	21.1261
69	-0.113084	0.019434	0.0177008	0.0469562	0.00350829	0.0336966	0.025293	-0.0300028	0.0037766	-0.0987591	-0.0277827	-0.0439216	0.0516695	-0.00133664	0.0155807	-2.3406	0.0310929	-1.52968	0	0	0	0	-0	0	0	0	-0.1265	0	-0	0	0	0	0	0	-0	0	0.105	0.015	0	0	-0	0	0	0.098	0.1	0	-0	0	0	0	0	0	-0	0	0.05595	0	0	0	-0	0	0	0	0	0	-0	0	571.867	567.064	306.118	222.784	0.53027	-6.21991	0.0025005	-0.0190955	21.429
70	-0.116317	0.0194364	0.0176908	0.0469532	0.00350727	0.0337023	0.0252945	-0.0300021	0.00377175	-0.0966101	-0.0132359	-0.0436708	0.0517136	-0.00133584	0.0154097	-2.34408	0.0313809	-1.52965	0	0	0	0	-0	0	0	0	-0.1265	0	-0	0	0	0	0	0	-0	0	0.105	0.015	0	0	-0	0	0	0.098	0.1	0	-0	0	0	0	0	0	-0	0	0.05595	0	0	0	-0	0	0	0	0	0	-0	0	571.873	567.101	305.999	222.932	0.532873	-6.25228	0.00243744	-0.0191466	21.572
71	-0.124929	0.0194215	0.017691	0.0469633	0.00352144	0.0337097	0.0252924	-0.0300052	0.00377288	-0.111238	-0.0149987	-0.0390698	0.0518468	-0.00133588	0.0149614	-2.35288	0.0318676	-1.52981	0	0	0	0	-0	0	0	0	-0.1265	0	-0	0	0	0	0	0	-0	0	0.105	0.015	0	0	-0	0	0	0.098	0.1	0	-0	0	0	0	0	0	-0	0	0.05595	0	0	0	-0	0	0	0	0	0	-0	0	571.869	567.124	305.911	223.037	0.535356	-6.27638	0.00230668	-0.0191793	21.6758
72	-0.124401	0.0194336	0.0176861	0.0469529	0.003516	0.0337063	0.0252915	-0.0300026	0.00377075	-0.106709	-0.0112738	-0.0426121	0.0518367	-0.00133512	0.0149887	-2.35239	0.0318592	-1.52979	0	0	0	0	-0	0	0	0	-0.1265	0	-0	0	0	0	0	0	-0	0	0.105	0.015	0	0	-0	0	0	0.098	0.1	0	-0	0	0	0	0	0	-0	0	0.05595	0	0	0	-0	0	0	0	0	0	-0	0	571.868	567.13	305.891	223.059	0.535855	-6.28253	0.00230956	-0.0191889	21.6973
73	-0.121631	0.0194352	0.0176858	0.0469646	0.00351082	0.0337011	0.0252915	-0.0300012	0.00377114	-0.105859	-0.0204219	-0.0413967	0.0517954	-0.00133538	0.0151309	-2.34969	0.0317991	-1.52966	0	0	0	0	-0	0	0	0	-0.1265	0	-0	0	0	0	0	0	-0	0	0.105	0.015	0	0	-0	0	0	0.098	0.1	0	-0	0	0	0	0	0	-0	0	0.05595	0	0	0	-0	0	0	0	0	0	-0	0	571.87	567.141	305.851	223.104	0.536448	-6.29226	0.00229715	-0.0192145	21.7442
74	-0.11917	0.0194342	0.0176864	0.0469689	0.00350914	0.0336996	0.0252907	-0.030001	0.00377141	-0.106306	-0.022148	-0.0448015	0.0517581	-0.00133549	0.0152578	-2.34727	0.0317257	-1.52956	0	0	0	0	-0	0	0	0	-0.1265	0	-0	0	0	0	0	0	-0	0	0.105	0.015	0	0	-0	0	0	0.098	0.1	0	-0	0	0	0	0	0	-0	0	0.05595	0	0	0	-0	0	0	0	0	0	-0	0	571.87	567.146	305.832	223.126	0.536852	-6.29729	0.00228172	-0.0192236	21.7676
75	-0.119508	0.0194394	0.0176858	0.0469731	0.00350383	0.0336968	0.0252903	-0.0300008	0.00377151	-0.108467	-0.0241741	-0.042944	0.051763	-0.00133545	0.0152401	-2.34763	0.0317557	-1.52957	0	0	0	0	-0	0	0	0	-0.1265	0	-0	0	0	0	0	0	-0	0	0.105	0.015	0	0	-0	0	0	0.098	0.1	0	-0	0	0	0	0	0	-0	0	0.05595	0	0	0	-0	0	0	0	0	0	-0	0	571.871	567.149	305.817	223.142	0.537001	-6.30087	0.0022908	-0.0192355	21.7847
76	-0.117208	0.0194416	0.0176858	0.0469776	0.00350154	0.0336954	0.0252906	-0.0300009	0.00377255	-0.112033	-0.0176491	-0.0379434	0.0517279	-0.00133558	0.0153589	-2.3454	0.0317034	-1.52946	0	0	0	0	-0	0	0	0	-0.1265	0	-0	0	0	0	0	0	-0	0	0.105	0.015	0	0	-0	0	0	0.098	0.1	0	-0	0	0	0	0	0	-0	0	0.05595	0	0	0	-0	0	0	0	0	0	-0	0	571.875	567.156	305.784	223.179	0.537431	-6.3089	0.00229803	-0.0192565	21.8235
77	-0.12008	0.019437	0.0176882	0.0469885	0.00350377	0.0336979	0.0252911	-0.0300013	0.0037726	-0.111394	-0.0152451	-0.0449045	0.0517725	-0.00133636	0.0152094	-2.34836	0.0318918	-1.52949	0	0	0	0	-0	0	0	0	-0.1265	0	-0	0	0	0	0	0	-0	0	0.105	0.015	0	0	-0	0	0	0.098	0.1	0	-0	0	0	0	0	0	-0	0	0.05595	0	0	0	-0	0	0	0	0	0	-0	0	571.88	567.164	305.737	223.233	0.538236	-6.32116	0.00228608	-0.0192843	21.8819
78	-0.12502	0.0194392	0.0176852	0.0469859	0.00350474	0.033699	0.0252911	-0.0300007	0.00377187	-0.108295	-0.023993	-0.0409606	0.0518475	-0.00133592	0.0149526	-2.35343	0.0321853	-1.52958	0	0	0	0	-0	0	0	0	-0.1265	0	-0	0	0	0	0	0	-0	0	0.105	0.015	0	0	-0	0	0	0.098	0.1	0	-0	0	0	0	0	0	-0	0	0.05595	0	0	0	-0	0	0	0	0	0	-0	0	571.884	567.176	305.668	223.313	0.539587	-6.33978	0.00227551	-0.019318	21.9655
79	-0.118356	0.0194452	0.017678	0.0469806	0.00350367	0.0336986	0.0252906	-0.03	0.0037728	-0.122028	-0.0058983	-0.0404304	0.0517468	-0.00133485	0.0152968	-2.34696	0.032037	-1.52927	0	0	0	0	-0	0	0	0	-0.1265	0	-0	0	0	0	0	0	-0	0	0.105	0.015	0	0	-0	0	0	0.098	0.1	0	-0	0	0	0	0	0	-0	0	0.05595	0	0	0	-0	0	0	0	0	0	-0	0	571.891	567.193	305.568	223.429	0.541412	-6.36622	0.00227281	-0.0193676	22.0865
80	-0.123081	0.0194458	0.0176763	0.0469921	0.00350123	0.0337007	0.0252904	-0.0300008	0.00377297	-0.120376	-0.00731819	-0.0465554	0.051818	-0.00133505	0.0150516	-2.35178	0.0323005	-1.52937	0	0	0	0	-0	0	0	0	-0.1265	0	-0	0	0	0	0	0	-0	0	0.105	0.015	0	0	-0	0	0	0.098	0.1	0	-0	0	0	0	0	0	-0	0	0.05595	0	0	0	-0	0	0	0	0	0	-0	0	571.892	567.204	305.518	223.485	0.542509	-6.37988	0.00224366	-0.0193935	22.1477
81	-0.116553	0.0194486	0.0176748	0.0469945	0.00350022	0.0337011	0.0252898	-0.0300004	0.00377273	-0.120549	-0.0098896	-0.0451212	0.0517191	-0.00133492	0.0153894	-2.34533	0.0320778	-1.52912	0	0	0	0	-0	0	0	0	-0.1265	0	-0	0	0	0	0	0	-0	0	0.105	0.015	0	0	-0	0	0	0.098	0.1	0	-0	0	0	0	0	0	-0	0	0.05595	0	0	0	-0	0	0	0	0	0	-0	0	571.894	567.211	305.481	223.527	0.543328	-6.39021	0.002229	-0.0194132	22.1923
82	-0.117112	0.0194576	0.0176698	0.0469868	0.00349519	0.0336984	0.0252894	-0.0300003	0.00377174	-0.12127	-0.00545153	-0.0477496	0.0517259	-0.00133401	0.0153603	-2.34594	0.0321296	-1.52912	0	0	0	0	-0	0	0	0	-0.1265	0	-0	0	0	0	0	0	-0	0	0.105	0.015	0	0	-0	0	0	0.098	0.1	0	-0	0	0	0	0	0	-0	0	0.05595	0	0	0	-0	0	0	0	0	0	-0	0	571.895	567.215	305.452	223.558	0.543877	-6.398	0.00223748	-0.019427	22.2258
83	-0.116869	0.0194553	0.017671	0.0469938	0.00349599	0.0336985	0.0252899	-0.0300006	0.00377225	-0.119836	-0.000971534	-0.0527726	0.0517223	-0.00133434	0.0153725	-2.34573	0.0321507	-1.52909	0	0	0	0	-0	0	0	0	-0.1265	0	-0	0	0	0	0	0	-0	0	0.105	0.015	0	0	-0	0	0	0.098	0.1	0	-0	0	0	0	0	0	-0	0	0.05595	0	0	0	-0	0	0	0	0	0	-0	0	571.895	567.218	305.431	223.581	0.544335	-6.40378	0.00222358	-0.019439	22.2519
84	-0.116689	0.0194518	0.017672	0.046997	0.00349927	0.0337005	0.0252897	-0.0300003	0.00377298	-0.118343	-0.00617702	-0.0544857	0.0517199	-0.0013346	0.0153815	-2.34558	0.0321681	-1.52906	0	0	0	0	-0	0	0	0	-0.1265	0	-0	0	0	0	0	0	-0	0	0.105	0.015	0	0	-0	0	0	0.098	0.1	0	-0	0	0	0	0	0	-0	0	0.05595	0	0	0	-0	0	0	0	0	0	-0	0	571.896	567.221	305.416	223.598	0.544736	-6.40803	0.00220472	-0.0194453	22.2705
85	-0.117213	0.0194513	0.0176732	0.0470042	0.00349756	0.0337007	0.0252896	-0.0300003	0.00377342	-0.117583	-0.0075989	-0.0573095	0.0517283	-0.00133505	0.0153541	-2.34613	0.0322076	-1.52906	0	0	0	0	-0	0	0	0	-0.1265	0	-0	0	0	0	0	0	-0	0	0.105	0.015	0	0	-0	0	0	0.098	0.1	0	-0	0	0	0	0	0	-0	0	0.05595	0	0	0	-0	0	0	0	0	0	-0	0	571.896	567.223	305.404	223.61	0.544926	-6.41101	0.00219938	-0.0194541	22.2847
86	-0.122519	0.0194527	0.0176734	0.047008	0.00349568	0.0337002	0.0252895	-0.0300003	0.00377343	-0.119827	-0.00650112	-0.060112	0.05181	-0.00133521	0.015079	-2.35148	0.0324629	-1.52921	0	0	0	0	-0	0	0	0	-0.1265	0	-0	0	0	0	0	0	-0	0	0.105	0.015	0	0	-0	0	0	0.098	0.1	0	-0	0	0	0	0	0	-0	0	0.05595	0	0	0	-0	0	0	0	0	0	-0	0	571.896	567.226	305.378	223.638	0.545335	-6.41768	0.00219893	-0.0194705	22.3159
87	-0.121821	0.0194593	0.0176689	0.0470012	0.00349297	0.0336989	0.0252895	-0.0300009	0.00377368	-0.114061	-0.00966203	-0.0663558	0.0517983	-0.0013344	0.0151149	-2.35085	0.0324781	-1.52915	0	0	0	0	-0	0	0	0	-0.1265	0	-0	0	0	0	0	0	-0	0	0.105	0.015	0	0	-0	0	0	0.098	0.1	0	-0	0	0	0	0	0	-0	0	0.05595	0	0	0	-0	0	0	0	0	0	-0	0	571.899	567.233	305.34	223.68	0.546041	-6.42817	0.00220832	-0.0194902	22.3624
88	-0.122463	0.0194519	0.0176726	0.0470141	0.00349705	0.0337024	0.0252898	-0.0300005	0.00377421	-0.115567	-0.0129743	-0.0679861	0.0518088	-0.00133538	0.015081	-2.35153	0.0325398	-1.52914	0	0	0	0	-0	0	0	0	-0.1265	0	-0	0	0	0	0	0	-0	0	0.105	0.015	0	0	-0	0	0	0.098	0.1	0	-0	0	0	0	0	0	-0	0	0.05595	0	0	0	-0	0	0	0	0	0	-0	0	571.899	567.235	305.321	223.7	0.546509	-6.43336	0.00218004	-0.0195017	22.3859
89	-0.12552	0.0194527	0.0176715	0.0470164	0.00349641	0.0337023	0.0252894	-0.0300027	0.00377375	-0.128729	-0.0124832	-0.0718276	0.0518549	-0.00133539	0.0149219	-2.35466	0.0327229	-1.5292	0	0	0	0	-0	0	0	0	-0.1265	0	-0	0	0	0	0	0	-0	0	0.105	0.015	0	0	-0	0	0	0.098	0.1	0	-0	0	0	0	0	0	-0	0	0.05595	0	0	0	-0	0	0	0	0	0	-0	0	571.901	567.24	305.279	223.746	0.547226	-6.44443	0.00218163	-0.0195251	22.4372
90	-0.127587	0.0194607	0.0176671	0.0470025	0.00349618	0.0337017	0.0252894	-0.0300012	0.00377291	-0.132907	-0.0147328	-0.0750469	0.051885	-0.00133438	0.0148152	-2.35676	0.0328284	-1.52926	0	0	0	0	-0	0	0	0	-0.1265	0	-0	0	0	0	0	0	-0	0	0.105	0.015	0	0	-0	0	0	0.098	0.1	0	-0	0	0	0	0	0	-0	0	0.05595	0	0	0	-0	0	0	0	0	0	-0	0	571.901	567.244	305.257	223.768	0.547825	-6.45117	0.00217978	-0.0195339	22.4626
91	-0.12893	0.0194594	0.0176652	0.0470077	0.00349648	0.0337017	0.0252888	-0.030001	0.00377418	-0.122919	-0.020378	-0.0780239	0.051905	-0.00133436	0.0147444	-2.35819	0.0329483	-1.52925	0	0	0	0	-0	0	0	0	-0.1265	0	-0	0	0	0	0	0	-0	0	0.105	0.015	0	0	-0	0	0	0.098	0.1	0	-0	0	0	0	0	0	-0	0	0.05595	0	0	0	-0	0	0	0	0	0	-0	0	571.902	567.25	305.211	223.818	0.548725	-6.46391	0.00216764	-0.0195581	22.5213
92	-0.125435	0.0194582	0.0176674	0.0470232	0.00349334	0.0337023	0.0252895	-0.0300008	0.0037751	-0.127819	-0.0188398	-0.0729082	0.0518539	-0.00133519	0.0149254	-2.35474	0.0328382	-1.52911	0	0	0	0	-0	0	0	0	-0.1265	0	-0	0	0	0	0	0	-0	0	0.105	0.015	0	0	-0	0	0	0.098	0.1	0	-0	0	0	0	0	0	-0	0	0.05595	0	0	0	-0	0	0	0	0	0	-0	0	571.902	567.252	305.187	223.842	0.54913	-6.47001	0.00215757	-0.0195753	22.5498
93	-0.125124	0.0194569	0.0176674	0.0470251	0.00349425	0.0337037	0.0252898	-0.0300002	0.00377496	-0.127833	-0.013265	-0.0709906	0.0518491	-0.00133523	0.0149411	-2.35446	0.0328502	-1.52908	0	0	0	0	-0	0	0	0	-0.1265	0	-0	0	0	0	0	0	-0	0	0.105	0.015	0	0	-0	0	0	0.098	0.1	0	-0	0	0	0	0	0	-0	0	0.05595	0	0	0	-0	0	0	0	0	0	-0	0	571.901	567.254	305.17	223.86	0.549575	-6.47507	0.00214534	-0.0195829	22.5714
94	-0.11928	0.0194548	0.0176669	0.0470274	0.00349593	0.0337048	0.0252895	-0.0300001	0.00377489	-0.125683	-0.0122404	-0.0724384	0.0517621	-0.00133525	0.0152431	-2.34868	0.0326586	-1.52884	0	0	0	0	-0	0	0	0	-0.1265	0	-0	0	0	0	0	0	-0	0	0.105	0.015	0	0	-0	0	0	0.098	0.1	0	-0	0	0	0	0	0	-0	0	0.05595	0	0	0	-0	0	0	0	0	0	-0	0	571.901	567.258	305.132	223.9	0.550301	-6.485	0.00213459	-0.019602	22.6171
95	-0.12111	0.0194633	0.0176609	0.0470198	0.00349216	0.033703	0.0252897	-0.0299996	0.00377348	-0.118584	-0.0237952	-0.0691497	0.0517886	-0.00133419	0.0151476	-2.35061	0.0328007	-1.52885	0	0	0	0	-0	0	0	0	-0.1265	0	-0	0	0	0	0	0	-0	0	0.105	0.015	0	0	-0	0	0	0.098	0.1	0	-0	0	0	0	0	0	-0	0	0.05595	0	0	0	-0	0	0	0	0	0	-0	0	571.901	567.262	305.076	223.959	0.551337	-6.50027	0.00214819	-0.019631	22.6848
96	-0.120736	0.0194614	0.0176589	0.0470163	0.00349542	0.0337042	0.0252889	-0.03	0.0037737	-0.119619	-0.0244872	-0.0721067	0.0517823	-0.0013337	0.0151673	-2.35025	0.0327961	-1.52883	0	0	0	0	-0	0	0	0	-0.1265	0	-0	0	0	0	0	0	-0	0	0.105	0.015	0	0	-0	0	0	0.098	0.1	0	-0	0	0	0	0	0	-0	0	0.05595	0	0	0	-0	0	0	0	0	0	-0	0	571.901	567.263	305.069	223.967	0.551753	-6.50296	0.00212659	-0.0196286	22.6943
97	-0.119723	0.0194632	0.0176591	0.0470226	0.00349311	0.0337039	0.0252887	-0.0300002	0.00377406	-0.125132	-0.023674	-0.0743525	0.0517672	-0.00133394	0.0152194	-2.34926	0.0327746	-1.52879	0	0	0	0	-0	0	0	0	-0.1265	0	-0	0	0	0	0	0	-0	0	0.105	0.015	0	0	-0	0	0	0.098	0.1	0	-0	0	0	0	0	0	-0	0	0.05595	0	0	0	-0	0	0	0	0	0	-0	0	571.901	567.265	305.053	223.983	0.552037	-6.50716	0.00212278	-0.0196395	22.7132
98	-0.120645	0.0194654	0.0176588	0.0470245	0.00349141	0.0337031	0.0252886	-0.0299999	0.00377428	-0.127228	-0.0225832	-0.0744337	0.0517814	-0.00133399	0.0151713	-2.35022	0.0328435	-1.52879	0	0	0	0	-0	0	0	0	-0.1265	0	-0	0	0	0	0	0	-0	0	0.105	0.015	0	0	-0	0	0	0.098	0.1	0	-0	0	0	0	0	0	-0	0	0.05595	0	0	0	-0	0	0	0	0	0	-0	0	571.901	567.267	305.029	224.008	0.552465	-6.51367	0.00212263	-0.0196542	22.7423
99	-0.118981	0.0194658	0.0176586	0.0470297	0.00349015	0.0337029	0.0252885	-0.03	0.00377498	-0.133474	-0.01937	-0.072463	0.0517565	-0.00133415	0.0152567	-2.34862	0.0328204	-1.5287	0	0	0	0	-0	0	0	0	-0.1265	0	-0	0	0	0	0	0	-0	0	0.105	0.015	0	0	-0	0	0	0.098	0.1	0	-0	0	0	0	0	0	-0	0	0.05595	0	0	0	-0	0	0	0	0	0	-0	0	571.902	567.271	304.994	224.043	0.553048	-6.52258	0.00211915	-0.0196747	22.7837
100	-0.117841	0.0194655	0.0176595	0.0470348	0.0034892	0.0337037	0.0252887	-0.0299998	0.00377505	-0.135543	-0.0187359	-0.0738123	0.051739	-0.00133443	0.0153158	-2.34749	0.0327804	-1.52866	0	0	0	0	-0	0	0	0	-0.1265	0	-0	0	0	0	0	0	-0	0	0.105	0.015	0	0	-0	0	0	0.098	0.1	0	-0	0	0	0	0	0	-0	0	0.05595	0	0	0	-0	0	0	0	0	0	-0	0	571.902	567.272	304.99	224.048	0.553213	-6.52415	0.00211123	-0.0196783	22.7897
