Stefan210/kinematic_calibration/src/kinematic_calibration/validation/experiments/experiments/anzahl_messungen/AB_C/larm_43/optimization_intermediate_results.csv
iteration	HeadPitch_offset	HeadYaw_offset	LElbowRoll_offset	LElbowYaw_offset	LShoulderPitch_offset	LShoulderRoll_offset	marker_transform_larm_tx	marker_transform_larm_ty	marker_transform_larm_tz	marker_transform_larm_rr	marker_transform_larm_rp	marker_transform_larm_ry	camera_transform_tx	camera_transform_ty	camera_transform_tz	camera_transform_rr	camera_transform_rp	camera_transform_ry	HeadPitch_transform_tx	HeadPitch_transform_ty	HeadPitch_transform_tz	HeadPitch_transform_rr	HeadPitch_transform_rp	HeadPitch_transform_ry	HeadYaw_transform_tx	HeadYaw_transform_ty	HeadYaw_transform_tz	HeadYaw_transform_rr	HeadYaw_transform_rp	HeadYaw_transform_ry	LElbowRoll_transform_tx	LElbowRoll_transform_ty	LElbowRoll_transform_tz	LElbowRoll_transform_rr	LElbowRoll_transform_rp	LElbowRoll_transform_ry	LElbowYaw_transform_tx	LElbowYaw_transform_ty	LElbowYaw_transform_tz	LElbowYaw_transform_rr	LElbowYaw_transform_rp	LElbowYaw_transform_ry	LShoulderPitch_transform_tx	LShoulderPitch_transform_ty	LShoulderPitch_transform_tz	LShoulderPitch_transform_rr	LShoulderPitch_transform_rp	LShoulderPitch_transform_ry	LShoulderRoll_transform_tx	LShoulderRoll_transform_ty	LShoulderRoll_transform_tz	LShoulderRoll_transform_rr	LShoulderRoll_transform_rp	LShoulderRoll_transform_ry	LWristYaw_transform_tx	LWristYaw_transform_ty	LWristYaw_transform_tz	LWristYaw_transform_rr	LWristYaw_transform_rp	LWristYaw_transform_ry	l_wrist_joint_transform_tx	l_wrist_joint_transform_ty	l_wrist_joint_transform_tz	l_wrist_joint_transform_rr	l_wrist_joint_transform_rp	l_wrist_joint_transform_ry	camera_fx	camera_fy	camera_cx	camera_cy	camera_D0	camera_D1	camera_D2	camera_D3	camera_D4	
0	0.0249164	-0.0307543	0.000853157	4.65819e-06	-0.000318322	-0.00310766	0.05071	0	0.01774	-2.26369	1.66533e-16	-1.5708	545.901	551.038	324.928	201.58	0.0255298	2.61142	-0.0636736	-0.0350419	0.213964
1	-0.0174298	0.00311674	0.0231808	0.0131385	0.00603061	0.0328082	0.0249759	-0.0297273	0.00144394	-7.11739e-05	-0.000376689	-0.00299839	0.0564792	0.000628573	0.0137503	-2.19274	-0.000709773	-1.53978	0	0	0	0	-0	0	0	0	-0.1265	0	-0	0	0	0	0	0	-0	0	0.105	0.015	0	0	-0	0	0	0.098	0.1	0	-0	0	0	0	0	0	-0	0	0.05595	0	0	0	-0	0	0	0	0	0	-0	0	545.901	551.039	324.928	201.581	-0.0140606	2.59726	-0.0900941	0.0581752	0.21093
2	-0.0172639	0.0210479	0.0239128	0.0225993	-0.00565465	0.0386777	0.0251638	-0.0299558	0.00198973	-0.000135228	-0.00042972	-0.00300037	0.0528016	0.000388241	0.0188949	-2.19496	-0.00935051	-1.55735	0	0	0	0	-0	0	0	0	-0.1265	0	-0	0	0	0	0	0	-0	0	0.105	0.015	0	0	-0	0	0	0.098	0.1	0	-0	0	0	0	0	0	-0	0	0.05595	0	0	0	-0	0	0	0	0	0	-0	0	545.904	551.039	324.924	201.586	-0.14691	2.49819	-0.0356404	0.0225698	0.178065
3	-0.0180567	0.0177069	0.0200695	0.0225814	-0.00326715	0.0383896	0.0249717	-0.0299749	0.00190232	-0.000125885	-0.000420658	-0.00302281	0.0540325	0.00103272	0.0163036	-2.19114	-0.00828635	-1.55599	0	0	0	0	-0	0	0	0	-0.1265	0	-0	0	0	0	0	0	-0	0	0.105	0.015	0	0	-0	0	0	0.098	0.1	0	-0	0	0	0	0	0	-0	0	0.05595	0	0	0	-0	0	0	0	0	0	-0	0	545.907	551.04	324.919	201.591	-0.340626	2.36821	-0.0245274	0.0162305	0.137968
4	-0.0174043	0.0226114	0.0181162	0.0285874	-0.0067711	0.0349479	0.0248487	-0.0299357	0.002145	-0.000157961	-0.000443671	-0.00302697	0.0555291	0.00117775	0.0148301	-2.19334	-0.0110117	-1.562	0	0	0	0	-0	0	0	0	-0.1265	0	-0	0	0	0	0	0	-0	0	0.105	0.015	0	0	-0	0	0	0.098	0.1	0	-0	0	0	0	0	0	-0	0	0.05595	0	0	0	-0	0	0	0	0	0	-0	0	545.914	551.041	324.911	201.601	-0.642991	2.09815	0.0187492	-0.00871472	0.0463717
5	-0.0168086	0.0264808	0.0150379	0.0343388	-0.00957253	0.0320144	0.0246744	-0.0298851	0.00241978	-0.000187968	-0.000467753	-0.00303568	0.056652	0.00126271	0.013829	-2.19547	-0.0126282	-1.56736	0	0	0	0	-0	0	0	0	-0.1265	0	-0	0	0	0	0	0	-0	0	0.105	0.015	0	0	-0	0	0	0.098	0.1	0	-0	0	0	0	0	0	-0	0	0.05595	0	0	0	-0	0	0	0	0	0	-0	0	545.928	551.04	324.902	201.615	-0.774797	1.6993	0.0430961	-0.0229248	-0.111141
6	-0.0162866	0.0277171	0.0128912	0.0353159	-0.0098958	0.0312514	0.0245559	-0.0298841	0.0025164	-0.000167124	-0.000507333	-0.00304409	0.0562872	0.00111897	0.0145238	-2.19782	-0.0113681	-1.5686	0	0	0	0	-0	0	0	0	-0.1265	0	-0	0	0	0	0	0	-0	0	0.105	0.015	0	0	-0	0	0	0.098	0.1	0	-0	0	0	0	0	0	-0	0	0.05595	0	0	0	-0	0	0	0	0	0	-0	0	545.955	551.031	324.894	201.63	-0.591158	1.14074	0.0377983	-0.0212881	-0.363299
7	-0.0158299	0.0276894	0.0119188	0.0341749	-0.00919484	0.0314071	0.0244998	-0.0299131	0.00250793	-0.000112912	-0.000428745	-0.00311153	0.055497	0.000943169	0.015618	-2.19968	-0.00951818	-1.56791	0	0	0	0	-0	0	0	0	-0.1265	0	-0	0	0	0	0	0	-0	0	0.105	0.015	0	0	-0	0	0	0.098	0.1	0	-0	0	0	0	0	0	-0	0	0.05595	0	0	0	-0	0	0	0	0	0	-0	0	546	551.001	324.894	201.642	-0.339169	0.554976	0.0257022	-0.0161239	-0.645926
8	-0.0157978	0.0277829	0.0115949	0.0336678	-0.00889333	0.0315132	0.0244809	-0.0299259	0.00251171	-0.000366408	-0.000584348	-0.00316923	0.0549982	0.000835832	0.0163009	-2.20095	-0.00871868	-1.56756	0	0	0	0	-0	0	0	0	-0.1265	0	-0	0	0	0	0	0	-0	0	0.105	0.015	0	0	-0	0	0	0.098	0.1	0	-0	0	0	0	0	0	-0	0	0.05595	0	0	0	-0	0	0	0	0	0	-0	0	546.098	550.909	324.904	201.643	-0.192931	0.212792	0.0192802	-0.0132964	-0.853493
9	-0.0152788	0.0278526	0.0114827	0.0336884	-0.00887578	0.0314048	0.0244707	-0.0299261	0.00252106	0.00016392	-0.00143543	-0.00372117	0.0548242	0.000802967	0.0165524	-2.20082	-0.00859268	-1.56753	0	0	0	0	-0	0	0	0	-0.1265	0	-0	0	0	0	0	0	-0	0	0.105	0.015	0	0	-0	0	0	0.098	0.1	0	-0	0	0	0	0	0	-0	0	0.05595	0	0	0	-0	0	0	0	0	0	-0	0	546.362	550.64	324.923	201.632	-0.161454	0.163305	0.0185968	-0.0126368	-1.02601
10	-0.0140958	0.0278484	0.0113089	0.033955	-0.00894259	0.0310138	0.0244488	-0.0299182	0.00253364	-0.000628374	-0.002455	-0.000573057	0.0547259	0.000797462	0.0166985	-2.19968	-0.00869008	-1.56762	0	0	0	0	-0	0	0	0	-0.1265	0	-0	0	0	0	0	0	-0	0	0.105	0.015	0	0	-0	0	0	0.098	0.1	0	-0	0	0	0	0	0	-0	0	0.05595	0	0	0	-0	0	0	0	0	0	-0	0	547.056	549.92	324.969	201.596	-0.183992	0.300678	0.0211465	-0.0126261	-1.36774
11	-0.0197836	0.0278052	0.0109383	0.0345236	-0.009083	0.0301579	0.0244009	-0.0298993	0.00255792	-0.00542335	-0.000392294	-0.00249163	0.0546881	0.000794158	0.016508	-2.20535	-0.00896988	-1.56785	0	0	0	0	-0	0	0	0	-0.1265	0	-0	0	0	0	0	0	-0	0	0.105	0.015	0	0	-0	0	0	0.098	0.1	0	-0	0	0	0	0	0	-0	0	0.05595	0	0	0	-0	0	0	0	0	0	-0	0	548.55	548.335	325.13	201.518	-0.243926	0.636715	0.0270541	-0.0127153	-2.13127
12	-0.0336777	0.0277386	0.0104166	0.0353265	-0.0092799	0.0289491	0.0243457	-0.0298907	0.00259187	-0.0109723	-0.00583806	0.0290848	0.0547481	0.000788675	0.0158995	-2.21919	-0.00975221	-1.56853	0	0	0	0	-0	0	0	0	-0.1265	0	-0	0	0	0	0	0	-0	0	0.105	0.015	0	0	-0	0	0	0.098	0.1	0	-0	0	0	0	0	0	-0	0	0.05595	0	0	0	-0	0	0	0	0	0	-0	0	550.577	546.027	325.69	201.418	-0.331997	1.14128	0.0353693	-0.0127793	-3.27867
13	-0.0213295	0.0277245	0.010198	0.0356871	-0.00936648	0.0284187	0.0243064	-0.0298631	0.00260818	-0.0164957	0.00995489	0.0227064	0.0544886	0.000782141	0.0166297	-2.2069	-0.0105537	-1.56944	0	0	0	0	-0	0	0	0	-0.1265	0	-0	0	0	0	0	0	-0	0	0.105	0.015	0	0	-0	0	0	0.098	0.1	0	-0	0	0	0	0	0	-0	0	0.05595	0	0	0	-0	0	0	0	0	0	-0	0	551.415	544.975	326.274	201.444	-0.37218	1.37663	0.0389827	-0.0127439	-3.81049
14	-0.0108436	0.0277208	0.0100559	0.0359071	-0.00942551	0.0280794	0.024283	-0.0298666	0.00261715	-0.0444142	0.0181172	0.015321	0.0542825	0.000778186	0.0172176	-2.19655	-0.01165	-1.57069	0	0	0	0	-0	0	0	0	-0.1265	0	-0	0	0	0	0	0	-0	0	0.105	0.015	0	0	-0	0	0	0.098	0.1	0	-0	0	0	0	0	0	-0	0	0.05595	0	0	0	-0	0	0	0	0	0	-0	0	551.854	544.29	327.129	201.536	-0.39654	1.51782	0.0410969	-0.0126277	-4.1181
15	-0.0133585	0.0277238	0.0100204	0.0359757	-0.00944197	0.02799	0.0242811	-0.0298577	0.00262337	-0.0355717	0.0178074	0.00838531	0.0543222	0.000776414	0.0170767	-2.19913	-0.0120889	-1.57114	0	0	0	0	-0	0	0	0	-0.1265	0	-0	0	0	0	0	0	-0	0	0.105	0.015	0	0	-0	0	0	0.098	0.1	0	-0	0	0	0	0	0	-0	0	0.05595	0	0	0	-0	0	0	0	0	0	-0	0	551.953	544.109	327.483	201.586	-0.403938	1.55991	0.0416435	-0.012584	-4.20369
16	-0.0287585	0.0277274	0.00998779	0.036017	-0.00945601	0.0279179	0.0242775	-0.0298549	0.00262349	-0.0365938	0.00912252	0.0129393	0.0545858	0.000775596	0.0162356	-2.21463	-0.0126929	-1.57157	0	0	0	0	-0	0	0	0	-0.1265	0	-0	0	0	0	0	0	-0	0	0.105	0.015	0	0	-0	0	0	0.098	0.1	0	-0	0	0	0	0	0	-0	0	0.05595	0	0	0	-0	0	0	0	0	0	-0	0	552.006	543.965	327.957	201.659	-0.408876	1.58791	0.042	-0.012498	-4.25725
17	-0.0304615	0.0277318	0.00997175	0.036038	-0.00946357	0.027882	0.0242767	-0.0298581	0.00262529	-0.0501365	0.00185556	0.0169388	0.0546096	0.000774977	0.0161355	-2.21642	-0.0131451	-1.572	0	0	0	0	-0	0	0	0	-0.1265	0	-0	0	0	0	0	0	-0	0	0.105	0.015	0	0	-0	0	0	0.098	0.1	0	-0	0	0	0	0	0	-0	0	0.05595	0	0	0	-0	0	0	0	0	0	-0	0	552.021	543.894	328.306	201.715	-0.411318	1.60073	0.042155	-0.0124326	-4.27744
18	-0.017422	0.0277399	0.00995501	0.0360542	-0.0094707	0.0278512	0.0242749	-0.0298565	0.00262544	-0.0607905	-0.00654941	0.0210853	0.0544024	0.000774202	0.0168416	-2.2035	-0.0137774	-1.57283	0	0	0	0	-0	0	0	0	-0.1265	0	-0	0	0	0	0	0	-0	0	0.105	0.015	0	0	-0	0	0	0.098	0.1	0	-0	0	0	0	0	0	-0	0	0.05595	0	0	0	-0	0	0	0	0	0	-0	0	552.01	543.83	328.819	201.799	-0.412519	1.60586	0.0422276	-0.0123228	-4.27789
19	-0.0151585	0.0277468	0.00994593	0.0360631	-0.00947586	0.0278354	0.0242746	-0.0298574	0.0026263	-0.0565179	-0.00658329	0.00514323	0.0543644	0.000773781	0.0169567	-2.20132	-0.0142433	-1.57336	0	0	0	0	-0	0	0	0	-0.1265	0	-0	0	0	0	0	0	-0	0	0.105	0.015	0	0	-0	0	0	0.098	0.1	0	-0	0	0	0	0	0	-0	0	0.05595	0	0	0	-0	0	0	0	0	0	-0	0	551.996	543.805	329.197	201.861	-0.413404	1.60902	0.0422416	-0.0122463	-4.27475
20	-0.0021373	0.0277662	0.00993039	0.0360678	-0.00948432	0.0278176	0.0242748	-0.0298559	0.00262707	-0.0514633	0.00776503	0.014498	0.0541482	0.000772473	0.0176576	-2.18851	-0.0152344	-1.57464	0	0	0	0	-0	0	0	0	-0.1265	0	-0	0	0	0	0	0	-0	0	0.105	0.015	0	0	-0	0	0	0.098	0.1	0	-0	0	0	0	0	0	-0	0	0.05595	0	0	0	-0	0	0	0	0	0	-0	0	551.951	543.782	330.023	201.999	-0.412424	1.59969	0.0421429	-0.0120531	-4.23594
21	0.00258108	0.027797	0.00990957	0.036073	-0.00949745	0.0278004	0.0242778	-0.0298588	0.00262735	-0.0617809	-0.0120071	0.00474248	0.0540668	0.000770812	0.0179031	-2.18409	-0.016666	-1.57629	0	0	0	0	-0	0	0	0	-0.1265	0	-0	0	0	0	0	0	-0	0	0.105	0.015	0	0	-0	0	0	0.098	0.1	0	-0	0	0	0	0	0	-0	0	0.05595	0	0	0	-0	0	0	0	0	0	-0	0	551.904	543.793	331.205	202.194	-0.411083	1.5859	0.0419611	-0.0117736	-4.17676
22	-0.000814975	0.027807	0.00989755	0.0360847	-0.00950544	0.0277895	0.0242707	-0.0298549	0.00262874	-0.0544854	-0.0249776	-0.00737208	0.0541375	0.00077106	0.0177057	-2.18761	-0.0173893	-1.577	0	0	0	0	-0	0	0	0	-0.1265	0	-0	0	0	0	0	0	-0	0	0.105	0.015	0	0	-0	0	0	0.098	0.1	0	-0	0	0	0	0	0	-0	0	0.05595	0	0	0	-0	0	0	0	0	0	-0	0	551.893	543.809	331.777	202.285	-0.413185	1.59504	0.0419152	-0.0116616	-4.17764
23	-4.88879e-06	0.0278111	0.0098914	0.0360942	-0.00951018	0.0277831	0.0242684	-0.0298555	0.00262584	-0.066356	-0.0281841	-0.00541923	0.0541285	0.000771228	0.0177422	-2.18685	-0.0176743	-1.57732	0	0	0	0	-0	0	0	0	-0.1265	0	-0	0	0	0	0	0	-0	0	0.105	0.015	0	0	-0	0	0	0.098	0.1	0	-0	0	0	0	0	0	-0	0	0.05595	0	0	0	-0	0	0	0	0	0	-0	0	551.89	543.817	332.01	202.323	-0.414551	1.60139	0.0419093	-0.0116244	-4.18276
24	0.00406859	0.0278386	0.00987274	0.036098	-0.00952132	0.0277745	0.0242651	-0.0298556	0.0026288	-0.0440576	-0.046612	-0.0106581	0.0540577	0.000769779	0.0179605	-2.18304	-0.0187894	-1.57863	0	0	0	0	-0	0	0	0	-0.1265	0	-0	0	0	0	0	0	-0	0	0.105	0.015	0	0	-0	0	0	0.098	0.1	0	-0	0	0	0	0	0	-0	0	0.05595	0	0	0	-0	0	0	0	0	0	-0	0	551.884	543.866	332.938	202.486	-0.413555	1.59361	0.0417323	-0.0113882	-4.14605
25	-0.0162277	0.0278539	0.00985772	0.0361121	-0.00953152	0.027766	0.0242696	-0.0298581	0.00263045	-0.0340002	-0.0552309	-0.028974	0.0544291	0.000769686	0.0168539	-2.2035	-0.0197329	-1.5791	0	0	0	0	-0	0	0	0	-0.1265	0	-0	0	0	0	0	0	-0	0	0.105	0.015	0	0	-0	0	0	0.098	0.1	0	-0	0	0	0	0	0	-0	0	0.05595	0	0	0	-0	0	0	0	0	0	-0	0	551.891	543.912	333.572	202.595	-0.415115	1.59977	0.041652	-0.0112522	-4.14014
26	-0.0326078	0.0278655	0.009846	0.0361192	-0.00953855	0.0277594	0.0242679	-0.0298536	0.0026246	-0.0336967	-0.0431316	-0.0372669	0.0546984	0.000769671	0.0159523	-2.22001	-0.0204681	-1.57937	0	0	0	0	-0	0	0	0	-0.1265	0	-0	0	0	0	0	0	-0	0	0.105	0.015	0	0	-0	0	0	0.098	0.1	0	-0	0	0	0	0	0	-0	0	0.05595	0	0	0	-0	0	0	0	0	0	-0	0	551.9	543.947	334.038	202.678	-0.416274	1.60497	0.0415934	-0.0111476	-4.13811
27	-0.0233919	0.027874	0.0098391	0.0361224	-0.0095436	0.027755	0.0242668	-0.029854	0.00262702	-0.0337658	-0.0344388	-0.0279394	0.0545476	0.000769591	0.0164493	-2.21089	-0.0208331	-1.58001	0	0	0	0	-0	0	0	0	-0.1265	0	-0	0	0	0	0	0	-0	0	0.105	0.015	0	0	-0	0	0	0.098	0.1	0	-0	0	0	0	0	0	-0	0	0.05595	0	0	0	-0	0	0	0	0	0	-0	0	551.909	543.976	334.383	202.741	-0.417178	1.60891	0.0415456	-0.0110712	-4.13638
28	-0.0231653	0.0278767	0.00983479	0.0361282	-0.00954644	0.0277525	0.024267	-0.0298546	0.00262635	-0.0410875	-0.0443484	-0.0322256	0.0545442	0.000769799	0.0164573	-2.2107	-0.0210084	-1.5802	0	0	0	0	-0	0	0	0	-0.1265	0	-0	0	0	0	0	0	-0	0	0.105	0.015	0	0	-0	0	0	0.098	0.1	0	-0	0	0	0	0	0	-0	0	0.05595	0	0	0	-0	0	0	0	0	0	-0	0	551.915	543.991	334.524	202.767	-0.418001	1.61265	0.0415372	-0.011047	-4.13901
29	-0.0292557	0.0278852	0.00982749	0.0361317	-0.00955085	0.0277499	0.024265	-0.029852	0.00262613	-0.0326125	-0.0587085	-0.0320736	0.0546456	0.000769595	0.0161235	-2.21688	-0.0214296	-1.58044	0	0	0	0	-0	0	0	0	-0.1265	0	-0	0	0	0	0	0	-0	0	0.105	0.015	0	0	-0	0	0	0.098	0.1	0	-0	0	0	0	0	0	-0	0	0.05595	0	0	0	-0	0	0	0	0	0	-0	0	551.926	544.021	334.81	202.822	-0.418403	1.61483	0.0414877	-0.0109762	-4.13704
30	-0.0230284	0.0279137	0.00980805	0.0361385	-0.00956345	0.0277452	0.0242632	-0.0298526	0.00262519	-0.0463748	-0.0439394	-0.0348685	0.0545437	0.000768561	0.0164641	-2.21093	-0.0224272	-1.58166	0	0	0	0	-0	0	0	0	-0.1265	0	-0	0	0	0	0	0	-0	0	0.105	0.015	0	0	-0	0	0	0.098	0.1	0	-0	0	0	0	0	0	-0	0	0.05595	0	0	0	-0	0	0	0	0	0	-0	0	551.956	544.108	335.641	202.988	-0.417961	1.61025	0.0413238	-0.0107615	-4.10843
31	-0.0275091	0.0279165	0.00980216	0.036148	-0.00956767	0.0277403	0.0242635	-0.0298526	0.00262623	-0.0495782	-0.0478558	-0.0311584	0.054622	0.000769059	0.0162118	-2.21547	-0.0227587	-1.58185	0	0	0	0	-0	0	0	0	-0.1265	0	-0	0	0	0	0	0	-0	0	0.105	0.015	0	0	-0	0	0	0.098	0.1	0	-0	0	0	0	0	0	-0	0	0.05595	0	0	0	-0	0	0	0	0	0	-0	0	551.969	544.132	335.864	203.03	-0.419724	1.6181	0.0413232	-0.0107281	-4.11501
32	-0.0293952	0.0279254	0.00979301	0.036154	-0.00957316	0.0277364	0.0242637	-0.029854	0.00262531	-0.0443575	-0.0505075	-0.02057	0.0546538	0.000769006	0.016106	-2.21745	-0.0231678	-1.5822	0	0	0	0	-0	0	0	0	-0.1265	0	-0	0	0	0	0	0	-0	0	0.105	0.015	0	0	-0	0	0	0.098	0.1	0	-0	0	0	0	0	0	-0	0	0.05595	0	0	0	-0	0	0	0	0	0	-0	0	551.988	544.169	336.167	203.092	-0.420592	1.62289	0.0412812	-0.0106566	-4.1177
33	-0.0275746	0.0279397	0.00978111	0.0361606	-0.00958044	0.0277327	0.024262	-0.0298563	0.00262467	-0.0607424	-0.0472328	-0.0286765	0.0546254	0.000768731	0.016204	-2.21578	-0.0237172	-1.58282	0	0	0	0	-0	0	0	0	-0.1265	0	-0	0	0	0	0	0	-0	0	0.105	0.015	0	0	-0	0	0	0.098	0.1	0	-0	0	0	0	0	0	-0	0	0.05595	0	0	0	-0	0	0	0	0	0	-0	0	552.015	544.224	336.612	203.186	-0.421193	1.62556	0.0412076	-0.0105457	-4.11252
34	-0.0333611	0.0279557	0.00976736	0.03617	-0.00958883	0.0277286	0.0242625	-0.0298536	0.00262577	-0.0658976	-0.044902	-0.0388081	0.0547205	0.00076847	0.0158858	-2.22175	-0.0244413	-1.58335	0	0	0	0	-0	0	0	0	-0.1265	0	-0	0	0	0	0	0	-0	0	0.105	0.015	0	0	-0	0	0	0.098	0.1	0	-0	0	0	0	0	0	-0	0	0.05595	0	0	0	-0	0	0	0	0	0	-0	0	552.047	544.289	337.123	203.295	-0.421932	1.62842	0.0411268	-0.0104208	-4.10549
35	-0.0254849	0.0279602	0.00976119	0.0361764	-0.00959334	0.0277248	0.0242609	-0.0298522	0.00262647	-0.0725988	-0.0417899	-0.0423795	0.0545984	0.000768825	0.0163112	-2.21394	-0.0246101	-1.58381	0	0	0	0	-0	0	0	0	-0.1265	0	-0	0	0	0	0	0	-0	0	0.105	0.015	0	0	-0	0	0	0.098	0.1	0	-0	0	0	0	0	0	-0	0	0.05595	0	0	0	-0	0	0	0	0	0	-0	0	552.063	544.319	337.329	203.34	-0.423302	1.63493	0.0411141	-0.010385	-4.1115
36	-0.0212481	0.0279651	0.0097557	0.0361813	-0.00959688	0.0277223	0.0242609	-0.029853	0.00262638	-0.0808944	-0.0407088	-0.0483941	0.0545295	0.000768893	0.0165396	-2.20976	-0.0247731	-1.58414	0	0	0	0	-0	0	0	0	-0.1265	0	-0	0	0	0	0	0	-0	0	0.105	0.015	0	0	-0	0	0	0.098	0.1	0	-0	0	0	0	0	0	-0	0	0.05595	0	0	0	-0	0	0	0	0	0	-0	0	552.077	544.344	337.501	203.378	-0.424094	1.63919	0.0410939	-0.0103485	-4.11569
37	-0.0164961	0.0279734	0.00974828	0.036186	-0.00960142	0.0277203	0.0242616	-0.029853	0.0026273	-0.0879526	-0.0469236	-0.0442104	0.0544513	0.000768819	0.0167973	-2.20511	-0.0250324	-1.58459	0	0	0	0	-0	0	0	0	-0.1265	0	-0	0	0	0	0	0	-0	0	0.105	0.015	0	0	-0	0	0	0.098	0.1	0	-0	0	0	0	0	0	-0	0	0.05595	0	0	0	-0	0	0	0	0	0	-0	0	552.097	544.381	337.756	203.437	-0.424659	1.64218	0.0410527	-0.0102865	-4.11587
38	-0.0168827	0.0279757	0.00974492	0.0361896	-0.0096036	0.0277183	0.0242605	-0.0298517	0.00262757	-0.0891082	-0.0435662	-0.0397086	0.054459	0.000768999	0.0167737	-2.20553	-0.0251691	-1.58472	0	0	0	0	-0	0	0	0	-0.1265	0	-0	0	0	0	0	0	-0	0	0.105	0.015	0	0	-0	0	0	0.098	0.1	0	-0	0	0	0	0	0	-0	0	0.05595	0	0	0	-0	0	0	0	0	0	-0	0	552.106	544.396	337.859	203.461	-0.425306	1.64517	0.0410476	-0.0102679	-4.11834
39	-0.0127679	0.0279804	0.00974037	0.0361929	-0.00960648	0.0277163	0.0242604	-0.0298522	0.00262711	-0.0851848	-0.0430766	-0.0333712	0.0543906	0.000768971	0.0169969	-2.20147	-0.0252909	-1.58501	0	0	0	0	-0	0	0	0	-0.1265	0	-0	0	0	0	0	0	-0	0	0.105	0.015	0	0	-0	0	0	0.098	0.1	0	-0	0	0	0	0	0	-0	0	0.05595	0	0	0	-0	0	0	0	0	0	-0	0	552.118	544.417	338.001	203.494	-0.425746	1.64752	0.0410293	-0.0102349	-4.11978
40	-0.0179611	0.0279874	0.00973416	0.0361969	-0.00961027	0.0277145	0.0242606	-0.0298521	0.00262745	-0.0896653	-0.0494264	-0.0304653	0.054479	0.000768893	0.0167135	-2.20675	-0.02563	-1.58515	0	0	0	0	-0	0	0	0	-0.1265	0	-0	0	0	0	0	0	-0	0	0.105	0.015	0	0	-0	0	0	0.098	0.1	0	-0	0	0	0	0	0	-0	0	0.05595	0	0	0	-0	0	0	0	0	0	-0	0	552.137	544.449	338.211	203.544	-0.426205	1.64994	0.0409965	-0.0101831	-4.11988
41	-0.00219307	0.0280223	0.00970935	0.0362068	-0.00962518	0.0277099	0.0242645	-0.0298562	0.00263312	-0.0841874	-0.0636347	-0.0497176	0.0542116	0.000767892	0.0175763	-2.19137	-0.0265429	-1.58675	0	0	0	0	-0	0	0	0	-0.1265	0	-0	0	0	0	0	0	-0	0	0.105	0.015	0	0	-0	0	0	0.098	0.1	0	-0	0	0	0	0	0	-0	0	0.05595	0	0	0	-0	0	0	0	0	0	-0	0	552.206	544.579	339.118	203.771	-0.425836	1.64614	0.0408254	-0.00993966	-4.0929
42	0.00411861	0.028021	0.00970444	0.0362173	-0.00962821	0.0277052	0.0242588	-0.0298516	0.0026277	-0.0889391	-0.0652097	-0.0546845	0.0541003	0.00076881	0.0179079	-2.18509	-0.026588	-1.58709	0	0	0	0	-0	0	0	0	-0.1265	0	-0	0	0	0	0	0	-0	0	0.105	0.015	0	0	-0	0	0	0.098	0.1	0	-0	0	0	0	0	0	-0	0	0.05595	0	0	0	-0	0	0	0	0	0	-0	0	552.218	544.597	339.24	203.8	-0.427855	1.65489	0.0408517	-0.00993835	-4.10253
43	0.00649931	0.0280257	0.00969963	0.036221	-0.00963164	0.0277026	0.0242597	-0.0298507	0.00262834	-0.0879785	-0.07704	-0.0556009	0.0540589	0.00076882	0.0180337	-2.18277	-0.0267551	-1.58738	0	0	0	0	-0	0	0	0	-0.1265	0	-0	0	0	0	0	0	-0	0	0.105	0.015	0	0	-0	0	0	0.098	0.1	0	-0	0	0	0	0	0	-0	0	0.05595	0	0	0	-0	0	0	0	0	0	-0	0	552.235	544.625	339.406	203.841	-0.428829	1.66077	0.0408305	-0.00990258	-4.11078
44	0.00573335	0.0280311	0.00969337	0.0362258	-0.00963551	0.0276997	0.0242602	-0.0298548	0.00262922	-0.0993587	-0.0815833	-0.0439379	0.0540743	0.000768932	0.0179899	-2.18361	-0.0269917	-1.5876	0	0	0	0	-0	0	0	0	-0.1265	0	-0	0	0	0	0	0	-0	0	0.105	0.015	0	0	-0	0	0	0.098	0.1	0	-0	0	0	0	0	0	-0	0	0.05595	0	0	0	-0	0	0	0	0	0	-0	0	552.254	544.655	339.587	203.888	-0.42972	1.66582	0.0408103	-0.00986314	-4.11677
45	0.0118993	0.028035	0.00968857	0.0362306	-0.00963809	0.0276986	0.024259	-0.0298534	0.00262824	-0.10993	-0.0877452	-0.0479268	0.0539646	0.000769054	0.0183217	-2.1775	-0.0270545	-1.58795	0	0	0	0	-0	0	0	0	-0.1265	0	-0	0	0	0	0	0	-0	0	0.105	0.015	0	0	-0	0	0	0.098	0.1	0	-0	0	0	0	0	0	-0	0	0.05595	0	0	0	-0	0	0	0	0	0	-0	0	552.269	544.68	339.721	203.923	-0.43038	1.66944	0.0407946	-0.00983373	-4.12065
46	0.0119649	0.0280462	0.00967935	0.0362361	-0.00964382	0.027696	0.024259	-0.0298526	0.00262879	-0.105947	-0.0823354	-0.0378779	0.0539625	0.000768887	0.0183248	-2.17757	-0.0274195	-1.58835	0	0	0	0	-0	0	0	0	-0.1265	0	-0	0	0	0	0	0	-0	0	0.105	0.015	0	0	-0	0	0	0.098	0.1	0	-0	0	0	0	0	0	-0	0	0.05595	0	0	0	-0	0	0	0	0	0	-0	0	552.3	544.731	340.018	204.003	-0.430913	1.67227	0.0407473	-0.00975849	-4.12008
47	0.000613816	0.0280624	0.00966569	0.0362452	-0.00965258	0.0276924	0.0242578	-0.0298526	0.00262952	-0.114449	-0.0838889	-0.0281747	0.0541711	0.0007688	0.0177115	-2.18913	-0.0281579	-1.58862	0	0	0	0	-0	0	0	0	-0.1265	0	-0	0	0	0	0	0	-0	0	0.105	0.015	0	0	-0	0	0	0.098	0.1	0	-0	0	0	0	0	0	-0	0	0.05595	0	0	0	-0	0	0	0	0	0	-0	0	552.348	544.809	340.453	204.123	-0.431837	1.67667	0.0406814	-0.00965259	-4.11885
48	-0.0100451	0.0280681	0.00965838	0.0362531	-0.00965726	0.0276888	0.0242563	-0.0298501	0.00262927	-0.111081	-0.0890507	-0.0310358	0.0543595	0.000769095	0.017129	-2.19989	-0.0286209	-1.5886	0	0	0	0	-0	0	0	0	-0.1265	0	-0	0	0	0	0	0	-0	0	0.105	0.015	0	0	-0	0	0	0.098	0.1	0	-0	0	0	0	0	0	-0	0	0.05595	0	0	0	-0	0	0	0	0	0	-0	0	552.372	544.848	340.667	204.183	-0.433113	1.68282	0.0406667	-0.00961253	-4.12458
49	-0.00237004	0.0280866	0.00964342	0.0362619	-0.00966658	0.0276849	0.0242564	-0.0298626	0.00263293	-0.139824	-0.0895783	-0.0214422	0.0542248	0.000768872	0.0175454	-2.19244	-0.029079	-1.58945	0	0	0	0	-0	0	0	0	-0.1265	0	-0	0	0	0	0	0	-0	0	0.105	0.015	0	0	-0	0	0	0.098	0.1	0	-0	0	0	0	0	0	-0	0	0.05595	0	0	0	-0	0	0	0	0	0	-0	0	552.425	544.933	341.138	204.32	-0.433874	1.68652	0.0405928	-0.00949393	-4.12199
50	-0.010426	0.0280917	0.00963404	0.0362748	-0.00967092	0.0276822	0.0242566	-0.0298516	0.00262957	-0.147469	-0.0946871	-0.0273147	0.0543678	0.000769292	0.0171037	-2.20061	-0.0295201	-1.58952	0	0	0	0	-0	0	0	0	-0.1265	0	-0	0	0	0	0	0	-0	0	0.105	0.015	0	0	-0	0	0	0.098	0.1	0	-0	0	0	0	0	0	-0	0	0.05595	0	0	0	-0	0	0	0	0	0	-0	0	552.453	544.977	341.37	204.387	-0.435386	1.69441	0.040578	-0.00944935	-4.13115
