Stefan210/kinematic_calibration/src/kinematic_calibration/validation/experiments/experiments/anzahl_messungen/BC_A/larm_19/optimization_intermediate_results.csv
iteration	HeadPitch_offset	HeadYaw_offset	LElbowRoll_offset	LElbowYaw_offset	LShoulderPitch_offset	LShoulderRoll_offset	marker_transform_larm_tx	marker_transform_larm_ty	marker_transform_larm_tz	marker_transform_larm_rr	marker_transform_larm_rp	marker_transform_larm_ry	camera_transform_tx	camera_transform_ty	camera_transform_tz	camera_transform_rr	camera_transform_rp	camera_transform_ry	HeadPitch_transform_tx	HeadPitch_transform_ty	HeadPitch_transform_tz	HeadPitch_transform_rr	HeadPitch_transform_rp	HeadPitch_transform_ry	HeadYaw_transform_tx	HeadYaw_transform_ty	HeadYaw_transform_tz	HeadYaw_transform_rr	HeadYaw_transform_rp	HeadYaw_transform_ry	LElbowRoll_transform_tx	LElbowRoll_transform_ty	LElbowRoll_transform_tz	LElbowRoll_transform_rr	LElbowRoll_transform_rp	LElbowRoll_transform_ry	LElbowYaw_transform_tx	LElbowYaw_transform_ty	LElbowYaw_transform_tz	LElbowYaw_transform_rr	LElbowYaw_transform_rp	LElbowYaw_transform_ry	LShoulderPitch_transform_tx	LShoulderPitch_transform_ty	LShoulderPitch_transform_tz	LShoulderPitch_transform_rr	LShoulderPitch_transform_rp	LShoulderPitch_transform_ry	LShoulderRoll_transform_tx	LShoulderRoll_transform_ty	LShoulderRoll_transform_tz	LShoulderRoll_transform_rr	LShoulderRoll_transform_rp	LShoulderRoll_transform_ry	LWristYaw_transform_tx	LWristYaw_transform_ty	LWristYaw_transform_tz	LWristYaw_transform_rr	LWristYaw_transform_rp	LWristYaw_transform_ry	l_wrist_joint_transform_tx	l_wrist_joint_transform_ty	l_wrist_joint_transform_tz	l_wrist_joint_transform_rr	l_wrist_joint_transform_rp	l_wrist_joint_transform_ry	camera_fx	camera_fy	camera_cx	camera_cy	camera_D0	camera_D1	camera_D2	camera_D3	camera_D4	
0	0.0249164	-0.0307543	0.000853157	4.65819e-06	-0.000318322	-0.00310766	0.05071	0	0.01774	-2.26369	1.66533e-16	-1.5708	545.901	551.038	324.928	201.58	0.0255298	2.61142	-0.0636736	-0.0350419	0.213964
1	-0.0120132	0.0679924	0.0635914	-0.0435224	-0.02157	-0.011923	0.0240851	-0.028126	-0.00173913	0.000312961	-6.29925e-05	-0.00294929	0.0552179	-0.00726637	0.0262844	-2.21692	-0.00852112	-1.59985	0	0	0	0	-0	0	0	0	-0.1265	0	-0	0	0	0	0	0	-0	0	0.105	0.015	0	0	-0	0	0	0.098	0.1	0	-0	0	0	0	0	0	-0	0	0.05595	0	0	0	-0	0	0	0	0	0	-0	0	545.902	551.038	324.927	201.582	-0.0341267	2.57195	-0.0951921	0.0510244	0.20134
2	-0.00785015	0.102003	0.0546215	-0.0024238	-0.052925	0.0210671	0.0250995	-0.0287245	0.000221381	8.70738e-05	-0.000256866	-0.00289355	0.0510537	-0.00850113	0.0367689	-2.23598	-0.0201446	-1.60396	0	0	0	0	-0	0	0	0	-0.1265	0	-0	0	0	0	0	0	-0	0	0.105	0.015	0	0	-0	0	0	0.098	0.1	0	-0	0	0	0	0	0	-0	0	0.05595	0	0	0	-0	0	0	0	0	0	-0	0	545.905	551.038	324.921	201.586	-0.129559	2.4474	0.0306593	-0.0119668	0.149611
3	-0.0109089	0.0925334	0.0578777	-0.0275428	-0.0440256	0.0168396	0.024509	-0.0283977	-0.00129919	0.000258673	-0.000105819	-0.00292857	0.0544906	-0.00625626	0.0311913	-2.222	-0.0223988	-1.61859	0	0	0	0	-0	0	0	0	-0.1265	0	-0	0	0	0	0	0	-0	0	0.105	0.015	0	0	-0	0	0	0.098	0.1	0	-0	0	0	0	0	0	-0	0	0.05595	0	0	0	-0	0	0	0	0	0	-0	0	545.907	551.038	324.919	201.588	-0.194331	2.40001	-0.0265368	0.0397588	0.133615
4	-0.00995156	0.0946311	0.052275	-0.0142032	-0.0453291	0.0189058	0.0247741	-0.0284647	-0.000471986	0.000164399	-0.000189893	-0.00290576	0.0533455	-0.0070129	0.0320775	-2.22627	-0.0202764	-1.60734	0	0	0	0	-0	0	0	0	-0.1265	0	-0	0	0	0	0	0	-0	0	0.105	0.015	0	0	-0	0	0	0.098	0.1	0	-0	0	0	0	0	0	-0	0	0.05595	0	0	0	-0	0	0	0	0	0	-0	0	545.91	551.038	324.914	201.592	-0.316524	2.26967	0.0228879	-0.00359329	0.081722
5	-0.0131427	0.0728026	0.0476324	-0.0284745	-0.0306176	0.0153272	0.0243892	-0.0283761	-0.00130788	0.000260636	-0.0001098	-0.0029376	0.0567089	-0.00440122	0.0239569	-2.21142	-0.0181621	-1.60419	0	0	0	0	-0	0	0	0	-0.1265	0	-0	0	0	0	0	0	-0	0	0.105	0.015	0	0	-0	0	0	0.098	0.1	0	-0	0	0	0	0	0	-0	0	0.05595	0	0	0	-0	0	0	0	0	0	-0	0	545.914	551.037	324.909	201.596	-0.474777	2.11931	-0.0107444	0.0181082	0.0241911
6	-0.0129775	0.0677426	0.0358185	-0.00903504	-0.0284301	0.0203746	0.0246248	-0.0285848	-9.74627e-05	0.000123059	-0.000229301	-0.00293284	0.0561829	-0.0037762	0.0225528	-2.21188	-0.0158247	-1.59101	0	0	0	0	-0	0	0	0	-0.1265	0	-0	0	0	0	0	0	-0	0	0.105	0.015	0	0	-0	0	0	0.098	0.1	0	-0	0	0	0	0	0	-0	0	0.05595	0	0	0	-0	0	0	0	0	0	-0	0	545.92	551.036	324.902	201.602	-0.62981	1.89494	0.037906	-0.0196443	-0.0776522
7	-0.015855	0.0440231	0.0231179	-0.0086923	-0.0138669	0.0215627	0.0243716	-0.0287068	1.61187e-05	0.000108187	-0.00024297	-0.00297064	0.0582215	-0.000774791	0.015264	-2.19858	-0.0126172	-1.57999	0	0	0	0	-0	0	0	0	-0.1265	0	-0	0	0	0	0	0	-0	0	0.105	0.015	0	0	-0	0	0	0.098	0.1	0	-0	0	0	0	0	0	-0	0	0.05595	0	0	0	-0	0	0	0	0	0	-0	0	545.929	551.033	324.896	201.608	-0.743984	1.6061	0.0287763	-0.0160622	-0.217743
8	-0.0160228	0.034374	0.0100545	0.0130156	-0.0104289	0.0308319	0.0244937	-0.0292089	0.00140741	-5.93868e-05	-0.000375034	-0.00300897	0.0568733	0.000780166	0.0150213	-2.19793	-0.0109904	-1.57038	0	0	0	0	-0	0	0	0	-0.1265	0	-0	0	0	0	0	0	-0	0	0.105	0.015	0	0	-0	0	0	0.098	0.1	0	-0	0	0	0	0	0	-0	0	0.05595	0	0	0	-0	0	0	0	0	0	-0	0	545.944	551.026	324.89	201.615	-0.600101	1.24518	0.0348525	-0.0237117	-0.445726
9	-0.0159398	0.0279704	0.00416335	0.0239383	-0.00820539	0.0379042	0.0245647	-0.0296512	0.00209208	-0.000128547	-0.000437958	-0.00305229	0.0552987	0.00174737	0.0161937	-2.19859	-0.0101513	-1.56759	0	0	0	0	-0	0	0	0	-0.1265	0	-0	0	0	0	0	0	-0	0	0.105	0.015	0	0	-0	0	0	0.098	0.1	0	-0	0	0	0	0	0	-0	0	0.05595	0	0	0	-0	0	0	0	0	0	-0	0	545.968	551.011	324.888	201.618	-0.291402	0.808542	0.0145037	-0.0140368	-0.744198
10	-0.0153571	0.0266647	0.00173684	0.0320145	-0.00854027	0.0431335	0.0246832	-0.0299563	0.00257702	-0.000172662	-0.000519441	-0.00304487	0.0538691	0.00198093	0.0180902	-2.20116	-0.00990333	-1.567	0	0	0	0	-0	0	0	0	-0.1265	0	-0	0	0	0	0	0	-0	0	0.105	0.015	0	0	-0	0	0	0.098	0.1	0	-0	0	0	0	0	0	-0	0	0.05595	0	0	0	-0	0	0	0	0	0	-0	0	546.008	550.98	324.887	201.616	-0.0161585	0.432711	-0.000480281	-0.00652892	-1.01099
11	-0.0150248	0.0270621	0.00117318	0.0354422	-0.00935591	0.0453351	0.0247503	-0.0300811	0.00277504	-0.000176422	-0.000436507	-0.00321259	0.0531604	0.00195754	0.0192193	-2.20293	-0.0099689	-1.56714	0	0	0	0	-0	0	0	0	-0.1265	0	-0	0	0	0	0	0	-0	0	0.105	0.015	0	0	-0	0	0	0.098	0.1	0	-0	0	0	0	0	0	-0	0	0.05595	0	0	0	-0	0	0	0	0	0	-0	0	546.099	550.906	324.883	201.607	0.121223	0.22152	-0.00591139	-0.00346624	-1.15803
12	-0.0148213	0.0274201	0.0011182	0.0364156	-0.00977055	0.045876	0.0247704	-0.0301109	0.00282972	-0.00069013	-0.000440239	-0.00295088	0.0529448	0.00191061	0.0195939	-2.20339	-0.00994195	-1.56714	0	0	0	0	-0	0	0	0	-0.1265	0	-0	0	0	0	0	0	-0	0	0.105	0.015	0	0	-0	0	0	0.098	0.1	0	-0	0	0	0	0	0	-0	0	0.05595	0	0	0	-0	0	0	0	0	0	-0	0	546.355	550.698	324.867	201.591	0.15225	0.162351	-0.00581897	-0.00313358	-1.19424
13	-0.0139377	0.027826	0.00129444	0.0366653	-0.0100727	0.0458904	0.0247766	-0.0301114	0.00284127	-0.000425854	0.000379495	-0.00224545	0.0528473	0.00182751	0.0197923	-2.20263	-0.00972655	-1.56698	0	0	0	0	-0	0	0	0	-0.1265	0	-0	0	0	0	0	0	-0	0	0.105	0.015	0	0	-0	0	0	0.098	0.1	0	-0	0	0	0	0	0	-0	0	0.05595	0	0	0	-0	0	0	0	0	0	-0	0	547.067	550.116	324.83	201.559	0.13894	0.175083	-0.00267302	-0.00382905	-1.20628
14	-0.0124569	0.0286189	0.00171916	0.0369634	-0.0106028	0.0457354	0.024784	-0.0301023	0.00285259	-0.00378766	-0.000755504	-0.00262112	0.0527261	0.00164658	0.02007	-2.2012	-0.0092551	-1.56657	0	0	0	0	-0	0	0	0	-0.1265	0	-0	0	0	0	0	0	-0	0	0.105	0.015	0	0	-0	0	0	0.098	0.1	0	-0	0	0	0	0	0	-0	0	0.05595	0	0	0	-0	0	0	0	0	0	-0	0	548.827	548.651	324.791	201.53	0.0829021	0.296716	0.0053401	-0.00551904	-1.34004
15	-0.0146344	0.0297936	0.00236863	0.0374874	-0.0113658	0.0453646	0.0247937	-0.0300809	0.00287506	-0.00415278	-0.0138893	0.000290463	0.0527158	0.00134943	0.0201421	-2.20362	-0.00874818	-1.56594	0	0	0	0	-0	0	0	0	-0.1265	0	-0	0	0	0	0	0	-0	0	0.105	0.015	0	0	-0	0	0	0.098	0.1	0	-0	0	0	0	0	0	-0	0	0.05595	0	0	0	-0	0	0	0	0	0	-0	0	552.088	545.759	324.992	201.769	-0.0503584	0.674168	0.0207243	-0.0083383	-1.82797
16	-0.00478799	0.0308036	0.00297359	0.0380946	-0.0119837	0.0447886	0.0248162	-0.0300634	0.00292603	0.00111646	-0.051744	-0.0256375	0.0525941	0.00106022	0.0206506	-2.19573	-0.00966336	-1.56644	0	0	0	0	-0	0	0	0	-0.1265	0	-0	0	0	0	0	0	-0	0	0.105	0.015	0	0	-0	0	0	0.098	0.1	0	-0	0	0	0	0	0	-0	0	0.05595	0	0	0	-0	0	0	0	0	0	-0	0	555.408	541.997	326.228	203.256	-0.217864	1.19525	0.0387389	-0.0107889	-2.53577
17	-0.0308419	0.0310765	0.00318064	0.0383449	-0.0121454	0.0443172	0.0247838	-0.0300422	0.00292636	-0.0264545	-0.0304441	-0.0236122	0.0533005	0.000983072	0.0190577	-2.22497	-0.0120917	-1.56816	0	0	0	0	-0	0	0	0	-0.1265	0	-0	0	0	0	0	0	-0	0	0.105	0.015	0	0	-0	0	0	0.098	0.1	0	-0	0	0	0	0	0	-0	0	0.05595	0	0	0	-0	0	0	0	0	0	-0	0	556.184	539.698	328.222	205.516	-0.291143	1.4221	0.0470561	-0.0110848	-2.84001
18	-0.0179096	0.031114	0.00321411	0.0384408	-0.0121879	0.0441599	0.0247818	-0.0300378	0.00292892	0.0055712	-0.0639866	-0.0190678	0.0531072	0.000984912	0.0196224	-2.21359	-0.0135818	-1.56943	0	0	0	0	-0	0	0	0	-0.1265	0	-0	0	0	0	0	0	-0	0	0.105	0.015	0	0	-0	0	0	0.098	0.1	0	-0	0	0	0	0	0	-0	0	0.05595	0	0	0	-0	0	0	0	0	0	-0	0	556.07	538.957	329.215	206.577	-0.303267	1.45147	0.0489561	-0.0108716	-2.87285
19	-0.00951458	0.0310589	0.003238	0.0384628	-0.0121793	0.0439612	0.024786	-0.030052	0.00293636	-0.0257004	-0.0771005	-0.0172427	0.0530425	0.00100947	0.0199148	-2.2073	-0.0156996	-1.57133	0	0	0	0	-0	0	0	0	-0.1265	0	-0	0	0	0	0	0	-0	0	0.105	0.015	0	0	-0	0	0	0.098	0.1	0	-0	0	0	0	0	0	-0	0	0.05595	0	0	0	-0	0	0	0	0	0	-0	0	555.606	538.152	330.666	208	-0.305902	1.44537	0.050178	-0.0101635	-2.84747
20	-0.0179934	0.0310236	0.0032441	0.0385017	-0.0121878	0.0438422	0.0247817	-0.0300383	0.00294449	-0.0326955	-0.0635514	0.00495395	0.0532781	0.00103148	0.0193691	-2.21726	-0.0172964	-1.57258	0	0	0	0	-0	0	0	0	-0.1265	0	-0	0	0	0	0	0	-0	0	0.105	0.015	0	0	-0	0	0	0.098	0.1	0	-0	0	0	0	0	0	-0	0	0.05595	0	0	0	-0	0	0	0	0	0	-0	0	555.197	537.63	331.748	208.977	-0.302595	1.42156	0.0507062	-0.00955961	-2.80111
21	-0.0196164	0.0309459	0.00324928	0.0384895	-0.0121801	0.0436542	0.0247657	-0.0300341	0.00293789	-0.00545372	-0.0785717	0.00660727	0.0534045	0.00106789	0.019136	-2.22077	-0.0196802	-1.57459	0	0	0	0	-0	0	0	0	-0.1265	0	-0	0	0	0	0	0	-0	0	0.105	0.015	0	0	-0	0	0	0.098	0.1	0	-0	0	0	0	0	0	-0	0	0.05595	0	0	0	-0	0	0	0	0	0	-0	0	554.582	536.949	333.355	210.26	-0.296534	1.38301	0.0510749	-0.0085832	-2.72182
22	-0.0173668	0.0309705	0.00325067	0.0385482	-0.0122111	0.0436782	0.0247707	-0.0300304	0.00294189	-0.00890738	-0.0816063	0.00144243	0.0533575	0.0010682	0.0192675	-2.21868	-0.0198291	-1.57477	0	0	0	0	-0	0	0	0	-0.1265	0	-0	0	0	0	0	0	-0	0	0.105	0.015	0	0	-0	0	0	0.098	0.1	0	-0	0	0	0	0	0	-0	0	0.05595	0	0	0	-0	0	0	0	0	0	-0	0	554.545	536.907	333.452	210.338	-0.294019	1.37375	0.0511208	-0.00850203	-2.71177
23	-0.019504	0.0309593	0.00325607	0.038539	-0.0122127	0.0436368	0.0247698	-0.0300298	0.00294149	-0.0143369	-0.0876149	0.00488328	0.0534165	0.00107517	0.0191265	-2.22121	-0.0203423	-1.57517	0	0	0	0	-0	0	0	0	-0.1265	0	-0	0	0	0	0	0	-0	0	0.105	0.015	0	0	-0	0	0	0.098	0.1	0	-0	0	0	0	0	0	-0	0	0.05595	0	0	0	-0	0	0	0	0	0	-0	0	554.412	536.767	333.794	210.601	-0.29183	1.36107	0.051163	-0.00828755	-2.68739
24	-0.0256802	0.0309474	0.00325826	0.0385416	-0.0122152	0.0436014	0.0247669	-0.0300297	0.00294149	-0.0274954	-0.0794257	0.00344595	0.0535528	0.00108245	0.0187699	-2.22776	-0.0208774	-1.57549	0	0	0	0	-0	0	0	0	-0.1265	0	-0	0	0	0	0	0	-0	0	0.105	0.015	0	0	-0	0	0	0.098	0.1	0	-0	0	0	0	0	0	-0	0	0.05595	0	0	0	-0	0	0	0	0	0	-0	0	554.281	536.629	334.136	210.856	-0.289875	1.3501	0.0512093	-0.00807187	-2.66643
25	-0.0241519	0.030924	0.00325918	0.0385395	-0.0122144	0.0435446	0.0247687	-0.0300317	0.00294136	-0.0343322	-0.0815208	-0.0108957	0.0535519	0.00109392	0.0188079	-2.22677	-0.0216318	-1.57617	0	0	0	0	-0	0	0	0	-0.1265	0	-0	0	0	0	0	0	-0	0	0.105	0.015	0	0	-0	0	0	0.098	0.1	0	-0	0	0	0	0	0	-0	0	0.05595	0	0	0	-0	0	0	0	0	0	-0	0	554.088	536.428	334.648	211.222	-0.287482	1.336	0.051264	-0.00774889	-2.63781
26	-0.0310743	0.0308916	0.00326075	0.0385322	-0.0122152	0.0434608	0.0247752	-0.0300333	0.00294332	-0.0201923	-0.0575237	-0.0104353	0.0537239	0.0011105	0.018375	-2.23443	-0.0228009	-1.57699	0	0	0	0	-0	0	0	0	-0.1265	0	-0	0	0	0	0	0	-0	0	0.105	0.015	0	0	-0	0	0	0.098	0.1	0	-0	0	0	0	0	0	-0	0	0.05595	0	0	0	-0	0	0	0	0	0	-0	0	553.814	536.138	335.412	211.736	-0.284057	1.31575	0.051324	-0.00726387	-2.59597
27	-0.03688	0.0308782	0.0032634	0.0385357	-0.0122262	0.0434057	0.0247673	-0.0300342	0.00294103	-0.0109789	-0.0542768	0.0108785	0.0538557	0.0011219	0.0180233	-2.24077	-0.0236937	-1.57759	0	0	0	0	-0	0	0	0	-0.1265	0	-0	0	0	0	0	0	-0	0	0.105	0.015	0	0	-0	0	0	0.098	0.1	0	-0	0	0	0	0	0	-0	0	0.05595	0	0	0	-0	0	0	0	0	0	-0	0	553.612	535.927	335.983	212.103	-0.280635	1.29741	0.0513497	-0.00689083	-2.56078
28	-0.0252695	0.030827	0.00326462	0.0385162	-0.0122296	0.0432681	0.0247651	-0.030025	0.0029496	-0.00472641	-0.0800143	-0.0049372	0.0537094	0.00114811	0.0185501	-2.23018	-0.0254937	-1.57948	0	0	0	0	-0	0	0	0	-0.1265	0	-0	0	0	0	0	0	-0	0	0.105	0.015	0	0	-0	0	0	0.098	0.1	0	-0	0	0	0	0	0	-0	0	0.05595	0	0	0	-0	0	0	0	0	0	-0	0	553.189	535.478	337.255	212.839	-0.275159	1.26447	0.051355	-0.00607436	-2.49001
29	-0.0325682	0.0308274	0.0032688	0.0385304	-0.0122562	0.0432164	0.0247548	-0.030023	0.0029412	0.002097	-0.0832828	0.00169434	0.0538656	0.00115895	0.0181265	-2.23799	-0.0264883	-1.58013	0	0	0	0	-0	0	0	0	-0.1265	0	-0	0	0	0	0	0	-0	0	0.105	0.015	0	0	-0	0	0	0.098	0.1	0	-0	0	0	0	0	0	-0	0	0.05595	0	0	0	-0	0	0	0	0	0	-0	0	552.98	535.261	337.89	213.188	-0.270311	1.24046	0.051326	-0.00563961	-2.4463
30	-0.0178081	0.0307997	0.0032724	0.038522	-0.0122676	0.0431242	0.0247586	-0.0300291	0.00294168	0.00502486	-0.0806967	0.025695	0.0536383	0.00117676	0.0188591	-2.22389	-0.0277362	-1.58175	0	0	0	0	-0	0	0	0	-0.1265	0	-0	0	0	0	0	0	-0	0	0.105	0.015	0	0	-0	0	0	0.098	0.1	0	-0	0	0	0	0	0	-0	0	0.05595	0	0	0	-0	0	0	0	0	0	-0	0	552.687	534.952	338.837	213.668	-0.265385	1.21286	0.0512616	-0.00501384	-2.38924
31	-0.0243342	0.0307911	0.00327529	0.038528	-0.0122877	0.0430626	0.0247493	-0.030021	0.00294049	0.0142241	-0.0841876	0.033482	0.0537842	0.00118877	0.0184696	-2.23089	-0.0288306	-1.5825	0	0	0	0	-0	0	0	0	-0.1265	0	-0	0	0	0	0	0	-0	0	0.105	0.015	0	0	-0	0	0	0.098	0.1	0	-0	0	0	0	0	0	-0	0	0.05595	0	0	0	-0	0	0	0	0	0	-0	0	552.473	534.722	339.545	214.006	-0.261	1.18984	0.0512086	-0.00453879	-2.34432
32	-0.0131209	0.0307671	0.00327887	0.0385112	-0.0123063	0.0429607	0.0247477	-0.0300222	0.00293817	0.00361547	-0.0828419	0.0182305	0.0536188	0.00120737	0.0190102	-2.22028	-0.0302241	-1.5842	0	0	0	0	-0	0	0	0	-0.1265	0	-0	0	0	0	0	0	-0	0	0.105	0.015	0	0	-0	0	0	0.098	0.1	0	-0	0	0	0	0	0	-0	0	0.05595	0	0	0	-0	0	0	0	0	0	-0	0	552.171	534.395	340.598	214.465	-0.255457	1.15963	0.0510741	-0.00382599	-2.28145
33	-0.0161886	0.030773	0.00328275	0.0385285	-0.0123287	0.0429335	0.0247471	-0.0300209	0.00294211	-0.00416322	-0.0846357	0.0335421	0.0536866	0.0012132	0.0188309	-2.22361	-0.0308795	-1.58469	0	0	0	0	-0	0	0	0	-0.1265	0	-0	0	0	0	0	0	-0	0	0.105	0.015	0	0	-0	0	0	0.098	0.1	0	-0	0	0	0	0	0	-0	0	0.05595	0	0	0	-0	0	0	0	0	0	-0	0	552.05	534.265	341.029	214.647	-0.251984	1.14286	0.0510256	-0.00352603	-2.25126
34	0.00566432	0.0307426	0.00328521	0.0384931	-0.0123499	0.0428033	0.0247419	-0.0300269	0.0029445	-0.030099	-0.0826789	0.0509886	0.0533262	0.00123525	0.0199304	-2.20235	-0.0324306	-1.58711	0	0	0	0	-0	0	0	0	-0.1265	0	-0	0	0	0	0	0	-0	0	0.105	0.015	0	0	-0	0	0	0.098	0.1	0	-0	0	0	0	0	0	-0	0	0.05595	0	0	0	-0	0	0	0	0	0	-0	0	551.707	533.884	342.341	215.135	-0.245606	1.10759	0.0507972	-0.00263574	-2.1754
35	0.00694622	0.0307498	0.00328811	0.0385156	-0.0123816	0.0427587	0.0247419	-0.0300208	0.00294311	-0.0166716	-0.0844826	0.030685	0.0533074	0.00124342	0.0199748	-2.20139	-0.0333084	-1.58805	0	0	0	0	-0	0	0	0	-0.1265	0	-0	0	0	0	0	0	-0	0	0.105	0.015	0	0	-0	0	0	0.098	0.1	0	-0	0	0	0	0	0	-0	0	0.05595	0	0	0	-0	0	0	0	0	0	-0	0	551.543	533.7	342.994	215.367	-0.240837	1.08412	0.0507014	-0.00218638	-2.1319
36	0.00170248	0.0307272	0.00329393	0.0384752	-0.0124134	0.0426244	0.0247223	-0.030031	0.00294243	-0.0630327	-0.0623521	0.0366777	0.0534632	0.00126558	0.0196271	-2.20715	-0.0354242	-1.58984	0	0	0	0	-0	0	0	0	-0.1265	0	-0	0	0	0	0	0	-0	0	0.105	0.015	0	0	-0	0	0	0.098	0.1	0	-0	0	0	0	0	0	-0	0	0.05595	0	0	0	-0	0	0	0	0	0	-0	0	551.199	533.304	344.445	215.81	-0.233275	1.0443	0.0503715	-0.00117439	-2.04776
37	0.0032404	0.0307474	0.00329416	0.0385291	-0.0124411	0.0426313	0.0247333	-0.0300125	0.00293841	-0.0560123	-0.0601109	0.0462875	0.0534306	0.00126556	0.0197158	-2.20573	-0.0356793	-1.59016	0	0	0	0	-0	0	0	0	-0.1265	0	-0	0	0	0	0	0	-0	0	0.105	0.015	0	0	-0	0	0	0.098	0.1	0	-0	0	0	0	0	0	-0	0	0.05595	0	0	0	-0	0	0	0	0	0	-0	0	551.153	533.249	344.643	215.871	-0.230579	1.03249	0.050376	-0.00103933	-2.0303
38	0.0130318	0.0307355	0.00330302	0.0384832	-0.0124573	0.0425529	0.0247345	-0.0300126	0.00293937	-0.056057	-0.0453089	0.0630834	0.0532642	0.00127777	0.0202027	-2.19618	-0.0366146	-1.59162	0	0	0	0	-0	0	0	0	-0.1265	0	-0	0	0	0	0	0	-0	0	0.105	0.015	0	0	-0	0	0	0.098	0.1	0	-0	0	0	0	0	0	-0	0	0.05595	0	0	0	-0	0	0	0	0	0	-0	0	550.973	533.037	345.456	216.099	-0.2261	1.01	0.0501375	-0.00044636	-1.98309
39	0.0256317	0.0307429	0.00330668	0.0384901	-0.0124786	0.0425258	0.0247303	-0.0300108	0.00293569	-0.0482519	-0.0372954	0.0724568	0.0530162	0.00128205	0.0208639	-2.18371	-0.0368999	-1.59265	0	0	0	0	-0	0	0	0	-0.1265	0	-0	0	0	0	0	0	-0	0	0.105	0.015	0	0	-0	0	0	0.098	0.1	0	-0	0	0	0	0	0	-0	0	0.05595	0	0	0	-0	0	0	0	0	0	-0	0	550.884	532.931	345.861	216.209	-0.223049	0.995659	0.0500461	-0.000154205	-1.95669
40	0.0204897	0.0307278	0.00331064	0.038457	-0.012506	0.0424196	0.0247213	-0.0300113	0.00293232	-0.0707555	-0.0302273	0.0717694	0.0531575	0.00129836	0.0205415	-2.18914	-0.0386379	-1.59412	0	0	0	0	-0	0	0	0	-0.1265	0	-0	0	0	0	0	0	-0	0	0.105	0.015	0	0	-0	0	0	0.098	0.1	0	-0	0	0	0	0	0	-0	0	0.05595	0	0	0	-0	0	0	0	0	0	-0	0	550.644	532.633	347.062	216.494	-0.21711	0.964933	0.0497285	0.00068876	-1.89124
41	0.0284622	0.0307426	0.00331461	0.0384822	-0.0125314	0.042408	0.0247223	-0.0300055	0.00293355	-0.063524	-0.0345302	0.0693691	0.0529961	0.00130044	0.0209644	-2.18127	-0.038899	-1.59487	0	0	0	0	-0	0	0	0	-0.1265	0	-0	0	0	0	0	0	-0	0	0.105	0.015	0	0	-0	0	0	0.098	0.1	0	-0	0	0	0	0	0	-0	0	0.05595	0	0	0	-0	0	0	0	0	0	-0	0	550.581	532.551	347.389	216.57	-0.21409	0.951526	0.0496624	0.00092868	-1.86862
42	0.0280455	0.0307429	0.00331854	0.0384705	-0.0125464	0.0423714	0.0247228	-0.0300046	0.0029306	-0.0627812	-0.0453506	0.0772132	0.0530142	0.00130567	0.0209285	-2.18179	-0.0395108	-1.59549	0	0	0	0	-0	0	0	0	-0.1265	0	-0	0	0	0	0	0	-0	0	0.105	0.015	0	0	-0	0	0	0.098	0.1	0	-0	0	0	0	0	0	-0	0	0.05595	0	0	0	-0	0	0	0	0	0	-0	0	550.497	532.445	347.837	216.67	-0.211302	0.938211	0.0495275	0.0012568	-1.84229
43	0.0410143	0.030726	0.00332479	0.0384052	-0.0125962	0.0422027	0.0247201	-0.0300047	0.00293807	-0.0488015	-0.0709795	0.0564784	0.0527967	0.00132968	0.0215486	-2.16906	-0.0418091	-1.59875	0	0	0	0	-0	0	0	0	-0.1265	0	-0	0	0	0	0	0	-0	0	0.105	0.015	0	0	-0	0	0	0.098	0.1	0	-0	0	0	0	0	0	-0	0	0.05595	0	0	0	-0	0	0	0	0	0	-0	0	550.16	531.99	349.81	217.008	-0.201757	0.890161	0.0489236	0.00266129	-1.73935
44	0.0368469	0.0307532	0.00333301	0.0384244	-0.0126526	0.042144	0.024714	-0.0300003	0.00292594	-0.0572265	-0.0823072	0.0525072	0.0528956	0.00133664	0.0213185	-2.17337	-0.043199	-1.59998	0	0	0	0	-0	0	0	0	-0.1265	0	-0	0	0	0	0	0	-0	0	0.105	0.015	0	0	-0	0	0	0.098	0.1	0	-0	0	0	0	0	0	-0	0	0.05595	0	0	0	-0	0	0	0	0	0	-0	0	550.005	531.767	350.788	217.16	-0.194348	0.857211	0.0486374	0.00338853	-1.68031
45	0.0342012	0.0307627	0.00333964	0.0384335	-0.0126739	0.0421253	0.0247116	-0.0299977	0.00292371	-0.0525995	-0.0959608	0.0593385	0.0529564	0.00133952	0.0211754	-2.17608	-0.0438073	-1.60042	0	0	0	0	-0	0	0	0	-0.1265	0	-0	0	0	0	0	0	-0	0	0.105	0.015	0	0	-0	0	0	0.098	0.1	0	-0	0	0	0	0	0	-0	0	0.05595	0	0	0	-0	0	0	0	0	0	-0	0	549.944	531.678	351.188	217.223	-0.191221	0.843624	0.0485146	0.00369451	-1.65619
46	0.0427254	0.0307655	0.00334423	0.0384238	-0.0126932	0.0420846	0.0247082	-0.0299965	0.0029238	-0.0495459	-0.100308	0.0620155	0.0527866	0.0013447	0.0216146	-2.16761	-0.0442746	-1.60157	0	0	0	0	-0	0	0	0	-0.1265	0	-0	0	0	0	0	0	-0	0	0.105	0.015	0	0	-0	0	0	0.098	0.1	0	-0	0	0	0	0	0	-0	0	0.05595	0	0	0	-0	0	0	0	0	0	-0	0	549.863	531.556	351.736	217.302	-0.187959	0.828589	0.048337	0.00410014	-1.62673
47	0.0498419	0.0307717	0.0033461	0.0384302	-0.0127064	0.0420726	0.0247076	-0.0299962	0.00292412	-0.050658	-0.100437	0.0611274	0.0526336	0.00134617	0.021988	-2.16052	-0.0443435	-1.6022	0	0	0	0	-0	0	0	0	-0.1265	0	-0	0	0	0	0	0	-0	0	0.105	0.015	0	0	-0	0	0	0.098	0.1	0	-0	0	0	0	0	0	-0	0	0.05595	0	0	0	-0	0	0	0	0	0	-0	0	549.831	531.507	351.96	217.334	-0.186318	0.821399	0.0482731	0.00426718	-1.61386
48	0.0520245	0.0307735	0.00334807	0.0384256	-0.0127175	0.04205	0.0247076	-0.0299969	0.00292311	-0.0480426	-0.100933	0.070143	0.0525901	0.00134895	0.0220961	-2.15836	-0.0446714	-1.60273	0	0	0	0	-0	0	0	0	-0.1265	0	-0	0	0	0	0	0	-0	0	0.105	0.015	0	0	-0	0	0	0.098	0.1	0	-0	0	0	0	0	0	-0	0	0.05595	0	0	0	-0	0	0	0	0	0	-0	0	549.788	531.441	352.267	217.377	-0.184504	0.813138	0.048173	0.0044944	-1.59777
49	0.0622657	0.0307754	0.00335075	0.0384176	-0.0127332	0.0420159	0.0247047	-0.0299953	0.00292207	-0.0562806	-0.0963346	0.0684905	0.0523728	0.00135316	0.022625	-2.14814	-0.0449308	-1.60385	0	0	0	0	-0	0	0	0	-0.1265	0	-0	0	0	0	0	0	-0	0	0.105	0.015	0	0	-0	0	0	0.098	0.1	0	-0	0	0	0	0	0	-0	0	0.05595	0	0	0	-0	0	0	0	0	0	-0	0	549.726	531.342	352.725	217.435	-0.181909	0.801265	0.0480225	0.0048322	-1.57435
50	0.0736145	0.0307783	0.00335476	0.038404	-0.0127565	0.0419647	0.0247048	-0.0299936	0.00291769	-0.0639006	-0.0794928	0.0594368	0.052127	0.00135928	0.023204	-2.13682	-0.0454141	-1.60534	0	0	0	0	-0	0	0	0	-0.1265	0	-0	0	0	0	0	0	-0	0	0.105	0.015	0	0	-0	0	0	0.098	0.1	0	-0	0	0	0	0	0	-0	0	0.05595	0	0	0	-0	0	0	0	0	0	-0	0	549.64	531.197	353.408	217.513	-0.178288	0.784634	0.0478013	0.00533405	-1.54101
