Stefan210/kinematic_calibration/src/kinematic_calibration/validation/experiments/experiments/anzahl_messungen/BC_A/larm_92/optimization_intermediate_results.csv
iteration	HeadPitch_offset	HeadYaw_offset	LElbowRoll_offset	LElbowYaw_offset	LShoulderPitch_offset	LShoulderRoll_offset	marker_transform_larm_tx	marker_transform_larm_ty	marker_transform_larm_tz	marker_transform_larm_rr	marker_transform_larm_rp	marker_transform_larm_ry	camera_transform_tx	camera_transform_ty	camera_transform_tz	camera_transform_rr	camera_transform_rp	camera_transform_ry	HeadPitch_transform_tx	HeadPitch_transform_ty	HeadPitch_transform_tz	HeadPitch_transform_rr	HeadPitch_transform_rp	HeadPitch_transform_ry	HeadYaw_transform_tx	HeadYaw_transform_ty	HeadYaw_transform_tz	HeadYaw_transform_rr	HeadYaw_transform_rp	HeadYaw_transform_ry	LElbowRoll_transform_tx	LElbowRoll_transform_ty	LElbowRoll_transform_tz	LElbowRoll_transform_rr	LElbowRoll_transform_rp	LElbowRoll_transform_ry	LElbowYaw_transform_tx	LElbowYaw_transform_ty	LElbowYaw_transform_tz	LElbowYaw_transform_rr	LElbowYaw_transform_rp	LElbowYaw_transform_ry	LShoulderPitch_transform_tx	LShoulderPitch_transform_ty	LShoulderPitch_transform_tz	LShoulderPitch_transform_rr	LShoulderPitch_transform_rp	LShoulderPitch_transform_ry	LShoulderRoll_transform_tx	LShoulderRoll_transform_ty	LShoulderRoll_transform_tz	LShoulderRoll_transform_rr	LShoulderRoll_transform_rp	LShoulderRoll_transform_ry	LWristYaw_transform_tx	LWristYaw_transform_ty	LWristYaw_transform_tz	LWristYaw_transform_rr	LWristYaw_transform_rp	LWristYaw_transform_ry	l_wrist_joint_transform_tx	l_wrist_joint_transform_ty	l_wrist_joint_transform_tz	l_wrist_joint_transform_rr	l_wrist_joint_transform_rp	l_wrist_joint_transform_ry	camera_fx	camera_fy	camera_cx	camera_cy	camera_D0	camera_D1	camera_D2	camera_D3	camera_D4	
0	0.0249164	-0.0307543	0.000853157	4.65819e-06	-0.000318322	-0.00310766	0.05071	0	0.01774	-2.26369	1.66533e-16	-1.5708	545.901	551.038	324.928	201.58	0.0255298	2.61142	-0.0636736	-0.0350419	0.213964
1	-0.0151363	0.0253231	0.0183974	0.0349405	-0.0087258	0.0260477	0.0243982	-0.0301067	0.00311699	-0.000273472	-0.00054497	-0.00310687	0.0566308	-0.00101734	0.0172114	-2.20265	-0.00550223	-1.55562	0	0	0	0	-0	0	0	0	-0.1265	0	-0	0	0	0	0	0	-0	0	0.105	0.015	0	0	-0	0	0	0.098	0.1	0	-0	0	0	0	0	0	-0	0	0.05595	0	0	0	-0	0	0	0	0	0	-0	0	545.901	551.039	324.928	201.581	-0.0131317	2.5989	-0.0802888	0.0418067	0.211223
2	-0.0143007	0.0364149	0.017696	0.0379504	-0.0151192	0.0332176	0.0245196	-0.0302121	0.00335878	-0.000300795	-0.000567662	-0.00310192	0.0547888	-0.00122919	0.0208717	-2.20698	-0.00813347	-1.56402	0	0	0	0	-0	0	0	0	-0.1265	0	-0	0	0	0	0	0	-0	0	0.105	0.015	0	0	-0	0	0	0.098	0.1	0	-0	0	0	0	0	0	-0	0	0.05595	0	0	0	-0	0	0	0	0	0	-0	0	545.902	551.039	324.925	201.584	-0.143953	2.51821	-0.046095	0.0129804	0.184886
3	-0.0153316	0.0337397	0.0163484	0.0381717	-0.0124053	0.0336932	0.0245438	-0.0301419	0.00327276	-0.00029128	-0.000557291	-0.00309332	0.0561087	-0.000787392	0.0178595	-2.20207	-0.00731659	-1.56386	0	0	0	0	-0	0	0	0	-0.1265	0	-0	0	0	0	0	0	-0	0	0.105	0.015	0	0	-0	0	0	0.098	0.1	0	-0	0	0	0	0	0	-0	0	0.05595	0	0	0	-0	0	0	0	0	0	-0	0	545.905	551.04	324.92	201.591	-0.39496	2.36454	-0.0242065	0.00655079	0.136318
4	-0.0160749	0.0328868	0.0155332	0.037134	-0.0106611	0.034687	0.024612	-0.0300773	0.00304477	-0.000264852	-0.000538114	-0.00307567	0.0572123	-0.000417064	0.0152849	-2.19844	-0.00737208	-1.56468	0	0	0	0	-0	0	0	0	-0.1265	0	-0	0	0	0	0	0	-0	0	0.105	0.015	0	0	-0	0	0	0.098	0.1	0	-0	0	0	0	0	0	-0	0	0.05595	0	0	0	-0	0	0	0	0	0	-0	0	545.912	551.038	324.913	201.6	-0.617156	2.1234	0.00576155	-0.00283894	0.0494574
5	-0.0162574	0.0318482	0.0150946	0.0363698	-0.00970501	0.0345205	0.0246483	-0.0300329	0.00291403	-0.000251345	-0.000523149	-0.00307077	0.0570373	-0.000272606	0.0149266	-2.1976	-0.00715905	-1.56463	0	0	0	0	-0	0	0	0	-0.1265	0	-0	0	0	0	0	0	-0	0	0.105	0.015	0	0	-0	0	0	0.098	0.1	0	-0	0	0	0	0	0	-0	0	0.05595	0	0	0	-0	0	0	0	0	0	-0	0	545.93	551.031	324.903	201.612	-0.56725	1.7722	0.00960532	-0.00580066	-0.0963591
6	-0.0161655	0.0300293	0.0149414	0.0358217	-0.00889754	0.0335702	0.0246702	-0.0300018	0.00284668	-0.000244403	-0.000535027	-0.00303684	0.0559512	-0.000246017	0.0158765	-2.19819	-0.00651405	-1.56328	0	0	0	0	-0	0	0	0	-0.1265	0	-0	0	0	0	0	0	-0	0	0.105	0.015	0	0	-0	0	0	0.098	0.1	0	-0	0	0	0	0	0	-0	0	0.05595	0	0	0	-0	0	0	0	0	0	-0	0	545.971	551.013	324.891	201.625	-0.337471	1.22861	-0.00165368	-0.00568152	-0.316965
7	-0.0161106	0.0287037	0.0149316	0.0352592	-0.0084435	0.0327249	0.0246861	-0.0299817	0.00278737	-0.000311285	-0.000482455	-0.00310039	0.054853	-0.000259673	0.016949	-2.19901	-0.00604946	-1.56213	0	0	0	0	-0	0	0	0	-0.1265	0	-0	0	0	0	0	0	-0	0	0.105	0.015	0	0	-0	0	0	0.098	0.1	0	-0	0	0	0	0	0	-0	0	0.05595	0	0	0	-0	0	0	0	0	0	-0	0	546.067	550.966	324.88	201.626	-0.0988651	0.650327	-0.0132885	-0.00539544	-0.491822
8	-0.016049	0.0283181	0.0149789	0.0349089	-0.00840534	0.0323633	0.0246938	-0.0299751	0.00275181	-0.000313515	-0.000478513	-0.00327743	0.0542173	-0.000284685	0.0176352	-2.19958	-0.00588906	-1.56167	0	0	0	0	-0	0	0	0	-0.1265	0	-0	0	0	0	0	0	-0	0	0.105	0.015	0	0	-0	0	0	0.098	0.1	0	-0	0	0	0	0	0	-0	0	0.05595	0	0	0	-0	0	0	0	0	0	-0	0	546.32	550.84	324.85	201.592	0.0370485	0.24998	-0.0184918	-0.00540916	-0.41598
9	-0.016528	0.028416	0.0150079	0.0347286	-0.00851492	0.0323476	0.0246961	-0.0299767	0.00273254	-0.0003998	-0.000620192	-0.00333169	0.0538909	-0.000304948	0.0180202	-2.20044	-0.00575423	-1.56151	0	0	0	0	-0	0	0	0	-0.1265	0	-0	0	0	0	0	0	-0	0	0.105	0.015	0	0	-0	0	0	0.098	0.1	0	-0	0	0	0	0	0	-0	0	0.05595	0	0	0	-0	0	0	0	0	0	-0	0	547.023	550.491	324.747	201.465	0.0921113	-0.0752245	-0.0175584	-0.00560489	0.117614
10	-0.0169082	0.0288492	0.015044	0.0344882	-0.00875837	0.0325158	0.0246975	-0.0299848	0.00270598	-0.00314155	-0.000928096	-0.000799444	0.0534156	-0.000337309	0.0186347	-2.20122	-0.00547098	-1.56138	0	0	0	0	-0	0	0	0	-0.1265	0	-0	0	0	0	0	0	-0	0	0.105	0.015	0	0	-0	0	0	0.098	0.1	0	-0	0	0	0	0	0	-0	0	0.05595	0	0	0	-0	0	0	0	0	0	-0	0	548.807	549.611	324.491	201.079	0.143247	-0.630987	-0.0115553	-0.00603857	1.39596
11	-0.0162639	0.0296717	0.0151709	0.0340336	-0.00918508	0.032827	0.024702	-0.0300007	0.00265771	-0.00374043	0.0109574	-0.000438905	0.0525357	-0.000397375	0.0198176	-2.20061	-0.00502921	-1.56128	0	0	0	0	-0	0	0	0	-0.1265	0	-0	0	0	0	0	0	-0	0	0.105	0.015	0	0	-0	0	0	0.098	0.1	0	-0	0	0	0	0	0	-0	0	0.05595	0	0	0	-0	0	0	0	0	0	-0	0	552.414	547.963	324.068	200.025	0.204749	-1.47262	0.000763262	-0.00679599	3.4143
12	-0.018724	0.0305694	0.0154043	0.0334747	-0.00961452	0.0331707	0.0247119	-0.0300217	0.00260251	-0.00495015	-0.00354384	-0.00955561	0.0514999	-0.000472054	0.0211038	-2.20086	-0.00473505	-1.56148	0	0	0	0	-0	0	0	0	-0.1265	0	-0	0	0	0	0	0	-0	0	0.105	0.015	0	0	-0	0	0	0.098	0.1	0	-0	0	0	0	0	0	-0	0	0.05595	0	0	0	-0	0	0	0	0	0	-0	0	557.384	546.553	323.837	197.498	0.233845	-2.15008	0.0157514	-0.00748558	5.08498
13	-0.00793964	0.0309795	0.0155766	0.0331234	-0.0097856	0.0334216	0.024748	-0.0300433	0.0026162	0.0258602	-0.0605327	-0.0478018	0.0503249	-0.000531952	0.0228623	-2.18197	-0.00584111	-1.56309	0	0	0	0	-0	0	0	0	-0.1265	0	-0	0	0	0	0	0	-0	0	0.105	0.015	0	0	-0	0	0	0.098	0.1	0	-0	0	0	0	0	0	-0	0	0.05595	0	0	0	-0	0	0	0	0	0	-0	0	562.069	547.666	324.907	191.779	0.216331	-2.16387	0.0223153	-0.00716552	4.95373
14	0.00861861	0.0310943	0.0156279	0.0330072	-0.00983634	0.0334949	0.0247184	-0.0300393	0.00255645	0.00235376	-0.0604398	-0.0327877	0.0496194	-0.000550572	0.0240589	-2.16168	-0.00675016	-1.56423	0	0	0	0	-0	0	0	0	-0.1265	0	-0	0	0	0	0	0	-0	0	0.105	0.015	0	0	-0	0	0	0.098	0.1	0	-0	0	0	0	0	0	-0	0	0.05595	0	0	0	-0	0	0	0	0	0	-0	0	563.523	548.374	325.695	189.262	0.204891	-2.07101	0.0231551	-0.00695313	4.64312
15	0.0119582	0.0311423	0.0156534	0.032961	-0.00985784	0.033527	0.0247193	-0.0300286	0.00254635	0.00102003	-0.0671725	-0.0225101	0.0494194	-0.000556901	0.0243412	-2.15685	-0.00708935	-1.5647	0	0	0	0	-0	0	0	0	-0.1265	0	-0	0	0	0	0	0	-0	0	0.105	0.015	0	0	-0	0	0	0.098	0.1	0	-0	0	0	0	0	0	-0	0	0.05595	0	0	0	-0	0	0	0	0	0	-0	0	564.02	548.66	326.017	188.289	0.200537	-2.03614	0.0233421	-0.00686199	4.531
16	0.0125284	0.0311515	0.0156684	0.0329318	-0.00986079	0.0335538	0.024722	-0.0300344	0.00254381	-0.0164652	-0.0759893	-0.0301633	0.0492931	-0.000563362	0.024497	-2.15432	-0.00751077	-1.56526	0	0	0	0	-0	0	0	0	-0.1265	0	-0	0	0	0	0	0	-0	0	0.105	0.015	0	0	-0	0	0	0.098	0.1	0	-0	0	0	0	0	0	-0	0	0.05595	0	0	0	-0	0	0	0	0	0	-0	0	564.551	549.076	326.448	187.036	0.195397	-1.97975	0.0230662	-0.00667078	4.35572
17	0.0148275	0.0311643	0.0156764	0.0329163	-0.00986616	0.0335663	0.0247218	-0.0300287	0.00254265	-0.00845184	-0.0641017	-0.0320162	0.0491934	-0.00056602	0.0246598	-2.15124	-0.00769068	-1.5655	0	0	0	0	-0	0	0	0	-0.1265	0	-0	0	0	0	0	0	-0	0	0.105	0.015	0	0	-0	0	0	0.098	0.1	0	-0	0	0	0	0	0	-0	0	0.05595	0	0	0	-0	0	0	0	0	0	-0	0	564.754	549.239	326.617	186.54	0.193187	-1.9588	0.0230021	-0.0066195	4.29189
18	0.0243194	0.0311649	0.0156822	0.0329036	-0.00986597	0.0335786	0.0247211	-0.0300265	0.0025402	-0.00905822	-0.0525798	-0.0379851	0.0489059	-0.000569071	0.0251869	-2.14071	-0.00795682	-1.56586	0	0	0	0	-0	0	0	0	-0.1265	0	-0	0	0	0	0	0	-0	0	0.105	0.015	0	0	-0	0	0	0.098	0.1	0	-0	0	0	0	0	0	-0	0	0.05595	0	0	0	-0	0	0	0	0	0	-0	0	565.002	549.462	326.844	185.883	0.190791	-1.93002	0.0227747	-0.00651807	4.20333
19	0.0318977	0.0311236	0.0156921	0.0328773	-0.00984448	0.0336149	0.0247211	-0.0300244	0.00253677	-0.0168374	-0.0403567	-0.0439118	0.0485414	-0.000578195	0.0257431	-2.12899	-0.00888794	-1.56713	0	0	0	0	-0	0	0	0	-0.1265	0	-0	0	0	0	0	0	-0	0	0.105	0.015	0	0	-0	0	0	0.098	0.1	0	-0	0	0	0	0	0	-0	0	0.05595	0	0	0	-0	0	0	0	0	0	-0	0	565.763	550.349	327.793	183.317	0.182658	-1.80969	0.0212626	-0.00604541	3.83723
20	0.0336065	0.0311178	0.0157096	0.0328319	-0.00984041	0.0336513	0.0247257	-0.030046	0.00252918	0.0177381	-0.0353191	-0.0301541	0.0483519	-0.000586283	0.0259795	-2.12379	-0.0096019	-1.56815	0	0	0	0	-0	0	0	0	-0.1265	0	-0	0	0	0	0	0	-0	0	0.105	0.015	0	0	-0	0	0	0.098	0.1	0	-0	0	0	0	0	0	-0	0	0.05595	0	0	0	-0	0	0	0	0	0	-0	0	566.34	550.994	328.554	181.149	0.177083	-1.73171	0.0202472	-0.00573123	3.59923
21	0.0406114	0.0311191	0.0157219	0.0328005	-0.00983949	0.0336774	0.0247237	-0.0300271	0.00252953	0.00343516	-0.0385751	-0.0382277	0.0480756	-0.000591458	0.0264203	-2.11445	-0.0100659	-1.56885	0	0	0	0	-0	0	0	0	-0.1265	0	-0	0	0	0	0	0	-0	0	0.105	0.015	0	0	-0	0	0	0.098	0.1	0	-0	0	0	0	0	0	-0	0	0.05595	0	0	0	-0	0	0	0	0	0	-0	0	566.692	551.377	329.038	179.704	0.174081	-1.68771	0.0196401	-0.00554755	3.46164
22	0.0166659	0.0311058	0.0157362	0.0327554	-0.00983287	0.0337033	0.0247403	-0.0300177	0.00253339	0.016919	-0.0833085	-0.0429341	0.0485986	-0.000597278	0.0253838	-2.13536	-0.010595	-1.56944	0	0	0	0	-0	0	0	0	-0.1265	0	-0	0	0	0	0	0	-0	0	0.105	0.015	0	0	-0	0	0	0.098	0.1	0	-0	0	0	0	0	0	-0	0	0.05595	0	0	0	-0	0	0	0	0	0	-0	0	567.056	551.808	329.665	177.844	0.170956	-1.63119	0.0187043	-0.00527132	3.28448
23	0.0247364	0.0311221	0.0157452	0.0327296	-0.00984091	0.0337117	0.0247231	-0.0300218	0.00252441	0.0194238	-0.0814406	-0.0424034	0.0483582	-0.000598986	0.0257994	-2.12671	-0.0107203	-1.56967	0	0	0	0	-0	0	0	0	-0.1265	0	-0	0	0	0	0	0	-0	0	0.105	0.015	0	0	-0	0	0	0.098	0.1	0	-0	0	0	0	0	0	-0	0	0.05595	0	0	0	-0	0	0	0	0	0	-0	0	567.133	551.876	329.775	177.481	0.170484	-1.62681	0.0186693	-0.00526484	3.26734
24	0.026759	0.0311267	0.0157457	0.0327304	-0.00984357	0.0337156	0.0247235	-0.0300221	0.0025248	0.0173486	-0.078448	-0.0366679	0.0482942	-0.000599553	0.0259077	-2.12447	-0.0107605	-1.56975	0	0	0	0	-0	0	0	0	-0.1265	0	-0	0	0	0	0	0	-0	0	0.105	0.015	0	0	-0	0	0	0.098	0.1	0	-0	0	0	0	0	0	-0	0	0.05595	0	0	0	-0	0	0	0	0	0	-0	0	567.162	551.9	329.815	177.347	0.170548	-1.62547	0.0186358	-0.00525234	3.26048
25	0.0342505	0.0311215	0.0157493	0.0327188	-0.00984082	0.0337231	0.0247276	-0.0300269	0.00252386	0.0251977	-0.0730079	-0.0536849	0.0480701	-0.000601088	0.0263027	-2.11611	-0.0109137	-1.57004	0	0	0	0	-0	0	0	0	-0.1265	0	-0	0	0	0	0	0	-0	0	0.105	0.015	0	0	-0	0	0	0.098	0.1	0	-0	0	0	0	0	0	-0	0	0.05595	0	0	0	-0	0	0	0	0	0	-0	0	567.254	551.996	329.977	176.82	0.169927	-1.61201	0.0183962	-0.00517709	3.21714
26	0.0351279	0.0311236	0.0157525	0.0327105	-0.00984151	0.0337277	0.0247256	-0.0300228	0.00252211	0.0215826	-0.0820231	-0.0460909	0.0480302	-0.000601922	0.0263606	-2.11482	-0.0109837	-1.57015	0	0	0	0	-0	0	0	0	-0.1265	0	-0	0	0	0	0	0	-0	0	0.105	0.015	0	0	-0	0	0	0.098	0.1	0	-0	0	0	0	0	0	-0	0	0.05595	0	0	0	-0	0	0	0	0	0	-0	0	567.299	552.04	330.054	176.564	0.169595	-1.60633	0.0183103	-0.00515233	3.1981
27	0.0441508	0.031122	0.0157561	0.0327002	-0.0098407	0.0337328	0.024724	-0.0300214	0.00252167	0.0209739	-0.0871254	-0.0440182	0.0477722	-0.000603001	0.0268161	-2.10519	-0.0110885	-1.5704	0	0	0	0	-0	0	0	0	-0.1265	0	-0	0	0	0	0	0	-0	0	0.105	0.015	0	0	-0	0	0	0.098	0.1	0	-0	0	0	0	0	0	-0	0	0.05595	0	0	0	-0	0	0	0	0	0	-0	0	567.357	552.1	330.166	176.193	0.169085	-1.59664	0.0181495	-0.00510349	3.16744
28	0.0424914	0.0311244	0.015758	0.0326951	-0.00984205	0.0337355	0.0247243	-0.030022	0.00252155	0.0219817	-0.0839015	-0.0375578	0.0478059	-0.000603513	0.026745	-2.1066	-0.011127	-1.57044	0	0	0	0	-0	0	0	0	-0.1265	0	-0	0	0	0	0	0	-0	0	0.105	0.015	0	0	-0	0	0	0.098	0.1	0	-0	0	0	0	0	0	-0	0	0.05595	0	0	0	-0	0	0	0	0	0	-0	0	567.379	552.124	330.21	176.044	0.168931	-1.59366	0.0180999	-0.00509044	3.15715
29	0.0411215	0.0311167	0.0157621	0.0326819	-0.00983801	0.0337424	0.024724	-0.030022	0.00251975	0.0161853	-0.0825769	-0.0430044	0.0478144	-0.000604898	0.0267097	-2.10701	-0.0112812	-1.57066	0	0	0	0	-0	0	0	0	-0.1265	0	-0	0	0	0	0	0	-0	0	0.105	0.015	0	0	-0	0	0	0.098	0.1	0	-0	0	0	0	0	0	-0	0	0.05595	0	0	0	-0	0	0	0	0	0	-0	0	567.449	552.215	330.385	175.464	0.168334	-1.57865	0.0177966	-0.00500764	3.10957
30	0.0386413	0.0311209	0.0157648	0.0326754	-0.00984018	0.0337456	0.0247244	-0.0300218	0.00251974	0.0202993	-0.0795349	-0.0479703	0.047872	-0.000605442	0.0266007	-2.10923	-0.0113222	-1.5707	0	0	0	0	-0	0	0	0	-0.1265	0	-0	0	0	0	0	0	-0	0	0.105	0.015	0	0	-0	0	0	0.098	0.1	0	-0	0	0	0	0	0	-0	0	0.05595	0	0	0	-0	0	0	0	0	0	-0	0	567.47	552.235	330.43	175.31	0.168179	-1.57597	0.017756	-0.00499879	3.09987
31	0.0464915	0.0311198	0.0157667	0.0326695	-0.00983962	0.0337483	0.0247243	-0.0300216	0.00251926	0.0241936	-0.0770134	-0.0514312	0.0476527	-0.000605976	0.0269878	-2.10104	-0.0113758	-1.57087	0	0	0	0	-0	0	0	0	-0.1265	0	-0	0	0	0	0	0	-0	0	0.105	0.015	0	0	-0	0	0	0.098	0.1	0	-0	0	0	0	0	0	-0	0	0.05595	0	0	0	-0	0	0	0	0	0	-0	0	567.494	552.263	330.49	175.102	0.167997	-1.57127	0.0176636	-0.00497282	3.08443
32	0.0295576	0.0311105	0.0157725	0.032651	-0.00983485	0.0337567	0.024723	-0.0300242	0.00252043	0.00485894	-0.0670611	-0.0448755	0.0480751	-0.000607572	0.0262154	-2.11674	-0.0115704	-1.57097	0	0	0	0	-0	0	0	0	-0.1265	0	-0	0	0	0	0	0	-0	0	0.105	0.015	0	0	-0	0	0	0.098	0.1	0	-0	0	0	0	0	0	-0	0	0.05595	0	0	0	-0	0	0	0	0	0	-0	0	567.562	552.359	330.711	174.363	0.167312	-1.55285	0.0172781	-0.00486962	3.02593
33	0.020866	0.0311142	0.0157763	0.0326399	-0.00983704	0.0337623	0.0247285	-0.030026	0.00251714	0.0183207	-0.0550062	-0.0498934	0.0482796	-0.000608538	0.0258136	-2.12485	-0.0116645	-1.571	0	0	0	0	-0	0	0	0	-0.1265	0	-0	0	0	0	0	0	-0	0	0.105	0.015	0	0	-0	0	0	0.098	0.1	0	-0	0	0	0	0	0	-0	0	0.05595	0	0	0	-0	0	0	0	0	0	-0	0	567.592	552.39	330.809	174.011	0.167183	-1.54726	0.0171545	-0.00483877	3.00521
34	0.00846377	0.0311073	0.0157838	0.0326174	-0.0098332	0.0337707	0.0247248	-0.0300308	0.00252135	-0.00739823	-0.0489619	-0.0358606	0.0485695	-0.000609885	0.0252466	-2.13603	-0.0118574	-1.57113	0	0	0	0	-0	0	0	0	-0.1265	0	-0	0	0	0	0	0	-0	0	0.105	0.015	0	0	-0	0	0	0.098	0.1	0	-0	0	0	0	0	0	-0	0	0.05595	0	0	0	-0	0	0	0	0	0	-0	0	567.63	552.449	331.017	173.288	0.166747	-1.53143	0.0168003	-0.0047442	2.95308
35	0.0105783	0.0311133	0.0157848	0.0326155	-0.00983677	0.033773	0.0247256	-0.030021	0.00251501	-0.00838792	-0.0574199	-0.0370565	0.0485077	-0.000610316	0.025354	-2.13376	-0.011884	-1.57119	0	0	0	0	-0	0	0	0	-0.1265	0	-0	0	0	0	0	0	-0	0	0.105	0.015	0	0	-0	0	0	0.098	0.1	0	-0	0	0	0	0	0	-0	0	0.05595	0	0	0	-0	0	0	0	0	0	-0	0	567.636	552.453	331.042	173.191	0.16673	-1.53095	0.0167962	-0.00474785	2.94977
36	0.0136756	0.0311144	0.0157879	0.0326064	-0.00983725	0.033775	0.0247252	-0.0300215	0.00251414	-0.0125143	-0.0625103	-0.0375631	0.0484228	-0.000610624	0.0255116	-2.13044	-0.0119144	-1.57128	0	0	0	0	-0	0	0	0	-0.1265	0	-0	0	0	0	0	0	-0	0	0.105	0.015	0	0	-0	0	0	0.098	0.1	0	-0	0	0	0	0	0	-0	0	0.05595	0	0	0	-0	0	0	0	0	0	-0	0	567.644	552.458	331.077	173.061	0.166809	-1.52952	0.0167487	-0.00473223	2.94332
37	0.0098844	0.0311139	0.0157898	0.0326005	-0.00983706	0.0337776	0.0247245	-0.0300231	0.00251325	-0.000332926	-0.0630194	-0.035108	0.0485113	-0.00061101	0.0253371	-2.13391	-0.0119625	-1.5713	0	0	0	0	-0	0	0	0	-0.1265	0	-0	0	0	0	0	0	-0	0	0.105	0.015	0	0	-0	0	0	0.098	0.1	0	-0	0	0	0	0	0	-0	0	0.05595	0	0	0	-0	0	0	0	0	0	-0	0	567.653	552.468	331.128	172.87	0.166816	-1.52646	0.0166669	-0.00471027	2.93204
38	0.012107	0.0311134	0.0157925	0.0325926	-0.00983689	0.0337809	0.0247254	-0.0300214	0.00251297	-0.00392356	-0.0683985	-0.0325398	0.0484446	-0.000611498	0.0254567	-2.13126	-0.0120242	-1.57142	0	0	0	0	-0	0	0	0	-0.1265	0	-0	0	0	0	0	0	-0	0	0.105	0.015	0	0	-0	0	0	0.098	0.1	0	-0	0	0	0	0	0	-0	0	0.05595	0	0	0	-0	0	0	0	0	0	-0	0	567.661	552.476	331.196	172.614	0.166741	-1.5219	0.0165632	-0.00468127	2.91603
39	0.0147249	0.0311147	0.0157942	0.0325878	-0.00983762	0.0337823	0.0247254	-0.0300214	0.00251264	6.01314e-05	-0.0632323	-0.0333254	0.0483736	-0.00061175	0.0255885	-2.12846	-0.0120473	-1.57149	0	0	0	0	-0	0	0	0	-0.1265	0	-0	0	0	0	0	0	-0	0	0.105	0.015	0	0	-0	0	0	0.098	0.1	0	-0	0	0	0	0	0	-0	0	0.05595	0	0	0	-0	0	0	0	0	0	-0	0	567.664	552.481	331.223	172.511	0.166758	-1.52054	0.0165238	-0.0046732	2.91054
40	0.0134181	0.0311142	0.0157957	0.0325833	-0.00983741	0.0337839	0.0247265	-0.0300229	0.00251242	0.00807416	-0.0554445	-0.0310272	0.0484017	-0.000612002	0.0255312	-2.12954	-0.0120806	-1.57153	0	0	0	0	-0	0	0	0	-0.1265	0	-0	0	0	0	0	0	-0	0	0.105	0.015	0	0	-0	0	0	0.098	0.1	0	-0	0	0	0	0	0	-0	0	0.05595	0	0	0	-0	0	0	0	0	0	-0	0	567.668	552.485	331.259	172.375	0.166696	-1.51793	0.0164656	-0.00465787	2.90167
41	0.012001	0.0311123	0.0157987	0.0325738	-0.00983652	0.0337873	0.0247255	-0.0300217	0.0025117	0.00863932	-0.0533341	-0.0242923	0.0484277	-0.000612458	0.0254746	-2.13046	-0.012152	-1.57161	0	0	0	0	-0	0	0	0	-0.1265	0	-0	0	0	0	0	0	-0	0	0.105	0.015	0	0	-0	0	0	0.098	0.1	0	-0	0	0	0	0	0	-0	0	0.05595	0	0	0	-0	0	0	0	0	0	-0	0	567.668	552.491	331.336	172.081	0.166698	-1.51294	0.0163307	-0.00462291	2.88383
42	0.00976772	0.0311124	0.0158021	0.0325638	-0.00983682	0.0337907	0.0247251	-0.0300222	0.00251172	5.98574e-05	-0.0503115	-0.0183193	0.0484747	-0.000612953	0.0253782	-2.13221	-0.0122205	-1.57169	0	0	0	0	-0	0	0	0	-0.1265	0	-0	0	0	0	0	0	-0	0	0.105	0.015	0	0	-0	0	0	0.098	0.1	0	-0	0	0	0	0	0	-0	0	0.05595	0	0	0	-0	0	0	0	0	0	-0	0	567.668	552.493	331.409	171.8	0.166705	-1.50847	0.0162116	-0.00459327	2.86744
43	0.00999154	0.0311142	0.0158037	0.0325595	-0.0098379	0.0337924	0.0247253	-0.0300209	0.00251013	0.00457319	-0.0588466	-0.0164429	0.0484646	-0.000613198	0.0253942	-2.1318	-0.0122469	-1.57173	0	0	0	0	-0	0	0	0	-0.1265	0	-0	0	0	0	0	0	-0	0	0.105	0.015	0	0	-0	0	0	0.098	0.1	0	-0	0	0	0	0	0	-0	0	0.05595	0	0	0	-0	0	0	0	0	0	-0	0	567.667	552.491	331.437	171.688	0.16677	-1.5074	0.0161754	-0.0045852	2.86235
44	0.0206122	0.031111	0.0158086	0.0325441	-0.00983646	0.0337968	0.0247255	-0.030023	0.00250965	-0.00552928	-0.061357	-0.013455	0.0481818	-0.000613741	0.0259246	-2.12043	-0.0123377	-1.57201	0	0	0	0	-0	0	0	0	-0.1265	0	-0	0	0	0	0	0	-0	0	0.105	0.015	0	0	-0	0	0	0.098	0.1	0	-0	0	0	0	0	0	-0	0	0.05595	0	0	0	-0	0	0	0	0	0	-0	0	567.654	552.486	331.549	171.255	0.166814	-1.5001	0.0159706	-0.00453217	2.8363
45	0.0114591	0.0311133	0.0158115	0.0325361	-0.00983785	0.0337997	0.0247248	-0.0300223	0.0025083	0.00435391	-0.0645502	-0.0112954	0.0484091	-0.000614105	0.0254905	-2.12923	-0.0123946	-1.57197	0	0	0	0	-0	0	0	0	-0.1265	0	-0	0	0	0	0	0	-0	0	0.105	0.015	0	0	-0	0	0	0.098	0.1	0	-0	0	0	0	0	0	-0	0	0.05595	0	0	0	-0	0	0	0	0	0	-0	0	567.648	552.479	331.6	171.048	0.166869	-1.49762	0.0159005	-0.00451632	2.82598
46	0.0255015	0.0311123	0.0158168	0.0325199	-0.00983778	0.0338043	0.0247276	-0.0300291	0.00251232	-0.0144253	-0.0610016	0.00505723	0.0480369	-0.000614593	0.0261842	-2.11445	-0.0124751	-1.5723	0	0	0	0	-0	0	0	0	-0.1265	0	-0	0	0	0	0	0	-0	0	0.105	0.015	0	0	-0	0	0	0.098	0.1	0	-0	0	0	0	0	0	-0	0	0.05595	0	0	0	-0	0	0	0	0	0	-0	0	567.622	552.452	331.708	170.617	0.167077	-1.49184	0.0157181	-0.00446716	2.80313
47	0.029045	0.031115	0.0158173	0.0325183	-0.00983927	0.0338054	0.0247251	-0.0300215	0.00250712	-0.00852891	-0.0647268	0.00659055	0.0479369	-0.000614755	0.0263544	-2.11081	-0.0124818	-1.57236	0	0	0	0	-0	0	0	0	-0.1265	0	-0	0	0	0	0	0	-0	0	0.105	0.015	0	0	-0	0	0	0.098	0.1	0	-0	0	0	0	0	0	-0	0	0.05595	0	0	0	-0	0	0	0	0	0	-0	0	567.619	552.447	331.722	170.559	0.167118	-1.49182	0.0157151	-0.00446982	2.80162
48	0.0279955	0.0311152	0.0158212	0.0325072	-0.00983964	0.033808	0.0247255	-0.0300217	0.00250649	-0.00620577	-0.0631496	0.00233867	0.0479576	-0.000615012	0.0263118	-2.11146	-0.012532	-1.57243	0	0	0	0	-0	0	0	0	-0.1265	0	-0	0	0	0	0	0	-0	0	0.105	0.015	0	0	-0	0	0	0.098	0.1	0	-0	0	0	0	0	0	-0	0	0.05595	0	0	0	-0	0	0	0	0	0	-0	0	567.602	552.429	331.777	170.331	0.167303	-1.48919	0.0156193	-0.00444295	2.79043
49	0.0202182	0.0311163	0.0158238	0.0324997	-0.00984037	0.0338101	0.0247253	-0.0300218	0.00250558	-0.00169802	-0.0655834	0.00569369	0.0481571	-0.000615234	0.025945	-2.11893	-0.0125824	-1.57239	0	0	0	0	-0	0	0	0	-0.1265	0	-0	0	0	0	0	0	-0	0	0.105	0.015	0	0	-0	0	0	0.098	0.1	0	-0	0	0	0	0	0	-0	0	0.05595	0	0	0	-0	0	0	0	0	0	-0	0	567.589	552.412	331.819	170.153	0.167386	-1.48712	0.0155566	-0.00442673	2.78172
50	0.0228564	0.0311177	0.0158246	0.0324976	-0.00984117	0.0338108	0.0247256	-0.0300215	0.00250551	-0.00266549	-0.0611971	0.0028965	0.048086	-0.000615314	0.0260729	-2.11623	-0.0125862	-1.57244	0	0	0	0	-0	0	0	0	-0.1265	0	-0	0	0	0	0	0	-0	0	0.105	0.015	0	0	-0	0	0	0.098	0.1	0	-0	0	0	0	0	0	-0	0	0.05595	0	0	0	-0	0	0	0	0	0	-0	0	567.587	552.41	331.827	170.117	0.167434	-1.48705	0.0155484	-0.00442607	2.7806
