Stefan210/kinematic_calibration/src/kinematic_calibration/validation/experiments/experiments/anzahl_messungen/BC_A/larm_80/optimization_intermediate_results.csv
iteration	HeadPitch_offset	HeadYaw_offset	LElbowRoll_offset	LElbowYaw_offset	LShoulderPitch_offset	LShoulderRoll_offset	marker_transform_larm_tx	marker_transform_larm_ty	marker_transform_larm_tz	marker_transform_larm_rr	marker_transform_larm_rp	marker_transform_larm_ry	camera_transform_tx	camera_transform_ty	camera_transform_tz	camera_transform_rr	camera_transform_rp	camera_transform_ry	HeadPitch_transform_tx	HeadPitch_transform_ty	HeadPitch_transform_tz	HeadPitch_transform_rr	HeadPitch_transform_rp	HeadPitch_transform_ry	HeadYaw_transform_tx	HeadYaw_transform_ty	HeadYaw_transform_tz	HeadYaw_transform_rr	HeadYaw_transform_rp	HeadYaw_transform_ry	LElbowRoll_transform_tx	LElbowRoll_transform_ty	LElbowRoll_transform_tz	LElbowRoll_transform_rr	LElbowRoll_transform_rp	LElbowRoll_transform_ry	LElbowYaw_transform_tx	LElbowYaw_transform_ty	LElbowYaw_transform_tz	LElbowYaw_transform_rr	LElbowYaw_transform_rp	LElbowYaw_transform_ry	LShoulderPitch_transform_tx	LShoulderPitch_transform_ty	LShoulderPitch_transform_tz	LShoulderPitch_transform_rr	LShoulderPitch_transform_rp	LShoulderPitch_transform_ry	LShoulderRoll_transform_tx	LShoulderRoll_transform_ty	LShoulderRoll_transform_tz	LShoulderRoll_transform_rr	LShoulderRoll_transform_rp	LShoulderRoll_transform_ry	LWristYaw_transform_tx	LWristYaw_transform_ty	LWristYaw_transform_tz	LWristYaw_transform_rr	LWristYaw_transform_rp	LWristYaw_transform_ry	l_wrist_joint_transform_tx	l_wrist_joint_transform_ty	l_wrist_joint_transform_tz	l_wrist_joint_transform_rr	l_wrist_joint_transform_rp	l_wrist_joint_transform_ry	camera_fx	camera_fy	camera_cx	camera_cy	camera_D0	camera_D1	camera_D2	camera_D3	camera_D4	
0	0.0249164	-0.0307543	0.000853157	4.65819e-06	-0.000318322	-0.00310766	0.05071	0	0.01774	-2.26369	1.66533e-16	-1.5708	545.901	551.038	324.928	201.58	0.0255298	2.61142	-0.0636736	-0.0350419	0.213964
1	-0.0153139	0.0248782	0.0187681	0.0298851	-0.00909748	0.0235644	0.0243787	-0.0299829	0.0027216	-0.000225632	-0.000505697	-0.00309707	0.0568904	-0.00116612	0.0168574	-2.20185	-0.0053366	-1.55577	0	0	0	0	-0	0	0	0	-0.1265	0	-0	0	0	0	0	0	-0	0	0.105	0.015	0	0	-0	0	0	0.098	0.1	0	-0	0	0	0	0	0	-0	0	0.05595	0	0	0	-0	0	0	0	0	0	-0	0	545.901	551.039	324.928	201.581	-0.0150952	2.59806	-0.0856059	0.0464045	0.211025
2	-0.0143266	0.0384514	0.0182041	0.0315327	-0.0171561	0.0319552	0.0244726	-0.0302182	0.00275442	-0.000227192	-0.0005082	-0.00310717	0.0547104	-0.00133459	0.0210222	-2.20693	-0.00964271	-1.56646	0	0	0	0	-0	0	0	0	-0.1265	0	-0	0	0	0	0	0	-0	0	0.105	0.015	0	0	-0	0	0	0.098	0.1	0	-0	0	0	0	0	0	-0	0	0.05595	0	0	0	-0	0	0	0	0	0	-0	0	545.902	551.039	324.925	201.585	-0.152585	2.50892	-0.0428243	0.0149437	0.181537
3	-0.015442	0.0344314	0.0167738	0.032024	-0.0136652	0.0320256	0.0244768	-0.0300977	0.00270595	-0.000221736	-0.000502956	-0.00309528	0.056231	-0.000814099	0.0176694	-2.20159	-0.00822369	-1.56537	0	0	0	0	-0	0	0	0	-0.1265	0	-0	0	0	0	0	0	-0	0	0.105	0.015	0	0	-0	0	0	0.098	0.1	0	-0	0	0	0	0	0	-0	0	0.05595	0	0	0	-0	0	0	0	0	0	-0	0	545.905	551.04	324.92	201.592	-0.412233	2.34483	-0.0228165	0.00840138	0.129541
4	-0.0160795	0.0331934	0.0158407	0.0320591	-0.0119441	0.032601	0.0245102	-0.0299845	0.00256831	-0.000213836	-0.00048645	-0.00307636	0.0573701	-0.000409977	0.0151198	-2.19838	-0.00820639	-1.56564	0	0	0	0	-0	0	0	0	-0.1265	0	-0	0	0	0	0	0	-0	0	0.105	0.015	0	0	-0	0	0	0.098	0.1	0	-0	0	0	0	0	0	-0	0	0.05595	0	0	0	-0	0	0	0	0	0	-0	0	545.913	551.038	324.913	201.602	-0.62409	2.09191	0.00657862	-0.00177928	0.0379351
5	-0.0162293	0.0319743	0.0152479	0.0314658	-0.0111389	0.0323173	0.0245261	-0.0299322	0.00246295	-0.00019546	-0.000505992	-0.00305802	0.0570979	-0.000242795	0.0149368	-2.1978	-0.00801306	-1.5654	0	0	0	0	-0	0	0	0	-0.1265	0	-0	0	0	0	0	0	-0	0	0.105	0.015	0	0	-0	0	0	0.098	0.1	0	-0	0	0	0	0	0	-0	0	0.05595	0	0	0	-0	0	0	0	0	0	-0	0	545.932	551.032	324.904	201.615	-0.552018	1.72542	0.00849447	-0.00425408	-0.112439
6	-0.0161592	0.0301996	0.0148188	0.0304523	-0.0106286	0.0315868	0.0245321	-0.0299167	0.00236803	-0.000185851	-0.000471399	-0.0030178	0.055904	-0.000167811	0.0160415	-2.19839	-0.00755523	-1.56419	0	0	0	0	-0	0	0	0	-0.1265	0	-0	0	0	0	0	0	-0	0	0.105	0.015	0	0	-0	0	0	0.098	0.1	0	-0	0	0	0	0	0	-0	0	0.05595	0	0	0	-0	0	0	0	0	0	-0	0	545.977	551.014	324.896	201.631	-0.308673	1.1662	-0.00342306	-0.0036699	-0.328716
7	-0.0161129	0.0290913	0.0145673	0.029482	-0.010517	0.0310237	0.0245347	-0.0299147	0.0022815	-0.000215535	-0.000654204	-0.00298232	0.0547412	-0.000139737	0.0172253	-2.19919	-0.00733998	-1.5633	0	0	0	0	-0	0	0	0	-0.1265	0	-0	0	0	0	0	0	-0	0	0.105	0.015	0	0	-0	0	0	0.098	0.1	0	-0	0	0	0	0	0	-0	0	0.05595	0	0	0	-0	0	0	0	0	0	-0	0	546.079	550.969	324.888	201.637	-0.0649548	0.575546	-0.0148825	-0.00308144	-0.472283
8	-0.0160932	0.028905	0.0145045	0.0289551	-0.0106965	0.0308359	0.0245367	-0.0299182	0.00223294	-9.96422e-05	-0.000566306	-0.00315154	0.0540701	-0.000147528	0.01798	-2.19987	-0.00733194	-1.563	0	0	0	0	-0	0	0	0	-0.1265	0	-0	0	0	0	0	0	-0	0	0.105	0.015	0	0	-0	0	0	0.098	0.1	0	-0	0	0	0	0	0	-0	0	0.05595	0	0	0	-0	0	0	0	0	0	-0	0	546.353	550.847	324.854	201.613	0.0753189	0.140245	-0.0197128	-0.00300524	-0.30797
9	-0.0152494	0.0291675	0.0145143	0.0287032	-0.0109302	0.0309252	0.0245396	-0.0299226	0.00220782	-9.7838e-05	0.00021058	-0.00353456	0.0536748	-0.000167387	0.0185159	-2.19959	-0.00725044	-1.56291	0	0	0	0	-0	0	0	0	-0.1265	0	-0	0	0	0	0	0	-0	0	0.105	0.015	0	0	-0	0	0	0.098	0.1	0	-0	0	0	0	0	0	-0	0	0.05595	0	0	0	-0	0	0	0	0	0	-0	0	547.106	550.51	324.718	201.509	0.142891	-0.285563	-0.0184663	-0.00322587	0.451825
10	-0.0150768	0.0298742	0.0145689	0.0283612	-0.0113316	0.0312406	0.0245459	-0.0299302	0.00217334	0.00108669	9.22991e-07	-0.00267142	0.0531032	-0.000207365	0.0193022	-2.20021	-0.00696339	-1.56284	0	0	0	0	-0	0	0	0	-0.1265	0	-0	0	0	0	0	0	-0	0	0.105	0.015	0	0	-0	0	0	0.098	0.1	0	-0	0	0	0	0	0	-0	0	0.05595	0	0	0	-0	0	0	0	0	0	-0	0	548.977	549.675	324.372	201.165	0.222023	-1.06521	-0.0120644	-0.00373472	2.23646
11	-0.0123652	0.0311173	0.0147379	0.0277479	-0.0119612	0.0317685	0.0245593	-0.0299454	0.00211431	-0.00303454	-0.00467968	-0.00966067	0.0520697	-0.00027988	0.0207859	-2.19808	-0.00645049	-1.56277	0	0	0	0	-0	0	0	0	-0.1265	0	-0	0	0	0	0	0	-0	0	0.105	0.015	0	0	-0	0	0	0.098	0.1	0	-0	0	0	0	0	0	-0	0	0.05595	0	0	0	-0	0	0	0	0	0	-0	0	552.598	548.183	323.753	200.162	0.328553	-2.26907	0.000423537	-0.0046228	5.10571
12	-0.0332177	0.032391	0.0150013	0.0270364	-0.0125245	0.032296	0.0245752	-0.0299584	0.00205236	-0.0113764	0.0153754	0.00242619	0.0513342	-0.000364255	0.0212468	-2.21721	-0.00558928	-1.56248	0	0	0	0	-0	0	0	0	-0.1265	0	-0	0	0	0	0	0	-0	0	0.105	0.015	0	0	-0	0	0	0.098	0.1	0	-0	0	0	0	0	0	-0	0	0.05595	0	0	0	-0	0	0	0	0	0	-0	0	557.3	547.073	323.064	197.691	0.409134	-3.34754	0.0145507	-0.00556023	7.75442
13	-0.0432989	0.0328975	0.0151348	0.026646	-0.0127061	0.0325291	0.0245809	-0.0299584	0.00201399	-0.0205024	0.0398409	0.0081655	0.0508633	-0.000410525	0.0216851	-2.22336	-0.00547516	-1.56274	0	0	0	0	-0	0	0	0	-0.1265	0	-0	0	0	0	0	0	-0	0	0.105	0.015	0	0	-0	0	0	0.098	0.1	0	-0	0	0	0	0	0	-0	0	0.05595	0	0	0	-0	0	0	0	0	0	-0	0	560.292	547.411	323.094	194.554	0.433204	-3.67709	0.020174	-0.00574693	8.4623
14	-0.0444872	0.0329667	0.0152077	0.0264417	-0.0126727	0.0326462	0.0245884	-0.0299627	0.00199193	-0.0234539	0.0340014	-0.0172342	0.0502672	-0.000453317	0.0224347	-2.2144	-0.00606161	-1.56371	0	0	0	0	-0	0	0	0	-0.1265	0	-0	0	0	0	0	0	-0	0	0.105	0.015	0	0	-0	0	0	0.098	0.1	0	-0	0	0	0	0	0	-0	0	0.05595	0	0	0	-0	0	0	0	0	0	-0	0	563.296	549.715	323.917	187.928	0.413673	-3.36513	0.0186979	-0.00539231	7.31762
15	-0.0751574	0.0329799	0.0152565	0.0263275	-0.0126514	0.0326709	0.0245933	-0.0299613	0.00198071	-0.0428056	0.0128481	-0.0285359	0.0506828	-0.000475049	0.0212359	-2.23903	-0.00582592	-1.5637	0	0	0	0	-0	0	0	0	-0.1265	0	-0	0	0	0	0	0	-0	0	0.105	0.015	0	0	-0	0	0	0.098	0.1	0	-0	0	0	0	0	0	-0	0	0.05595	0	0	0	-0	0	0	0	0	0	-0	0	564.545	551.019	324.092	184.065	0.400337	-3.17489	0.0170321	-0.00545866	6.728
16	-0.0771123	0.0330066	0.0152734	0.0262847	-0.0126643	0.0326712	0.0245859	-0.0299483	0.00197691	-0.0413436	0.0326085	-0.0237435	0.0506551	-0.000480544	0.0212099	-2.23984	-0.00575358	-1.56367	0	0	0	0	-0	0	0	0	-0.1265	0	-0	0	0	0	0	0	-0	0	0.105	0.015	0	0	-0	0	0	0.098	0.1	0	-0	0	0	0	0	0	-0	0	0.05595	0	0	0	-0	0	0	0	0	0	-0	0	564.759	551.258	324.07	183.321	0.400352	-3.16003	0.0167538	-0.0055548	6.66565
17	-0.0682826	0.0329937	0.0152797	0.0262631	-0.012654	0.0326761	0.0245818	-0.029947	0.00197392	-0.0414965	0.0247644	-0.0305208	0.0504128	-0.000484605	0.0217307	-2.22948	-0.00569514	-1.56365	0	0	0	0	-0	0	0	0	-0.1265	0	-0	0	0	0	0	0	-0	0	0.105	0.015	0	0	-0	0	0	0.098	0.1	0	-0	0	0	0	0	0	-0	0	0.05595	0	0	0	-0	0	0	0	0	0	-0	0	564.995	551.572	324.021	182.365	0.399015	-3.12167	0.0161199	-0.00557072	6.53694
18	-0.0572072	0.0329662	0.0152875	0.0262383	-0.012635	0.0326785	0.0245871	-0.0299541	0.0019702	-0.0310691	0.0307773	-0.00870119	0.0501047	-0.000489295	0.0223711	-2.21631	-0.00554914	-1.56356	0	0	0	0	-0	0	0	0	-0.1265	0	-0	0	0	0	0	0	-0	0	0.105	0.015	0	0	-0	0	0	0.098	0.1	0	-0	0	0	0	0	0	-0	0	0.05595	0	0	0	-0	0	0	0	0	0	-0	0	565.262	551.996	323.905	181.062	0.396715	-3.06317	0.0151295	-0.0056106	6.34935
19	-0.0659529	0.0329476	0.0152941	0.0262176	-0.0126237	0.0326766	0.0245863	-0.0299518	0.00197138	-0.0373499	0.0318718	0.0135519	0.0502529	-0.000492575	0.0219849	-2.22358	-0.00526504	-1.56333	0	0	0	0	-0	0	0	0	-0.1265	0	-0	0	0	0	0	0	-0	0	0.105	0.015	0	0	-0	0	0	0.098	0.1	0	-0	0	0	0	0	0	-0	0	0.05595	0	0	0	-0	0	0	0	0	0	-0	0	565.417	552.288	323.769	180.151	0.396048	-3.02746	0.0143705	-0.00567332	6.23056
20	-0.0758232	0.0329329	0.0152979	0.026204	-0.012616	0.0326739	0.0245839	-0.0299459	0.00196831	-0.0473492	0.0190994	0.0127645	0.0504396	-0.000494839	0.021525	-2.23239	-0.00499022	-1.56311	0	0	0	0	-0	0	0	0	-0.1265	0	-0	0	0	0	0	0	-0	0	0.105	0.015	0	0	-0	0	0	0.098	0.1	0	-0	0	0	0	0	0	-0	0	0.05595	0	0	0	-0	0	0	0	0	0	-0	0	565.515	552.501	323.639	179.501	0.395986	-3.0041	0.0137806	-0.00572927	6.15138
21	-0.081179	0.0329291	0.0153002	0.026197	-0.0126149	0.0326713	0.0245809	-0.0299441	0.00196806	-0.0505924	0.0204497	0.0219228	0.0505427	-0.000495831	0.021267	-2.23741	-0.00487451	-1.56303	0	0	0	0	-0	0	0	0	-0.1265	0	-0	0	0	0	0	0	-0	0	0.105	0.015	0	0	-0	0	0	0.098	0.1	0	-0	0	0	0	0	0	-0	0	0.05595	0	0	0	-0	0	0	0	0	0	-0	0	565.543	552.571	323.59	179.293	0.396386	-2.99842	0.0135689	-0.0057567	6.12883
22	-0.075211	0.0329082	0.0153036	0.0261831	-0.012603	0.0326712	0.0245833	-0.0299467	0.00196986	-0.0584492	0.0265438	0.0390733	0.0503856	-0.000497707	0.0216071	-2.23013	-0.00461288	-1.5628	0	0	0	0	-0	0	0	0	-0.1265	0	-0	0	0	0	0	0	-0	0	0.105	0.015	0	0	-0	0	0	0.098	0.1	0	-0	0	0	0	0	0	-0	0	0.05595	0	0	0	-0	0	0	0	0	0	-0	0	565.645	552.825	323.38	178.489	0.395998	-2.96876	0.0128246	-0.00582734	6.03294
23	-0.0723168	0.0328978	0.0153061	0.026174	-0.0125987	0.0326667	0.0245804	-0.0299447	0.00196629	-0.0442345	0.0290053	0.037521	0.0503063	-0.00049904	0.021772	-2.22659	-0.0044635	-1.56266	0	0	0	0	-0	0	0	0	-0.1265	0	-0	0	0	0	0	0	-0	0	0.105	0.015	0	0	-0	0	0	0.098	0.1	0	-0	0	0	0	0	0	-0	0	0.05595	0	0	0	-0	0	0	0	0	0	-0	0	565.684	552.951	323.258	178.099	0.396565	-2.95712	0.0124113	-0.00588181	5.99031
24	-0.0722237	0.0328842	0.0153093	0.0261625	-0.0125923	0.0326648	0.0245809	-0.0299442	0.00196856	-0.0325669	0.020903	0.0249819	0.0502848	-0.000500304	0.0218012	-2.22558	-0.00419333	-1.56242	0	0	0	0	-0	0	0	0	-0.1265	0	-0	0	0	0	0	0	-0	0	0.105	0.015	0	0	-0	0	0	0.098	0.1	0	-0	0	0	0	0	0	-0	0	0.05595	0	0	0	-0	0	0	0	0	0	-0	0	565.733	553.122	323.063	177.539	0.397077	-2.94055	0.0118409	-0.0059546	5.93241
25	-0.0692334	0.0328679	0.0153121	0.0261502	-0.0125853	0.0326605	0.0245786	-0.0299423	0.00196185	-0.0476935	0.0319353	0.0171372	0.0502006	-0.000501594	0.0219756	-2.2216	-0.003893	-1.56215	0	0	0	0	-0	0	0	0	-0.1265	0	-0	0	0	0	0	0	-0	0	0.105	0.015	0	0	-0	0	0	0.098	0.1	0	-0	0	0	0	0	0	-0	0	0.05595	0	0	0	-0	0	0	0	0	0	-0	0	565.773	553.31	322.825	176.94	0.39794	-2.92384	0.011184	-0.00604603	5.87272
26	-0.0473174	0.032828	0.0153288	0.0261023	-0.0125655	0.0326565	0.0245807	-0.0299574	0.00198312	-0.0850674	0.0561035	0.0397902	0.0496562	-0.000505072	0.0231567	-2.19608	-0.00268464	-1.56094	0	0	0	0	-0	0	0	0	-0.1265	0	-0	0	0	0	0	0	-0	0	0.105	0.015	0	0	-0	0	0	0.098	0.1	0	-0	0	0	0	0	0	-0	0	0.05595	0	0	0	-0	0	0	0	0	0	-0	0	565.904	553.918	321.759	174.765	0.39987	-2.86537	0.00901461	-0.00644759	5.67202
27	-0.0516943	0.0328091	0.0153273	0.0260983	-0.0125645	0.0326343	0.0245797	-0.0299374	0.00196047	-0.0872575	0.0466271	0.0422103	0.0497327	-0.000506764	0.0229437	-2.19996	-0.00240358	-1.56065	0	0	0	0	-0	0	0	0	-0.1265	0	-0	0	0	0	0	0	-0	0	0.105	0.015	0	0	-0	0	0	0.098	0.1	0	-0	0	0	0	0	0	-0	0	0.05595	0	0	0	-0	0	0	0	0	0	-0	0	565.873	554.042	321.563	174.468	0.403596	-2.86576	0.00834682	-0.00654368	5.65246
28	-0.0558818	0.0327977	0.0153314	0.0260846	-0.0125631	0.0326299	0.0245792	-0.0299378	0.00196028	-0.0838044	0.0527096	0.0489399	0.0498232	-0.000506838	0.022741	-2.20348	-0.00199518	-1.56029	0	0	0	0	-0	0	0	0	-0.1265	0	-0	0	0	0	0	0	-0	0	0.105	0.015	0	0	-0	0	0	0.098	0.1	0	-0	0	0	0	0	0	-0	0	0.05595	0	0	0	-0	0	0	0	0	0	-0	0	565.844	554.199	321.274	174.07	0.405995	-2.86281	0.00768733	-0.00665148	5.63101
29	-0.054619	0.0327893	0.0153312	0.0260821	-0.0125617	0.0326241	0.0245784	-0.0299366	0.0019599	-0.0857046	0.0467202	0.0471016	0.0497911	-0.000507113	0.0228067	-2.20194	-0.00184662	-1.56014	0	0	0	0	-0	0	0	0	-0.1265	0	-0	0	0	0	0	0	-0	0	0.105	0.015	0	0	-0	0	0	0.098	0.1	0	-0	0	0	0	0	0	-0	0	0.05595	0	0	0	-0	0	0	0	0	0	-0	0	565.829	554.267	321.148	173.908	0.407426	-2.86219	0.00736475	-0.00670173	5.62176
30	-0.0644709	0.0327821	0.0153314	0.0260789	-0.0125608	0.0326202	0.0245786	-0.0299391	0.00195994	-0.0985525	0.0434693	0.0478183	0.0500138	-0.000507107	0.022318	-2.21142	-0.00151669	-1.5599	0	0	0	0	-0	0	0	0	-0.1265	0	-0	0	0	0	0	0	-0	0	0.105	0.015	0	0	-0	0	0	0.098	0.1	0	-0	0	0	0	0	0	-0	0	0.05595	0	0	0	-0	0	0	0	0	0	-0	0	565.811	554.354	320.969	173.689	0.408699	-2.86008	0.00699069	-0.00676983	5.60932
31	-0.0563545	0.0327721	0.015333	0.0260717	-0.01256	0.0326142	0.0245843	-0.0299351	0.00196026	-0.0983092	0.0185854	0.0472636	0.0498243	-0.000507158	0.02273	-2.20251	-0.00109606	-1.55943	0	0	0	0	-0	0	0	0	-0.1265	0	-0	0	0	0	0	0	-0	0	0.105	0.015	0	0	-0	0	0	0.098	0.1	0	-0	0	0	0	0	0	-0	0	0.05595	0	0	0	-0	0	0	0	0	0	-0	0	565.789	554.534	320.564	173.217	0.41098	-2.85507	0.00626516	-0.00692683	5.58335
32	-0.0565765	0.0327614	0.0153341	0.0260647	-0.0125584	0.0326058	0.0245781	-0.0299371	0.00195789	-0.0921371	0.0162727	0.0573082	0.0498241	-0.000507409	0.0227215	-2.20234	-0.000825688	-1.55916	0	0	0	0	-0	0	0	0	-0.1265	0	-0	0	0	0	0	0	-0	0	0.105	0.015	0	0	-0	0	0	0.098	0.1	0	-0	0	0	0	0	0	-0	0	0.05595	0	0	0	-0	0	0	0	0	0	-0	0	565.769	554.634	320.35	172.984	0.412909	-2.85367	0.00580159	-0.00701154	5.56984
33	-0.0589194	0.0327542	0.015335	0.026062	-0.0125591	0.0326001	0.0245795	-0.0299381	0.00195947	-0.0984629	0.0139293	0.0707161	0.0498741	-0.000507439	0.0226086	-2.20411	-0.000388402	-1.55876	0	0	0	0	-0	0	0	0	-0.1265	0	-0	0	0	0	0	0	-0	0	0.105	0.015	0	0	-0	0	0	0.098	0.1	0	-0	0	0	0	0	0	-0	0	0.05595	0	0	0	-0	0	0	0	0	0	-0	0	565.744	554.775	320.02	172.644	0.415088	-2.85192	0.00521365	-0.00714076	5.55465
34	-0.0713955	0.0327463	0.0153398	0.0260496	-0.0125633	0.0325893	0.0245776	-0.0299363	0.00195809	-0.108438	0.0108947	0.0628747	0.0501461	-0.000507523	0.0219988	-2.21524	0.00080271	-1.55776	0	0	0	0	-0	0	0	0	-0.1265	0	-0	0	0	0	0	0	-0	0	0.105	0.015	0	0	-0	0	0	0.098	0.1	0	-0	0	0	0	0	0	-0	0	0.05595	0	0	0	-0	0	0	0	0	0	-0	0	565.716	555.101	319.182	171.846	0.419442	-2.84724	0.00394956	-0.00747353	5.52145
35	-0.0737133	0.0327304	0.0153407	0.0260433	-0.0125643	0.0325718	0.0245716	-0.0299487	0.0019649	-0.072174	-0.00460514	0.0548194	0.0501903	-0.000507711	0.0218832	-2.21689	0.00140852	-1.55722	0	0	0	0	-0	0	0	0	-0.1265	0	-0	0	0	0	0	0	-0	0	0.105	0.015	0	0	-0	0	0	0.098	0.1	0	-0	0	0	0	0	0	-0	0	0.05595	0	0	0	-0	0	0	0	0	0	-0	0	565.665	555.302	318.729	171.451	0.423643	-2.84741	0.00301985	-0.00765373	5.50341
36	-0.0740755	0.0327196	0.0153388	0.026048	-0.0125657	0.0325609	0.0245762	-0.0299361	0.00195763	-0.0857404	-0.00365279	0.0466894	0.0501979	-0.000507648	0.0218642	-2.21675	0.0018661	-1.55678	0	0	0	0	-0	0	0	0	-0.1265	0	-0	0	0	0	0	0	-0	0	0.105	0.015	0	0	-0	0	0	0.098	0.1	0	-0	0	0	0	0	0	-0	0	0.05595	0	0	0	-0	0	0	0	0	0	-0	0	565.625	555.458	318.367	171.159	0.426567	-2.84776	0.0023347	-0.00779844	5.49264
37	-0.0657599	0.0327129	0.0153407	0.0260409	-0.0125657	0.0325537	0.0245765	-0.029934	0.00195799	-0.080553	-0.00416242	0.056804	0.050016	-0.000507663	0.022281	-2.20823	0.0019432	-1.55658	0	0	0	0	-0	0	0	0	-0.1265	0	-0	0	0	0	0	0	-0	0	0.105	0.015	0	0	-0	0	0	0.098	0.1	0	-0	0	0	0	0	0	-0	0	0.05595	0	0	0	-0	0	0	0	0	0	-0	0	565.604	555.531	318.212	171.04	0.428167	-2.84806	0.00198994	-0.00785981	5.48672
38	-0.0713462	0.0327098	0.0153411	0.0260392	-0.0125694	0.0325474	0.0245782	-0.0299369	0.00195852	-0.0666347	0.002792	0.0654902	0.0501404	-0.000507263	0.0219984	-2.2134	0.00241756	-1.5562	0	0	0	0	-0	0	0	0	-0.1265	0	-0	0	0	0	0	0	-0	0	0.105	0.015	0	0	-0	0	0	0.098	0.1	0	-0	0	0	0	0	0	-0	0	0.05595	0	0	0	-0	0	0	0	0	0	-0	0	565.57	555.665	317.891	170.797	0.430377	-2.84914	0.00144939	-0.00798833	5.48146
39	-0.0658784	0.032706	0.0153418	0.0260374	-0.0125749	0.0325372	0.024577	-0.0299308	0.0019554	-0.0535899	-0.021592	0.0735397	0.0500199	-0.000506844	0.022271	-2.20733	0.00293679	-1.55561	0	0	0	0	-0	0	0	0	-0.1265	0	-0	0	0	0	0	0	-0	0	0.105	0.015	0	0	-0	0	0	0.098	0.1	0	-0	0	0	0	0	0	-0	0	0.05595	0	0	0	-0	0	0	0	0	0	-0	0	565.529	555.864	317.404	170.445	0.433745	-2.85097	0.0006536	-0.00818414	5.47383
40	-0.0674248	0.0326993	0.0153425	0.0260343	-0.0125743	0.03253	0.024575	-0.0299314	0.00195875	-0.0524435	-0.0201269	0.0680603	0.0500516	-0.000507202	0.0221952	-2.20879	0.00304797	-1.55552	0	0	0	0	-0	0	0	0	-0.1265	0	-0	0	0	0	0	0	-0	0	0.105	0.015	0	0	-0	0	0	0.098	0.1	0	-0	0	0	0	0	0	-0	0	0.05595	0	0	0	-0	0	0	0	0	0	-0	0	565.518	555.896	317.334	170.396	0.435062	-2.85199	0.000444819	-0.00821298	5.47064
41	-0.068809	0.0326971	0.0153419	0.0260363	-0.0125751	0.0325272	0.0245758	-0.0299313	0.00195884	-0.0488787	-0.0124066	0.0648394	0.0500837	-0.000507058	0.0221238	-2.21006	0.0031893	-1.55541	0	0	0	0	-0	0	0	0	-0.1265	0	-0	0	0	0	0	0	-0	0	0.105	0.015	0	0	-0	0	0	0.098	0.1	0	-0	0	0	0	0	0	-0	0	0.05595	0	0	0	-0	0	0	0	0	0	-0	0	565.505	555.939	317.237	170.329	0.435728	-2.8518	0.000264087	-0.00825235	5.468
42	-0.0641889	0.0326954	0.0153419	0.026036	-0.0125769	0.0325236	0.0245755	-0.0299311	0.00195809	-0.0511187	-0.00363827	0.0579013	0.0499829	-0.000506826	0.022353	-2.20527	0.00329783	-1.55522	0	0	0	0	-0	0	0	0	-0.1265	0	-0	0	0	0	0	0	-0	0	0.105	0.015	0	0	-0	0	0	0.098	0.1	0	-0	0	0	0	0	0	-0	0	0.05595	0	0	0	-0	0	0	0	0	0	-0	0	565.488	556.003	317.09	170.23	0.436769	-2.85212	5.00426e-06	-0.00831131	5.46525
43	-0.084928	0.0327002	0.0153436	0.026035	-0.0125881	0.0325149	0.0245688	-0.0299426	0.00197122	-0.0892486	0.0243589	0.0679422	0.0504471	-0.000506175	0.0213153	-2.22532	0.00437645	-1.55457	0	0	0	0	-0	0	0	0	-0.1265	0	-0	0	0	0	0	0	-0	0	0.105	0.015	0	0	-0	0	0	0.098	0.1	0	-0	0	0	0	0	0	-0	0	0.05595	0	0	0	-0	0	0	0	0	0	-0	0	565.452	556.253	316.473	169.82	0.440648	-2.85649	-0.00089655	-0.0085634	5.46379
44	-0.0809296	0.0326928	0.0153411	0.0260403	-0.0125916	0.0325014	0.0245744	-0.0299315	0.00196041	-0.0780052	0.027742	0.0681476	0.0503515	-0.000506148	0.0215108	-2.22096	0.0047196	-1.55417	0	0	0	0	-0	0	0	0	-0.1265	0	-0	0	0	0	0	0	-0	0	0.105	0.015	0	0	-0	0	0	0.098	0.1	0	-0	0	0	0	0	0	-0	0	0.05595	0	0	0	-0	0	0	0	0	0	-0	0	565.418	556.392	316.151	169.616	0.443535	-2.85778	-0.0015139	-0.00869593	5.45652
45	-0.0869465	0.032716	0.015349	0.0260352	-0.0126216	0.032485	0.0245647	-0.0299528	0.00195748	-0.0315374	0.00839082	0.0747163	0.0504777	-0.000505264	0.0212138	-2.22561	0.00650173	-1.55261	0	0	0	0	-0	0	0	0	-0.1265	0	-0	0	0	0	0	0	-0	0	0.105	0.015	0	0	-0	0	0	0.098	0.1	0	-0	0	0	0	0	0	-0	0	0.05595	0	0	0	-0	0	0	0	0	0	-0	0	565.394	556.94	314.783	168.793	0.45162	-2.86938	-0.00332444	-0.00926491	5.4613
46	-0.0924826	0.0327001	0.0153471	0.0260401	-0.0126222	0.0324634	0.0245738	-0.0299283	0.00196085	-0.0298646	0.0135596	0.0673755	0.050592	-0.000505774	0.020935	-2.23094	0.00686997	-1.55239	0	0	0	0	-0	0	0	0	-0.1265	0	-0	0	0	0	0	0	-0	0	0.105	0.015	0	0	-0	0	0	0.098	0.1	0	-0	0	0	0	0	0	-0	0	0.05595	0	0	0	-0	0	0	0	0	0	-0	0	565.357	557.054	314.575	168.678	0.455245	-2.86945	-0.00398471	-0.00935251	5.44624
47	-0.100899	0.0327098	0.0153489	0.0260405	-0.0126428	0.0324465	0.0245783	-0.0299317	0.00196498	-0.0346735	-0.00046083	0.0505888	0.050777	-0.000504271	0.0204962	-2.23857	0.00806945	-1.55149	0	0	0	0	-0	0	0	0	-0.1265	0	-0	0	0	0	0	0	-0	0	0.105	0.015	0	0	-0	0	0	0.098	0.1	0	-0	0	0	0	0	0	-0	0	0.05595	0	0	0	-0	0	0	0	0	0	-0	0	565.3	557.453	313.733	168.218	0.460651	-2.87443	-0.00533363	-0.00970426	5.44437
48	-0.105277	0.032705	0.0153477	0.0260439	-0.012652	0.0324267	0.0245733	-0.0299353	0.00197143	-0.0569419	0.0120276	0.0683288	0.0508692	-0.000503766	0.020266	-2.24254	0.00871368	-1.55101	0	0	0	0	-0	0	0	0	-0.1265	0	-0	0	0	0	0	0	-0	0	0.105	0.015	0	0	-0	0	0	0.098	0.1	0	-0	0	0	0	0	0	-0	0	0.05595	0	0	0	-0	0	0	0	0	0	-0	0	565.252	557.68	313.289	167.988	0.464832	-2.87627	-0.00625621	-0.00989163	5.43524
49	-0.106048	0.0327041	0.0153459	0.0260523	-0.0126602	0.0324142	0.0245729	-0.0299306	0.00196179	-0.0709398	0.011939	0.0555734	0.0508888	-0.000503312	0.0202199	-2.24301	0.00916141	-1.55062	0	0	0	0	-0	0	0	0	-0.1265	0	-0	0	0	0	0	0	-0	0	0.105	0.015	0	0	-0	0	0	0.098	0.1	0	-0	0	0	0	0	0	-0	0	0.05595	0	0	0	-0	0	0	0	0	0	-0	0	565.22	557.859	312.945	167.816	0.467651	-2.87748	-0.00692488	-0.0100385	5.43005
50	-0.109306	0.0327237	0.0153479	0.0260587	-0.0126861	0.0323983	0.0245742	-0.0299228	0.00196138	-0.0585688	-0.0163113	0.0631065	0.0509591	-0.000502234	0.0200493	-2.2456	0.0102401	-1.54973	0	0	0	0	-0	0	0	0	-0.1265	0	-0	0	0	0	0	0	-0	0	0.105	0.015	0	0	-0	0	0	0.098	0.1	0	-0	0	0	0	0	0	-0	0	0.05595	0	0	0	-0	0	0	0	0	0	-0	0	565.194	558.26	312.13	167.417	0.473468	-2.88598	-0.00820166	-0.0103876	5.43571
