Stefan210/kinematic_calibration/src/kinematic_calibration/validation/experiments/experiments/impact_noise/outlier/larm_randomize_12_measurements_rk_false/optimization_intermediate_results.csv
iteration	HeadPitch_offset	HeadYaw_offset	LElbowRoll_offset	LElbowYaw_offset	LShoulderPitch_offset	LShoulderRoll_offset	marker_transform_larm_tx	marker_transform_larm_ty	marker_transform_larm_tz	marker_transform_larm_rr	marker_transform_larm_rp	marker_transform_larm_ry	camera_transform_tx	camera_transform_ty	camera_transform_tz	camera_transform_rr	camera_transform_rp	camera_transform_ry	HeadPitch_transform_tx	HeadPitch_transform_ty	HeadPitch_transform_tz	HeadPitch_transform_rr	HeadPitch_transform_rp	HeadPitch_transform_ry	HeadYaw_transform_tx	HeadYaw_transform_ty	HeadYaw_transform_tz	HeadYaw_transform_rr	HeadYaw_transform_rp	HeadYaw_transform_ry	LElbowRoll_transform_tx	LElbowRoll_transform_ty	LElbowRoll_transform_tz	LElbowRoll_transform_rr	LElbowRoll_transform_rp	LElbowRoll_transform_ry	LElbowYaw_transform_tx	LElbowYaw_transform_ty	LElbowYaw_transform_tz	LElbowYaw_transform_rr	LElbowYaw_transform_rp	LElbowYaw_transform_ry	LShoulderPitch_transform_tx	LShoulderPitch_transform_ty	LShoulderPitch_transform_tz	LShoulderPitch_transform_rr	LShoulderPitch_transform_rp	LShoulderPitch_transform_ry	LShoulderRoll_transform_tx	LShoulderRoll_transform_ty	LShoulderRoll_transform_tz	LShoulderRoll_transform_rr	LShoulderRoll_transform_rp	LShoulderRoll_transform_ry	LWristYaw_transform_tx	LWristYaw_transform_ty	LWristYaw_transform_tz	LWristYaw_transform_rr	LWristYaw_transform_rp	LWristYaw_transform_ry	l_wrist_joint_transform_tx	l_wrist_joint_transform_ty	l_wrist_joint_transform_tz	l_wrist_joint_transform_rr	l_wrist_joint_transform_rp	l_wrist_joint_transform_ry	camera_fx	camera_fy	camera_cx	camera_cy	camera_D0	camera_D1	camera_D2	camera_D3	camera_D4	
0	0.0249164	-0.0307543	0.000853157	4.65819e-06	-0.000318322	-0.00310766	0.05071	0	0.01774	-2.26369	1.66533e-16	-1.5708	545.901	551.038	324.928	201.58	0.0255298	2.61142	-0.0636736	-0.0350419	0.213964
1	-0.017643	0.0560933	0.0405979	-0.00202171	0.0875464	-0.00910257	0.0315356	-0.0283627	0.000186531	7.88675e-05	-0.000229876	-0.00206162	0.0377731	-0.00129944	0.0176285	-2.19109	-0.0412041	-1.70402	0	0	0	0	-0	0	0	0	-0.1265	0	-0	0	0	0	0	0	-0	0	0.105	0.015	0	0	-0	0	0	0.098	0.1	0	-0	0	0	0	0	0	-0	0	0.05595	0	0	0	-0	0	0	0	0	0	-0	0	545.902	551.038	324.928	201.58	0.0304273	2.61989	0.0532582	0.0763336	0.216203
2	-0.0145608	0.124555	0.0134837	0.113138	0.0631235	-0.00351236	0.0299052	-0.0282902	0.0123293	-0.00129351	-0.00174368	-0.00223954	0.030756	0.00751475	0.0297593	-2.19607	-0.0993905	-1.77434	0	0	0	0	-0	0	0	0	-0.1265	0	-0	0	0	0	0	0	-0	0	0.105	0.015	0	0	-0	0	0	0.098	0.1	0	-0	0	0	0	0	0	-0	0	0.05595	0	0	0	-0	0	0	0	0	0	-0	0	545.904	551.037	324.928	201.582	-0.117124	2.57998	0.147673	0.033817	0.207827
3	-0.0174583	0.178273	0.00733885	0.178283	0.0575066	0.0283263	0.0297267	-0.0276233	0.0191164	-0.00209105	-0.00253315	-0.00216442	0.036365	0.0157597	0.0261667	-2.17282	-0.138219	-1.8688	0	0	0	0	-0	0	0	0	-0.1265	0	-0	0	0	0	0	0	-0	0	0.105	0.015	0	0	-0	0	0	0.098	0.1	0	-0	0	0	0	0	0	-0	0	0.05595	0	0	0	-0	0	0	0	0	0	-0	0	545.909	551.032	324.928	201.59	-0.473662	2.51295	0.154419	0.0749812	0.197703
4	-0.0172219	0.221752	-0.0205744	0.29711	0.0554874	0.0367193	0.0268387	-0.0258521	0.031538	-0.00347741	-0.00428145	-0.00227971	0.0429887	0.0207973	0.0222949	-2.15845	-0.178308	-1.93498	0	0	0	0	-0	0	0	0	-0.1265	0	-0	0	0	0	0	0	-0	0	0.105	0.015	0	0	-0	0	0	0.098	0.1	0	-0	0	0	0	0	0	-0	0	0.05595	0	0	0	-0	0	0	0	0	0	-0	0	545.929	551.016	324.926	201.614	-1.47203	2.31696	0.263988	0.0113776	0.166619
5	-0.0187418	0.297044	-0.0537292	0.327134	0.0508642	0.0571145	0.0241613	-0.0238021	0.0351721	-0.00406637	-0.00504973	-0.0022882	0.055405	0.0272913	0.0118889	-2.11959	-0.240718	-2.06334	0	0	0	0	-0	0	0	0	-0.1265	0	-0	0	0	0	0	0	-0	0	0.105	0.015	0	0	-0	0	0	0.098	0.1	0	-0	0	0	0	0	0	-0	0	0.05595	0	0	0	-0	0	0	0	0	0	-0	0	545.975	550.969	324.93	201.689	-2.67424	2.10582	0.372886	-0.0258799	0.133815
6	-0.0161656	0.352635	-0.0893547	0.355235	0.0638868	0.0494359	0.0212311	-0.0221859	0.0378257	-0.0047256	-0.00560705	-0.00246433	0.0647867	0.0274055	0.00185252	-2.09336	-0.296622	-2.15199	0	0	0	0	-0	0	0	0	-0.1265	0	-0	0	0	0	0	0	-0	0	0.105	0.015	0	0	-0	0	0	0.098	0.1	0	-0	0	0	0	0	0	-0	0	0.05595	0	0	0	-0	0	0	0	0	0	-0	0	546.062	550.878	324.919	201.87	-3.50127	2.04532	0.463221	-0.105411	0.134559
7	-0.0147541	0.399638	-0.118938	0.319685	0.077304	0.0493675	0.0204518	-0.021973	0.034516	-0.00467297	-0.0057961	-0.00188639	0.0723166	0.0259585	-0.00740779	-2.06594	-0.336351	-2.23334	0	0	0	0	-0	0	0	0	-0.1265	0	-0	0	0	0	0	0	-0	0	0.105	0.015	0	0	-0	0	0	0.098	0.1	0	-0	0	0	0	0	0	-0	0	0.05595	0	0	0	-0	0	0	0	0	0	-0	0	546.349	550.572	324.876	202.661	-3.81427	2.58068	0.473406	-0.127564	0.302388
8	-0.0134883	0.416622	-0.135123	0.31098	0.0848037	0.0421272	0.0196602	-0.0218336	0.0329965	-0.00616979	-0.0063165	-0.00204102	0.0760766	0.0205488	-0.0141579	-2.05623	-0.350194	-2.25517	0	0	0	0	-0	0	0	0	-0.1265	0	-0	0	0	0	0	0	-0	0	0.105	0.015	0	0	-0	0	0	0.098	0.1	0	-0	0	0	0	0	0	-0	0	0.05595	0	0	0	-0	0	0	0	0	0	-0	0	547.153	549.658	324.75	205.402	-4.16165	4.15776	0.449683	-0.134361	0.707038
9	-0.0128455	0.46516	-0.166262	0.286172	0.0712051	0.0448166	0.0186452	-0.0213678	0.0299944	0.00409783	-0.00852841	0.004366	0.0797716	0.0181414	-0.0176143	-2.03868	-0.376055	-2.31994	0	0	0	0	-0	0	0	0	-0.1265	0	-0	0	0	0	0	0	-0	0	0.105	0.015	0	0	-0	0	0	0.098	0.1	0	-0	0	0	0	0	0	-0	0	0.05595	0	0	0	-0	0	0	0	0	0	-0	0	549.177	547.153	324.121	213.907	-4.21779	4.60795	0.431001	-0.133423	-0.68672
10	-0.029327	0.480098	-0.179272	0.29311	0.074156	0.0494011	0.0179948	-0.0210304	0.0301597	-0.00894823	0.0190378	-0.00510613	0.081138	0.0150273	-0.0227032	-2.06972	-0.391717	-2.3286	0	0	0	0	-0	0	0	0	-0.1265	0	-0	0	0	0	0	0	-0	0	0.105	0.015	0	0	-0	0	0	0.098	0.1	0	-0	0	0	0	0	0	-0	0	0.05595	0	0	0	-0	0	0	0	0	0	-0	0	553.817	540.916	322.132	235.904	-4.49618	7.11732	0.376533	-0.128498	-4.44664
11	0.00923102	0.533543	-0.213697	0.303688	0.0559486	0.0700524	0.0164123	-0.0202685	0.03081	0.0179137	0.0369177	0.0213605	0.0861428	0.0111542	-0.0228798	-2.06193	-0.375123	-2.39709	0	0	0	0	-0	0	0	0	-0.1265	0	-0	0	0	0	0	0	-0	0	0.105	0.015	0	0	-0	0	0	0.098	0.1	0	-0	0	0	0	0	0	-0	0	0.05595	0	0	0	-0	0	0	0	0	0	-0	0	560.058	527.673	315.263	272.043	-4.67851	9.66589	0.300465	-0.105901	-8.60401
12	-0.0150803	0.529805	-0.222467	0.325388	0.0506945	0.0815026	0.0158219	-0.0202832	0.0328842	0.059183	0.110336	0.0289184	0.0845953	0.0103301	-0.0240907	-2.10607	-0.367348	-2.35652	0	0	0	0	-0	0	0	0	-0.1265	0	-0	0	0	0	0	0	-0	0	0.105	0.015	0	0	-0	0	0	0.098	0.1	0	-0	0	0	0	0	0	-0	0	0.05595	0	0	0	-0	0	0	0	0	0	-0	0	563.677	515.619	309.919	282.94	-4.60949	9.96263	0.292415	-0.0866506	-9.47643
13	-0.0879756	0.518125	-0.217459	0.335	0.0622505	0.0846571	0.0153707	-0.0207754	0.034144	0.0919961	0.0584982	0.0860447	0.083802	0.0106143	-0.0326878	-2.1795	-0.407628	-2.32266	0	0	0	0	-0	0	0	0	-0.1265	0	-0	0	0	0	0	0	-0	0	0.105	0.015	0	0	-0	0	0	0.098	0.1	0	-0	0	0	0	0	0	-0	0	0.05595	0	0	0	-0	0	0	0	0	0	-0	0	565.12	502.3	302.022	293.701	-4.54807	10.862	0.268862	-0.0464933	-11.0098
14	0.0248327	0.481995	-0.198293	0.342956	0.0662105	0.0835603	0.0157214	-0.0213395	0.0354455	0.0458383	0.0806881	0.0603236	0.0858976	0.011094	-0.0220247	-2.10777	-0.28827	-2.28315	0	0	0	0	-0	0	0	0	-0.1265	0	-0	0	0	0	0	0	-0	0	0.105	0.015	0	0	-0	0	0	0.098	0.1	0	-0	0	0	0	0	0	-0	0	0.05595	0	0	0	-0	0	0	0	0	0	-0	0	564.513	480.235	289.607	288.358	-4.67561	12.1845	0.319003	0.00406418	-13.313
15	0.0846275	0.488498	-0.191969	0.340534	0.0765911	0.0849607	0.0155085	-0.0218854	0.0361096	0.0461628	-0.0326609	0.00266774	0.0905939	0.00798214	-0.0219499	-2.072	-0.249988	-2.30843	0	0	0	0	-0	0	0	0	-0.1265	0	-0	0	0	0	0	0	-0	0	0.105	0.015	0	0	-0	0	0	0.098	0.1	0	-0	0	0	0	0	0	-0	0	0.05595	0	0	0	-0	0	0	0	0	0	-0	0	559.368	478.01	282.603	300.929	-4.75868	13.5694	0.235974	0.0313878	-14.3033
16	0.0842164	0.488017	-0.198215	0.343331	0.0680071	0.0932976	0.0151299	-0.0219325	0.0358568	0.0461914	-0.0326996	0.00263103	0.0892373	0.00755204	-0.0191842	-2.08429	-0.235341	-2.28137	0	0	0	0	-0	0	0	0	-0.1265	0	-0	0	0	0	0	0	-0	0	0.105	0.015	0	0	-0	0	0	0.098	0.1	0	-0	0	0	0	0	0	-0	0	0.05595	0	0	0	-0	0	0	0	0	0	-0	0	559.368	478.01	282.603	300.929	-4.76289	13.5679	0.240263	0.0338422	-14.3039
17	0.0831553	0.485959	-0.196013	0.343573	0.067458	0.0901617	0.0153875	-0.021804	0.0359404	0.046166	-0.0326678	0.00266205	0.0902436	0.0078781	-0.021314	-2.06964	-0.244148	-2.2962	0	0	0	0	-0	0	0	0	-0.1265	0	-0	0	0	0	0	0	-0	0	0.105	0.015	0	0	-0	0	0	0.098	0.1	0	-0	0	0	0	0	0	-0	0	0.05595	0	0	0	-0	0	0	0	0	0	-0	0	559.368	478.01	282.603	300.929	-4.76758	13.567	0.246222	0.0294254	-14.3041
18	0.0836597	0.484361	-0.201236	0.347295	0.0614033	0.096915	0.0152139	-0.0218389	0.0359248	0.0461723	-0.0326917	0.00264461	0.0891259	0.00767514	-0.0190111	-2.08265	-0.233779	-2.27434	0	0	0	0	-0	0	0	0	-0.1265	0	-0	0	0	0	0	0	-0	0	0.105	0.015	0	0	-0	0	0	0.098	0.1	0	-0	0	0	0	0	0	-0	0	0.05595	0	0	0	-0	0	0	0	0	0	-0	0	559.368	478.01	282.603	300.929	-4.77387	13.565	0.249464	0.0325707	-14.3048
19	0.0829676	0.482971	-0.198583	0.34694	0.0643114	0.0930052	0.0153468	-0.0218201	0.036036	0.0461599	-0.0326793	0.00265762	0.0900125	0.00819646	-0.0210031	-2.07006	-0.242741	-2.29008	0	0	0	0	-0	0	0	0	-0.1265	0	-0	0	0	0	0	0	-0	0	0.105	0.015	0	0	-0	0	0	0.098	0.1	0	-0	0	0	0	0	0	-0	0	0.05595	0	0	0	-0	0	0	0	0	0	-0	0	559.368	478.01	282.603	300.929	-4.77604	13.5647	0.252099	0.0293317	-14.3048
20	0.0834887	0.483658	-0.20068	0.347664	0.0626528	0.096037	0.0151765	-0.021943	0.0359543	0.0461845	-0.0326988	0.00263455	0.089212	0.00800331	-0.0195407	-2.07893	-0.236681	-2.27826	0	0	0	0	-0	0	0	0	-0.1265	0	-0	0	0	0	0	0	-0	0	0.105	0.015	0	0	-0	0	0	0.098	0.1	0	-0	0	0	0	0	0	-0	0	0.05595	0	0	0	-0	0	0	0	0	0	-0	0	559.368	478.01	282.603	300.929	-4.7779	13.5641	0.252495	0.031555	-14.305
21	0.0830924	0.48288	-0.198649	0.347053	0.0645972	0.0933863	0.0153008	-0.0218903	0.0360417	0.0461695	-0.0326862	0.0026491	0.0898232	0.00824498	-0.020755	-2.0716	-0.241912	-2.28812	0	0	0	0	-0	0	0	0	-0.1265	0	-0	0	0	0	0	0	-0	0	0.105	0.015	0	0	-0	0	0	0.098	0.1	0	-0	0	0	0	0	0	-0	0	0.05595	0	0	0	-0	0	0	0	0	0	-0	0	559.368	478.01	282.603	300.929	-4.781	13.5637	0.254435	0.0293925	-14.3051
22	0.0834542	0.483104	-0.200333	0.347608	0.0631132	0.0958532	0.0152094	-0.0219419	0.0359821	0.046182	-0.0326956	0.0026377	0.0892503	0.0080913	-0.0196611	-2.07833	-0.237082	-2.27883	0	0	0	0	-0	0	0	0	-0.1265	0	-0	0	0	0	0	0	-0	0	0.105	0.015	0	0	-0	0	0	0.098	0.1	0	-0	0	0	0	0	0	-0	0	0.05595	0	0	0	-0	0	0	0	0	0	-0	0	559.368	478.01	282.603	300.929	-4.78267	13.5632	0.254521	0.0311016	-14.3052
23	0.0831552	0.482297	-0.198714	0.346969	0.0647176	0.0937631	0.0153033	-0.0219137	0.0360292	0.0461739	-0.0326849	0.00264788	0.0897231	0.00829488	-0.0206115	-2.07272	-0.241113	-2.28629	0	0	0	0	-0	0	0	0	-0.1265	0	-0	0	0	0	0	0	-0	0	0.105	0.015	0	0	-0	0	0	0.098	0.1	0	-0	0	0	0	0	0	-0	0	0.05595	0	0	0	-0	0	0	0	0	0	-0	0	559.368	478.01	282.602	300.929	-4.78541	13.5628	0.255612	0.0293826	-14.3053
24	0.0834396	0.482245	-0.200139	0.347402	0.0634692	0.0958293	0.0152418	-0.0219432	0.0359773	0.0461826	-0.0326906	0.00264046	0.0892713	0.00817773	-0.0197352	-2.07818	-0.237121	-2.27855	0	0	0	0	-0	0	0	0	-0.1265	0	-0	0	0	0	0	0	-0	0	0.105	0.015	0	0	-0	0	0	0.098	0.1	0	-0	0	0	0	0	0	-0	0	0.05595	0	0	0	-0	0	0	0	0	0	-0	0	559.368	478.01	282.602	300.929	-4.78688	13.5624	0.25554	0.0307528	-14.3054
25	0.0832028	0.481438	-0.198684	0.34666	0.0650371	0.0939383	0.0153186	-0.0219302	0.0360014	0.0461786	-0.0326811	0.00264784	0.0896688	0.0083641	-0.0205553	-2.07348	-0.240579	-2.28482	0	0	0	0	-0	0	0	0	-0.1265	0	-0	0	0	0	0	0	-0	0	0.105	0.015	0	0	-0	0	0	0.098	0.1	0	-0	0	0	0	0	0	-0	0	0.05595	0	0	0	-0	0	0	0	0	0	-0	0	559.368	478.01	282.602	300.929	-4.78926	13.5621	0.256192	0.0292619	-14.3054
26	0.083451	0.481213	-0.199984	0.347027	0.0639045	0.0958073	0.0152732	-0.0219472	0.0359542	0.0461851	-0.0326847	0.00264264	0.0892773	0.00826338	-0.0197833	-2.07836	-0.236963	-2.27777	0	0	0	0	-0	0	0	0	-0.1265	0	-0	0	0	0	0	0	-0	0	0.105	0.015	0	0	-0	0	0	0.098	0.1	0	-0	0	0	0	0	0	-0	0	0.05595	0	0	0	-0	0	0	0	0	0	-0	0	559.368	478.01	282.602	300.929	-4.79056	13.5618	0.256037	0.030469	-14.3055
27	0.0832359	0.480424	-0.19919	0.346788	0.064723	0.0946795	0.0153429	-0.021914	0.0359887	0.0461774	-0.0326769	0.00265093	0.0896088	0.00839255	-0.0204106	-2.07472	-0.239459	-2.28223	0	0	0	0	-0	0	0	0	-0.1265	0	-0	0	0	0	0	0	-0	0	0.105	0.015	0	0	-0	0	0	0.098	0.1	0	-0	0	0	0	0	0	-0	0	0.05595	0	0	0	-0	0	0	0	0	0	-0	0	559.368	478.01	282.602	300.929	-4.7913	13.5617	0.256348	0.0294175	-14.3055
28	0.0834133	0.4797	-0.200069	0.347077	0.0640837	0.0959627	0.0153087	-0.0219413	0.0359519	0.0461844	-0.0326796	0.00264601	0.0893087	0.00837266	-0.0198735	-2.07824	-0.236818	-2.2767	0	0	0	0	-0	0	0	0	-0.1265	0	-0	0	0	0	0	0	-0	0	0.105	0.015	0	0	-0	0	0	0.098	0.1	0	-0	0	0	0	0	0	-0	0	0.05595	0	0	0	-0	0	0	0	0	0	-0	0	559.368	478.01	282.602	300.929	-4.79298	13.5613	0.256288	0.0301899	-14.3056
29	0.0832576	0.479096	-0.19927	0.346756	0.0650284	0.0948355	0.0153524	-0.0219312	0.0359742	0.046181	-0.0326747	0.00265063	0.0895589	0.00849703	-0.0203921	-2.07527	-0.238973	-2.2805	0	0	0	0	-0	0	0	0	-0.1265	0	-0	0	0	0	0	0	-0	0	0.105	0.015	0	0	-0	0	0	0.098	0.1	0	-0	0	0	0	0	0	-0	0	0.05595	0	0	0	-0	0	0	0	0	0	-0	0	559.368	478.01	282.602	300.929	-4.79364	13.5613	0.256532	0.0293059	-14.3056
30	0.0834258	0.47836	-0.199872	0.346886	0.0646367	0.095814	0.0153317	-0.0219511	0.0359436	0.0461866	-0.0326756	0.00264733	0.0893057	0.00847489	-0.0199401	-2.07839	-0.236679	-2.27567	0	0	0	0	-0	0	0	0	-0.1265	0	-0	0	0	0	0	0	-0	0	0.105	0.015	0	0	-0	0	0	0.098	0.1	0	-0	0	0	0	0	0	-0	0	0.05595	0	0	0	-0	0	0	0	0	0	-0	0	559.368	478.01	282.602	300.929	-4.79515	13.561	0.256458	0.0299604	-14.3057
31	0.0832983	0.477847	-0.199074	0.346512	0.0655782	0.0947268	0.0153678	-0.0219477	0.0359595	0.0461847	-0.0326715	0.00265075	0.0895193	0.00858424	-0.0203965	-2.07583	-0.238584	-2.27904	0	0	0	0	-0	0	0	0	-0.1265	0	-0	0	0	0	0	0	-0	0	0.105	0.015	0	0	-0	0	0	0.098	0.1	0	-0	0	0	0	0	0	-0	0	0.05595	0	0	0	-0	0	0	0	0	0	-0	0	559.368	478.01	282.602	300.929	-4.79574	13.5609	0.25664	0.0291776	-14.3056
32	0.0834319	0.477842	-0.199442	0.346481	0.0653705	0.0953085	0.0153361	-0.0219738	0.0359291	0.0461911	-0.0326742	0.00264618	0.089325	0.00854682	-0.0200602	-2.07801	-0.237092	-2.27613	0	0	0	0	-0	0	0	0	-0.1265	0	-0	0	0	0	0	0	-0	0	0.105	0.015	0	0	-0	0	0	0.098	0.1	0	-0	0	0	0	0	0	-0	0	0.05595	0	0	0	-0	0	0	0	0	0	-0	0	559.368	478.01	282.602	300.929	-4.79626	13.5608	0.25652	0.0296874	-14.3057
33	0.0833626	0.47729	-0.198732	0.346008	0.0661287	0.0944885	0.0153772	-0.0219662	0.035933	0.0461897	-0.0326687	0.00265019	0.0894786	0.00861141	-0.0203728	-2.07646	-0.238275	-2.27817	0	0	0	0	-0	0	0	0	-0.1265	0	-0	0	0	0	0	0	-0	0	0.105	0.015	0	0	-0	0	0	0.098	0.1	0	-0	0	0	0	0	0	-0	0	0.05595	0	0	0	-0	0	0	0	0	0	-0	0	559.368	478.01	282.602	300.929	-4.79719	13.5608	0.25661	0.0291272	-14.3056
34	0.0834605	0.477158	-0.199064	0.345993	0.065879	0.0950276	0.015361	-0.0219785	0.0359084	0.0461937	-0.0326695	0.00264793	0.0893335	0.00858013	-0.0201072	-2.07821	-0.237005	-2.27568	0	0	0	0	-0	0	0	0	-0.1265	0	-0	0	0	0	0	0	-0	0	0.105	0.015	0	0	-0	0	0	0.098	0.1	0	-0	0	0	0	0	0	-0	0	0.05595	0	0	0	-0	0	0	0	0	0	-0	0	559.368	478.01	282.602	300.929	-4.79769	13.5607	0.256496	0.0295343	-14.3056
35	0.0834021	0.476578	-0.198485	0.345591	0.0665064	0.0943713	0.0153947	-0.0219758	0.0359072	0.0461932	-0.0326646	0.00265105	0.0894557	0.0086433	-0.020365	-2.07696	-0.237947	-2.2772	0	0	0	0	-0	0	0	0	-0.1265	0	-0	0	0	0	0	0	-0	0	0.105	0.015	0	0	-0	0	0	0.098	0.1	0	-0	0	0	0	0	0	-0	0	0.05595	0	0	0	-0	0	0	0	0	0	-0	0	559.368	478.01	282.602	300.929	-4.79858	13.5607	0.256536	0.029064	-14.3056
36	0.0834823	0.476375	-0.198792	0.345595	0.0662772	0.09486	0.0153837	-0.0219842	0.0358867	0.0461963	-0.0326649	0.00264951	0.0893357	0.00862094	-0.0201426	-2.07845	-0.236846	-2.275	0	0	0	0	-0	0	0	0	-0.1265	0	-0	0	0	0	0	0	-0	0	0.105	0.015	0	0	-0	0	0	0.098	0.1	0	-0	0	0	0	0	0	-0	0	0.05595	0	0	0	-0	0	0	0	0	0	-0	0	559.368	478.01	282.602	300.929	-4.79906	13.5606	0.256434	0.0294034	-14.3056
37	0.0834331	0.475797	-0.19827	0.345232	0.0668759	0.0942636	0.0154121	-0.0219847	0.0358843	0.0461967	-0.0326608	0.00265205	0.0894395	0.00868436	-0.0203724	-2.07736	-0.237677	-2.27628	0	0	0	0	-0	0	0	0	-0.1265	0	-0	0	0	0	0	0	-0	0	0.105	0.015	0	0	-0	0	0	0.098	0.1	0	-0	0	0	0	0	0	-0	0	0.05595	0	0	0	-0	0	0	0	0	0	-0	0	559.368	478.01	282.602	300.929	-4.79989	13.5606	0.256459	0.0289819	-14.3056
38	0.0835049	0.475553	-0.198569	0.345257	0.0666531	0.0947306	0.0154037	-0.0219905	0.0358672	0.046199	-0.0326608	0.00265083	0.0893311	0.00866588	-0.0201692	-2.07874	-0.236645	-2.27419	0	0	0	0	-0	0	0	0	-0.1265	0	-0	0	0	0	0	0	-0	0	0.105	0.015	0	0	-0	0	0	0.098	0.1	0	-0	0	0	0	0	0	-0	0	0.05595	0	0	0	-0	0	0	0	0	0	-0	0	559.368	478.01	282.601	300.929	-4.80034	13.5606	0.256367	0.0292922	-14.3056
39	0.0834599	0.474993	-0.198056	0.344914	0.0672592	0.0941388	0.0154288	-0.0219935	0.0358652	0.0461995	-0.0326569	0.0026528	0.0894266	0.00872969	-0.0203898	-2.0777	-0.23745	-2.27541	0	0	0	0	-0	0	0	0	-0.1265	0	-0	0	0	0	0	0	-0	0	0.105	0.015	0	0	-0	0	0	0.098	0.1	0	-0	0	0	0	0	0	-0	0	0.05595	0	0	0	-0	0	0	0	0	0	-0	0	559.368	478.01	282.601	300.929	-4.8011	13.5606	0.256388	0.0288913	-14.3055
40	0.0835291	0.474722	-0.198368	0.344969	0.0670154	0.0946178	0.0154215	-0.0219973	0.0358507	0.0462015	-0.0326571	0.00265185	0.0893207	0.00871122	-0.0201877	-2.07906	-0.23641	-2.2733	0	0	0	0	-0	0	0	0	-0.1265	0	-0	0	0	0	0	0	-0	0	0.105	0.015	0	0	-0	0	0	0.098	0.1	0	-0	0	0	0	0	0	-0	0	0.05595	0	0	0	-0	0	0	0	0	0	-0	0	559.368	478.01	282.601	300.929	-4.80152	13.5606	0.256302	0.0292015	-14.3055
41	0.0834727	0.474387	-0.198092	0.344854	0.0673347	0.0942434	0.0154409	-0.0219921	0.0358581	0.0462	-0.0326549	0.00265398	0.089411	0.0087565	-0.0203715	-2.07807	-0.237115	-2.27447	0	0	0	0	-0	0	0	0	-0.1265	0	-0	0	0	0	0	0	-0	0	0.105	0.015	0	0	-0	0	0	0.098	0.1	0	-0	0	0	0	0	0	-0	0	0.05595	0	0	0	-0	0	0	0	0	0	-0	0	559.368	478.01	282.601	300.929	-4.80177	13.5606	0.25635	0.0288908	-14.3055
42	0.0835338	0.473905	-0.198286	0.34491	0.0672283	0.0945918	0.015436	-0.0219996	0.0358471	0.0462022	-0.0326545	0.00265299	0.0893165	0.0087595	-0.020212	-2.07924	-0.236222	-2.27249	0	0	0	0	-0	0	0	0	-0.1265	0	-0	0	0	0	0	0	-0	0	0.105	0.015	0	0	-0	0	0	0.098	0.1	0	-0	0	0	0	0	0	-0	0	0.05595	0	0	0	-0	0	0	0	0	0	-0	0	559.368	478.01	282.601	300.929	-4.80234	13.5606	0.256284	0.0291228	-14.3055
43	0.0834874	0.473617	-0.197984	0.344776	0.067601	0.0941868	0.0154501	-0.0219999	0.0358533	0.0462017	-0.0326528	0.00265436	0.0893931	0.00880506	-0.0203823	-2.07832	-0.236903	-2.27361	0	0	0	0	-0	0	0	0	-0.1265	0	-0	0	0	0	0	0	-0	0	0.105	0.015	0	0	-0	0	0	0.098	0.1	0	-0	0	0	0	0	0	-0	0	0.05595	0	0	0	-0	0	0	0	0	0	-0	0	559.368	478.01	282.601	300.929	-4.80257	13.5606	0.256329	0.0288336	-14.3054
44	0.0835494	0.473139	-0.198129	0.344825	0.0675259	0.094491	0.015447	-0.022006	0.035845	0.0462033	-0.0326527	0.00265362	0.0893035	0.00880504	-0.0202306	-2.07947	-0.236039	-2.2717	0	0	0	0	-0	0	0	0	-0.1265	0	-0	0	0	0	0	0	-0	0	0.105	0.015	0	0	-0	0	0	0.098	0.1	0	-0	0	0	0	0	0	-0	0	0.05595	0	0	0	-0	0	0	0	0	0	-0	0	559.368	478.01	282.601	300.929	-4.80311	13.5606	0.25627	0.0290578	-14.3054
45	0.0835061	0.47288	-0.197804	0.344675	0.0679182	0.0940656	0.0154597	-0.0220079	0.0358507	0.046203	-0.0326513	0.00265459	0.0893765	0.00884879	-0.0203976	-2.07858	-0.236716	-2.27283	0	0	0	0	-0	0	0	0	-0.1265	0	-0	0	0	0	0	0	-0	0	0.105	0.015	0	0	-0	0	0	0.098	0.1	0	-0	0	0	0	0	0	-0	0	0.05595	0	0	0	-0	0	0	0	0	0	-0	0	559.368	478.01	282.601	300.929	-4.80332	13.5607	0.25631	0.0287751	-14.3053
46	0.0835575	0.472802	-0.19794	0.344676	0.0678397	0.094295	0.0154499	-0.022016	0.0358407	0.046205	-0.0326521	0.00265327	0.0893022	0.00883568	-0.0202683	-2.07944	-0.236106	-2.27162	0	0	0	0	-0	0	0	0	-0.1265	0	-0	0	0	0	0	0	-0	0	0.105	0.015	0	0	-0	0	0	0.098	0.1	0	-0	0	0	0	0	0	-0	0	0.05595	0	0	0	-0	0	0	0	0	0	-0	0	559.368	478.01	282.601	300.929	-4.80351	13.5607	0.256255	0.0289747	-14.3053
47	0.0835317	0.472487	-0.197612	0.344496	0.0681939	0.0939288	0.0154657	-0.0220156	0.0358436	0.0462048	-0.0326502	0.00265476	0.0893602	0.00886736	-0.0203978	-2.07884	-0.236573	-2.27235	0	0	0	0	-0	0	0	0	-0.1265	0	-0	0	0	0	0	0	-0	0	0.105	0.015	0	0	-0	0	0	0.098	0.1	0	-0	0	0	0	0	0	-0	0	0.05595	0	0	0	-0	0	0	0	0	0	-0	0	559.368	478.01	282.601	300.929	-4.80384	13.5608	0.256267	0.0287502	-14.3053
48	0.0835728	0.47237	-0.197751	0.344514	0.0680841	0.0941628	0.01546	-0.0220198	0.0358355	0.046206	-0.0326505	0.00265402	0.0892982	0.00885522	-0.0202844	-2.0796	-0.236006	-2.27121	0	0	0	0	-0	0	0	0	-0.1265	0	-0	0	0	0	0	0	-0	0	0.105	0.015	0	0	-0	0	0	0.098	0.1	0	-0	0	0	0	0	0	-0	0	0.05595	0	0	0	-0	0	0	0	0	0	-0	0	559.368	478.01	282.601	300.929	-4.80403	13.5608	0.256214	0.028927	-14.3052
49	0.0835481	0.472053	-0.197459	0.344362	0.0684008	0.0938372	0.0154735	-0.0220207	0.0358376	0.0462063	-0.0326486	0.00265522	0.089349	0.00888717	-0.020402	-2.07905	-0.236424	-2.27183	0	0	0	0	-0	0	0	0	-0.1265	0	-0	0	0	0	0	0	-0	0	0.105	0.015	0	0	-0	0	0	0.098	0.1	0	-0	0	0	0	0	0	-0	0	0.05595	0	0	0	-0	0	0	0	0	0	-0	0	559.368	478.01	282.601	300.929	-4.80436	13.5609	0.256219	0.0287217	-14.3052
50	0.083585	0.471915	-0.197603	0.344396	0.0682836	0.0940714	0.0154689	-0.0220237	0.0358309	0.0462074	-0.0326488	0.00265464	0.0892919	0.00887686	-0.0202963	-2.07976	-0.235884	-2.27073	0	0	0	0	-0	0	0	0	-0.1265	0	-0	0	0	0	0	0	-0	0	0.105	0.015	0	0	-0	0	0	0.098	0.1	0	-0	0	0	0	0	0	-0	0	0.05595	0	0	0	-0	0	0	0	0	0	-0	0	559.368	478.01	282.601	300.929	-4.80455	13.561	0.256171	0.0288869	-14.3051
51	0.0835614	0.47161	-0.197319	0.344255	0.0686003	0.0937503	0.0154809	-0.0220255	0.0358332	0.0462075	-0.0326474	0.00265552	0.0893398	0.00890951	-0.0204109	-2.07922	-0.236299	-2.27135	0	0	0	0	-0	0	0	0	-0.1265	0	-0	0	0	0	0	0	-0	0	0.105	0.015	0	0	-0	0	0	0.098	0.1	0	-0	0	0	0	0	0	-0	0	0.05595	0	0	0	-0	0	0	0	0	0	-0	0	559.368	478.01	282.601	300.929	-4.80486	13.5611	0.256177	0.0286876	-14.3051
52	0.0835972	0.471461	-0.197476	0.344306	0.068467	0.093998	0.0154767	-0.0220275	0.0358276	0.0462082	-0.0326476	0.00265521	0.0892833	0.00889902	-0.0203041	-2.07994	-0.235747	-2.27022	0	0	0	0	-0	0	0	0	-0.1265	0	-0	0	0	0	0	0	-0	0	0.105	0.015	0	0	-0	0	0	0.098	0.1	0	-0	0	0	0	0	0	-0	0	0.05595	0	0	0	-0	0	0	0	0	0	-0	0	559.368	478.01	282.6	300.929	-4.80504	13.5611	0.256133	0.0288553	-14.305
53	0.0835669	0.471282	-0.197325	0.344261	0.0686347	0.0937949	0.0154865	-0.022025	0.0358329	0.0462075	-0.0326465	0.00265627	0.0893303	0.00892274	-0.0204011	-2.07941	-0.236121	-2.27084	0	0	0	0	-0	0	0	0	-0.1265	0	-0	0	0	0	0	0	-0	0	0.105	0.015	0	0	-0	0	0	0.098	0.1	0	-0	0	0	0	0	0	-0	0	0.05595	0	0	0	-0	0	0	0	0	0	-0	0	559.368	478.01	282.6	300.929	-4.80515	13.5612	0.256158	0.0286943	-14.305
54	0.0835992	0.47102	-0.197424	0.344323	0.0685715	0.093977	0.015483	-0.0220289	0.0358296	0.0462084	-0.0326468	0.00265567	0.0892787	0.00892351	-0.0203152	-2.08004	-0.235639	-2.26976	0	0	0	0	-0	0	0	0	-0.1265	0	-0	0	0	0	0	0	-0	0	0.105	0.015	0	0	-0	0	0	0.098	0.1	0	-0	0	0	0	0	0	-0	0	0.05595	0	0	0	-0	0	0	0	0	0	-0	0	559.368	478.01	282.6	300.929	-4.8054	13.5613	0.256125	0.0288251	-14.3049
55	0.0835736	0.470867	-0.197257	0.344266	0.0687689	0.0937559	0.0154902	-0.0220292	0.0358342	0.046208	-0.032646	0.00265631	0.0893194	0.00894751	-0.0204066	-2.07954	-0.236007	-2.27037	0	0	0	0	-0	0	0	0	-0.1265	0	-0	0	0	0	0	0	-0	0	0.105	0.015	0	0	-0	0	0	0.098	0.1	0	-0	0	0	0	0	0	-0	0	0.05595	0	0	0	-0	0	0	0	0	0	-0	0	559.368	478.01	282.6	300.929	-4.8055	13.5614	0.256149	0.028673	-14.3049
56	0.0836065	0.470609	-0.197334	0.344323	0.0687193	0.0939195	0.0154876	-0.0220323	0.0358321	0.0462087	-0.0326462	0.00265594	0.0892699	0.0089465	-0.0203234	-2.08016	-0.235535	-2.26932	0	0	0	0	-0	0	0	0	-0.1265	0	-0	0	0	0	0	0	-0	0	0.105	0.015	0	0	-0	0	0	0.098	0.1	0	-0	0	0	0	0	0	-0	0	0.05595	0	0	0	-0	0	0	0	0	0	-0	0	559.368	478.01	282.6	300.929	-4.80575	13.5615	0.256119	0.0288011	-14.3048
57	0.0835823	0.470472	-0.197154	0.344255	0.0689295	0.0936849	0.0154942	-0.0220334	0.0358364	0.0462085	-0.0326455	0.00265653	0.0893094	0.00896977	-0.0204144	-2.07967	-0.235907	-2.26994	0	0	0	0	-0	0	0	0	-0.1265	0	-0	0	0	0	0	0	-0	0	0.105	0.015	0	0	-0	0	0	0.098	0.1	0	-0	0	0	0	0	0	-0	0	0.05595	0	0	0	-0	0	0	0	0	0	-0	0	559.368	478.01	282.6	300.929	-4.80584	13.5615	0.256141	0.0286499	-14.3048
58	0.0836103	0.470432	-0.197229	0.344267	0.0688805	0.093812	0.0154885	-0.0220378	0.0358319	0.0462094	-0.0326461	0.00265565	0.0892681	0.0089619	-0.0203426	-2.08014	-0.235569	-2.26927	0	0	0	0	-0	0	0	0	-0.1265	0	-0	0	0	0	0	0	-0	0	0.105	0.015	0	0	-0	0	0	0.098	0.1	0	-0	0	0	0	0	0	-0	0	0.05595	0	0	0	-0	0	0	0	0	0	-0	0	559.368	478.01	282.6	300.929	-4.80593	13.5616	0.256112	0.0287628	-14.3048
59	0.0835954	0.470267	-0.197047	0.344188	0.0690704	0.0936073	0.0154965	-0.0220375	0.035835	0.0462091	-0.0326452	0.00265607	0.0892999	0.0089787	-0.0204142	-2.0798	-0.235831	-2.26968	0	0	0	0	-0	0	0	0	-0.1265	0	-0	0	0	0	0	0	-0	0	0.105	0.015	0	0	-0	0	0	0.098	0.1	0	-0	0	0	0	0	0	-0	0	0.05595	0	0	0	-0	0	0	0	0	0	-0	0	559.368	478.01	282.6	300.929	-4.80608	13.5617	0.25612	0.0286425	-14.3047
60	0.0836178	0.470206	-0.197126	0.344209	0.0690027	0.0937391	0.0154931	-0.0220398	0.0358313	0.0462098	-0.0326454	0.00265564	0.089265	0.00897115	-0.0203502	-2.08023	-0.235513	-2.26905	0	0	0	0	-0	0	0	0	-0.1265	0	-0	0	0	0	0	0	-0	0	0.105	0.015	0	0	-0	0	0	0.098	0.1	0	-0	0	0	0	0	0	-0	0	0.05595	0	0	0	-0	0	0	0	0	0	-0	0	559.368	478.01	282.6	300.929	-4.80617	13.5618	0.256092	0.0287441	-14.3047
61	0.0836035	0.470041	-0.196963	0.344143	0.0691733	0.0935553	0.0154999	-0.0220402	0.0358339	0.0462096	-0.0326445	0.00265591	0.0892933	0.00898819	-0.0204161	-2.07991	-0.235753	-2.26941	0	0	0	0	-0	0	0	0	-0.1265	0	-0	0	0	0	0	0	-0	0	0.105	0.015	0	0	-0	0	0	0.098	0.1	0	-0	0	0	0	0	0	-0	0	0.05595	0	0	0	-0	0	0	0	0	0	-0	0	559.368	478.01	282.6	300.929	-4.80633	13.5619	0.256095	0.0286326	-14.3046
62	0.0836239	0.46997	-0.197046	0.344172	0.0691001	0.0936894	0.015497	-0.0220417	0.0358309	0.0462099	-0.0326448	0.0026556	0.0892608	0.00898149	-0.0203556	-2.08031	-0.235446	-2.26879	0	0	0	0	-0	0	0	0	-0.1265	0	-0	0	0	0	0	0	-0	0	0.105	0.015	0	0	-0	0	0	0.098	0.1	0	-0	0	0	0	0	0	-0	0	0.05595	0	0	0	-0	0	0	0	0	0	-0	0	559.367	478.01	282.6	300.929	-4.80643	13.562	0.25607	0.0287289	-14.3045
63	0.0836095	0.469813	-0.196887	0.344108	0.0692722	0.0935067	0.0155031	-0.0220427	0.0358333	0.0462099	-0.0326442	0.00265602	0.0892881	0.00899898	-0.0204208	-2.08	-0.235689	-2.26916	0	0	0	0	-0	0	0	0	-0.1265	0	-0	0	0	0	0	0	-0	0	0.105	0.015	0	0	-0	0	0	0.098	0.1	0	-0	0	0	0	0	0	-0	0	0.05595	0	0	0	-0	0	0	0	0	0	-0	0	559.367	478.01	282.6	300.929	-4.80658	13.5621	0.256074	0.028619	-14.3045
64	0.0836296	0.469736	-0.196979	0.344147	0.0691882	0.0936507	0.0155004	-0.0220437	0.0358308	0.0462103	-0.0326444	0.00265575	0.0892556	0.008992	-0.0203589	-2.0804	-0.235372	-2.26852	0	0	0	0	-0	0	0	0	-0.1265	0	-0	0	0	0	0	0	-0	0	0.105	0.015	0	0	-0	0	0	0.098	0.1	0	-0	0	0	0	0	0	-0	0	0.05595	0	0	0	-0	0	0	0	0	0	-0	0	559.367	478.01	282.6	300.929	-4.80668	13.5622	0.256051	0.0287179	-14.3044
65	0.0836115	0.46964	-0.196892	0.344126	0.0692818	0.0935326	0.0155058	-0.0220423	0.0358343	0.0462098	-0.0326439	0.00265638	0.0892827	0.00900524	-0.0204149	-2.08009	-0.235591	-2.26888	0	0	0	0	-0	0	0	0	-0.1265	0	-0	0	0	0	0	0	-0	0	0.105	0.015	0	0	-0	0	0	0.098	0.1	0	-0	0	0	0	0	0	-0	0	0.05595	0	0	0	-0	0	0	0	0	0	-0	0	559.367	478.01	282.6	300.929	-4.80673	13.5623	0.256066	0.028626	-14.3044
66	0.0836296	0.469503	-0.196954	0.344175	0.0692356	0.0936415	0.0155033	-0.0220443	0.0358331	0.04621	-0.0326441	0.00265614	0.0892527	0.00900449	-0.0203643	-2.08045	-0.235313	-2.26827	0	0	0	0	-0	0	0	0	-0.1265	0	-0	0	0	0	0	0	-0	0	0.105	0.015	0	0	-0	0	0	0.098	0.1	0	-0	0	0	0	0	0	-0	0	0.05595	0	0	0	-0	0	0	0	0	0	-0	0	559.367	478.01	282.599	300.929	-4.80687	13.5624	0.256048	0.0287054	-14.3043
67	0.0836142	0.469422	-0.196858	0.344146	0.0693471	0.0935121	0.0155072	-0.0220445	0.0358362	0.0462098	-0.0326437	0.00265656	0.0892766	0.00901791	-0.0204178	-2.08016	-0.235531	-2.26863	0	0	0	0	-0	0	0	0	-0.1265	0	-0	0	0	0	0	0	-0	0	0.105	0.015	0	0	-0	0	0	0.098	0.1	0	-0	0	0	0	0	0	-0	0	0.05595	0	0	0	-0	0	0	0	0	0	-0	0	559.367	478.01	282.599	300.929	-4.80692	13.5625	0.256062	0.0286178	-14.3043
68	0.0836327	0.469288	-0.196909	0.344191	0.0693078	0.0936119	0.0155052	-0.0220461	0.0358356	0.0462101	-0.0326438	0.00265644	0.0892476	0.00901606	-0.0203683	-2.08052	-0.235256	-2.26803	0	0	0	0	-0	0	0	0	-0.1265	0	-0	0	0	0	0	0	-0	0	0.105	0.015	0	0	-0	0	0	0.098	0.1	0	-0	0	0	0	0	0	-0	0	0.05595	0	0	0	-0	0	0	0	0	0	-0	0	559.367	478.01	282.599	300.929	-4.80705	13.5626	0.256046	0.0286963	-14.3042
69	0.0836179	0.469217	-0.196803	0.344155	0.0694278	0.0934736	0.0155089	-0.0220467	0.0358385	0.0462098	-0.0326435	0.00265672	0.0892711	0.00902913	-0.0204221	-2.08022	-0.23548	-2.26841	0	0	0	0	-0	0	0	0	-0.1265	0	-0	0	0	0	0	0	-0	0	0.105	0.015	0	0	-0	0	0	0.098	0.1	0	-0	0	0	0	0	0	-0	0	0.05595	0	0	0	-0	0	0	0	0	0	-0	0	559.367	478.01	282.599	300.929	-4.8071	13.5627	0.256059	0.0286081	-14.3042
70	0.0836343	0.4692	-0.196851	0.344166	0.0693936	0.0935511	0.0155054	-0.0220492	0.035836	0.0462103	-0.0326439	0.00265623	0.0892466	0.00902378	-0.0203789	-2.0805	-0.235279	-2.26802	0	0	0	0	-0	0	0	0	-0.1265	0	-0	0	0	0	0	0	-0	0	0.105	0.015	0	0	-0	0	0	0.098	0.1	0	-0	0	0	0	0	0	-0	0	0.05595	0	0	0	-0	0	0	0	0	0	-0	0	559.367	478.01	282.599	300.929	-4.80715	13.5628	0.256042	0.0286767	-14.3041
71	0.0836246	0.469117	-0.196746	0.344125	0.0695005	0.0934302	0.0155097	-0.0220489	0.0358382	0.0462102	-0.0326436	0.00265668	0.0892659	0.00903295	-0.0204217	-2.08029	-0.235442	-2.26828	0	0	0	0	-0	0	0	0	-0.1265	0	-0	0	0	0	0	0	-0	0	0.105	0.015	0	0	-0	0	0	0.098	0.1	0	-0	0	0	0	0	0	-0	0	0.05595	0	0	0	-0	0	0	0	0	0	-0	0	559.367	478.01	282.599	300.929	-4.80724	13.5629	0.256047	0.0286064	-14.304
72	0.0836395	0.46897	-0.196804	0.344184	0.0694359	0.0935395	0.0155089	-0.0220489	0.0358385	0.0462102	-0.0326437	0.00265677	0.0892402	0.00903021	-0.0203746	-2.08063	-0.235167	-2.26768	0	0	0	0	-0	0	0	0	-0.1265	0	-0	0	0	0	0	0	-0	0	0.105	0.015	0	0	-0	0	0	0.098	0.1	0	-0	0	0	0	0	0	-0	0	0.05595	0	0	0	-0	0	0	0	0	0	-0	0	559.367	478.01	282.599	300.929	-4.80739	13.5631	0.25603	0.028681	-14.3039
73	0.0836252	0.468913	-0.196695	0.344141	0.0695633	0.0933964	0.015512	-0.0220504	0.0358405	0.0462103	-0.0326434	0.00265679	0.089263	0.00904346	-0.0204291	-2.08033	-0.2354	-2.26808	0	0	0	0	-0	0	0	0	-0.1265	0	-0	0	0	0	0	0	-0	0	0.105	0.015	0	0	-0	0	0	0.098	0.1	0	-0	0	0	0	0	0	-0	0	0.05595	0	0	0	-0	0	0	0	0	0	-0	0	559.367	478.01	282.599	300.929	-4.80744	13.5632	0.25604	0.028593	-14.3039
74	0.0836421	0.46889	-0.196758	0.344161	0.0695083	0.0934956	0.015509	-0.0220519	0.0358383	0.0462106	-0.0326436	0.0026565	0.0892377	0.00903656	-0.0203812	-2.08063	-0.235171	-2.26764	0	0	0	0	-0	0	0	0	-0.1265	0	-0	0	0	0	0	0	-0	0	0.105	0.015	0	0	-0	0	0	0.098	0.1	0	-0	0	0	0	0	0	-0	0	0.05595	0	0	0	-0	0	0	0	0	0	-0	0	559.367	478.01	282.599	300.929	-4.8075	13.5633	0.256022	0.0286699	-14.3039
75	0.08363	0.468828	-0.19664	0.344105	0.0696335	0.0933523	0.0155131	-0.0220524	0.0358399	0.0462105	-0.0326434	0.00265686	0.0892605	0.00904701	-0.0204325	-2.08036	-0.235382	-2.268	0	0	0	0	-0	0	0	0	-0.1265	0	-0	0	0	0	0	0	-0	0	0.105	0.015	0	0	-0	0	0	0.098	0.1	0	-0	0	0	0	0	0	-0	0	0.05595	0	0	0	-0	0	0	0	0	0	-0	0	559.367	478.01	282.599	300.929	-4.80759	13.5634	0.256026	0.0285864	-14.3038
76	0.0836458	0.468795	-0.196718	0.344136	0.0695549	0.0934702	0.0155107	-0.0220528	0.0358379	0.0462108	-0.0326436	0.00265667	0.0892352	0.00903917	-0.0203819	-2.08069	-0.235133	-2.26751	0	0	0	0	-0	0	0	0	-0.1265	0	-0	0	0	0	0	0	-0	0	0.105	0.015	0	0	-0	0	0	0.098	0.1	0	-0	0	0	0	0	0	-0	0	0.05595	0	0	0	-0	0	0	0	0	0	-0	0	559.367	478.01	282.599	300.929	-4.80765	13.5635	0.256007	0.0286678	-14.3037
77	0.0836309	0.468741	-0.196649	0.344119	0.069623	0.0933758	0.0155148	-0.0220515	0.0358406	0.0462104	-0.0326432	0.00265705	0.0892576	0.00904843	-0.020427	-2.08043	-0.235317	-2.26783	0	0	0	0	-0	0	0	0	-0.1265	0	-0	0	0	0	0	0	-0	0	0.105	0.015	0	0	-0	0	0	0.098	0.1	0	-0	0	0	0	0	0	-0	0	0.05595	0	0	0	-0	0	0	0	0	0	-0	0	559.367	478.01	282.599	300.929	-4.80768	13.5636	0.256019	0.0285948	-14.3037
78	0.0836446	0.468674	-0.196711	0.34416	0.0695686	0.0934713	0.0155122	-0.0220527	0.0358394	0.0462105	-0.0326437	0.00265698	0.0892344	0.00904525	-0.0203852	-2.0807	-0.235102	-2.26738	0	0	0	0	-0	0	0	0	-0.1265	0	-0	0	0	0	0	0	-0	0	0.105	0.015	0	0	-0	0	0	0.098	0.1	0	-0	0	0	0	0	0	-0	0	0.05595	0	0	0	-0	0	0	0	0	0	-0	0	559.367	478.01	282.599	300.929	-4.80777	13.5637	0.256004	0.0286619	-14.3036
79	0.0836317	0.468631	-0.196637	0.344136	0.0696509	0.0933686	0.0155152	-0.0220526	0.0358418	0.0462102	-0.0326435	0.00265727	0.0892544	0.00905474	-0.0204284	-2.08046	-0.235286	-2.2677	0	0	0	0	-0	0	0	0	-0.1265	0	-0	0	0	0	0	0	-0	0	0.105	0.015	0	0	-0	0	0	0.098	0.1	0	-0	0	0	0	0	0	-0	0	0.05595	0	0	0	-0	0	0	0	0	0	-0	0	559.367	478.01	282.599	300.929	-4.8078	13.5638	0.256016	0.0285918	-14.3036
80	0.0836459	0.468565	-0.196692	0.344174	0.069601	0.0934587	0.015513	-0.0220535	0.035841	0.0462104	-0.0326438	0.00265715	0.0892319	0.00905084	-0.0203873	-2.08073	-0.235073	-2.26726	0	0	0	0	-0	0	0	0	-0.1265	0	-0	0	0	0	0	0	-0	0	0.105	0.015	0	0	-0	0	0	0.098	0.1	0	-0	0	0	0	0	0	-0	0	0.05595	0	0	0	-0	0	0	0	0	0	-0	0	559.367	478.01	282.598	300.929	-4.80789	13.564	0.256003	0.0286584	-14.3035
81	0.0836333	0.46853	-0.196611	0.344145	0.0696905	0.0933486	0.0155158	-0.0220538	0.0358432	0.0462103	-0.0326435	0.00265734	0.0892518	0.00906018	-0.020431	-2.08048	-0.235262	-2.2676	0	0	0	0	-0	0	0	0	-0.1265	0	-0	0	0	0	0	0	-0	0	0.105	0.015	0	0	-0	0	0	0.098	0.1	0	-0	0	0	0	0	0	-0	0	0.05595	0	0	0	-0	0	0	0	0	0	-0	0	559.367	478.01	282.598	300.929	-4.80792	13.564	0.256013	0.0285873	-14.3034
82	0.0836479	0.468461	-0.19667	0.344186	0.0696318	0.0934461	0.0155138	-0.0220543	0.0358426	0.0462104	-0.0326436	0.00265717	0.0892287	0.0090553	-0.0203876	-2.08077	-0.235036	-2.26713	0	0	0	0	-0	0	0	0	-0.1265	0	-0	0	0	0	0	0	-0	0	0.105	0.015	0	0	-0	0	0	0.098	0.1	0	-0	0	0	0	0	0	-0	0	0.05595	0	0	0	-0	0	0	0	0	0	-0	0	559.367	478.01	282.598	300.929	-4.80802	13.5642	0.255999	0.028658	-14.3034
83	0.0836346	0.468433	-0.196579	0.344149	0.0697328	0.0933227	0.0155165	-0.022055	0.0358445	0.0462102	-0.0326434	0.00265747	0.08925	0.00906516	-0.0204352	-2.0805	-0.235246	-2.2675	0	0	0	0	-0	0	0	0	-0.1265	0	-0	0	0	0	0	0	-0	0	0.105	0.015	0	0	-0	0	0	0.098	0.1	0	-0	0	0	0	0	0	-0	0	0.05595	0	0	0	-0	0	0	0	0	0	-0	0	559.367	478.01	282.598	300.929	-4.80805	13.5643	0.25601	0.0285809	-14.3033
84	0.0836492	0.468436	-0.196632	0.344163	0.069685	0.0934043	0.0155135	-0.0220565	0.0358422	0.0462106	-0.0326437	0.00265704	0.0892282	0.00905828	-0.0203941	-2.08076	-0.235058	-2.26715	0	0	0	0	-0	0	0	0	-0.1265	0	-0	0	0	0	0	0	-0	0	0.105	0.015	0	0	-0	0	0	0.098	0.1	0	-0	0	0	0	0	0	-0	0	0.05595	0	0	0	-0	0	0	0	0	0	-0	0	559.367	478.01	282.598	300.929	-4.80809	13.5644	0.255994	0.0286472	-14.3033
85	0.0836384	0.468411	-0.196542	0.344118	0.0697748	0.093292	0.0155168	-0.0220563	0.0358436	0.0462105	-0.0326432	0.00265735	0.0892483	0.00906503	-0.020436	-2.08053	-0.235238	-2.26748	0	0	0	0	-0	0	0	0	-0.1265	0	-0	0	0	0	0	0	-0	0	0.105	0.015	0	0	-0	0	0	0.098	0.1	0	-0	0	0	0	0	0	-0	0	0.05595	0	0	0	-0	0	0	0	0	0	-0	0	559.367	478.01	282.598	300.929	-4.80815	13.5646	0.255998	0.0285797	-14.3032
86	0.0836513	0.468404	-0.196605	0.344139	0.0697101	0.0933856	0.0155145	-0.0220568	0.0358415	0.0462107	-0.0326433	0.00265694	0.0892279	0.00905779	-0.0203952	-2.08078	-0.235044	-2.26711	0	0	0	0	-0	0	0	0	-0.1265	0	-0	0	0	0	0	0	-0	0	0.105	0.015	0	0	-0	0	0	0.098	0.1	0	-0	0	0	0	0	0	-0	0	0.05595	0	0	0	-0	0	0	0	0	0	-0	0	559.367	478.01	282.598	300.929	-4.80819	13.5646	0.255982	0.0286458	-14.3031
87	0.0836396	0.468381	-0.19652	0.344097	0.0697972	0.0932754	0.0155175	-0.0220569	0.0358427	0.0462104	-0.0326428	0.00265748	0.0892482	0.00906527	-0.020438	-2.08054	-0.235231	-2.26745	0	0	0	0	-0	0	0	0	-0.1265	0	-0	0	0	0	0	0	-0	0	0.105	0.015	0	0	-0	0	0	0.098	0.1	0	-0	0	0	0	0	0	-0	0	0.05595	0	0	0	-0	0	0	0	0	0	-0	0	559.367	478.01	282.598	300.929	-4.80826	13.5648	0.255985	0.0285766	-14.303
88	0.0836525	0.468369	-0.196593	0.344126	0.0697216	0.0933806	0.0155153	-0.022057	0.0358408	0.0462105	-0.032643	0.00265729	0.0892272	0.00905781	-0.0203949	-2.0808	-0.235024	-2.26705	0	0	0	0	-0	0	0	0	-0.1265	0	-0	0	0	0	0	0	-0	0	0.105	0.015	0	0	-0	0	0	0.098	0.1	0	-0	0	0	0	0	0	-0	0	0.05595	0	0	0	-0	0	0	0	0	0	-0	0	559.367	478.01	282.598	300.929	-4.80831	13.5649	0.255969	0.0286464	-14.303
89	0.0836394	0.468335	-0.196539	0.344112	0.0697746	0.0933026	0.0155186	-0.0220558	0.035843	0.0462101	-0.0326426	0.00265775	0.0892466	0.00906517	-0.0204332	-2.08058	-0.235184	-2.26734	0	0	0	0	-0	0	0	0	-0.1265	0	-0	0	0	0	0	0	-0	0	0.105	0.015	0	0	-0	0	0	0.098	0.1	0	-0	0	0	0	0	0	-0	0	0.05595	0	0	0	-0	0	0	0	0	0	-0	0	559.367	478.01	282.598	300.929	-4.80833	13.565	0.25598	0.0285846	-14.303
90	0.0836506	0.4683	-0.196602	0.344149	0.0697176	0.0933906	0.0155161	-0.0220566	0.0358419	0.04621	-0.0326428	0.00265737	0.0892274	0.00906131	-0.0203971	-2.08081	-0.235007	-2.26698	0	0	0	0	-0	0	0	0	-0.1265	0	-0	0	0	0	0	0	-0	0	0.105	0.015	0	0	-0	0	0	0.098	0.1	0	-0	0	0	0	0	0	-0	0	0.05595	0	0	0	-0	0	0	0	0	0	-0	0	559.367	478.01	282.598	300.929	-4.8084	13.5651	0.255969	0.0286434	-14.3029
91	0.0836393	0.468276	-0.196541	0.344129	0.0697837	0.0933043	0.0155185	-0.0220564	0.0358438	0.0462097	-0.0326426	0.00265748	0.0892449	0.00906884	-0.0204341	-2.08059	-0.235168	-2.26727	0	0	0	0	-0	0	0	0	-0.1265	0	-0	0	0	0	0	0	-0	0	0.105	0.015	0	0	-0	0	0	0.098	0.1	0	-0	0	0	0	0	0	-0	0	0.05595	0	0	0	-0	0	0	0	0	0	-0	0	559.367	478.01	282.598	300.929	-4.80842	13.5652	0.255979	0.0285836	-14.3028
92	0.0836506	0.468242	-0.196598	0.344163	0.0697307	0.0933879	0.0155164	-0.0220569	0.035843	0.0462098	-0.0326431	0.00265759	0.0892261	0.00906432	-0.0203983	-2.08082	-0.234991	-2.26691	0	0	0	0	-0	0	0	0	-0.1265	0	-0	0	0	0	0	0	-0	0	0.105	0.015	0	0	-0	0	0	0.098	0.1	0	-0	0	0	0	0	0	-0	0	0.05595	0	0	0	-0	0	0	0	0	0	-0	0	559.367	478.01	282.598	300.929	-4.80849	13.5654	0.255968	0.0286423	-14.3028
93	0.0836395	0.468224	-0.196531	0.344138	0.0698037	0.0932945	0.0155186	-0.0220571	0.0358447	0.0462098	-0.0326429	0.00265777	0.0892436	0.00907173	-0.020436	-2.0806	-0.235158	-2.26722	0	0	0	0	-0	0	0	0	-0.1265	0	-0	0	0	0	0	0	-0	0	0.105	0.015	0	0	-0	0	0	0.098	0.1	0	-0	0	0	0	0	0	-0	0	0.05595	0	0	0	-0	0	0	0	0	0	-0	0	559.367	478.01	282.597	300.929	-4.80852	13.5654	0.255978	0.0285813	-14.3027
94	0.0836512	0.468187	-0.196591	0.344174	0.0697428	0.0933847	0.0155166	-0.0220573	0.035844	0.0462099	-0.032643	0.00265745	0.0892242	0.00906631	-0.020398	-2.08084	-0.234967	-2.26684	0	0	0	0	-0	0	0	0	-0.1265	0	-0	0	0	0	0	0	-0	0	0.105	0.015	0	0	-0	0	0	0.098	0.1	0	-0	0	0	0	0	0	-0	0	0.05595	0	0	0	-0	0	0	0	0	0	-0	0	559.367	478.01	282.597	300.929	-4.8086	13.5656	0.255966	0.0286439	-14.3026
95	0.0836393	0.468175	-0.196515	0.344142	0.0698264	0.0932791	0.0155188	-0.0220578	0.0358456	0.0462098	-0.0326426	0.00265756	0.0892432	0.00907423	-0.0204394	-2.0806	-0.235155	-2.26718	0	0	0	0	-0	0	0	0	-0.1265	0	-0	0	0	0	0	0	-0	0	0.105	0.015	0	0	-0	0	0	0.098	0.1	0	-0	0	0	0	0	0	-0	0	0.05595	0	0	0	-0	0	0	0	0	0	-0	0	559.367	478.01	282.597	300.929	-4.80862	13.5657	0.255976	0.0285771	-14.3026
96	0.0836518	0.468185	-0.196564	0.344154	0.0697802	0.0933528	0.0155161	-0.0220589	0.0358435	0.0462102	-0.0326429	0.00265723	0.0892244	0.00906765	-0.0204032	-2.08082	-0.234992	-2.26687	0	0	0	0	-0	0	0	0	-0.1265	0	-0	0	0	0	0	0	-0	0	0.105	0.015	0	0	-0	0	0	0.098	0.1	0	-0	0	0	0	0	0	-0	0	0.05595	0	0	0	-0	0	0	0	0	0	-0	0	559.367	478.01	282.597	300.929	-4.80865	13.5658	0.255962	0.0286358	-14.3025
97	0.0836417	0.468182	-0.196491	0.344114	0.0698532	0.0932571	0.0155188	-0.0220587	0.0358445	0.0462102	-0.0326424	0.00265739	0.0892426	0.00907276	-0.02044	-2.08061	-0.235156	-2.26718	0	0	0	0	-0	0	0	0	-0.1265	0	-0	0	0	0	0	0	-0	0	0.105	0.015	0	0	-0	0	0	0.098	0.1	0	-0	0	0	0	0	0	-0	0	0.05595	0	0	0	-0	0	0	0	0	0	-0	0	559.367	478.01	282.597	300.929	-4.8087	13.566	0.255965	0.0285769	-14.3025
98	0.0836529	0.468184	-0.196549	0.344133	0.0697916	0.0933423	0.0155167	-0.0220589	0.0358426	0.0462104	-0.0326426	0.00265719	0.0892248	0.0090658	-0.0204036	-2.08084	-0.234985	-2.26687	0	0	0	0	-0	0	0	0	-0.1265	0	-0	0	0	0	0	0	-0	0	0.105	0.015	0	0	-0	0	0	0.098	0.1	0	-0	0	0	0	0	0	-0	0	0.05595	0	0	0	-0	0	0	0	0	0	-0	0	559.367	478.01	282.597	300.929	-4.80874	13.566	0.255951	0.0286361	-14.3024
99	0.083642	0.468182	-0.196479	0.344095	0.0698631	0.093247	0.0155192	-0.022059	0.0358434	0.04621	-0.0326425	0.00265713	0.0892433	0.00907163	-0.0204417	-2.08061	-0.235158	-2.26719	0	0	0	0	-0	0	0	0	-0.1265	0	-0	0	0	0	0	0	-0	0	0.105	0.015	0	0	-0	0	0	0.098	0.1	0	-0	0	0	0	0	0	-0	0	0.05595	0	0	0	-0	0	0	0	0	0	-0	0	559.367	478.009	282.597	300.929	-4.8088	13.5662	0.255954	0.028575	-14.3023
100	0.0836534	0.468179	-0.196548	0.344121	0.0697911	0.0933436	0.0155171	-0.0220589	0.0358417	0.0462101	-0.0326427	0.00265687	0.0892247	0.00906438	-0.0204029	-2.08085	-0.234973	-2.26684	0	0	0	0	-0	0	0	0	-0.1265	0	-0	0	0	0	0	0	-0	0	0.105	0.015	0	0	-0	0	0	0.098	0.1	0	-0	0	0	0	0	0	-0	0	0.05595	0	0	0	-0	0	0	0	0	0	-0	0	559.367	478.009	282.597	300.929	-4.80884	13.5663	0.255941	0.0286381	-14.3023
