Stefan210/kinematic_calibration/src/kinematic_calibration/validation/experiments/experiments/single_point_vs_pose/marker_pose/rarm_60/optimization_intermediate_results.csv
iteration	HeadPitch_offset	HeadYaw_offset	RElbowRoll_offset	RElbowYaw_offset	RShoulderPitch_offset	RShoulderRoll_offset	marker_transform_rarm_tx	marker_transform_rarm_ty	marker_transform_rarm_tz	marker_transform_rarm_rr	marker_transform_rarm_rp	marker_transform_rarm_ry	camera_transform_tx	camera_transform_ty	camera_transform_tz	camera_transform_rr	camera_transform_rp	camera_transform_ry	HeadPitch_transform_tx	HeadPitch_transform_ty	HeadPitch_transform_tz	HeadPitch_transform_rr	HeadPitch_transform_rp	HeadPitch_transform_ry	HeadYaw_transform_tx	HeadYaw_transform_ty	HeadYaw_transform_tz	HeadYaw_transform_rr	HeadYaw_transform_rp	HeadYaw_transform_ry	RElbowRoll_transform_tx	RElbowRoll_transform_ty	RElbowRoll_transform_tz	RElbowRoll_transform_rr	RElbowRoll_transform_rp	RElbowRoll_transform_ry	RElbowYaw_transform_tx	RElbowYaw_transform_ty	RElbowYaw_transform_tz	RElbowYaw_transform_rr	RElbowYaw_transform_rp	RElbowYaw_transform_ry	RShoulderPitch_transform_tx	RShoulderPitch_transform_ty	RShoulderPitch_transform_tz	RShoulderPitch_transform_rr	RShoulderPitch_transform_rp	RShoulderPitch_transform_ry	RShoulderRoll_transform_tx	RShoulderRoll_transform_ty	RShoulderRoll_transform_tz	RShoulderRoll_transform_rr	RShoulderRoll_transform_rp	RShoulderRoll_transform_ry	RWristYaw_transform_tx	RWristYaw_transform_ty	RWristYaw_transform_tz	RWristYaw_transform_rr	RWristYaw_transform_rp	RWristYaw_transform_ry	r_wrist_joint_transform_tx	r_wrist_joint_transform_ty	r_wrist_joint_transform_tz	r_wrist_joint_transform_rr	r_wrist_joint_transform_rp	r_wrist_joint_transform_ry	camera_fx	camera_fy	camera_cx	camera_cy	camera_D0	camera_D1	camera_D2	camera_D3	camera_D4	
0	0.0230449	0.0294606	-0.0013508	-0.00116347	0.000678263	0.00258603	0.05071	0	0.01774	-2.26369	1.66533e-16	-1.5708	545.901	551.038	324.928	201.58	0.0255298	2.61142	-0.0636736	-0.0350419	0.213964
1	-0.0145242	-0.0496708	-0.0161002	-0.0325566	-0.0230106	-0.04197	0.0265317	0.0367039	-0.000746534	-0.619818	0.257908	0.162249	0.0516734	0.00384108	0.0245376	-2.20677	0.00512345	-1.52612	0	0	0	0	-0	0	0	0	-0.1265	0	-0	0	0	0	0	0	-0	0	0.105	-0.015	0	0	-0	0	0	-0.098	0.1	0	-0	0	0	0	0	0	-0	0	0.05595	0	0	0	-0	0	0	0	0	0	-0	0	545.902	551.039	324.931	201.582	-0.0580329	2.56062	-0.0859691	-0.0617465	0.198117
2	-0.00906082	-0.070369	-0.0484468	-0.00296788	-0.0382699	-0.0355568	0.0234781	0.029509	0.00120211	-0.902924	0.264294	0.0584089	0.0491582	0.00475708	0.0311271	-2.22939	0.0223517	-1.51485	0	0	0	0	-0	0	0	0	-0.1265	0	-0	0	0	0	0	0	-0	0	0.105	-0.015	0	0	-0	0	0	-0.098	0.1	0	-0	0	0	0	0	0	-0	0	0.05595	0	0	0	-0	0	0	0	0	0	-0	0	545.906	551.039	324.936	201.588	-0.163908	2.41951	0.0390263	-0.0208994	0.135037
3	-0.0137968	-0.0444759	-0.0364896	-0.0135639	-0.01775	-0.0478674	0.0240885	0.0273027	0.00127792	-1.13572	0.211767	0.00974068	0.0524828	0.00361917	0.0238726	-2.20915	0.00923588	-1.53996	0	0	0	0	-0	0	0	0	-0.1265	0	-0	0	0	0	0	0	-0	0	0.105	-0.015	0	0	-0	0	0	-0.098	0.1	0	-0	0	0	0	0	0	-0	0	0.05595	0	0	0	-0	0	0	0	0	0	-0	0	545.912	551.04	324.948	201.596	-0.49774	2.13313	-0.0366858	0.00398831	0.0281316
4	-0.0140152	-0.038038	-0.0255348	-0.0237174	-0.0173528	-0.0536635	0.0237971	0.0281108	0.00167276	-1.33763	0.133491	0.0904809	0.0544843	0.00105034	0.019859	-2.20722	0.00995478	-1.54048	0	0	0	0	-0	0	0	0	-0.1265	0	-0	0	0	0	0	0	-0	0	0.105	-0.015	0	0	-0	0	0	-0.098	0.1	0	-0	0	0	0	0	0	-0	0	0.05595	0	0	0	-0	0	0	0	0	0	-0	0	545.92	551.04	324.958	201.607	-0.781687	1.7292	0.0243936	0.0326792	-0.159834
5	-0.0150021	-0.0227926	-0.00651097	-0.0196928	-0.0132837	-0.0545488	0.0227881	0.0297953	0.00139127	-1.5933	0.105253	0.249472	0.0555495	-0.00244931	0.0159736	-2.20227	0.0116722	-1.54145	0	0	0	0	-0	0	0	0	-0.1265	0	-0	0	0	0	0	0	-0	0	0.105	-0.015	0	0	-0	0	0	-0.098	0.1	0	-0	0	0	0	0	0	-0	0	0.05595	0	0	0	-0	0	0	0	0	0	-0	0	545.932	551.038	324.966	201.615	-0.746115	1.2745	0.0270858	0.0271989	-0.41833
6	-0.0151259	-0.0224402	0.00305575	-0.000242932	-0.0170198	-0.0447074	0.0218523	0.0289672	-0.000502176	-1.68087	0.146164	0.262827	0.053475	-0.00339166	0.0173624	-2.20205	0.0161976	-1.53421	0	0	0	0	-0	0	0	0	-0.1265	0	-0	0	0	0	0	0	-0	0	0.105	-0.015	0	0	-0	0	0	-0.098	0.1	0	-0	0	0	0	0	0	-0	0	0.05595	0	0	0	-0	0	0	0	0	0	-0	0	545.95	551.031	324.97	201.618	-0.424869	0.90965	0.0164114	0.0104807	-0.657216
7	-0.0152004	-0.0208175	0.00475858	0.00541716	-0.0163351	-0.0444476	0.0217121	0.0289197	-0.000923234	-1.68644	0.154917	0.248106	0.0524575	-0.0035992	0.018347	-2.20203	0.0159366	-1.53492	0	0	0	0	-0	0	0	0	-0.1265	0	-0	0	0	0	0	0	-0	0	0.105	-0.015	0	0	-0	0	0	-0.098	0.1	0	-0	0	0	0	0	0	-0	0	0.05595	0	0	0	-0	0	0	0	0	0	-0	0	545.994	551.008	324.975	201.617	-0.1812	0.587721	0.001027	-0.00227756	-0.809005
8	-0.0151407	-0.0204389	0.00506721	0.00653651	-0.016238	-0.0446046	0.0216963	0.0288776	-0.000973824	-1.68688	0.156679	0.243864	0.0519611	-0.00358261	0.0189263	-2.2023	0.0155327	-1.53556	0	0	0	0	-0	0	0	0	-0.1265	0	-0	0	0	0	0	0	-0	0	0.105	-0.015	0	0	-0	0	0	-0.098	0.1	0	-0	0	0	0	0	0	-0	0	0.05595	0	0	0	-0	0	0	0	0	0	-0	0	546.114	550.944	324.992	201.61	-0.0659365	0.364124	-0.00525605	-0.00675399	-0.736184
9	-0.0151433	-0.0203217	0.00504314	0.00669937	-0.016295	-0.0445253	0.0216899	0.0288709	-0.000982691	-1.68692	0.156893	0.243044	0.0516693	-0.00353956	0.0192542	-2.20267	0.0151939	-1.53609	0	0	0	0	-0	0	0	0	-0.1265	0	-0	0	0	0	0	0	-0	0	0.105	-0.015	0	0	-0	0	0	-0.098	0.1	0	-0	0	0	0	0	0	-0	0	0.05595	0	0	0	-0	0	0	0	0	0	-0	0	546.45	550.764	325.042	201.589	-0.00040041	0.0831556	-0.00641854	-0.0077283	-0.349763
10	-0.0144465	-0.0200952	0.0049524	0.00671695	-0.0163746	-0.044336	0.0216775	0.0288708	-0.000989109	-1.68674	0.156786	0.242734	0.0512213	-0.00346925	0.0197556	-2.20251	0.0145429	-1.53707	0	0	0	0	-0	0	0	0	-0.1265	0	-0	0	0	0	0	0	-0	0	0.105	-0.015	0	0	-0	0	0	-0.098	0.1	0	-0	0	0	0	0	0	-0	0	0.05595	0	0	0	-0	0	0	0	0	0	-0	0	547.303	550.313	325.16	201.525	0.0927948	-0.419713	-0.00645282	-0.0084155	0.443857
11	-0.014107	-0.0197744	0.00484842	0.0067947	-0.0164962	-0.043916	0.0216486	0.0288739	-0.00100536	-1.686	0.156618	0.242713	0.050635	-0.00337468	0.0203699	-2.20258	0.0136188	-1.53849	0	0	0	0	-0	0	0	0	-0.1265	0	-0	0	0	0	0	0	-0	0	0.105	-0.015	0	0	-0	0	0	-0.098	0.1	0	-0	0	0	0	0	0	-0	0	0.05595	0	0	0	-0	0	0	0	0	0	-0	0	549.079	549.479	325.394	201.366	0.197601	-1.01843	-0.00543653	-0.00948961	1.42786
12	-0.0128762	-0.0194649	0.00478624	0.00699692	-0.0166155	-0.0433302	0.021607	0.0288807	-0.00103329	-1.68467	0.156563	0.243094	0.0501243	-0.00329436	0.0209044	-2.20124	0.0125365	-1.53996	0	0	0	0	-0	0	0	0	-0.1265	0	-0	0	0	0	0	0	-0	0	0.105	-0.015	0	0	-0	0	0	-0.098	0.1	0	-0	0	0	0	0	0	-0	0	0.05595	0	0	0	-0	0	0	0	0	0	-0	0	551.75	548.878	325.813	201.081	0.245012	-1.33262	-0.00319986	-0.0105661	1.99162
13	-0.0169319	-0.0192344	0.00467245	0.00731219	-0.0166976	-0.0429216	0.0215793	0.0288888	-0.00106301	-1.68359	0.156857	0.243264	0.049868	-0.00322185	0.0210548	-2.20498	0.0110937	-1.54173	0	0	0	0	-0	0	0	0	-0.1265	0	-0	0	0	0	0	0	-0	0	0.105	-0.015	0	0	-0	0	0	-0.098	0.1	0	-0	0	0	0	0	0	-0	0	0.05595	0	0	0	-0	0	0	0	0	0	-0	0	554.929	550.398	326.653	200.554	0.228888	-1.2951	-0.00181153	-0.0106901	1.98979
14	-0.00298097	-0.0191386	0.00454045	0.00754802	-0.0167458	-0.0427959	0.0215731	0.0288937	-0.0010803	-1.68328	0.157196	0.243112	0.0493909	-0.00317066	0.0219751	-2.19088	0.00933929	-1.54291	0	0	0	0	-0	0	0	0	-0.1265	0	-0	0	0	0	0	0	-0	0	0.105	-0.015	0	0	-0	0	0	-0.098	0.1	0	-0	0	0	0	0	0	-0	0	0.05595	0	0	0	-0	0	0	0	0	0	-0	0	556.947	552.441	327.447	200.096	0.208287	-1.20856	-0.00181867	-0.0102293	1.88534
15	-0.0167004	-0.0190021	0.00412711	0.00818802	-0.0169405	-0.0425982	0.0215695	0.0289045	-0.00112127	-1.68324	0.158285	0.242184	0.049165	-0.00301832	0.0219536	-2.20479	0.00458285	-1.54816	0	0	0	0	-0	0	0	0	-0.1265	0	-0	0	0	0	0	0	-0	0	0.105	-0.015	0	0	-0	0	0	-0.098	0.1	0	-0	0	0	0	0	0	-0	0	0.05595	0	0	0	-0	0	0	0	0	0	-0	0	562.346	559.489	330.815	198.93	0.158241	-0.993455	-0.00335526	-0.00798179	1.63558
16	-0.00680337	-0.0190003	0.0040293	0.00832331	-0.0170011	-0.0425409	0.0215689	0.0289062	-0.00113102	-1.68336	0.158476	0.241924	0.0488497	-0.00298615	0.0225798	-2.19488	0.00300665	-1.5494	0	0	0	0	-0	0	0	0	-0.1265	0	-0	0	0	0	0	0	-0	0	0.105	-0.015	0	0	-0	0	0	-0.098	0.1	0	-0	0	0	0	0	0	-0	0	0.05595	0	0	0	-0	0	0	0	0	0	-0	0	563.667	561.199	331.779	198.645	0.141372	-0.911147	-0.00364961	-0.00745932	1.52401
17	-0.0207295	-0.018977	0.00376588	0.00872586	-0.0171686	-0.0423987	0.0215667	0.0289138	-0.00115639	-1.68345	0.159141	0.241414	0.0488277	-0.00289001	0.0223271	-2.20893	-0.00183956	-1.55468	0	0	0	0	-0	0	0	0	-0.1265	0	-0	0	0	0	0	0	-0	0	0.105	-0.015	0	0	-0	0	0	-0.098	0.1	0	-0	0	0	0	0	0	-0	0	0.05595	0	0	0	-0	0	0	0	0	0	-0	0	567.257	566.168	335.571	197.874	0.106961	-0.748755	-0.00508188	-0.00537783	1.32633
18	-0.00734918	-0.0191609	0.00341973	0.00921761	-0.0175353	-0.0421205	0.0215613	0.0289272	-0.0011885	-1.68368	0.159861	0.241154	0.0481449	-0.00277974	0.0235052	-2.19518	-0.0135741	-1.56652	0	0	0	0	-0	0	0	0	-0.1265	0	-0	0	0	0	0	0	-0	0	0.105	-0.015	0	0	-0	0	0	-0.098	0.1	0	-0	0	0	0	0	0	-0	0	0.05595	0	0	0	-0	0	0	0	0	0	-0	0	571.887	573.095	344.789	196.625	0.0583566	-0.505129	-0.00776394	-0.000908681	1.03717
19	0.0156834	-0.019543	0.00319508	0.00946224	-0.0179467	-0.0418336	0.0215556	0.0289426	-0.00120888	-1.68413	0.160038	0.241886	0.0474203	-0.00273089	0.0248469	-2.17097	-0.0246912	-1.57898	0	0	0	0	-0	0	0	0	-0.1265	0	-0	0	0	0	0	0	-0	0	0.105	-0.015	0	0	-0	0	0	-0.098	0.1	0	-0	0	0	0	0	0	-0	0	0.05595	0	0	0	-0	0	0	0	0	0	-0	0	574.858	577.662	354.45	195.512	0.0191313	-0.272557	-0.0102784	0.00335623	0.729784
20	0.0256222	-0.0196289	0.00314141	0.00944392	-0.0180203	-0.0417844	0.0215556	0.028948	-0.00121231	-1.68446	0.159923	0.242442	0.0471888	-0.00272981	0.0252716	-2.16097	-0.0245517	-1.57949	0	0	0	0	-0	0	0	0	-0.1265	0	-0	0	0	0	0	0	-0	0	0.105	-0.015	0	0	-0	0	0	-0.098	0.1	0	-0	0	0	0	0	0	-0	0	0.05595	0	0	0	-0	0	0	0	0	0	-0	0	575.025	577.655	354.628	195.503	0.00832108	-0.240686	-0.00954038	0.00362195	0.708423
21	0.0236766	-0.0196468	0.00313153	0.00946153	-0.0180437	-0.041751	0.0215539	0.0289498	-0.00121424	-1.68445	0.159919	0.242606	0.047222	-0.00272629	0.0251926	-2.16289	-0.0252673	-1.58026	0	0	0	0	-0	0	0	0	-0.1265	0	-0	0	0	0	0	0	-0	0	0.105	-0.015	0	0	-0	0	0	-0.098	0.1	0	-0	0	0	0	0	0	-0	0	0.05595	0	0	0	-0	0	0	0	0	0	-0	0	575.277	577.871	355.257	195.48	0.00366155	-0.214631	-0.00948908	0.00391236	0.667257
22	0.0175635	-0.0196559	0.00312416	0.00946502	-0.0180537	-0.0417415	0.0215536	0.0289506	-0.00121486	-1.68446	0.159914	0.242671	0.0473743	-0.0027252	0.0249058	-2.16901	-0.0255126	-1.58033	0	0	0	0	-0	0	0	0	-0.1265	0	-0	0	0	0	0	0	-0	0	0.105	-0.015	0	0	-0	0	0	-0.098	0.1	0	-0	0	0	0	0	0	-0	0	0.05595	0	0	0	-0	0	0	0	0	0	-0	0	575.34	577.931	355.427	195.475	0.00211099	-0.208726	-0.00943386	0.00400626	0.661129
23	0.0110035	-0.0196817	0.0031123	0.00947916	-0.0180801	-0.0417206	0.0215531	0.0289517	-0.00121604	-1.68449	0.159919	0.242737	0.0475259	-0.00272265	0.0246084	-2.17557	-0.0263207	-1.581	0	0	0	0	-0	0	0	0	-0.1265	0	-0	0	0	0	0	0	-0	0	0.105	-0.015	0	0	-0	0	0	-0.098	0.1	0	-0	0	0	0	0	0	-0	0	0.05595	0	0	0	-0	0	0	0	0	0	-0	0	575.52	578.191	356.093	195.458	0.000255179	-0.196236	-0.00958586	0.0042978	0.644923
24	0.0222125	-0.0197101	0.00309809	0.00949084	-0.0181087	-0.0416989	0.0215526	0.0289529	-0.00121726	-1.68453	0.159919	0.242818	0.0472411	-0.00272023	0.0251515	-2.16437	-0.0268985	-1.58208	0	0	0	0	-0	0	0	0	-0.1265	0	-0	0	0	0	0	0	-0	0	0.105	-0.015	0	0	-0	0	0	-0.098	0.1	0	-0	0	0	0	0	0	-0	0	0.05595	0	0	0	-0	0	0	0	0	0	-0	0	575.685	578.423	356.715	195.451	-0.00184583	-0.185151	-0.00967106	0.00458549	0.63351
25	0.0101035	-0.0197339	0.00308565	0.00950053	-0.0181328	-0.0416803	0.0215523	0.0289539	-0.00121831	-1.68456	0.159917	0.242891	0.0475358	-0.00271816	0.0245866	-2.17651	-0.0276014	-1.58242	0	0	0	0	-0	0	0	0	-0.1265	0	-0	0	0	0	0	0	-0	0	0.105	-0.015	0	0	-0	0	0	-0.098	0.1	0	-0	0	0	0	0	0	-0	0	0.05595	0	0	0	-0	0	0	0	0	0	-0	0	575.82	578.61	357.231	195.451	-0.00348976	-0.177242	-0.0097271	0.00482741	0.627176
26	-0.0022409	-0.0197792	0.00306784	0.00951671	-0.0181759	-0.0416479	0.0215516	0.0289555	-0.00121982	-1.68462	0.159914	0.243	0.0478241	-0.00271534	0.0240141	-2.1889	-0.0289102	-1.58337	0	0	0	0	-0	0	0	0	-0.1265	0	-0	0	0	0	0	0	-0	0	0.105	-0.015	0	0	-0	0	0	-0.098	0.1	0	-0	0	0	0	0	0	-0	0	0.05595	0	0	0	-0	0	0	0	0	0	-0	0	576.051	578.959	358.268	195.46	-0.00554108	-0.164202	-0.00993518	0.00528971	0.615529
27	-0.0110854	-0.0197917	0.00305813	0.00951904	-0.018189	-0.0416382	0.0215514	0.0289564	-0.00122054	-1.68466	0.159907	0.243067	0.0480338	-0.00271431	0.0235892	-2.19777	-0.0291791	-1.58327	0	0	0	0	-0	0	0	0	-0.1265	0	-0	0	0	0	0	0	-0	0	0.105	-0.015	0	0	-0	0	0	-0.098	0.1	0	-0	0	0	0	0	0	-0	0	0.05595	0	0	0	-0	0	0	0	0	0	-0	0	576.092	578.994	358.405	195.466	-0.00689726	-0.162062	-0.00983033	0.0053821	0.618764
28	-0.0159101	-0.019803	0.00305318	0.00952323	-0.0182002	-0.041628	0.0215511	0.0289569	-0.00122098	-1.68467	0.159903	0.243107	0.0481422	-0.0027134	0.023361	-2.20262	-0.0295552	-1.58347	0	0	0	0	-0	0	0	0	-0.1265	0	-0	0	0	0	0	0	-0	0	0.105	-0.015	0	0	-0	0	0	-0.098	0.1	0	-0	0	0	0	0	0	-0	0	0.05595	0	0	0	-0	0	0	0	0	0	-0	0	576.157	579.076	358.681	195.479	-0.00743453	-0.159297	-0.0098599	0.00550864	0.6175
29	-0.0236007	-0.0198155	0.00304776	0.00952645	-0.0182123	-0.0416181	0.0215509	0.0289574	-0.0012214	-1.68469	0.159899	0.243147	0.048319	-0.00271266	0.0229938	-2.21035	-0.0299571	-1.58357	0	0	0	0	-0	0	0	0	-0.1265	0	-0	0	0	0	0	0	-0	0	0.105	-0.015	0	0	-0	0	0	-0.098	0.1	0	-0	0	0	0	0	0	-0	0	0.05595	0	0	0	-0	0	0	0	0	0	-0	0	576.214	579.153	358.948	195.494	-0.00806793	-0.15654	-0.00987727	0.00563376	0.616723
30	-0.020004	-0.0198215	0.00304425	0.009528	-0.0182183	-0.0416133	0.0215508	0.0289577	-0.00122166	-1.6847	0.159897	0.243171	0.0482342	-0.00271221	0.023168	-2.20676	-0.0300348	-1.58381	0	0	0	0	-0	0	0	0	-0.1265	0	-0	0	0	0	0	0	-0	0	0.105	-0.015	0	0	-0	0	0	-0.098	0.1	0	-0	0	0	0	0	0	-0	0	0.05595	0	0	0	-0	0	0	0	0	0	-0	0	576.239	579.183	359.055	195.501	-0.00844275	-0.155745	-0.00986378	0.00568952	0.617971
31	-0.024142	-0.0198392	0.00303847	0.00953287	-0.0182345	-0.0416001	0.0215505	0.0289583	-0.00122212	-1.68472	0.159892	0.243213	0.0483257	-0.00271141	0.0229739	-2.21096	-0.0305691	-1.5842	0	0	0	0	-0	0	0	0	-0.1265	0	-0	0	0	0	0	0	-0	0	0.105	-0.015	0	0	-0	0	0	-0.098	0.1	0	-0	0	0	0	0	0	-0	0	0.05595	0	0	0	-0	0	0	0	0	0	-0	0	576.322	579.306	359.474	195.529	-0.00896162	-0.152032	-0.0099417	0.00587527	0.616078
32	-0.0132422	-0.0198582	0.00303107	0.00953715	-0.0182521	-0.041586	0.0215502	0.028959	-0.0012227	-1.68475	0.159886	0.243269	0.0480725	-0.00271061	0.023504	-2.20012	-0.0308672	-1.58501	0	0	0	0	-0	0	0	0	-0.1265	0	-0	0	0	0	0	0	-0	0	0.105	-0.015	0	0	-0	0	0	-0.098	0.1	0	-0	0	0	0	0	0	-0	0	0.05595	0	0	0	-0	0	0	0	0	0	-0	0	576.401	579.413	359.866	195.562	-0.00991942	-0.147677	-0.00996369	0.00605942	0.61432
33	-0.0157438	-0.0198928	0.00302005	0.00954475	-0.018283	-0.0415606	0.0215496	0.0289601	-0.00122355	-1.6848	0.159874	0.243357	0.0481232	-0.00270954	0.0233898	-2.20275	-0.0317754	-1.58589	0	0	0	0	-0	0	0	0	-0.1265	0	-0	0	0	0	0	0	-0	0	0.105	-0.015	0	0	-0	0	0	-0.098	0.1	0	-0	0	0	0	0	0	-0	0	0.05595	0	0	0	-0	0	0	0	0	0	-0	0	576.541	579.619	360.64	195.635	-0.0109562	-0.14168	-0.010068	0.00640928	0.613748
34	-0.00641686	-0.0199062	0.00301153	0.00954672	-0.0182966	-0.0415495	0.0215494	0.0289609	-0.00122415	-1.68483	0.159865	0.243419	0.0479044	-0.00270856	0.0238395	-2.19347	-0.031857	-1.58643	0	0	0	0	-0	0	0	0	-0.1265	0	-0	0	0	0	0	0	-0	0	0.105	-0.015	0	0	-0	0	0	-0.098	0.1	0	-0	0	0	0	0	0	-0	0	0.05595	0	0	0	-0	0	0	0	0	0	-0	0	576.585	579.657	360.839	195.663	-0.0118375	-0.141275	-0.00998466	0.00652492	0.620066
35	-0.000816216	-0.0199231	0.00300638	0.00954946	-0.0183115	-0.0415357	0.021549	0.0289615	-0.00122453	-1.68485	0.159856	0.243471	0.0477667	-0.00270817	0.0241095	-2.18797	-0.0321999	-1.58709	0	0	0	0	-0	0	0	0	-0.1265	0	-0	0	0	0	0	0	-0	0	0.105	-0.015	0	0	-0	0	0	-0.098	0.1	0	-0	0	0	0	0	0	-0	0	0.05595	0	0	0	-0	0	0	0	0	0	-0	0	576.649	579.741	361.228	195.72	-0.0121979	-0.139947	-0.0100096	0.00670375	0.623684
36	-0.00751429	-0.01993	0.00300207	0.00955031	-0.0183183	-0.0415301	0.0215489	0.0289619	-0.00122481	-1.68487	0.159851	0.243503	0.0479273	-0.00270769	0.0237894	-2.1947	-0.0324209	-1.58701	0	0	0	0	-0	0	0	0	-0.1265	0	-0	0	0	0	0	0	-0	0	0.105	-0.015	0	0	-0	0	0	-0.098	0.1	0	-0	0	0	0	0	0	-0	0	0.05595	0	0	0	-0	0	0	0	0	0	-0	0	576.67	579.759	361.331	195.738	-0.0126199	-0.139895	-0.00996551	0.00676394	0.627186
37	-0.0140842	-0.0199388	0.00299946	0.00955134	-0.0183261	-0.0415224	0.0215487	0.0289622	-0.00122499	-1.68488	0.159845	0.243531	0.0480814	-0.00270748	0.0234754	-2.20133	-0.0327573	-1.58705	0	0	0	0	-0	0	0	0	-0.1265	0	-0	0	0	0	0	0	-0	0	0.105	-0.015	0	0	-0	0	0	-0.098	0.1	0	-0	0	0	0	0	0	-0	0	0.05595	0	0	0	-0	0	0	0	0	0	-0	0	576.702	579.799	361.537	195.775	-0.0127421	-0.139783	-0.00997212	0.00685938	0.630427
38	-0.00986701	-0.0199442	0.00299689	0.00955193	-0.0183312	-0.041518	0.0215486	0.0289624	-0.00122516	-1.68489	0.159841	0.243552	0.0479812	-0.00270725	0.023678	-2.19715	-0.0328013	-1.58731	0	0	0	0	-0	0	0	0	-0.1265	0	-0	0	0	0	0	0	-0	0	0.105	-0.015	0	0	-0	0	0	-0.098	0.1	0	-0	0	0	0	0	0	-0	0	0.05595	0	0	0	-0	0	0	0	0	0	-0	0	576.719	579.817	361.638	195.795	-0.0129893	-0.139546	-0.00995312	0.00691162	0.632474
39	-0.00251137	-0.0199508	0.00299494	0.00955249	-0.0183368	-0.0415126	0.0215485	0.0289626	-0.00122528	-1.6849	0.159837	0.243573	0.047806	-0.00270716	0.0240313	-2.18984	-0.032841	-1.58773	0	0	0	0	-0	0	0	0	-0.1265	0	-0	0	0	0	0	0	-0	0	0.105	-0.015	0	0	-0	0	0	-0.098	0.1	0	-0	0	0	0	0	0	-0	0	0.05595	0	0	0	-0	0	0	0	0	0	-0	0	576.741	579.844	361.784	195.824	-0.0130991	-0.139433	-0.00995395	0.00698049	0.634818
40	-0.00772276	-0.0199562	0.00299305	0.00955293	-0.0183415	-0.0415083	0.0215484	0.0289628	-0.00122541	-1.68491	0.159833	0.243591	0.04793	-0.00270709	0.0237816	-2.19509	-0.0330461	-1.5877	0	0	0	0	-0	0	0	0	-0.1265	0	-0	0	0	0	0	0	-0	0	0.105	-0.015	0	0	-0	0	0	-0.098	0.1	0	-0	0	0	0	0	0	-0	0	0.05595	0	0	0	-0	0	0	0	0	0	-0	0	576.756	579.861	361.891	195.846	-0.0133021	-0.139054	-0.00994227	0.00703337	0.636315
41	-0.0108628	-0.0199587	0.00299174	0.0095531	-0.0183438	-0.0415063	0.0215483	0.028963	-0.00122548	-1.68491	0.159831	0.243602	0.0480039	-0.00270696	0.0236309	-2.19825	-0.0331475	-1.58765	0	0	0	0	-0	0	0	0	-0.1265	0	-0	0	0	0	0	0	-0	0	0.105	-0.015	0	0	-0	0	0	-0.098	0.1	0	-0	0	0	0	0	0	-0	0	0.05595	0	0	0	-0	0	0	0	0	0	-0	0	576.763	579.868	361.934	195.856	-0.0133741	-0.139315	-0.00993161	0.00705692	0.63804
42	-0.00995161	-0.0199645	0.00299047	0.00955331	-0.0183487	-0.0415014	0.0215482	0.0289631	-0.00122555	-1.68492	0.159827	0.243618	0.0479816	-0.00270695	0.0236751	-2.19739	-0.0332863	-1.58785	0	0	0	0	-0	0	0	0	-0.1265	0	-0	0	0	0	0	0	-0	0	0.105	-0.015	0	0	-0	0	0	-0.098	0.1	0	-0	0	0	0	0	0	-0	0	0.05595	0	0	0	-0	0	0	0	0	0	-0	0	576.782	579.893	362.073	195.886	-0.0133953	-0.139413	-0.00993838	0.00712015	0.640443
43	-0.00454464	-0.019971	0.00298859	0.00955346	-0.0183542	-0.0414964	0.0215481	0.0289633	-0.00122565	-1.68493	0.159822	0.243638	0.0478536	-0.00270694	0.0239346	-2.19203	-0.0333407	-1.58819	0	0	0	0	-0	0	0	0	-0.1265	0	-0	0	0	0	0	0	-0	0	0.105	-0.015	0	0	-0	0	0	-0.098	0.1	0	-0	0	0	0	0	0	-0	0	0.05595	0	0	0	-0	0	0	0	0	0	-0	0	576.799	579.913	362.206	195.917	-0.0135321	-0.139346	-0.00993104	0.00718453	0.642871
44	-0.00825082	-0.0199741	0.00298696	0.00955383	-0.018357	-0.0414939	0.0215481	0.0289635	-0.00122576	-1.68494	0.159819	0.243651	0.0479415	-0.00270679	0.023757	-2.19576	-0.033464	-1.58814	0	0	0	0	-0	0	0	0	-0.1265	0	-0	0	0	0	0	0	-0	0	0.105	-0.015	0	0	-0	0	0	-0.098	0.1	0	-0	0	0	0	0	0	-0	0	0.05595	0	0	0	-0	0	0	0	0	0	-0	0	576.807	579.921	362.26	195.93	-0.0136415	-0.13959	-0.00991587	0.00721378	0.644911
45	-0.0141219	-0.0199809	0.00298564	0.00955398	-0.0183626	-0.0414881	0.0215479	0.0289637	-0.00122583	-1.68495	0.159814	0.243669	0.0480803	-0.00270685	0.0234757	-2.20169	-0.0337461	-1.58814	0	0	0	0	-0	0	0	0	-0.1265	0	-0	0	0	0	0	0	-0	0	0.105	-0.015	0	0	-0	0	0	-0.098	0.1	0	-0	0	0	0	0	0	-0	0	0.05595	0	0	0	-0	0	0	0	0	0	-0	0	576.829	579.948	362.422	195.969	-0.0137261	-0.139346	-0.00991937	0.00728849	0.64704
46	-0.020127	-0.0199852	0.00298366	0.00955416	-0.0183665	-0.0414844	0.0215478	0.0289639	-0.00122595	-1.68496	0.159811	0.243686	0.0482203	-0.00270667	0.0231868	-2.20774	-0.0339389	-1.58804	0	0	0	0	-0	0	0	0	-0.1265	0	-0	0	0	0	0	0	-0	0	0.105	-0.015	0	0	-0	0	0	-0.098	0.1	0	-0	0	0	0	0	0	-0	0	0.05595	0	0	0	-0	0	0	0	0	0	-0	0	576.841	579.959	362.502	195.989	-0.0138268	-0.139922	-0.00989954	0.0073305	0.650339
47	-0.0214433	-0.0199925	0.00298204	0.00955444	-0.0183724	-0.0414785	0.0215477	0.0289641	-0.00122603	-1.68497	0.159805	0.243706	0.0482497	-0.00270672	0.0231232	-2.20913	-0.0341539	-1.5882	0	0	0	0	-0	0	0	0	-0.1265	0	-0	0	0	0	0	0	-0	0	0.105	-0.015	0	0	-0	0	0	-0.098	0.1	0	-0	0	0	0	0	0	-0	0	0.05595	0	0	0	-0	0	0	0	0	0	-0	0	576.864	579.989	362.673	196.034	-0.0139428	-0.139524	-0.00990253	0.0074098	0.652394
48	-0.015837	-0.0199955	0.00298014	0.00955457	-0.0183754	-0.0414759	0.0215476	0.0289643	-0.00122614	-1.68498	0.159802	0.24372	0.04812	-0.00270652	0.0233937	-2.20354	-0.034107	-1.58845	0	0	0	0	-0	0	0	0	-0.1265	0	-0	0	0	0	0	0	-0	0	0.105	-0.015	0	0	-0	0	0	-0.098	0.1	0	-0	0	0	0	0	0	-0	0	0.05595	0	0	0	-0	0	0	0	0	0	-0	0	576.872	579.994	362.719	196.047	-0.0140725	-0.139934	-0.00987899	0.0074374	0.654856
49	-0.0197569	-0.019997	0.00297948	0.00955473	-0.0183767	-0.0414745	0.0215476	0.0289643	-0.00122618	-1.68498	0.159801	0.243727	0.0482108	-0.00270646	0.0232048	-2.20748	-0.034211	-1.58836	0	0	0	0	-0	0	0	0	-0.1265	0	-0	0	0	0	0	0	-0	0	0.105	-0.015	0	0	-0	0	0	-0.098	0.1	0	-0	0	0	0	0	0	-0	0	0.05595	0	0	0	-0	0	0	0	0	0	-0	0	576.876	579.998	362.75	196.056	-0.0141011	-0.140147	-0.00987216	0.00745365	0.656061
50	-0.0163735	-0.0199999	0.00297884	0.00955463	-0.0183791	-0.0414718	0.0215475	0.0289644	-0.00122621	-1.68499	0.159798	0.243736	0.0481317	-0.00270645	0.023368	-2.20413	-0.0342293	-1.58856	0	0	0	0	-0	0	0	0	-0.1265	0	-0	0	0	0	0	0	-0	0	0.105	-0.015	0	0	-0	0	0	-0.098	0.1	0	-0	0	0	0	0	0	-0	0	0.05595	0	0	0	-0	0	0	0	0	0	-0	0	576.885	580.008	362.82	196.075	-0.0140946	-0.140479	-0.00986971	0.00748631	0.658008
51	-0.0106242	-0.0200044	0.00297779	0.00955444	-0.0183828	-0.0414681	0.0215474	0.0289645	-0.00122625	-1.68499	0.159794	0.243748	0.0479971	-0.0027065	0.0236445	-2.19842	-0.0342385	-1.58888	0	0	0	0	-0	0	0	0	-0.1265	0	-0	0	0	0	0	0	-0	0	0.105	-0.015	0	0	-0	0	0	-0.098	0.1	0	-0	0	0	0	0	0	-0	0	0.05595	0	0	0	-0	0	0	0	0	0	-0	0	576.897	580.021	362.921	196.104	-0.0141054	-0.140872	-0.00986567	0.00753428	0.660699
52	-0.00321067	-0.0200108	0.00297635	0.00955427	-0.018388	-0.0414627	0.0215473	0.0289647	-0.00122631	-1.685	0.159789	0.243767	0.047821	-0.00270658	0.0239998	-2.19107	-0.0342623	-1.58931	0	0	0	0	-0	0	0	0	-0.1265	0	-0	0	0	0	0	0	-0	0	0.105	-0.015	0	0	-0	0	0	-0.098	0.1	0	-0	0	0	0	0	0	-0	0	0.05595	0	0	0	-0	0	0	0	0	0	-0	0	576.913	580.04	363.065	196.147	-0.0141545	-0.141254	-0.00985699	0.00760314	0.664195
53	-0.0100282	-0.0200146	0.0029747	0.00955436	-0.0183913	-0.0414595	0.0215472	0.0289649	-0.00122641	-1.68501	0.159785	0.243782	0.0479834	-0.00270649	0.023673	-2.19793	-0.0344646	-1.58917	0	0	0	0	-0	0	0	0	-0.1265	0	-0	0	0	0	0	0	-0	0	0.105	-0.015	0	0	-0	0	0	-0.098	0.1	0	-0	0	0	0	0	0	-0	0	0.05595	0	0	0	-0	0	0	0	0	0	-0	0	576.922	580.048	363.136	196.169	-0.0142728	-0.141546	-0.00983723	0.00764091	0.666675
54	-0.0158347	-0.020021	0.00297356	0.00955392	-0.0183963	-0.041454	0.0215471	0.0289651	-0.00122644	-1.68502	0.159779	0.2438	0.0481198	-0.00270662	0.0233937	-2.20382	-0.034739	-1.58916	0	0	0	0	-0	0	0	0	-0.1265	0	-0	0	0	0	0	0	-0	0	0.105	-0.015	0	0	-0	0	0	-0.098	0.1	0	-0	0	0	0	0	0	-0	0	0.05595	0	0	0	-0	0	0	0	0	0	-0	0	576.939	580.067	363.288	196.217	-0.0142579	-0.142172	-0.00983143	0.00771213	0.670669
55	-0.00958885	-0.0200301	0.00297145	0.00955362	-0.0184036	-0.0414459	0.0215469	0.0289653	-0.00122654	-1.68504	0.15977	0.243828	0.0479728	-0.00270672	0.0236936	-2.19768	-0.0348567	-1.58963	0	0	0	0	-0	0	0	0	-0.1265	0	-0	0	0	0	0	0	-0	0	0.105	-0.015	0	0	-0	0	0	-0.098	0.1	0	-0	0	0	0	0	0	-0	0	0.05595	0	0	0	-0	0	0	0	0	0	-0	0	576.965	580.095	363.498	196.287	-0.014424	-0.142221	-0.00981106	0.00781322	0.674888
56	-0.0119943	-0.0200328	0.00296926	0.00955382	-0.0184063	-0.041444	0.0215468	0.0289655	-0.00122665	-1.68505	0.159768	0.243842	0.0480291	-0.00270648	0.0235776	-2.20011	-0.0349323	-1.58959	0	0	0	0	-0	0	0	0	-0.1265	0	-0	0	0	0	0	0	-0	0	0.105	-0.015	0	0	-0	0	0	-0.098	0.1	0	-0	0	0	0	0	0	-0	0	0.05595	0	0	0	-0	0	0	0	0	0	-0	0	576.97	580.096	363.526	196.297	-0.0145716	-0.142719	-0.00978201	0.00783491	0.677435
57	-0.0149269	-0.0200338	0.00296876	0.00955371	-0.0184073	-0.0414428	0.0215468	0.0289656	-0.00122667	-1.68505	0.159767	0.243848	0.0480979	-0.00270639	0.0234369	-2.20306	-0.0350143	-1.58951	0	0	0	0	-0	0	0	0	-0.1265	0	-0	0	0	0	0	0	-0	0	0.105	-0.015	0	0	-0	0	0	-0.098	0.1	0	-0	0	0	0	0	0	-0	0	0.05595	0	0	0	-0	0	0	0	0	0	-0	0	576.973	580.098	363.551	196.305	-0.0145149	-0.143443	-0.00977583	0.00784772	0.679551
58	-0.0104426	-0.0200359	0.00296843	0.00955347	-0.0184089	-0.0414406	0.0215467	0.0289656	-0.00122668	-1.68505	0.159764	0.243855	0.0479926	-0.00270645	0.0236523	-2.1986	-0.0349891	-1.58974	0	0	0	0	-0	0	0	0	-0.1265	0	-0	0	0	0	0	0	-0	0	0.105	-0.015	0	0	-0	0	0	-0.098	0.1	0	-0	0	0	0	0	0	-0	0	0.05595	0	0	0	-0	0	0	0	0	0	-0	0	576.979	580.102	363.604	196.325	-0.0145579	-0.143466	-0.00976774	0.00787329	0.680632
59	-0.0153759	-0.0200393	0.00296774	0.00955312	-0.0184116	-0.0414376	0.0215467	0.0289657	-0.0012267	-1.68506	0.15976	0.243865	0.0481089	-0.00270652	0.0234151	-2.20358	-0.035168	-1.58966	0	0	0	0	-0	0	0	0	-0.1265	0	-0	0	0	0	0	0	-0	0	0.105	-0.015	0	0	-0	0	0	-0.098	0.1	0	-0	0	0	0	0	0	-0	0	0.05595	0	0	0	-0	0	0	0	0	0	-0	0	576.987	580.11	363.682	196.353	-0.0145389	-0.144052	-0.00975948	0.00791087	0.683413
60	-0.0122824	-0.0200413	0.0029669	0.00955305	-0.0184133	-0.0414358	0.0215466	0.0289658	-0.00122674	-1.68506	0.159758	0.243873	0.0480359	-0.00270648	0.0235635	-2.20051	-0.035152	-1.58982	0	0	0	0	-0	0	0	0	-0.1265	0	-0	0	0	0	0	0	-0	0	0.105	-0.015	0	0	-0	0	0	-0.098	0.1	0	-0	0	0	0	0	0	-0	0	0.05595	0	0	0	-0	0	0	0	0	0	-0	0	576.992	580.113	363.72	196.368	-0.0145993	-0.144261	-0.00974612	0.00793176	0.684872
61	-0.00815009	-0.0200426	0.00296639	0.00955293	-0.0184144	-0.0414345	0.0215466	0.0289659	-0.00122676	-1.68506	0.159757	0.243879	0.0479383	-0.00270645	0.023762	-2.1964	-0.0351046	-1.59	0	0	0	0	-0	0	0	0	-0.1265	0	-0	0	0	0	0	0	-0	0	0.105	-0.015	0	0	-0	0	0	-0.098	0.1	0	-0	0	0	0	0	0	-0	0	0.05595	0	0	0	-0	0	0	0	0	0	-0	0	576.995	580.116	363.749	196.378	-0.0145742	-0.14477	-0.00973963	0.00794662	0.686615
62	-0.0112089	-0.0200436	0.00296606	0.00955282	-0.0184153	-0.0414336	0.0215466	0.0289659	-0.00122677	-1.68507	0.159756	0.243882	0.0480106	-0.00270645	0.023615	-2.19947	-0.0351865	-1.58992	0	0	0	0	-0	0	0	0	-0.1265	0	-0	0	0	0	0	0	-0	0	0.105	-0.015	0	0	-0	0	0	-0.098	0.1	0	-0	0	0	0	0	0	-0	0	0.05595	0	0	0	-0	0	0	0	0	0	-0	0	576.997	580.117	363.77	196.387	-0.0145774	-0.145	-0.00973462	0.00795759	0.687612
63	-0.0162077	-0.0200455	0.00296576	0.00955251	-0.0184167	-0.0414319	0.0215465	0.0289659	-0.00122676	-1.68507	0.159753	0.243888	0.0481284	-0.00270649	0.0233749	-2.2045	-0.0353338	-1.5898	0	0	0	0	-0	0	0	0	-0.1265	0	-0	0	0	0	0	0	-0	0	0.105	-0.015	0	0	-0	0	0	-0.098	0.1	0	-0	0	0	0	0	0	-0	0	0.05595	0	0	0	-0	0	0	0	0	0	-0	0	577	580.121	363.817	196.405	-0.0144931	-0.145756	-0.00973185	0.00797994	0.690065
64	-0.0179397	-0.0200484	0.00296519	0.0095522	-0.018419	-0.0414292	0.0215465	0.028966	-0.00122677	-1.68508	0.15975	0.243896	0.0481684	-0.00270657	0.023291	-2.20628	-0.0354428	-1.58983	0	0	0	0	-0	0	0	0	-0.1265	0	-0	0	0	0	0	0	-0	0	0.105	-0.015	0	0	-0	0	0	-0.098	0.1	0	-0	0	0	0	0	0	-0	0	0.05595	0	0	0	-0	0	0	0	0	0	-0	0	577.007	580.128	363.886	196.431	-0.0144984	-0.146131	-0.00972326	0.00801313	0.692244
65	-0.0159816	-0.0200529	0.00296452	0.00955146	-0.0184223	-0.0414252	0.0215464	0.0289661	-0.00122678	-1.68508	0.159745	0.24391	0.0481231	-0.00270674	0.0233846	-2.20439	-0.0355206	-1.59002	0	0	0	0	-0	0	0	0	-0.1265	0	-0	0	0	0	0	0	-0	0	0.105	-0.015	0	0	-0	0	0	-0.098	0.1	0	-0	0	0	0	0	0	-0	0	0.05595	0	0	0	-0	0	0	0	0	0	-0	0	577.017	580.136	363.99	196.473	-0.0145333	-0.146507	-0.00970811	0.00806361	0.695099
66	-0.0136676	-0.0200543	0.00296346	0.00955146	-0.0184237	-0.0414242	0.0215463	0.0289662	-0.00122683	-1.68509	0.159744	0.243917	0.048069	-0.00270663	0.0234958	-2.20208	-0.0354937	-1.59013	0	0	0	0	-0	0	0	0	-0.1265	0	-0	0	0	0	0	0	-0	0	0.105	-0.015	0	0	-0	0	0	-0.098	0.1	0	-0	0	0	0	0	0	-0	0	0.05595	0	0	0	-0	0	0	0	0	0	-0	0	577.018	580.136	364.007	196.479	-0.0145813	-0.146917	-0.00969339	0.00807555	0.696712
67	-0.0113821	-0.0200548	0.0029632	0.00955143	-0.0184241	-0.0414236	0.0215463	0.0289663	-0.00122684	-1.68509	0.159743	0.24392	0.0480151	-0.0027066	0.0236056	-2.1998	-0.0354618	-1.59022	0	0	0	0	-0	0	0	0	-0.1265	0	-0	0	0	0	0	0	-0	0	0.105	-0.015	0	0	-0	0	0	-0.098	0.1	0	-0	0	0	0	0	0	-0	0	0.05595	0	0	0	-0	0	0	0	0	0	-0	0	577.02	580.136	364.018	196.484	-0.0145717	-0.147175	-0.00968901	0.00808165	0.697555
68	-0.0129229	-0.0200557	0.00296303	0.0095513	-0.0184249	-0.0414226	0.0215463	0.0289663	-0.00122684	-1.68509	0.159742	0.243923	0.0480513	-0.00270662	0.0235316	-2.20136	-0.0355191	-1.5902	0	0	0	0	-0	0	0	0	-0.1265	0	-0	0	0	0	0	0	-0	0	0.105	-0.015	0	0	-0	0	0	-0.098	0.1	0	-0	0	0	0	0	0	-0	0	0.05595	0	0	0	-0	0	0	0	0	0	-0	0	577.023	580.138	364.043	196.494	-0.0145557	-0.147449	-0.00968518	0.00809366	0.69865
69	-0.0140355	-0.0200572	0.00296269	0.00955109	-0.0184261	-0.0414211	0.0215463	0.0289663	-0.00122685	-1.68509	0.15974	0.243928	0.0480774	-0.00270663	0.0234781	-2.2025	-0.0355814	-1.5902	0	0	0	0	-0	0	0	0	-0.1265	0	-0	0	0	0	0	0	-0	0	0.105	-0.015	0	0	-0	0	0	-0.098	0.1	0	-0	0	0	0	0	0	-0	0	0.05595	0	0	0	-0	0	0	0	0	0	-0	0	577.027	580.142	364.079	196.509	-0.014538	-0.147829	-0.00967953	0.00811165	0.700231
70	-0.0153169	-0.0200577	0.00296234	0.00955109	-0.0184265	-0.0414208	0.0215463	0.0289664	-0.00122686	-1.68509	0.159739	0.24393	0.0481075	-0.00270659	0.0234164	-2.20379	-0.0356117	-1.59017	0	0	0	0	-0	0	0	0	-0.1265	0	-0	0	0	0	0	0	-0	0	0.105	-0.015	0	0	-0	0	0	-0.098	0.1	0	-0	0	0	0	0	0	-0	0	0.05595	0	0	0	-0	0	0	0	0	0	-0	0	577.027	580.142	364.085	196.512	-0.0145642	-0.147881	-0.00967457	0.00811554	0.700562
71	-0.0153447	-0.020058	0.00296223	0.00955105	-0.0184268	-0.0414203	0.0215462	0.0289664	-0.00122687	-1.6851	0.159739	0.243932	0.0481081	-0.00270659	0.023415	-2.20382	-0.0356237	-1.59018	0	0	0	0	-0	0	0	0	-0.1265	0	-0	0	0	0	0	0	-0	0	0.105	-0.015	0	0	-0	0	0	-0.098	0.1	0	-0	0	0	0	0	0	-0	0	0.05595	0	0	0	-0	0	0	0	0	0	-0	0	577.028	580.143	364.095	196.516	-0.0145529	-0.148035	-0.00967285	0.00812056	0.701109
72	-0.0168832	-0.0200587	0.00296212	0.0095509	-0.0184273	-0.0414197	0.0215462	0.0289664	-0.00122687	-1.6851	0.159738	0.243934	0.0481442	-0.00270661	0.0233409	-2.20537	-0.0356704	-1.59014	0	0	0	0	-0	0	0	0	-0.1265	0	-0	0	0	0	0	0	-0	0	0.105	-0.015	0	0	-0	0	0	-0.098	0.1	0	-0	0	0	0	0	0	-0	0	0.05595	0	0	0	-0	0	0	0	0	0	-0	0	577.03	580.143	364.11	196.522	-0.0145481	-0.148182	-0.00966994	0.00812811	0.701737
73	-0.0174881	-0.0200596	0.00296193	0.00955077	-0.0184281	-0.0414187	0.0215462	0.0289664	-0.00122687	-1.6851	0.159737	0.243937	0.0481582	-0.00270662	0.0233118	-2.20599	-0.0357074	-1.59015	0	0	0	0	-0	0	0	0	-0.1265	0	-0	0	0	0	0	0	-0	0	0.105	-0.015	0	0	-0	0	0	-0.098	0.1	0	-0	0	0	0	0	0	-0	0	0.05595	0	0	0	-0	0	0	0	0	0	-0	0	577.032	580.145	364.133	196.532	-0.0145266	-0.148519	-0.00966562	0.00813932	0.702948
74	-0.0188742	-0.020061	0.00296167	0.00955047	-0.0184291	-0.0414173	0.0215462	0.0289664	-0.00122687	-1.6851	0.159735	0.243942	0.0481905	-0.00270665	0.0232449	-2.2074	-0.0357715	-1.59014	0	0	0	0	-0	0	0	0	-0.1265	0	-0	0	0	0	0	0	-0	0	0.105	-0.015	0	0	-0	0	0	-0.098	0.1	0	-0	0	0	0	0	0	-0	0	0.05595	0	0	0	-0	0	0	0	0	0	-0	0	577.035	580.147	364.167	196.547	-0.0144943	-0.148986	-0.00965985	0.00815585	0.70464
75	-0.0147492	-0.0200619	0.00296134	0.00955035	-0.0184299	-0.0414166	0.0215461	0.0289665	-0.00122688	-1.6851	0.159734	0.243945	0.0480947	-0.00270665	0.0234435	-2.20329	-0.0357098	-1.59031	0	0	0	0	-0	0	0	0	-0.1265	0	-0	0	0	0	0	0	-0	0	0.105	-0.015	0	0	-0	0	0	-0.098	0.1	0	-0	0	0	0	0	0	-0	0	0.05595	0	0	0	-0	0	0	0	0	0	-0	0	577.036	580.148	364.183	196.554	-0.0145101	-0.149139	-0.00965377	0.00816504	0.705397
76	-0.0153337	-0.0200633	0.00296115	0.0095501	-0.0184309	-0.0414152	0.0215461	0.0289665	-0.00122687	-1.68511	0.159732	0.243949	0.0481081	-0.00270671	0.023415	-2.2039	-0.035762	-1.59033	0	0	0	0	-0	0	0	0	-0.1265	0	-0	0	0	0	0	0	-0	0	0.105	-0.015	0	0	-0	0	0	-0.098	0.1	0	-0	0	0	0	0	0	-0	0	0.05595	0	0	0	-0	0	0	0	0	0	-0	0	577.039	580.15	364.221	196.57	-0.0144672	-0.149615	-0.0096495	0.00818272	0.707134
77	-0.0149325	-0.0200656	0.00296088	0.00954959	-0.0184326	-0.041413	0.021546	0.0289666	-0.00122687	-1.68511	0.159729	0.243956	0.0480989	-0.00270683	0.0234339	-2.20353	-0.0358136	-1.59042	0	0	0	0	-0	0	0	0	-0.1265	0	-0	0	0	0	0	0	-0	0	0.105	-0.015	0	0	-0	0	0	-0.098	0.1	0	-0	0	0	0	0	0	-0	0	0.05595	0	0	0	-0	0	0	0	0	0	-0	0	577.043	580.153	364.275	196.594	-0.0144899	-0.149815	-0.00963896	0.0082092	0.708651
78	-0.0122567	-0.020067	0.00296024	0.00954944	-0.0184338	-0.0414117	0.021546	0.0289666	-0.00122689	-1.68511	0.159727	0.243962	0.0480362	-0.00270678	0.0235626	-2.20088	-0.0357904	-1.59055	0	0	0	0	-0	0	0	0	-0.1265	0	-0	0	0	0	0	0	-0	0	0.105	-0.015	0	0	-0	0	0	-0.098	0.1	0	-0	0	0	0	0	0	-0	0	0.05595	0	0	0	-0	0	0	0	0	0	-0	0	577.046	580.154	364.301	196.606	-0.0144602	-0.150498	-0.00962901	0.00822406	0.71085
79	-0.0164319	-0.0200693	0.00296003	0.00954889	-0.0184354	-0.0414096	0.021546	0.0289667	-0.00122687	-1.68512	0.159724	0.243968	0.0481347	-0.00270692	0.0233615	-2.2051	-0.035937	-1.59047	0	0	0	0	-0	0	0	0	-0.1265	0	-0	0	0	0	0	0	-0	0	0.105	-0.015	0	0	-0	0	0	-0.098	0.1	0	-0	0	0	0	0	0	-0	0	0.05595	0	0	0	-0	0	0	0	0	0	-0	0	577.05	580.157	364.36	196.632	-0.0144135	-0.151082	-0.00962189	0.00825209	0.713223
80	-0.0183318	-0.0200728	0.00295951	0.00954838	-0.0184379	-0.0414065	0.0215459	0.0289668	-0.00122687	-1.68512	0.15972	0.243978	0.048179	-0.00270707	0.0232692	-2.20706	-0.0360674	-1.59051	0	0	0	0	-0	0	0	0	-0.1265	0	-0	0	0	0	0	0	-0	0	0.105	-0.015	0	0	-0	0	0	-0.098	0.1	0	-0	0	0	0	0	0	-0	0	0.05595	0	0	0	-0	0	0	0	0	0	-0	0	577.058	580.164	364.444	196.67	-0.0144515	-0.151291	-0.00960892	0.00829309	0.715392
81	-0.015075	-0.0200739	0.00295866	0.00954836	-0.018439	-0.0414057	0.0215459	0.0289668	-0.00122691	-1.68513	0.159719	0.243984	0.0481032	-0.00270697	0.023426	-2.20381	-0.0360156	-1.59064	0	0	0	0	-0	0	0	0	-0.1265	0	-0	0	0	0	0	0	-0	0	0.105	-0.015	0	0	-0	0	0	-0.098	0.1	0	-0	0	0	0	0	0	-0	0	0.05595	0	0	0	-0	0	0	0	0	0	-0	0	577.059	580.164	364.456	196.675	-0.0145204	-0.151417	-0.00959547	0.00830227	0.71621
82	-0.0127372	-0.0200748	0.00295848	0.00954816	-0.0184396	-0.0414047	0.0215459	0.0289669	-0.00122691	-1.68513	0.159718	0.243987	0.0480481	-0.00270699	0.0235383	-2.20149	-0.035995	-1.59075	0	0	0	0	-0	0	0	0	-0.1265	0	-0	0	0	0	0	0	-0	0	0.105	-0.015	0	0	-0	0	0	-0.098	0.1	0	-0	0	0	0	0	0	-0	0	0.05595	0	0	0	-0	0	0	0	0	0	-0	0	577.061	580.165	364.479	196.686	-0.0144578	-0.152019	-0.00959174	0.00831375	0.717994
83	-0.0164563	-0.0200762	0.00295825	0.00954783	-0.0184407	-0.0414033	0.0215458	0.0289669	-0.0012269	-1.68513	0.159716	0.243992	0.0481356	-0.00270704	0.0233594	-2.20524	-0.036107	-1.59066	0	0	0	0	-0	0	0	0	-0.1265	0	-0	0	0	0	0	0	-0	0	0.105	-0.015	0	0	-0	0	0	-0.098	0.1	0	-0	0	0	0	0	0	-0	0	0.05595	0	0	0	-0	0	0	0	0	0	-0	0	577.064	580.167	364.514	196.702	-0.0144418	-0.152387	-0.00958482	0.00833083	0.719517
84	-0.0195998	-0.020077	0.00295789	0.00954773	-0.0184414	-0.0414025	0.0215458	0.0289669	-0.00122691	-1.68513	0.159715	0.243996	0.0482088	-0.00270703	0.0232077	-2.20839	-0.0361883	-1.59057	0	0	0	0	-0	0	0	0	-0.1265	0	-0	0	0	0	0	0	-0	0	0.105	-0.015	0	0	-0	0	0	-0.098	0.1	0	-0	0	0	0	0	0	-0	0	0.05595	0	0	0	-0	0	0	0	0	0	-0	0	577.065	580.168	364.531	196.71	-0.0144549	-0.1526	-0.0095777	0.00834036	0.720453
85	-0.0242799	-0.0200786	0.0029578	0.00954725	-0.0184425	-0.0414009	0.0215457	0.028967	-0.0012269	-1.68514	0.159712	0.244	0.0483174	-0.00270713	0.0229817	-2.21311	-0.0363223	-1.59045	0	0	0	0	-0	0	0	0	-0.1265	0	-0	0	0	0	0	0	-0	0	0.105	-0.015	0	0	-0	0	0	-0.098	0.1	0	-0	0	0	0	0	0	-0	0	0.05595	0	0	0	-0	0	0	0	0	0	-0	0	577.067	580.167	364.569	196.728	-0.0143994	-0.153232	-0.00957011	0.00835876	0.722553
86	-0.0203216	-0.0200808	0.00295758	0.0095466	-0.0184441	-0.0413987	0.0215457	0.028967	-0.00122689	-1.68514	0.159709	0.244008	0.0482262	-0.00270726	0.0231721	-2.20919	-0.0363051	-1.59066	0	0	0	0	-0	0	0	0	-0.1265	0	-0	0	0	0	0	0	-0	0	0.105	-0.015	0	0	-0	0	0	-0.098	0.1	0	-0	0	0	0	0	0	-0	0	0.05595	0	0	0	-0	0	0	0	0	0	-0	0	577.07	580.168	364.624	196.755	-0.0143758	-0.15381	-0.00955764	0.00838589	0.724944
87	-0.0264671	-0.0200842	0.0029573	0.00954553	-0.0184464	-0.0413956	0.0215456	0.0289671	-0.00122685	-1.68515	0.159704	0.244018	0.0483688	-0.0027075	0.0228746	-2.2154	-0.0365133	-1.59053	0	0	0	0	-0	0	0	0	-0.1265	0	-0	0	0	0	0	0	-0	0	0.105	-0.015	0	0	-0	0	0	-0.098	0.1	0	-0	0	0	0	0	0	-0	0	0.05595	0	0	0	-0	0	0	0	0	0	-0	0	577.072	580.167	364.703	196.793	-0.0142757	-0.155048	-0.00954144	0.00842475	0.729186
88	-0.0321735	-0.020086	0.00295639	0.00954543	-0.018448	-0.0413937	0.0215456	0.0289672	-0.00122689	-1.68515	0.159702	0.244026	0.0484984	-0.00270742	0.0225981	-2.22114	-0.0366691	-1.59037	0	0	0	0	-0	0	0	0	-0.1265	0	-0	0	0	0	0	0	-0	0	0.105	-0.015	0	0	-0	0	0	-0.098	0.1	0	-0	0	0	0	0	0	-0	0	0.05595	0	0	0	-0	0	0	0	0	0	-0	0	577.078	580.17	364.742	196.813	-0.0143093	-0.155543	-0.00952449	0.00844652	0.731396
89	-0.0291693	-0.0200873	0.00295603	0.00954518	-0.018449	-0.0413923	0.0215455	0.0289672	-0.0012269	-1.68516	0.1597	0.244032	0.0484298	-0.00270744	0.0227432	-2.21816	-0.0366424	-1.59052	0	0	0	0	-0	0	0	0	-0.1265	0	-0	0	0	0	0	0	-0	0	0.105	-0.015	0	0	-0	0	0	-0.098	0.1	0	-0	0	0	0	0	0	-0	0	0.05595	0	0	0	-0	0	0	0	0	0	-0	0	577.08	580.17	364.771	196.827	-0.014325	-0.155823	-0.00951352	0.00846189	0.732707
90	-0.0313738	-0.0200883	0.00295573	0.00954488	-0.0184497	-0.0413915	0.0215455	0.0289673	-0.00122689	-1.68516	0.159698	0.244035	0.0484798	-0.00270744	0.0226362	-2.22038	-0.0367097	-1.59046	0	0	0	0	-0	0	0	0	-0.1265	0	-0	0	0	0	0	0	-0	0	0.105	-0.015	0	0	-0	0	0	-0.098	0.1	0	-0	0	0	0	0	0	-0	0	0.05595	0	0	0	-0	0	0	0	0	0	-0	0	577.081	580.171	364.792	196.838	-0.0142719	-0.156417	-0.00950827	0.00847323	0.734466
91	-0.0312965	-0.0200901	0.0029557	0.00954422	-0.018451	-0.0413896	0.0215454	0.0289673	-0.00122687	-1.68516	0.159696	0.244041	0.0484782	-0.00270759	0.0226394	-2.22034	-0.0367603	-1.59052	0	0	0	0	-0	0	0	0	-0.1265	0	-0	0	0	0	0	0	-0	0	0.105	-0.015	0	0	-0	0	0	-0.098	0.1	0	-0	0	0	0	0	0	-0	0	0.05595	0	0	0	-0	0	0	0	0	0	-0	0	577.083	580.17	364.839	196.862	-0.0142369	-0.156976	-0.00949729	0.00849602	0.736623
92	-0.0275308	-0.0200912	0.0029552	0.00954402	-0.0184519	-0.0413885	0.0215454	0.0289673	-0.00122688	-1.68516	0.159694	0.244046	0.048393	-0.00270756	0.0228218	-2.2166	-0.0367116	-1.59069	0	0	0	0	-0	0	0	0	-0.1265	0	-0	0	0	0	0	0	-0	0	0.105	-0.015	0	0	-0	0	0	-0.098	0.1	0	-0	0	0	0	0	0	-0	0	0.05595	0	0	0	-0	0	0	0	0	0	-0	0	577.085	580.171	364.862	196.874	-0.0142174	-0.157512	-0.00948768	0.00850905	0.738408
93	-0.0244492	-0.0200931	0.00295502	0.00954365	-0.0184532	-0.0413866	0.0215454	0.0289674	-0.00122687	-1.68517	0.159691	0.244051	0.0483225	-0.00270767	0.0229705	-2.21356	-0.0367064	-1.59087	0	0	0	0	-0	0	0	0	-0.1265	0	-0	0	0	0	0	0	-0	0	0.105	-0.015	0	0	-0	0	0	-0.098	0.1	0	-0	0	0	0	0	0	-0	0	0.05595	0	0	0	-0	0	0	0	0	0	-0	0	577.09	580.175	364.913	196.901	-0.0142182	-0.157762	-0.00947898	0.00853351	0.740003
94	-0.0279714	-0.0200937	0.00295454	0.0095435	-0.0184538	-0.0413861	0.0215454	0.0289674	-0.00122688	-1.68517	0.159691	0.244054	0.0484033	-0.00270761	0.0228001	-2.21709	-0.0367843	-1.59075	0	0	0	0	-0	0	0	0	-0.1265	0	-0	0	0	0	0	0	-0	0	0.105	-0.015	0	0	-0	0	0	-0.098	0.1	0	-0	0	0	0	0	0	-0	0	0.05595	0	0	0	-0	0	0	0	0	0	-0	0	577.091	580.174	364.919	196.904	-0.014247	-0.157924	-0.00947075	0.00853913	0.740673
95	-0.0274349	-0.0200942	0.00295441	0.00954339	-0.0184542	-0.0413854	0.0215453	0.0289674	-0.00122688	-1.68517	0.15969	0.244056	0.0483906	-0.00270761	0.0228259	-2.21656	-0.0367895	-1.59078	0	0	0	0	-0	0	0	0	-0.1265	0	-0	0	0	0	0	0	-0	0	0.105	-0.015	0	0	-0	0	0	-0.098	0.1	0	-0	0	0	0	0	0	-0	0	0.05595	0	0	0	-0	0	0	0	0	0	-0	0	577.092	580.174	364.934	196.912	-0.0142018	-0.158397	-0.00946664	0.00854626	0.742029
96	-0.0296924	-0.020095	0.00295433	0.00954303	-0.0184548	-0.0413846	0.0215453	0.0289675	-0.00122687	-1.68517	0.159688	0.24406	0.0484423	-0.00270767	0.0227164	-2.21884	-0.0368577	-1.59073	0	0	0	0	-0	0	0	0	-0.1265	0	-0	0	0	0	0	0	-0	0	0.105	-0.015	0	0	-0	0	0	-0.098	0.1	0	-0	0	0	0	0	0	-0	0	0.05595	0	0	0	-0	0	0	0	0	0	-0	0	577.092	580.173	364.955	196.923	-0.0141608	-0.158877	-0.00946059	0.00855677	0.743511
97	-0.0285022	-0.0200963	0.00295423	0.00954263	-0.0184556	-0.0413834	0.0215453	0.0289675	-0.00122685	-1.68517	0.159686	0.244063	0.0484153	-0.00270774	0.0227737	-2.21767	-0.0368683	-1.59081	0	0	0	0	-0	0	0	0	-0.1265	0	-0	0	0	0	0	0	-0	0	0.105	-0.015	0	0	-0	0	0	-0.098	0.1	0	-0	0	0	0	0	0	-0	0	0.05595	0	0	0	-0	0	0	0	0	0	-0	0	577.094	580.174	364.985	196.939	-0.0141264	-0.159305	-0.00945454	0.008572	0.745073
98	-0.0252842	-0.0200971	0.00295392	0.00954252	-0.0184563	-0.0413826	0.0215453	0.0289675	-0.00122686	-1.68518	0.159685	0.244066	0.0483421	-0.00270774	0.0229293	-2.21447	-0.0368206	-1.59095	0	0	0	0	-0	0	0	0	-0.1265	0	-0	0	0	0	0	0	-0	0	0.105	-0.015	0	0	-0	0	0	-0.098	0.1	0	-0	0	0	0	0	0	-0	0	0.05595	0	0	0	-0	0	0	0	0	0	-0	0	577.095	580.174	365.001	196.948	-0.014137	-0.159512	-0.00944712	0.00858065	0.745945
99	-0.0227609	-0.0200975	0.00295379	0.00954233	-0.0184566	-0.0413821	0.0215453	0.0289675	-0.00122686	-1.68518	0.159684	0.244068	0.048284	-0.00270774	0.0230511	-2.21195	-0.0367822	-1.59105	0	0	0	0	-0	0	0	0	-0.1265	0	-0	0	0	0	0	0	-0	0	0.105	-0.015	0	0	-0	0	0	-0.098	0.1	0	-0	0	0	0	0	0	-0	0	0.05595	0	0	0	-0	0	0	0	0	0	-0	0	577.096	580.173	365.012	196.954	-0.0141196	-0.159807	-0.00944272	0.00858676	0.746883
100	-0.0244863	-0.0200979	0.00295362	0.00954231	-0.0184569	-0.0413817	0.0215452	0.0289675	-0.00122686	-1.68518	0.159684	0.24407	0.0483236	-0.00270773	0.0229678	-2.21369	-0.0368267	-1.591	0	0	0	0	-0	0	0	0	-0.1265	0	-0	0	0	0	0	0	-0	0	0.105	-0.015	0	0	-0	0	0	-0.098	0.1	0	-0	0	0	0	0	0	-0	0	0.05595	0	0	0	-0	0	0	0	0	0	-0	0	577.096	580.174	365.021	196.959	-0.0140972	-0.160063	-0.00944068	0.00859131	0.747654
