Stefan210/kinematic_calibration/src/kinematic_calibration/validation/experiments/experiments/impact_noise/bad_precision/larm_noise_5_pixel_rk_true/optimization_intermediate_results.csv
iteration	HeadPitch_offset	HeadYaw_offset	LElbowRoll_offset	LElbowYaw_offset	LShoulderPitch_offset	LShoulderRoll_offset	marker_transform_larm_tx	marker_transform_larm_ty	marker_transform_larm_tz	marker_transform_larm_rr	marker_transform_larm_rp	marker_transform_larm_ry	camera_transform_tx	camera_transform_ty	camera_transform_tz	camera_transform_rr	camera_transform_rp	camera_transform_ry	HeadPitch_transform_tx	HeadPitch_transform_ty	HeadPitch_transform_tz	HeadPitch_transform_rr	HeadPitch_transform_rp	HeadPitch_transform_ry	HeadYaw_transform_tx	HeadYaw_transform_ty	HeadYaw_transform_tz	HeadYaw_transform_rr	HeadYaw_transform_rp	HeadYaw_transform_ry	LElbowRoll_transform_tx	LElbowRoll_transform_ty	LElbowRoll_transform_tz	LElbowRoll_transform_rr	LElbowRoll_transform_rp	LElbowRoll_transform_ry	LElbowYaw_transform_tx	LElbowYaw_transform_ty	LElbowYaw_transform_tz	LElbowYaw_transform_rr	LElbowYaw_transform_rp	LElbowYaw_transform_ry	LShoulderPitch_transform_tx	LShoulderPitch_transform_ty	LShoulderPitch_transform_tz	LShoulderPitch_transform_rr	LShoulderPitch_transform_rp	LShoulderPitch_transform_ry	LShoulderRoll_transform_tx	LShoulderRoll_transform_ty	LShoulderRoll_transform_tz	LShoulderRoll_transform_rr	LShoulderRoll_transform_rp	LShoulderRoll_transform_ry	LWristYaw_transform_tx	LWristYaw_transform_ty	LWristYaw_transform_tz	LWristYaw_transform_rr	LWristYaw_transform_rp	LWristYaw_transform_ry	l_wrist_joint_transform_tx	l_wrist_joint_transform_ty	l_wrist_joint_transform_tz	l_wrist_joint_transform_rr	l_wrist_joint_transform_rp	l_wrist_joint_transform_ry	camera_fx	camera_fy	camera_cx	camera_cy	camera_D0	camera_D1	camera_D2	camera_D3	camera_D4	
0	0.0249164	-0.0307543	0.000853157	4.65819e-06	-0.000318322	-0.00310766	0.05071	0	0.01774	-2.26369	1.66533e-16	-1.5708	545.901	551.038	324.928	201.58	0.0255298	2.61142	-0.0636736	-0.0350419	0.213964
1	-0.0164972	-0.00156087	0.0383987	0.0223261	0.0168495	0.0263033	0.0265656	-0.0306	0.00157398	-8.38668e-05	-0.000384389	-0.00289063	0.0554129	-0.00217603	0.0136596	-2.19639	0.00665422	-1.53367	0	0	0	0	-0	0	0	0	-0.1265	0	-0	0	0	0	0	0	-0	0	0.105	0.015	0	0	-0	0	0	0.098	0.1	0	-0	0	0	0	0	0	-0	0	0.05595	0	0	0	-0	0	0	0	0	0	-0	0	545.901	551.039	324.928	201.581	-0.00287483	2.6023	-0.0873596	0.0236836	0.212104
2	-0.0157312	0.0135651	0.0366328	0.0168199	0.00601241	0.0235548	0.0260631	-0.0307378	0.00106897	-2.8966e-05	-0.000339007	-0.0029687	0.0552537	-0.0021706	0.0150438	-2.19992	0.00303585	-1.55134	0	0	0	0	-0	0	0	0	-0.1265	0	-0	0	0	0	0	0	-0	0	0.105	0.015	0	0	-0	0	0	0.098	0.1	0	-0	0	0	0	0	0	-0	0	0.05595	0	0	0	-0	0	0	0	0	0	-0	0	545.912	551.038	324.924	201.596	-0.321098	2.32843	-0.0259216	-0.00545611	0.126662
3	-0.0154278	0.0189202	0.0347623	0.0164782	0.00188416	0.0208717	0.0258019	-0.0307151	0.00106386	-1.02022e-05	-0.000310589	-0.00302546	0.0557232	-0.00219651	0.0149071	-2.20114	0.001761	-1.55707	0	0	0	0	-0	0	0	0	-0.1265	0	-0	0	0	0	0	0	-0	0	0.105	0.015	0	0	-0	0	0	0.098	0.1	0	-0	0	0	0	0	0	-0	0	0.05595	0	0	0	-0	0	0	0	0	0	-0	0	545.938	551.036	324.923	201.621	-0.47156	1.8476	0.00422151	-0.0193794	-0.0385101
4	-0.015282	0.0194745	0.032468	0.0184157	0.00151732	0.0200939	0.0256568	-0.0306688	0.00120711	-8.15146e-05	-0.000405105	-0.00312855	0.0553648	-0.00217559	0.0151277	-2.2021	0.00245267	-1.55752	0	0	0	0	-0	0	0	0	-0.1265	0	-0	0	0	0	0	0	-0	0	0.105	0.015	0	0	-0	0	0	0.098	0.1	0	-0	0	0	0	0	0	-0	0	0.05595	0	0	0	-0	0	0	0	0	0	-0	0	545.991	551.026	324.922	201.644	-0.397376	1.18467	0.0134525	-0.0223481	-0.284504
5	-0.015091	0.0197482	0.0314029	0.0196642	0.00118158	0.0193559	0.0255754	-0.0306475	0.00128574	-1.7962e-05	-0.000298985	-0.00340516	0.0547101	-0.00218707	0.0157309	-2.20292	0.00282303	-1.55817	0	0	0	0	-0	0	0	0	-0.1265	0	-0	0	0	0	0	0	-0	0	0.105	0.015	0	0	-0	0	0	0.098	0.1	0	-0	0	0	0	0	0	-0	0	0.05595	0	0	0	-0	0	0	0	0	0	-0	0	546.09	551.001	324.93	201.657	-0.242798	0.519669	0.0133895	-0.0223135	-0.542746
6	-0.0149252	0.019802	0.0311155	0.0204633	0.000935324	0.0188504	0.0255442	-0.0306328	0.00133565	0.000137115	0.000215376	-0.00285973	0.0542864	-0.00219616	0.0161891	-2.20355	0.00272885	-1.55839	0	0	0	0	-0	0	0	0	-0.1265	0	-0	0	0	0	0	0	-0	0	0.105	0.015	0	0	-0	0	0	0.098	0.1	0	-0	0	0	0	0	0	-0	0	0.05595	0	0	0	-0	0	0	0	0	0	-0	0	546.303	550.942	324.958	201.665	-0.138041	0.0976781	0.0121835	-0.0222373	-0.686133
7	-0.0149959	0.019127	0.0312085	0.0209316	0.00120381	0.0187168	0.0255512	-0.0306343	0.00136807	0.00118568	-0.0014647	-0.00421696	0.0541094	-0.00217936	0.0163913	-2.20432	0.00281714	-1.55796	0	0	0	0	-0	0	0	0	-0.1265	0	-0	0	0	0	0	0	-0	0	0.105	0.015	0	0	-0	0	0	0.098	0.1	0	-0	0	0	0	0	0	-0	0	0.05595	0	0	0	-0	0	0	0	0	0	-0	0	546.872	550.82	325.038	201.712	-0.110056	-0.0784071	0.0130489	-0.022302	-0.478695
8	-0.0135689	0.0190264	0.0312715	0.0211421	0.001208	0.0186347	0.0255564	-0.0306358	0.00139269	-0.00102012	-0.00440284	-0.00813714	0.0538179	-0.00218123	0.0167973	-2.20367	0.00244342	-1.55804	0	0	0	0	-0	0	0	0	-0.1265	0	-0	0	0	0	0	0	-0	0	0.105	0.015	0	0	-0	0	0	0.098	0.1	0	-0	0	0	0	0	0	-0	0	0.05595	0	0	0	-0	0	0	0	0	0	-0	0	548.283	550.596	325.218	201.831	-0.0990839	-0.300216	0.016818	-0.022412	0.11149
9	-0.020629	0.0192427	0.0312172	0.0213229	0.00111886	0.0185559	0.025558	-0.0306351	0.00142956	-0.00767007	-0.0160679	-0.0038422	0.0534722	-0.00218178	0.0169925	-2.21211	0.00181467	-1.55856	0	0	0	0	-0	0	0	0	-0.1265	0	-0	0	0	0	0	0	-0	0	0.105	0.015	0	0	-0	0	0	0.098	0.1	0	-0	0	0	0	0	0	-0	0	0.05595	0	0	0	-0	0	0	0	0	0	-0	0	551.119	550.516	325.517	202.079	-0.104149	-0.572131	0.0244993	-0.0225924	0.972354
10	-0.0242687	0.0194442	0.031104	0.0215448	0.00105384	0.0185142	0.0255688	-0.030646	0.00146538	-0.00439535	-0.0150663	-0.0313808	0.0532122	-0.00218099	0.0172022	-2.21667	0.00143081	-1.55883	0	0	0	0	-0	0	0	0	-0.1265	0	-0	0	0	0	0	0	-0	0	0.105	0.015	0	0	-0	0	0	0.098	0.1	0	-0	0	0	0	0	0	-0	0	0.05595	0	0	0	-0	0	0	0	0	0	-0	0	553.382	550.645	325.622	202.225	-0.119083	-0.698901	0.0302626	-0.0227859	1.46199
11	-0.00430539	0.0196193	0.0309944	0.0217624	0.00100025	0.0184568	0.0255732	-0.0306507	0.0014957	0.0118661	-0.00866956	-0.00657012	0.0525706	-0.00218989	0.0186423	-2.19768	0.00111986	-1.55877	0	0	0	0	-0	0	0	0	-0.1265	0	-0	0	0	0	0	0	-0	0	0.105	0.015	0	0	-0	0	0	0.098	0.1	0	-0	0	0	0	0	0	-0	0	0.05595	0	0	0	-0	0	0	0	0	0	-0	0	555.773	551.2	325.538	202.387	-0.145337	-0.720671	0.0355579	-0.0231213	1.69899
12	-0.00881784	0.0195313	0.0310833	0.0218385	0.00104003	0.0183414	0.0255861	-0.0306398	0.00149759	-0.00138159	0.0329002	-0.0207153	0.052476	-0.00221258	0.0185834	-2.20268	0.0013347	-1.5584	0	0	0	0	-0	0	0	0	-0.1265	0	-0	0	0	0	0	0	-0	0	0.105	0.015	0	0	-0	0	0	0.098	0.1	0	-0	0	0	0	0	0	-0	0	0.05595	0	0	0	-0	0	0	0	0	0	-0	0	557.256	551.699	325.405	202.459	-0.166212	-0.673477	0.0380944	-0.0232929	1.69996
13	0.0042783	0.0195923	0.0310517	0.0218873	0.00102291	0.0182956	0.0255735	-0.0306405	0.00151527	-0.0100571	0.0278858	-0.0203512	0.0521268	-0.00221785	0.0193965	-2.18996	0.00127163	-1.55827	0	0	0	0	-0	0	0	0	-0.1265	0	-0	0	0	0	0	0	-0	0	0.105	0.015	0	0	-0	0	0	0.098	0.1	0	-0	0	0	0	0	0	-0	0	0.05595	0	0	0	-0	0	0	0	0	0	-0	0	558.242	552.074	325.283	202.516	-0.181476	-0.635664	0.0399567	-0.0234793	1.68001
14	-0.00414888	0.0196906	0.030966	0.0219366	0.000977842	0.0183535	0.0255879	-0.0306389	0.00152539	-0.00807543	0.0655566	-0.022425	0.0521672	-0.00219674	0.0191038	-2.19888	0.00142765	-1.55819	0	0	0	0	-0	0	0	0	-0.1265	0	-0	0	0	0	0	0	-0	0	0.105	0.015	0	0	-0	0	0	0.098	0.1	0	-0	0	0	0	0	0	-0	0	0.05595	0	0	0	-0	0	0	0	0	0	-0	0	559.427	552.734	325.087	202.598	-0.198231	-0.576431	0.0415681	-0.0235692	1.60077
15	0.0192207	0.0198007	0.0308156	0.0220345	0.0009716	0.0183691	0.0255638	-0.0306499	0.00154885	0.0284064	0.0526313	-0.024867	0.0515583	-0.00219569	0.0205156	-2.17658	0.00175683	-1.55754	0	0	0	0	-0	0	0	0	-0.1265	0	-0	0	0	0	0	0	-0	0	0.105	0.015	0	0	-0	0	0	0.098	0.1	0	-0	0	0	0	0	0	-0	0	0.05595	0	0	0	-0	0	0	0	0	0	-0	0	561.271	554.256	324.544	202.908	-0.226978	-0.43677	0.0430792	-0.0238857	1.37115
16	0.0206613	0.0197052	0.0308695	0.022044	0.000993551	0.0184095	0.0255693	-0.0306441	0.00154408	0.0350026	0.0552856	-0.012731	0.0514955	-0.00218475	0.0206079	-2.17528	0.00172427	-1.55742	0	0	0	0	-0	0	0	0	-0.1265	0	-0	0	0	0	0	0	-0	0	0.105	0.015	0	0	-0	0	0	0.098	0.1	0	-0	0	0	0	0	0	-0	0	0.05595	0	0	0	-0	0	0	0	0	0	-0	0	561.545	554.486	324.492	202.938	-0.226924	-0.425971	0.0428367	-0.0238081	1.33577
17	0.0320652	0.0197707	0.030761	0.0220975	0.000961595	0.0184749	0.0255782	-0.0306377	0.00154521	0.040329	0.0232912	-0.00026255	0.0511764	-0.00216561	0.0212894	-2.16446	0.00172453	-1.55724	0	0	0	0	-0	0	0	0	-0.1265	0	-0	0	0	0	0	0	-0	0	0.105	0.015	0	0	-0	0	0	0.098	0.1	0	-0	0	0	0	0	0	-0	0	0.05595	0	0	0	-0	0	0	0	0	0	-0	0	562.463	555.398	324.266	203.104	-0.23736	-0.370103	0.0431502	-0.023901	1.23722
18	0.0102053	0.0197529	0.0307016	0.0221336	0.00099314	0.0184753	0.0255782	-0.0306421	0.00157978	0.011986	0.0636536	0.0205691	0.0515488	-0.00216765	0.0202573	-2.18718	0.0024454	-1.5568	0	0	0	0	-0	0	0	0	-0.1265	0	-0	0	0	0	0	0	-0	0	0.105	0.015	0	0	-0	0	0	0.098	0.1	0	-0	0	0	0	0	0	-0	0	0.05595	0	0	0	-0	0	0	0	0	0	-0	0	563.573	556.689	323.928	203.416	-0.251537	-0.276278	0.0429929	-0.0240562	1.06213
19	0.00153941	0.0198858	0.0305674	0.022217	0.000920686	0.0185527	0.025572	-0.0306477	0.00156949	-0.0122088	0.0728243	-0.00425083	0.0516701	-0.00215239	0.0198862	-2.19642	0.0026895	-1.55682	0	0	0	0	-0	0	0	0	-0.1265	0	-0	0	0	0	0	0	-0	0	0.105	0.015	0	0	-0	0	0	0.098	0.1	0	-0	0	0	0	0	0	-0	0	0.05595	0	0	0	-0	0	0	0	0	0	-0	0	564.147	557.38	323.765	203.589	-0.254583	-0.257969	0.0430699	-0.0241812	1.02109
20	-0.00812336	0.0197859	0.0305808	0.0222516	0.000987221	0.0185641	0.0255768	-0.0306405	0.0015727	-0.00703753	0.0955929	-0.00617669	0.0518291	-0.00215547	0.0194082	-2.20641	0.00301504	-1.55658	0	0	0	0	-0	0	0	0	-0.1265	0	-0	0	0	0	0	0	-0	0	0.105	0.015	0	0	-0	0	0	0.098	0.1	0	-0	0	0	0	0	0	-0	0	0.05595	0	0	0	-0	0	0	0	0	0	-0	0	564.531	557.904	323.649	203.721	-0.256931	-0.226492	0.0425732	-0.0242055	0.94847
21	-0.0215732	0.0198027	0.0305221	0.0222808	0.00100437	0.0185837	0.0255684	-0.0306359	0.00158043	0.00408668	0.0793255	-0.0105393	0.0520378	-0.00214971	0.0187668	-2.22068	0.00347403	-1.55636	0	0	0	0	-0	0	0	0	-0.1265	0	-0	0	0	0	0	0	-0	0	0.105	0.015	0	0	-0	0	0	0.098	0.1	0	-0	0	0	0	0	0	-0	0	0.05595	0	0	0	-0	0	0	0	0	0	-0	0	565.293	558.961	323.412	204.054	-0.265868	-0.155676	0.0421027	-0.0242937	0.803586
22	-0.023101	0.019814	0.030492	0.0222774	0.000991641	0.0186429	0.025567	-0.0306348	0.00157937	0.00192801	0.0701823	-0.0115134	0.0520498	-0.0021342	0.0187102	-2.22245	0.00348034	-1.55637	0	0	0	0	-0	0	0	0	-0.1265	0	-0	0	0	0	0	0	-0	0	0.105	0.015	0	0	-0	0	0	0.098	0.1	0	-0	0	0	0	0	0	-0	0	0.05595	0	0	0	-0	0	0	0	0	0	-0	0	565.498	559.277	323.361	204.143	-0.264451	-0.152868	0.0417495	-0.0242823	0.783363
23	-0.0263237	0.0198388	0.0304199	0.0223235	0.000994788	0.0186911	0.0255758	-0.0306385	0.00157657	0.000410669	0.0936402	-0.0319992	0.0520582	-0.00212303	0.0186018	-2.22662	0.00371	-1.55621	0	0	0	0	-0	0	0	0	-0.1265	0	-0	0	0	0	0	0	-0	0	0.105	0.015	0	0	-0	0	0	0.098	0.1	0	-0	0	0	0	0	0	-0	0	0.05595	0	0	0	-0	0	0	0	0	0	-0	0	566.269	560.416	323.169	204.545	-0.27125	-0.0954365	0.0411217	-0.024334	0.66911
24	-0.0248115	0.01978	0.0304244	0.0223576	0.00103421	0.018667	0.0255722	-0.0306421	0.00158491	-0.0108604	0.0872989	-0.0485903	0.0520064	-0.00213388	0.0187012	-2.2256	0.00389653	-1.556	0	0	0	0	-0	0	0	0	-0.1265	0	-0	0	0	0	0	0	-0	0	0.105	0.015	0	0	-0	0	0	0.098	0.1	0	-0	0	0	0	0	0	-0	0	0.05595	0	0	0	-0	0	0	0	0	0	-0	0	566.621	561.008	323.073	204.76	-0.27348	-0.0626686	0.0405355	-0.0244135	0.596097
25	-0.0266854	0.0197813	0.0304058	0.0223859	0.00103747	0.0186861	0.0255689	-0.03064	0.00159007	-0.0242812	0.0815367	-0.0552986	0.0520331	-0.00212925	0.0186198	-2.2277	0.00395285	-1.55598	0	0	0	0	-0	0	0	0	-0.1265	0	-0	0	0	0	0	0	-0	0	0.105	0.015	0	0	-0	0	0	0.098	0.1	0	-0	0	0	0	0	0	-0	0	0.05595	0	0	0	-0	0	0	0	0	0	-0	0	566.765	561.26	323.037	204.848	-0.272902	-0.0548137	0.0402468	-0.0244331	0.566553
26	-0.0260139	0.0197867	0.0303802	0.0223984	0.00103433	0.0187235	0.0255698	-0.0306363	0.00159281	-0.0200164	0.0956188	-0.0526692	0.0520085	-0.00212056	0.0186729	-2.22733	0.00395561	-1.55596	0	0	0	0	-0	0	0	0	-0.1265	0	-0	0	0	0	0	0	-0	0	0.105	0.015	0	0	-0	0	0	0.098	0.1	0	-0	0	0	0	0	0	-0	0	0.05595	0	0	0	-0	0	0	0	0	0	-0	0	566.964	561.601	322.994	204.97	-0.272943	-0.0435551	0.0399077	-0.0244358	0.533202
27	-0.00705047	0.0198282	0.0303116	0.0224408	0.00104287	0.0187528	0.0255674	-0.0306441	0.00159875	-0.0449149	0.0882869	-0.0551403	0.0516078	-0.00211464	0.0197122	-2.20963	0.00384772	-1.55575	0	0	0	0	-0	0	0	0	-0.1265	0	-0	0	0	0	0	0	-0	0	0.105	0.015	0	0	-0	0	0	0.098	0.1	0	-0	0	0	0	0	0	-0	0	0.05595	0	0	0	-0	0	0	0	0	0	-0	0	567.778	562.865	322.826	205.555	-0.282859	0.0403105	0.0392281	-0.0245067	0.357221
28	-0.0132678	0.0197546	0.0303479	0.0224486	0.00108684	0.0187399	0.0255787	-0.0306475	0.00160243	-0.0552425	0.0674803	-0.0748626	0.0517032	-0.00211946	0.0194047	-2.21646	0.00404527	-1.55562	0	0	0	0	-0	0	0	0	-0.1265	0	-0	0	0	0	0	0	-0	0	0.105	0.015	0	0	-0	0	0	0.098	0.1	0	-0	0	0	0	0	0	-0	0	0.05595	0	0	0	-0	0	0	0	0	0	-0	0	568.149	563.541	322.775	205.847	-0.285488	0.0876938	0.0383746	-0.0245052	0.240741
29	-0.028745	0.0198182	0.0302777	0.0225314	0.00109801	0.018723	0.0255699	-0.0306383	0.00161108	-0.0575134	0.0614564	-0.0627092	0.0519642	-0.00212715	0.0186484	-2.23345	0.00447687	-1.55559	0	0	0	0	-0	0	0	0	-0.1265	0	-0	0	0	0	0	0	-0	0	0.105	0.015	0	0	-0	0	0	0.098	0.1	0	-0	0	0	0	0	0	-0	0	0.05595	0	0	0	-0	0	0	0	0	0	-0	0	568.933	564.808	322.654	206.571	-0.298682	0.204018	0.0377629	-0.0246586	-0.0237743
30	-0.0145174	0.0198568	0.0302498	0.0225327	0.00113019	0.0187476	0.0255718	-0.0306452	0.00161342	-0.0371948	0.0778101	-0.0625623	0.0516663	-0.00212254	0.0194189	-2.22068	0.00420734	-1.55562	0	0	0	0	-0	0	0	0	-0.1265	0	-0	0	0	0	0	0	-0	0	0.105	0.015	0	0	-0	0	0	0.098	0.1	0	-0	0	0	0	0	0	-0	0	0.05595	0	0	0	-0	0	0	0	0	0	-0	0	569.617	566	322.676	207.295	-0.309015	0.314305	0.0368293	-0.0246749	-0.294618
31	-0.0180989	0.0198346	0.0302674	0.0225423	0.0011505	0.0187449	0.0255686	-0.0306393	0.00161317	-0.0425434	0.0854669	-0.07666	0.0517255	-0.00212672	0.019241	-2.22459	0.00428184	-1.55563	0	0	0	0	-0	0	0	0	-0.1265	0	-0	0	0	0	0	0	-0	0	0.105	0.015	0	0	-0	0	0	0.098	0.1	0	-0	0	0	0	0	0	-0	0	0.05595	0	0	0	-0	0	0	0	0	0	-0	0	569.743	566.289	322.693	207.45	-0.308654	0.335557	0.036315	-0.0246939	-0.362707
32	-0.00558353	0.0198562	0.0302498	0.022538	0.0011544	0.0187764	0.0255657	-0.030636	0.00161533	-0.0471149	0.0781267	-0.0806977	0.0514772	-0.00211944	0.0198989	-2.21253	0.00401238	-1.55568	0	0	0	0	-0	0	0	0	-0.1265	0	-0	0	0	0	0	0	-0	0	0.105	0.015	0	0	-0	0	0	0.098	0.1	0	-0	0	0	0	0	0	-0	0	0.05595	0	0	0	-0	0	0	0	0	0	-0	0	569.924	566.668	322.731	207.665	-0.309873	0.36326	0.035873	-0.0246911	-0.444422
33	-0.0122186	0.0198642	0.0302342	0.022533	0.00115927	0.0188121	0.0255626	-0.0306392	0.00161397	-0.0276139	0.0760893	-0.074034	0.0515939	-0.00211181	0.0195702	-2.21981	0.00398224	-1.55583	0	0	0	0	-0	0	0	0	-0.1265	0	-0	0	0	0	0	0	-0	0	0.105	0.015	0	0	-0	0	0	0.098	0.1	0	-0	0	0	0	0	0	-0	0	0.05595	0	0	0	-0	0	0	0	0	0	-0	0	570.2	567.208	322.808	207.986	-0.312518	0.404524	0.0353139	-0.0246763	-0.556492
34	-0.0173381	0.0198562	0.030219	0.022547	0.00116223	0.0188467	0.0255651	-0.0306378	0.00161513	-0.031996	0.0755462	-0.0877219	0.0516874	-0.00210463	0.0193134	-2.2252	0.00398514	-1.55592	0	0	0	0	-0	0	0	0	-0.1265	0	-0	0	0	0	0	0	-0	0	0.105	0.015	0	0	-0	0	0	0.098	0.1	0	-0	0	0	0	0	0	-0	0	0.05595	0	0	0	-0	0	0	0	0	0	-0	0	570.311	567.442	322.846	208.12	-0.312216	0.418268	0.034973	-0.0246681	-0.60559
35	-0.0207392	0.0198753	0.0301816	0.0225776	0.00116701	0.0188691	0.025566	-0.0306361	0.00161782	-0.0333032	0.0661294	-0.0765671	0.0517345	-0.00210184	0.0191561	-2.22947	0.00387004	-1.55612	0	0	0	0	-0	0	0	0	-0.1265	0	-0	0	0	0	0	0	-0	0	0.105	0.015	0	0	-0	0	0	0.098	0.1	0	-0	0	0	0	0	0	-0	0	0.05595	0	0	0	-0	0	0	0	0	0	-0	0	570.676	568.111	322.973	208.555	-0.31784	0.479459	0.0345024	-0.02469	-0.76154
36	-0.0157717	0.0198722	0.0301678	0.0225845	0.0011676	0.0188883	0.0255642	-0.0306342	0.00162027	-0.0358403	0.0616671	-0.0756855	0.0516354	-0.00209926	0.0194199	-2.22467	0.00376484	-1.55614	0	0	0	0	-0	0	0	0	-0.1265	0	-0	0	0	0	0	0	-0	0	0.105	0.015	0	0	-0	0	0	0.098	0.1	0	-0	0	0	0	0	0	-0	0	0.05595	0	0	0	-0	0	0	0	0	0	-0	0	570.736	568.24	322.999	208.634	-0.317131	0.486036	0.0342962	-0.0247078	-0.791399
37	-0.00458495	0.0198892	0.0301391	0.0225988	0.00117068	0.0189175	0.0255663	-0.0306367	0.00162085	-0.0354273	0.0567565	-0.0598429	0.0514058	-0.00209376	0.0200111	-2.21413	0.00343482	-1.55628	0	0	0	0	-0	0	0	0	-0.1265	0	-0	0	0	0	0	0	-0	0	0.105	0.015	0	0	-0	0	0	0.098	0.1	0	-0	0	0	0	0	0	-0	0	0.05595	0	0	0	-0	0	0	0	0	0	-0	0	570.991	568.718	323.114	208.955	-0.320713	0.529278	0.0339231	-0.0247066	-0.907479
38	-0.0110634	0.0198577	0.0301492	0.0226049	0.00118881	0.0189173	0.0255656	-0.030634	0.00162229	-0.040849	0.070234	-0.0608765	0.0515267	-0.00209633	0.0196811	-2.22092	0.00347893	-1.55634	0	0	0	0	-0	0	0	0	-0.1265	0	-0	0	0	0	0	0	-0	0	0.105	0.015	0	0	-0	0	0	0.098	0.1	0	-0	0	0	0	0	0	-0	0	0.05595	0	0	0	-0	0	0	0	0	0	-0	0	571.112	568.972	323.178	209.117	-0.321907	0.554286	0.0335782	-0.0247139	-0.978187
39	-0.00116468	0.0199109	0.0301031	0.0226373	0.00119868	0.018938	0.0255639	-0.0306345	0.00162581	-0.04074	0.07436	-0.0702832	0.0513096	-0.00209291	0.0202126	-2.21243	0.00294171	-1.55675	0	0	0	0	-0	0	0	0	-0.1265	0	-0	0	0	0	0	0	-0	0	0.105	0.015	0	0	-0	0	0	0.098	0.1	0	-0	0	0	0	0	0	-0	0	0.05595	0	0	0	-0	0	0	0	0	0	-0	0	571.632	569.89	323.48	209.841	-0.333865	0.669662	0.0331087	-0.0247183	-1.27236
40	-0.00240139	0.0199137	0.0300985	0.0226403	0.00120887	0.0189553	0.0255642	-0.0306366	0.00162644	-0.047653	0.0726989	-0.0820626	0.051328	-0.00209105	0.0201543	-2.21406	0.00283051	-1.5569	0	0	0	0	-0	0	0	0	-0.1265	0	-0	0	0	0	0	0	-0	0	0.105	0.015	0	0	-0	0	0	0.098	0.1	0	-0	0	0	0	0	0	-0	0	0.05595	0	0	0	-0	0	0	0	0	0	-0	0	571.766	570.174	323.587	210.046	-0.335839	0.704935	0.0327466	-0.0247072	-1.37663
41	0.00127996	0.0199137	0.0300892	0.0226535	0.00121219	0.0189705	0.0255638	-0.0306352	0.00162861	-0.0480233	0.0695372	-0.0750504	0.0512516	-0.00208942	0.0203478	-2.21054	0.00273177	-1.55695	0	0	0	0	-0	0	0	0	-0.1265	0	-0	0	0	0	0	0	-0	0	0.105	0.015	0	0	-0	0	0	0.098	0.1	0	-0	0	0	0	0	0	-0	0	0.05595	0	0	0	-0	0	0	0	0	0	-0	0	571.815	570.286	323.629	210.124	-0.335955	0.717133	0.0325774	-0.0247168	-1.41967
42	-0.00307975	0.0199164	0.0300775	0.022657	0.00121444	0.0189907	0.0255641	-0.0306343	0.00162914	-0.0481154	0.0608307	-0.0713732	0.0513377	-0.00208616	0.0201283	-2.21512	0.00271099	-1.55705	0	0	0	0	-0	0	0	0	-0.1265	0	-0	0	0	0	0	0	-0	0	0.105	0.015	0	0	-0	0	0	0.098	0.1	0	-0	0	0	0	0	0	-0	0	0.05595	0	0	0	-0	0	0	0	0	0	-0	0	571.886	570.437	323.689	210.232	-0.336883	0.735237	0.0324058	-0.0247182	-1.47711
43	-0.00693042	0.0199182	0.0300655	0.0226622	0.00121936	0.0190068	0.0255656	-0.0306361	0.00162955	-0.0435529	0.0698733	-0.0800343	0.051411	-0.00208404	0.0199344	-2.21929	0.00264735	-1.55719	0	0	0	0	-0	0	0	0	-0.1265	0	-0	0	0	0	0	0	-0	0	0.105	0.015	0	0	-0	0	0	0.098	0.1	0	-0	0	0	0	0	0	-0	0	0.05595	0	0	0	-0	0	0	0	0	0	-0	0	571.995	570.658	323.781	210.396	-0.339089	0.764255	0.0322042	-0.0247186	-1.5603
44	-0.0204177	0.0199335	0.0300452	0.0226872	0.0012311	0.0190133	0.0255649	-0.0306349	0.00162789	-0.0236422	0.0467543	-0.0698331	0.0516708	-0.00208536	0.0192484	-2.23348	0.00258093	-1.55749	0	0	0	0	-0	0	0	0	-0.1265	0	-0	0	0	0	0	0	-0	0	0.105	0.015	0	0	-0	0	0	0.098	0.1	0	-0	0	0	0	0	0	-0	0	0.05595	0	0	0	-0	0	0	0	0	0	-0	0	572.235	571.11	323.993	210.765	-0.345816	0.833127	0.0319415	-0.0247228	-1.7427
45	-0.00544821	0.0198923	0.030083	0.0226623	0.00126498	0.0190015	0.0255652	-0.0306388	0.00163007	-0.0306092	0.0488141	-0.0579522	0.0513767	-0.00208943	0.0200169	-2.21884	0.00225659	-1.55755	0	0	0	0	-0	0	0	0	-0.1265	0	-0	0	0	0	0	0	-0	0	0.105	0.015	0	0	-0	0	0	0.098	0.1	0	-0	0	0	0	0	0	-0	0	0.05595	0	0	0	-0	0	0	0	0	0	-0	0	572.341	571.345	324.116	210.95	-0.348706	0.874146	0.0315686	-0.0246942	-1.85419
46	-0.018272	0.0199084	0.0300773	0.0226767	0.00127664	0.0190017	0.0255718	-0.0306463	0.00163287	-0.0459881	0.0313645	-0.0697923	0.0516236	-0.00208979	0.019361	-2.23245	0.00207225	-1.55795	0	0	0	0	-0	0	0	0	-0.1265	0	-0	0	0	0	0	0	-0	0	0.105	0.015	0	0	-0	0	0	0.098	0.1	0	-0	0	0	0	0	0	-0	0	0.05595	0	0	0	-0	0	0	0	0	0	-0	0	572.586	571.831	324.404	211.364	-0.356967	0.962034	0.0312235	-0.0246673	-2.09097
47	-0.000644679	0.019946	0.0300547	0.0227332	0.0012956	0.0189797	0.0255661	-0.030642	0.00163998	-0.0566164	0.0275702	-0.0622033	0.0512716	-0.00210079	0.020275	-2.21602	0.00136389	-1.55847	0	0	0	0	-0	0	0	0	-0.1265	0	-0	0	0	0	0	0	-0	0	0.105	0.015	0	0	-0	0	0	0.098	0.1	0	-0	0	0	0	0	0	-0	0	0.05595	0	0	0	-0	0	0	0	0	0	-0	0	572.933	572.488	324.848	212.003	-0.371658	1.10641	0.030965	-0.0246861	-2.4754
48	0.0119564	0.0200092	0.0300396	0.0227394	0.00132776	0.0189996	0.0255652	-0.0306493	0.00165875	-0.0256204	0.00174819	-0.0829587	0.0510049	-0.00210063	0.0209198	-2.20515	0.000233417	-1.55952	0	0	0	0	-0	0	0	0	-0.1265	0	-0	0	0	0	0	0	-0	0	0.105	0.015	0	0	-0	0	0	0.098	0.1	0	-0	0	0	0	0	0	-0	0	0.05595	0	0	0	-0	0	0	0	0	0	-0	0	573.388	573.384	325.647	212.945	-0.392112	1.31474	0.0304964	-0.0245871	-3.04322
49	0.0116794	0.0201391	0.0299468	0.022804	0.00127542	0.0190634	0.0255624	-0.0306374	0.00165658	-0.0234515	-0.00788009	-0.0847661	0.0510083	-0.00209018	0.0209242	-2.20576	4.30087e-05	-1.55986	0	0	0	0	-0	0	0	0	-0.1265	0	-0	0	0	0	0	0	-0	0	0.105	0.015	0	0	-0	0	0	0.098	0.1	0	-0	0	0	0	0	0	-0	0	0.05595	0	0	0	-0	0	0	0	0	0	-0	0	573.46	573.53	325.776	213.089	-0.394649	1.34721	0.0305638	-0.0246037	-3.15268
50	0.0194658	0.0201623	0.0299323	0.0227809	0.00128704	0.0191065	0.0255613	-0.0306364	0.00165078	-0.0227707	-0.00084582	-0.0849103	0.0508439	-0.00208655	0.0213206	-2.19834	-0.000272616	-1.56013	0	0	0	0	-0	0	0	0	-0.1265	0	-0	0	0	0	0	0	-0	0	0.105	0.015	0	0	-0	0	0	0.098	0.1	0	-0	0	0	0	0	0	-0	0	0.05595	0	0	0	-0	0	0	0	0	0	-0	0	573.552	573.733	325.963	213.287	-0.398486	1.39537	0.030375	-0.0245791	-3.29635
51	0.0196925	0.0201602	0.0299326	0.0227694	0.00131161	0.0191309	0.02556	-0.0306418	0.00164536	-0.00479514	-0.00379291	-0.0765344	0.0508374	-0.00208464	0.0213271	-2.19865	-0.000628946	-1.5605	0	0	0	0	-0	0	0	0	-0.1265	0	-0	0	0	0	0	0	-0	0	0.105	0.015	0	0	-0	0	0	0.098	0.1	0	-0	0	0	0	0	0	-0	0	0.05595	0	0	0	-0	0	0	0	0	0	-0	0	573.686	574.023	326.257	213.584	-0.404961	1.46888	0.0301181	-0.0245365	-3.50472
52	0.0120976	0.020163	0.0299275	0.0227905	0.00134323	0.0191448	0.0255625	-0.0306386	0.00165268	0.0170278	-0.0319014	-0.0829125	0.0510006	-0.00208534	0.0209331	-2.20705	-0.00109649	-1.56107	0	0	0	0	-0	0	0	0	-0.1265	0	-0	0	0	0	0	0	-0	0	0.105	0.015	0	0	-0	0	0	0.098	0.1	0	-0	0	0	0	0	0	-0	0	0.05595	0	0	0	-0	0	0	0	0	0	-0	0	573.874	574.433	326.719	214.033	-0.415874	1.58522	0.0298385	-0.0244779	-3.82867
53	0.00866549	0.0202045	0.0299002	0.0227974	0.00133282	0.0191698	0.0255631	-0.0306408	0.00165057	0.0140822	-0.0398985	-0.0705561	0.0510725	-0.00208183	0.0207623	-2.21084	-0.00132505	-1.56138	0	0	0	0	-0	0	0	0	-0.1265	0	-0	0	0	0	0	0	-0	0	0.105	0.015	0	0	-0	0	0	0.098	0.1	0	-0	0	0	0	0	0	-0	0	0.05595	0	0	0	-0	0	0	0	0	0	-0	0	573.955	574.611	326.924	214.224	-0.420107	1.63419	0.0297496	-0.0244654	-3.97231
54	-0.000214883	0.0201943	0.0299063	0.0228015	0.00135073	0.0191719	0.0255607	-0.0306397	0.00165062	0.0120062	-0.0376711	-0.0732611	0.0512566	-0.00208521	0.0203065	-2.21996	-0.00139047	-1.56152	0	0	0	0	-0	0	0	0	-0.1265	0	-0	0	0	0	0	0	-0	0	0.105	0.015	0	0	-0	0	0	0.098	0.1	0	-0	0	0	0	0	0	-0	0	0.05595	0	0	0	-0	0	0	0	0	0	-0	0	574.006	574.733	327.069	214.357	-0.423194	1.67207	0.0296148	-0.0244553	-4.08042
55	0.0152797	0.0202222	0.0298976	0.0228116	0.00137439	0.0191926	0.0255606	-0.0306431	0.00165336	0.00141293	-0.0334221	-0.0617378	0.0509419	-0.00208428	0.0210939	-2.20552	-0.00234346	-1.56239	0	0	0	0	-0	0	0	0	-0.1265	0	-0	0	0	0	0	0	-0	0	0.105	0.015	0	0	-0	0	0	0.098	0.1	0	-0	0	0	0	0	0	-0	0	0.05595	0	0	0	-0	0	0	0	0	0	-0	0	574.236	575.231	327.729	214.943	-0.437349	1.81876	0.0293683	-0.0243586	-4.48946
56	0.0239766	0.0202365	0.0299022	0.0228216	0.00139825	0.0192061	0.0255594	-0.0306482	0.001652	-0.018339	-0.0346826	-0.0643709	0.0507584	-0.00208606	0.0215267	-2.19772	-0.00313273	-1.56319	0	0	0	0	-0	0	0	0	-0.1265	0	-0	0	0	0	0	0	-0	0	0.105	0.015	0	0	-0	0	0	0.098	0.1	0	-0	0	0	0	0	0	-0	0	0.05595	0	0	0	-0	0	0	0	0	0	-0	0	574.414	575.653	328.339	215.448	-0.450045	1.95671	0.0290614	-0.0242568	-4.87463
57	0.0160886	0.0202474	0.029905	0.0228355	0.00141482	0.0192146	0.0255592	-0.0306443	0.00165396	-0.0121456	-0.0376503	-0.0679738	0.0509304	-0.00208729	0.0211212	-2.20599	-0.0033836	-1.56352	0	0	0	0	-0	0	0	0	-0.1265	0	-0	0	0	0	0	0	-0	0	0.105	0.015	0	0	-0	0	0	0.098	0.1	0	-0	0	0	0	0	0	-0	0	0.05595	0	0	0	-0	0	0	0	0	0	-0	0	574.482	575.831	328.611	215.66	-0.455978	2.02557	0.0288751	-0.0242027	-5.06869
58	0.00192511	0.0202833	0.0298948	0.0228351	0.00141957	0.0192373	0.0255589	-0.0306435	0.00165418	-0.0106475	-0.0372077	-0.0719336	0.0512337	-0.00208537	0.0203948	-2.22068	-0.00375837	-1.564	0	0	0	0	-0	0	0	0	-0.1265	0	-0	0	0	0	0	0	-0	0	0.105	0.015	0	0	-0	0	0	0.098	0.1	0	-0	0	0	0	0	0	-0	0	0.05595	0	0	0	-0	0	0	0	0	0	-0	0	574.575	576.073	328.997	215.958	-0.463962	2.11302	0.028721	-0.0241389	-5.31784
59	0.00465342	0.0203145	0.0298951	0.0228456	0.0014444	0.0192604	0.0255624	-0.0306424	0.00165295	-0.0322896	-0.0061996	-0.075142	0.051181	-0.00208732	0.0205202	-2.21913	-0.00485412	-1.56512	0	0	0	0	-0	0	0	0	-0.1265	0	-0	0	0	0	0	0	-0	0	0.105	0.015	0	0	-0	0	0	0.098	0.1	0	-0	0	0	0	0	0	-0	0	0.05595	0	0	0	-0	0	0	0	0	0	-0	0	574.776	576.574	329.882	216.623	-0.481061	2.29318	0.028456	-0.0239932	-5.82124
60	-0.00749909	0.0203523	0.0298862	0.0228501	0.00144701	0.0192701	0.0255596	-0.0306446	0.00165641	-0.0313638	-0.0120212	-0.0770638	0.0514343	-0.00208937	0.0198958	-2.23162	-0.00509753	-1.56542	0	0	0	0	-0	0	0	0	-0.1265	0	-0	0	0	0	0	0	-0	0	0.105	0.015	0	0	-0	0	0	0.098	0.1	0	-0	0	0	0	0	0	-0	0	0.05595	0	0	0	-0	0	0	0	0	0	-0	0	574.827	576.722	330.147	216.815	-0.486807	2.35729	0.0283498	-0.023956	-5.99978
61	-0.0312518	0.0204031	0.0298731	0.0228832	0.00146711	0.0193011	0.0255606	-0.0306497	0.00166212	-0.022974	-0.0168232	-0.0914007	0.0519146	-0.0020905	0.0186589	-2.25655	-0.00612636	-1.56646	0	0	0	0	-0	0	0	0	-0.1265	0	-0	0	0	0	0	0	-0	0	0.105	0.015	0	0	-0	0	0	0.098	0.1	0	-0	0	0	0	0	0	-0	0	0.05595	0	0	0	-0	0	0	0	0	0	-0	0	575.006	577.198	331.072	217.481	-0.50484	2.5463	0.0281443	-0.0237972	-6.53017
62	-0.0205068	0.0203681	0.0299344	0.022862	0.00150895	0.0192926	0.0255621	-0.0306528	0.00165839	-0.0284984	-0.0229173	-0.102651	0.0517131	-0.00209972	0.0191942	-2.24636	-0.00677946	-1.56706	0	0	0	0	-0	0	0	0	-0.1265	0	-0	0	0	0	0	0	-0	0	0.105	0.015	0	0	-0	0	0	0.098	0.1	0	-0	0	0	0	0	0	-0	0	0.05595	0	0	0	-0	0	0	0	0	0	-0	0	575.08	577.459	331.586	217.818	-0.515319	2.66903	0.0277304	-0.0236571	-6.8669
63	-0.0287938	0.0204416	0.0299078	0.0229118	0.00151544	0.0193117	0.0255714	-0.0306664	0.00166484	-0.0515981	-0.0441554	-0.095692	0.051881	-0.00210122	0.0187516	-2.25558	-0.00772909	-1.56801	0	0	0	0	-0	0	0	0	-0.1265	0	-0	0	0	0	0	0	-0	0	0.105	0.015	0	0	-0	0	0	0.098	0.1	0	-0	0	0	0	0	0	-0	0	0.05595	0	0	0	-0	0	0	0	0	0	-0	0	575.199	577.812	332.364	218.345	-0.531666	2.83897	0.0276317	-0.023526	-7.34131
64	-0.0153404	0.0204998	0.0298814	0.0230058	0.00152555	0.0192876	0.0255635	-0.0306663	0.00166763	-0.0255777	-0.0507758	-0.0792352	0.0516368	-0.0021183	0.019439	-2.24287	-0.00841248	-1.56882	0	0	0	0	-0	0	0	0	-0.1265	0	-0	0	0	0	0	0	-0	0	0.105	0.015	0	0	-0	0	0	0.098	0.1	0	-0	0	0	0	0	0	-0	0	0.05595	0	0	0	-0	0	0	0	0	0	-0	0	575.276	578.075	332.953	218.761	-0.54635	2.98817	0.0276477	-0.0234803	-7.75003
65	-0.0156761	0.0205129	0.0299205	0.0229985	0.00157203	0.0192852	0.0255638	-0.0306637	0.00167494	-0.0387397	-0.0501399	-0.0612786	0.0516546	-0.0021256	0.0193977	-2.24372	-0.00898568	-1.56939	0	0	0	0	-0	0	0	0	-0.1265	0	-0	0	0	0	0	0	-0	0	0.105	0.015	0	0	-0	0	0	0.098	0.1	0	-0	0	0	0	0	0	-0	0	0.05595	0	0	0	-0	0	0	0	0	0	-0	0	575.32	578.269	333.435	219.069	-0.558412	3.11575	0.0274248	-0.0233336	-8.09506
66	-0.0304728	0.0207212	0.0298388	0.0231296	0.00155761	0.0193707	0.0255611	-0.0306667	0.00168336	-0.0155046	-0.0491873	-0.0498185	0.0519701	-0.00212437	0.018607	-2.26096	-0.0115148	-1.57183	0	0	0	0	-0	0	0	0	-0.1265	0	-0	0	0	0	0	0	-0	0	0.105	0.015	0	0	-0	0	0	0.098	0.1	0	-0	0	0	0	0	0	-0	0	0.05595	0	0	0	-0	0	0	0	0	0	-0	0	575.552	578.991	335.411	220.473	-0.594913	3.48066	0.0275945	-0.023002	-9.11354
67	-0.0651567	0.0208174	0.0298549	0.0231873	0.00158761	0.0194304	0.0255554	-0.0306997	0.00173922	-0.0816907	-0.00893828	-0.0192091	0.0526466	-0.00213366	0.0167577	-2.29713	-0.0133094	-1.57305	0	0	0	0	-0	0	0	0	-0.1265	0	-0	0	0	0	0	0	-0	0	0.105	0.015	0	0	-0	0	0	0.098	0.1	0	-0	0	0	0	0	0	-0	0	0.05595	0	0	0	-0	0	0	0	0	0	-0	0	575.652	579.465	336.768	221.363	-0.623824	3.78429	0.0273144	-0.0226646	-9.94017
68	-0.0652935	0.0209275	0.029815	0.0232978	0.00152983	0.0195227	0.0255626	-0.03067	0.00171827	-0.0973623	-0.0123955	-0.0274294	0.0526436	-0.00212691	0.0167553	-2.29767	-0.0137983	-1.57352	0	0	0	0	-0	0	0	0	-0.1265	0	-0	0	0	0	0	0	-0	0	0.105	0.015	0	0	-0	0	0	0.098	0.1	0	-0	0	0	0	0	0	-0	0	0.05595	0	0	0	-0	0	0	0	0	0	-0	0	575.669	579.616	337.084	221.556	-0.628943	3.86442	0.027079	-0.0224931	-10.1812
69	-0.0415134	0.0210362	0.0298017	0.0233155	0.00154653	0.0195887	0.0255697	-0.0306612	0.00170796	-0.094342	-0.0368312	-0.0186469	0.0522642	-0.00213156	0.0179674	-2.27528	-0.0153545	-1.57535	0	0	0	0	-0	0	0	0	-0.1265	0	-0	0	0	0	0	0	-0	0	0.105	0.015	0	0	-0	0	0	0.098	0.1	0	-0	0	0	0	0	0	-0	0	0.05595	0	0	0	-0	0	0	0	0	0	-0	0	575.777	580.087	338.318	222.388	-0.654583	4.13074	0.0269332	-0.0222342	-10.9135
70	-0.0411647	0.0210175	0.0298889	0.0232538	0.00160665	0.0195814	0.0255698	-0.0306685	0.00170006	-0.0938826	-0.0412504	0.0012616	0.0522662	-0.00214736	0.0179429	-2.27557	-0.0161676	-1.57607	0	0	0	0	-0	0	0	0	-0.1265	0	-0	0	0	0	0	0	-0	0	0.105	0.015	0	0	-0	0	0	0.098	0.1	0	-0	0	0	0	0	0	-0	0	0.05595	0	0	0	-0	0	0	0	0	0	-0	0	575.806	580.323	339.005	222.809	-0.670473	4.30099	0.0265572	-0.0220301	-11.3576
71	-0.0336623	0.0211447	0.0298628	0.0233539	0.0016072	0.0196177	0.0255649	-0.0306673	0.00171646	-0.111218	-0.0264129	0.0133217	0.0521568	-0.00215239	0.0183068	-2.2692	-0.0174323	-1.57748	0	0	0	0	-0	0	0	0	-0.1265	0	-0	0	0	0	0	0	-0	0	0.105	0.015	0	0	-0	0	0	0.098	0.1	0	-0	0	0	0	0	0	-0	0	0.05595	0	0	0	-0	0	0	0	0	0	-0	0	575.861	580.64	340.005	223.472	-0.692612	4.52562	0.0265782	-0.0218078	-11.9674
72	-0.0437507	0.0213586	0.0298021	0.0235061	0.00157598	0.0197365	0.0255764	-0.0306843	0.00173899	-0.092846	-0.0346938	-0.0200126	0.0523781	-0.00215129	0.0177502	-2.28105	-0.0194572	-1.57922	0	0	0	0	-0	0	0	0	-0.1265	0	-0	0	0	0	0	0	-0	0	0.105	0.015	0	0	-0	0	0	0.098	0.1	0	-0	0	0	0	0	0	-0	0	0.05595	0	0	0	-0	0	0	0	0	0	-0	0	575.952	581.108	341.457	224.499	-0.721756	4.82401	0.026671	-0.0214589	-12.786
73	-0.0295093	0.0215217	0.0297532	0.0236963	0.00154852	0.0197915	0.0255761	-0.0306678	0.00175021	-0.0896003	-0.0587925	-0.0206404	0.0521544	-0.0021693	0.0184712	-2.2682	-0.0206829	-1.58084	0	0	0	0	-0	0	0	0	-0.1265	0	-0	0	0	0	0	0	-0	0	0.105	0.015	0	0	-0	0	0	0.098	0.1	0	-0	0	0	0	0	0	-0	0	0.05595	0	0	0	-0	0	0	0	0	0	-0	0	575.998	581.475	342.529	225.314	-0.746293	5.08231	0.0267155	-0.021221	-13.491
74	-0.0382654	0.0216167	0.0297964	0.0236685	0.00155628	0.0198415	0.0255716	-0.0306668	0.00174533	-0.0868539	-0.0690132	-0.0151087	0.0523363	-0.00217656	0.0179915	-2.27751	-0.0214254	-1.5813	0	0	0	0	-0	0	0	0	-0.1265	0	-0	0	0	0	0	0	-0	0	0.105	0.015	0	0	-0	0	0	0.098	0.1	0	-0	0	0	0	0	0	-0	0	0.05595	0	0	0	-0	0	0	0	0	0	-0	0	576	581.642	343.025	225.652	-0.75878	5.21562	0.0265198	-0.021021	-13.8397
75	-0.0380793	0.0216782	0.0298396	0.0236343	0.00156612	0.0198808	0.0255699	-0.0306676	0.00174202	-0.0829947	-0.0728898	-0.00758212	0.0523452	-0.00217679	0.0179897	-2.27752	-0.0217246	-1.58159	0	0	0	0	-0	0	0	0	-0.1265	0	-0	0	0	0	0	0	-0	0	0.105	0.015	0	0	-0	0	0	0.098	0.1	0	-0	0	0	0	0	0	-0	0	0.05595	0	0	0	-0	0	0	0	0	0	-0	0	575.996	581.708	343.225	225.779	-0.763896	5.27188	0.0263499	-0.0208927	-13.9831
76	-0.0295809	0.0217729	0.0298424	0.0237057	0.00156335	0.0199426	0.0255698	-0.0306701	0.00174644	-0.0707535	-0.0749836	-0.0025776	0.0522221	-0.00217858	0.0184015	-2.26991	-0.0226862	-1.58277	0	0	0	0	-0	0	0	0	-0.1265	0	-0	0	0	0	0	0	-0	0	0.105	0.015	0	0	-0	0	0	0.098	0.1	0	-0	0	0	0	0	0	-0	0	0.05595	0	0	0	-0	0	0	0	0	0	-0	0	576.013	581.953	344.006	226.317	-0.781996	5.45677	0.0262876	-0.02067	-14.4794
77	-0.00988531	0.0219548	0.0298347	0.0239415	0.00154748	0.0200534	0.0255828	-0.0306783	0.00175856	-0.0676991	-0.0883356	0.0210784	0.0519133	-0.00219196	0.0193657	-2.25278	-0.0250341	-1.58568	0	0	0	0	-0	0	0	0	-0.1265	0	-0	0	0	0	0	0	-0	0	0.105	0.015	0	0	-0	0	0	0.098	0.1	0	-0	0	0	0	0	0	-0	0	0.05595	0	0	0	-0	0	0	0	0	0	-0	0	576.085	582.523	345.985	227.865	-0.822429	5.86738	0.0264361	-0.0201767	-15.5864
78	0.00614371	0.0220445	0.0299062	0.0240661	0.00156104	0.0200793	0.025583	-0.030678	0.00177372	-0.0669304	-0.0917961	0.00774037	0.0516434	-0.00222074	0.0201393	-2.23799	-0.0260861	-1.58737	0	0	0	0	-0	0	0	0	-0.1265	0	-0	0	0	0	0	0	-0	0	0.105	0.015	0	0	-0	0	0	0.098	0.1	0	-0	0	0	0	0	0	-0	0	0.05595	0	0	0	-0	0	0	0	0	0	-0	0	576.067	582.823	347.061	228.659	-0.850169	6.15216	0.0262432	-0.0198307	-16.3194
79	0.00333094	0.0222315	0.0299282	0.024124	0.00152347	0.020128	0.0255829	-0.0306765	0.00178224	-0.07174	-0.095824	0.0183448	0.0517265	-0.00222817	0.0199766	-2.24137	-0.0267896	-1.58806	0	0	0	0	-0	0	0	0	-0.1265	0	-0	0	0	0	0	0	-0	0	0.105	0.015	0	0	-0	0	0	0.098	0.1	0	-0	0	0	0	0	0	-0	0	0.05595	0	0	0	-0	0	0	0	0	0	-0	0	576.052	582.953	347.543	228.998	-0.864586	6.29106	0.0262837	-0.0196277	-16.6697
80	0.00576306	0.0224295	0.0299201	0.0242143	0.00147401	0.0201975	0.0255905	-0.0306763	0.00179286	-0.0649514	-0.0746774	0.0191337	0.0517113	-0.002234	0.0200817	-2.23976	-0.0276106	-1.58908	0	0	0	0	-0	0	0	0	-0.1265	0	-0	0	0	0	0	0	-0	0	0.105	0.015	0	0	-0	0	0	0.098	0.1	0	-0	0	0	0	0	0	-0	0	0.05595	0	0	0	-0	0	0	0	0	0	-0	0	576.042	583.129	348.181	229.485	-0.881991	6.46029	0.0264286	-0.019429	-17.1129
81	-0.00545825	0.0225859	0.0299132	0.0243092	0.00143382	0.0202436	0.0255877	-0.0306765	0.00180263	-0.0707009	-0.076045	0.00904002	0.0519663	-0.002247	0.0194816	-2.25184	-0.0286031	-1.58963	0	0	0	0	-0	0	0	0	-0.1265	0	-0	0	0	0	0	0	-0	0	0.105	0.015	0	0	-0	0	0	0.098	0.1	0	-0	0	0	0	0	0	-0	0	0.05595	0	0	0	-0	0	0	0	0	0	-0	0	576.028	583.306	348.801	229.995	-0.898655	6.62792	0.026545	-0.0192616	-17.5563
82	-0.00491422	0.0227532	0.0299402	0.0244296	0.00140281	0.0203143	0.0255865	-0.0306826	0.00181827	-0.0444229	-0.0914484	-0.00225703	0.0519992	-0.00226004	0.0194663	-2.25252	-0.0297693	-1.59081	0	0	0	0	-0	0	0	0	-0.1265	0	-0	0	0	0	0	0	-0	0	0.105	0.015	0	0	-0	0	0	0.098	0.1	0	-0	0	0	0	0	0	-0	0	0.05595	0	0	0	-0	0	0	0	0	0	-0	0	576.013	583.545	349.679	230.746	-0.922613	6.86487	0.0266566	-0.0189935	-18.1787
83	-0.0014582	0.023032	0.0299032	0.0246734	0.00132168	0.020439	0.0256014	-0.0306759	0.00183877	-0.0491127	-0.0634337	0.00656518	0.0519883	-0.00226883	0.0196021	-2.25095	-0.031286	-1.59252	0	0	0	0	-0	0	0	0	-0.1265	0	-0	0	0	0	0	0	-0	0	0.105	0.015	0	0	-0	0	0	0.098	0.1	0	-0	0	0	0	0	0	-0	0	0.05595	0	0	0	-0	0	0	0	0	0	-0	0	576.005	583.853	350.823	231.875	-0.953163	7.16849	0.0270527	-0.0186794	-18.9981
84	-0.00493656	0.0232358	0.0298937	0.0247639	0.00125691	0.0204969	0.0256004	-0.0306769	0.00184441	-0.0504114	-0.0713951	0.019094	0.0520849	-0.00228406	0.0194069	-2.25524	-0.0320287	-1.59316	0	0	0	0	-0	0	0	0	-0.1265	0	-0	0	0	0	0	0	-0	0	0.105	0.015	0	0	-0	0	0	0.098	0.1	0	-0	0	0	0	0	0	-0	0	0.05595	0	0	0	-0	0	0	0	0	0	-0	0	575.982	584.004	351.323	232.365	-0.968217	7.31818	0.0272197	-0.0185363	-19.3901
85	-0.015247	0.0233966	0.0299315	0.0248655	0.00122269	0.0205521	0.0256035	-0.0306825	0.00185806	-0.0358896	-0.0800388	0.000589881	0.052327	-0.00229996	0.0188315	-2.26661	-0.0331448	-1.59369	0	0	0	0	-0	0	0	0	-0.1265	0	-0	0	0	0	0	0	-0	0	0.105	0.015	0	0	-0	0	0	0.098	0.1	0	-0	0	0	0	0	0	-0	0	0.05595	0	0	0	-0	0	0	0	0	0	-0	0	575.94	584.182	351.977	233.02	-0.988247	7.51938	0.0273005	-0.0183331	-19.9217
86	-0.0273853	0.0236032	0.0299494	0.0250502	0.00116244	0.0206232	0.0256108	-0.0306887	0.00187317	-0.0174025	-0.0783843	-0.019803	0.0526062	-0.00231761	0.018149	-2.28035	-0.0346017	-1.59441	0	0	0	0	-0	0	0	0	-0.1265	0	-0	0	0	0	0	0	-0	0	0.105	0.015	0	0	-0	0	0	0.098	0.1	0	-0	0	0	0	0	0	-0	0	0.05595	0	0	0	-0	0	0	0	0	0	-0	0	575.898	584.419	352.824	233.99	-1.01434	7.78673	0.0275184	-0.0180906	-20.6474
87	-0.0304329	0.0237249	0.0299607	0.0251413	0.0011377	0.0206638	0.0256103	-0.0306797	0.00187788	-0.0156874	-0.0706981	-0.0278014	0.0526859	-0.00233161	0.0179626	-2.28405	-0.0351861	-1.59479	0	0	0	0	-0	0	0	0	-0.1265	0	-0	0	0	0	0	0	-0	0	0.105	0.015	0	0	-0	0	0	0.098	0.1	0	-0	0	0	0	0	0	-0	0	0.05595	0	0	0	-0	0	0	0	0	0	-0	0	575.853	584.532	353.2	234.396	-1.02738	7.9206	0.0275162	-0.0179438	-20.9953
88	-0.03251	0.0238683	0.0299499	0.0252203	0.00111041	0.0207377	0.0256113	-0.030685	0.00188216	-0.0361142	-0.0742383	-0.0374814	0.0527581	-0.00233629	0.0178165	-2.28703	-0.0359549	-1.59537	0	0	0	0	-0	0	0	0	-0.1265	0	-0	0	0	0	0	0	-0	0	0.105	0.015	0	0	-0	0	0	0.098	0.1	0	-0	0	0	0	0	0	-0	0	0.05595	0	0	0	-0	0	0	0	0	0	-0	0	575.805	584.666	353.686	234.959	-1.04422	8.08816	0.0276567	-0.0178026	-21.4429
89	-0.0351975	0.0239443	0.0299435	0.02527	0.00110592	0.0207808	0.0256109	-0.030677	0.00188859	-0.0368692	-0.0844939	-0.0368352	0.0528225	-0.00234124	0.0176575	-2.29009	-0.0363214	-1.59555	0	0	0	0	-0	0	0	0	-0.1265	0	-0	0	0	0	0	0	-0	0	0.105	0.015	0	0	-0	0	0	0.098	0.1	0	-0	0	0	0	0	0	-0	0	0.05595	0	0	0	-0	0	0	0	0	0	-0	0	575.772	584.727	353.898	235.192	-1.05191	8.16627	0.0276499	-0.0177156	-21.6443
90	-0.0407448	0.0241108	0.0299388	0.0254128	0.00105579	0.0208561	0.0256254	-0.0306896	0.00190758	-0.0307337	-0.0967667	-0.0679175	0.0529681	-0.00235092	0.0173151	-2.29717	-0.0374501	-1.59623	0	0	0	0	-0	0	0	0	-0.1265	0	-0	0	0	0	0	0	-0	0	0.105	0.015	0	0	-0	0	0	0.098	0.1	0	-0	0	0	0	0	0	-0	0	0.05595	0	0	0	-0	0	0	0	0	0	-0	0	575.71	584.898	354.571	236.127	-1.07498	8.40609	0.0279469	-0.0175585	-22.3153
91	-0.048882	0.0242756	0.0299626	0.0255502	0.000982236	0.0208411	0.0256212	-0.0306839	0.00191975	-0.0127529	-0.0985457	-0.0801085	0.0531333	-0.00237638	0.0168753	-2.30616	-0.0380825	-1.59639	0	0	0	0	-0	0	0	0	-0.1265	0	-0	0	0	0	0	0	-0	0	0.105	0.015	0	0	-0	0	0	0.098	0.1	0	-0	0	0	0	0	0	-0	0	0.05595	0	0	0	-0	0	0	0	0	0	-0	0	575.661	585.002	354.898	236.612	-1.08644	8.53799	0.0280348	-0.0174614	-22.6893
92	-0.0401531	0.0245088	0.0299734	0.0258104	0.000915144	0.0209442	0.0256102	-0.0306989	0.00195533	-0.086271	-0.0466765	-0.0675405	0.053062	-0.0023968	0.0172524	-2.3005	-0.039118	-1.59774	0	0	0	0	-0	0	0	0	-0.1265	0	-0	0	0	0	0	0	-0	0	0.105	0.015	0	0	-0	0	0	0.098	0.1	0	-0	0	0	0	0	0	-0	0	0.05595	0	0	0	-0	0	0	0	0	0	-0	0	575.55	585.233	355.713	238.458	-1.12375	8.96191	0.0285837	-0.0172787	-23.9594
93	-0.0377806	0.0249201	0.0298901	0.026097	0.000759607	0.0211327	0.0256303	-0.0306804	0.00196479	-0.0818868	-0.0536939	-0.0836668	0.0530829	-0.00239085	0.0173441	-2.29976	-0.0399818	-1.59877	0	0	0	0	-0	0	0	0	-0.1265	0	-0	0	0	0	0	0	-0	0	0.105	0.015	0	0	-0	0	0	0.098	0.1	0	-0	0	0	0	0	0	-0	0	0.05595	0	0	0	-0	0	0	0	0	0	-0	0	575.475	585.385	356.18	239.416	-1.14608	9.2007	0.0290289	-0.0170761	-24.6629
94	-0.0351802	0.0250494	0.0298957	0.0261199	0.000716339	0.0211871	0.0256352	-0.0306797	0.00196059	-0.10011	-0.0611299	-0.0857404	0.0530602	-0.0024053	0.0174569	-2.29779	-0.0402444	-1.59918	0	0	0	0	-0	0	0	0	-0.1265	0	-0	0	0	0	0	0	-0	0	0.105	0.015	0	0	-0	0	0	0.098	0.1	0	-0	0	0	0	0	0	-0	0	0.05595	0	0	0	-0	0	0	0	0	0	-0	0	575.421	585.464	356.412	239.824	-1.15756	9.3192	0.0291232	-0.0170252	-24.9863
95	-0.0350257	0.0251159	0.0299081	0.0261832	0.000707718	0.0212135	0.0256388	-0.0306763	0.00196161	-0.104682	-0.0584865	-0.101151	0.0530863	-0.00241845	0.0174263	-2.29849	-0.0406327	-1.5995	0	0	0	0	-0	0	0	0	-0.1265	0	-0	0	0	0	0	0	-0	0	0.105	0.015	0	0	-0	0	0	0.098	0.1	0	-0	0	0	0	0	0	-0	0	0.05595	0	0	0	-0	0	0	0	0	0	-0	0	575.35	585.547	356.693	240.368	-1.1717	9.47365	0.0291871	-0.0169678	-25.4245
96	-0.0404019	0.0252069	0.0299264	0.0262802	0.000689061	0.0212429	0.0256434	-0.0306805	0.00196275	-0.121174	-0.0532299	-0.121075	0.0532197	-0.00243323	0.0170924	-2.30513	-0.041278	-1.59965	0	0	0	0	-0	0	0	0	-0.1265	0	-0	0	0	0	0	0	-0	0	0.105	0.015	0	0	-0	0	0	0.098	0.1	0	-0	0	0	0	0	0	-0	0	0.05595	0	0	0	-0	0	0	0	0	0	-0	0	575.257	585.629	357.025	241.149	-1.18994	9.68096	0.0293439	-0.0168958	-26.0353
97	-0.0300859	0.0252657	0.0299413	0.0263629	0.000688785	0.0212597	0.0256421	-0.0306744	0.00197196	-0.13036	-0.0524132	-0.128833	0.0530729	-0.00244783	0.0175977	-2.29571	-0.0413164	-1.60032	0	0	0	0	-0	0	0	0	-0.1265	0	-0	0	0	0	0	0	-0	0	0.105	0.015	0	0	-0	0	0	0.098	0.1	0	-0	0	0	0	0	0	-0	0	0.05595	0	0	0	-0	0	0	0	0	0	-0	0	575.173	585.677	357.266	241.72	-1.20514	9.8485	0.0294476	-0.0168413	-26.5164
98	-0.0249875	0.0253666	0.0299344	0.0263925	0.000666544	0.021301	0.0256405	-0.0306739	0.00197771	-0.113269	-0.0510305	-0.128785	0.0530023	-0.00244855	0.0178501	-2.29099	-0.041389	-1.60074	0	0	0	0	-0	0	0	0	-0.1265	0	-0	0	0	0	0	0	-0	0	0.105	0.015	0	0	-0	0	0	0.098	0.1	0	-0	0	0	0	0	0	-0	0	0.05595	0	0	0	-0	0	0	0	0	0	-0	0	575.127	585.703	357.384	241.959	-1.21255	9.9245	0.0295071	-0.0167796	-26.725
99	-0.0248436	0.0255177	0.0299412	0.0265242	0.000609557	0.0213506	0.0256579	-0.0306712	0.00198112	-0.119178	-0.0216763	-0.142618	0.0530472	-0.00245985	0.0178113	-2.29239	-0.0418497	-1.60114	0	0	0	0	-0	0	0	0	-0.1265	0	-0	0	0	0	0	0	-0	0	0.105	0.015	0	0	-0	0	0	0.098	0.1	0	-0	0	0	0	0	0	-0	0	0.05595	0	0	0	-0	0	0	0	0	0	-0	0	575.017	585.754	357.652	242.884	-1.23184	10.1581	0.0297927	-0.0167079	-27.4532
100	-0.0386098	0.025606	0.02997	0.0265771	0.000572388	0.0213177	0.025652	-0.0306692	0.00199133	-0.117831	-0.0114768	-0.143565	0.053313	-0.0024832	0.0170584	-2.30692	-0.0424395	-1.60073	0	0	0	0	-0	0	0	0	-0.1265	0	-0	0	0	0	0	0	-0	0	0.105	0.015	0	0	-0	0	0	0.098	0.1	0	-0	0	0	0	0	0	-0	0	0.05595	0	0	0	-0	0	0	0	0	0	-0	0	574.945	585.77	357.802	243.353	-1.2435	10.2921	0.029976	-0.0167126	-27.8535
