Stefan210/kinematic_calibration/src/kinematic_calibration/validation/experiments/experiments/anzahl_messungen/BC_A/larm_43/optimization_intermediate_results.csv
iteration	HeadPitch_offset	HeadYaw_offset	LElbowRoll_offset	LElbowYaw_offset	LShoulderPitch_offset	LShoulderRoll_offset	marker_transform_larm_tx	marker_transform_larm_ty	marker_transform_larm_tz	marker_transform_larm_rr	marker_transform_larm_rp	marker_transform_larm_ry	camera_transform_tx	camera_transform_ty	camera_transform_tz	camera_transform_rr	camera_transform_rp	camera_transform_ry	HeadPitch_transform_tx	HeadPitch_transform_ty	HeadPitch_transform_tz	HeadPitch_transform_rr	HeadPitch_transform_rp	HeadPitch_transform_ry	HeadYaw_transform_tx	HeadYaw_transform_ty	HeadYaw_transform_tz	HeadYaw_transform_rr	HeadYaw_transform_rp	HeadYaw_transform_ry	LElbowRoll_transform_tx	LElbowRoll_transform_ty	LElbowRoll_transform_tz	LElbowRoll_transform_rr	LElbowRoll_transform_rp	LElbowRoll_transform_ry	LElbowYaw_transform_tx	LElbowYaw_transform_ty	LElbowYaw_transform_tz	LElbowYaw_transform_rr	LElbowYaw_transform_rp	LElbowYaw_transform_ry	LShoulderPitch_transform_tx	LShoulderPitch_transform_ty	LShoulderPitch_transform_tz	LShoulderPitch_transform_rr	LShoulderPitch_transform_rp	LShoulderPitch_transform_ry	LShoulderRoll_transform_tx	LShoulderRoll_transform_ty	LShoulderRoll_transform_tz	LShoulderRoll_transform_rr	LShoulderRoll_transform_rp	LShoulderRoll_transform_ry	LWristYaw_transform_tx	LWristYaw_transform_ty	LWristYaw_transform_tz	LWristYaw_transform_rr	LWristYaw_transform_rp	LWristYaw_transform_ry	l_wrist_joint_transform_tx	l_wrist_joint_transform_ty	l_wrist_joint_transform_tz	l_wrist_joint_transform_rr	l_wrist_joint_transform_rp	l_wrist_joint_transform_ry	camera_fx	camera_fy	camera_cx	camera_cy	camera_D0	camera_D1	camera_D2	camera_D3	camera_D4	
0	0.0249164	-0.0307543	0.000853157	4.65819e-06	-0.000318322	-0.00310766	0.05071	0	0.01774	-2.26369	1.66533e-16	-1.5708	545.901	551.038	324.928	201.58	0.0255298	2.61142	-0.0636736	-0.0350419	0.213964
1	-0.0145483	0.0256985	0.00820915	0.0253721	-0.0082813	0.0316333	0.0240871	-0.0297641	0.0024048	-0.000187872	-0.000475285	-0.00311084	0.0574469	0.00077141	0.0169846	-2.20488	-0.00837561	-1.56444	0	0	0	0	-0	0	0	0	-0.1265	0	-0	0	0	0	0	0	-0	0	0.105	0.015	0	0	-0	0	0	0.098	0.1	0	-0	0	0	0	0	0	-0	0	0.05595	0	0	0	-0	0	0	0	0	0	-0	0	545.901	551.039	324.927	201.581	-0.0162842	2.596	-0.0856823	0.0626654	0.210314
2	-0.0126117	0.0359327	0.00882404	0.03058	-0.0147424	0.0394297	0.0242185	-0.0299343	0.00266413	-0.000217119	-0.000498255	-0.0031098	0.055452	0.000337805	0.0214958	-2.21382	-0.0117044	-1.56746	0	0	0	0	-0	0	0	0	-0.1265	0	-0	0	0	0	0	0	-0	0	0.105	0.015	0	0	-0	0	0	0.098	0.1	0	-0	0	0	0	0	0	-0	0	0.05595	0	0	0	-0	0	0	0	0	0	-0	0	545.903	551.039	324.923	201.585	-0.144009	2.50208	-0.0399901	0.0244061	0.176575
3	-0.0141275	0.0312122	0.00652847	0.0326248	-0.0121864	0.0393871	0.0242073	-0.0298272	0.00279585	-0.00023499	-0.000510632	-0.00309842	0.0566162	0.000981676	0.0185629	-2.207	-0.0107929	-1.56728	0	0	0	0	-0	0	0	0	-0.1265	0	-0	0	0	0	0	0	-0	0	0.105	0.015	0	0	-0	0	0	0.098	0.1	0	-0	0	0	0	0	0	-0	0	0.05595	0	0	0	-0	0	0	0	0	0	-0	0	545.905	551.039	324.918	201.59	-0.332112	2.37899	-0.0321596	0.0216714	0.135209
4	-0.0151858	0.0284445	0.00608017	0.0362288	-0.0108258	0.0382899	0.0243353	-0.0297084	0.00299381	-0.000252769	-0.00052881	-0.00306995	0.0574833	0.00111307	0.0159793	-2.20213	-0.010342	-1.56371	0	0	0	0	-0	0	0	0	-0.1265	0	-0	0	0	0	0	0	-0	0	0.105	0.015	0	0	-0	0	0	0.098	0.1	0	-0	0	0	0	0	0	-0	0	0.05595	0	0	0	-0	0	0	0	0	0	-0	0	545.91	551.038	324.91	201.598	-0.588465	2.15235	0.00169128	0.00246679	0.0511905
5	-0.0158661	0.026345	0.00566926	0.0379281	-0.00982449	0.0369331	0.0243959	-0.0296341	0.00305683	-0.000257606	-0.000522315	-0.00305084	0.0576291	0.00122457	0.0147246	-2.1991	-0.010291	-1.56187	0	0	0	0	-0	0	0	0	-0.1265	0	-0	0	0	0	0	0	-0	0	0.105	0.015	0	0	-0	0	0	0.098	0.1	0	-0	0	0	0	0	0	-0	0	0.05595	0	0	0	-0	0	0	0	0	0	-0	0	545.922	551.033	324.901	201.607	-0.648524	1.86891	0.0154233	-0.0057035	-0.0707887
6	-0.0158616	0.0258377	0.00594966	0.0371472	-0.00948185	0.0357362	0.0244099	-0.0296294	0.00294772	-0.000250309	-0.00049375	-0.00308473	0.0565798	0.00122571	0.0155778	-2.19935	-0.0107784	-1.56212	0	0	0	0	-0	0	0	0	-0.1265	0	-0	0	0	0	0	0	-0	0	0.105	0.015	0	0	-0	0	0	0.098	0.1	0	-0	0	0	0	0	0	-0	0	0.05595	0	0	0	-0	0	0	0	0	0	-0	0	545.95	551.018	324.89	201.617	-0.458193	1.456	0.0071172	-0.00366196	-0.263862
7	-0.0157335	0.0256986	0.00637803	0.0358838	-0.00933997	0.0347275	0.0244146	-0.0296426	0.0028093	-0.000292674	-0.000550382	-0.00303031	0.0552648	0.00122111	0.0168896	-2.20018	-0.0114258	-1.5628	0	0	0	0	-0	0	0	0	-0.1265	0	-0	0	0	0	0	0	-0	0	0.105	0.015	0	0	-0	0	0	0.098	0.1	0	-0	0	0	0	0	0	-0	0	0.05595	0	0	0	-0	0	0	0	0	0	-0	0	546.018	550.979	324.876	201.622	-0.197777	0.949216	-0.00666004	0.000730412	-0.487758
8	-0.0155297	0.0258878	0.00672882	0.035031	-0.00943962	0.034166	0.0244195	-0.0296566	0.00271764	-0.000378568	-0.000549932	-0.00301028	0.0543714	0.00120035	0.0178473	-2.20077	-0.0118834	-1.5633	0	0	0	0	-0	0	0	0	-0.1265	0	-0	0	0	0	0	0	-0	0	0.105	0.015	0	0	-0	0	0	0.098	0.1	0	-0	0	0	0	0	0	-0	0	0.05595	0	0	0	-0	0	0	0	0	0	-0	0	546.197	550.869	324.842	201.608	-0.0174212	0.562879	-0.0151969	0.00345782	-0.604317
9	-0.0154034	0.0261589	0.00691113	0.0346602	-0.00961961	0.0340423	0.0244248	-0.0296681	0.00268139	-0.000150718	-0.000173138	-0.00284533	0.0539785	0.00117213	0.0183152	-2.20104	-0.0119028	-1.56341	0	0	0	0	-0	0	0	0	-0.1265	0	-0	0	0	0	0	0	-0	0	0.105	0.015	0	0	-0	0	0	0.098	0.1	0	-0	0	0	0	0	0	-0	0	0.05595	0	0	0	-0	0	0	0	0	0	-0	0	546.702	550.557	324.734	201.554	0.0482112	0.361459	-0.016363	0.00414578	-0.506182
10	-0.0158152	0.0266046	0.0070594	0.0343715	-0.00991884	0.0341314	0.0244337	-0.0296854	0.00266278	0.001067	-0.00230523	-0.00162255	0.0536708	0.00111249	0.0187267	-2.20175	-0.0114083	-1.5632	0	0	0	0	-0	0	0	0	-0.1265	0	-0	0	0	0	0	0	-0	0	0.105	0.015	0	0	-0	0	0	0.098	0.1	0	-0	0	0	0	0	0	-0	0	0.05595	0	0	0	-0	0	0	0	0	0	-0	0	548.082	549.712	324.435	201.399	0.0663001	0.167533	-0.011965	0.00389425	-0.121566
11	-0.0200943	0.0275469	0.00734112	0.0338231	-0.010522	0.0343621	0.024452	-0.02972	0.0026333	0.00364154	0.000261842	-0.000308393	0.0531394	0.000977907	0.0193631	-2.20647	-0.0102163	-1.5627	0	0	0	0	-0	0	0	0	-0.1265	0	-0	0	0	0	0	0	-0	0	0.105	0.015	0	0	-0	0	0	0.098	0.1	0	-0	0	0	0	0	0	-0	0	0.05595	0	0	0	-0	0	0	0	0	0	-0	0	551.34	547.809	323.81	200.997	0.0754629	-0.149137	-0.00080221	0.00319674	0.607429
12	-0.00938661	0.0289596	0.00777065	0.0330205	-0.0113613	0.0346997	0.024479	-0.0297714	0.002592	0.0229858	-0.00190284	0.00210867	0.0519588	0.000760416	0.0213158	-2.19595	-0.00866482	-1.56238	0	0	0	0	-0	0	0	0	-0.1265	0	-0	0	0	0	0	0	-0	0	0.105	0.015	0	0	-0	0	0	0.098	0.1	0	-0	0	0	0	0	0	-0	0	0.05595	0	0	0	-0	0	0	0	0	0	-0	0	557.06	545.064	323.07	200.073	0.0571041	-0.448467	0.0178146	0.0022997	1.35597
13	-0.0109658	0.0300172	0.0080811	0.0324571	-0.0119009	0.0349707	0.0245035	-0.0297987	0.00256947	0.0290474	-0.0106053	-0.00700794	0.0509081	0.000544068	0.0226183	-2.19549	-0.00747574	-1.56238	0	0	0	0	-0	0	0	0	-0.1265	0	-0	0	0	0	0	0	-0	0	0.105	0.015	0	0	-0	0	0	0.098	0.1	0	-0	0	0	0	0	0	-0	0	0.05595	0	0	0	-0	0	0	0	0	0	-0	0	563.808	544.152	322.918	197.804	0.00104041	-0.449864	0.0344428	0.00164189	1.43045
14	-0.0121077	0.0301489	0.00812214	0.0323466	-0.0119396	0.035013	0.0245103	-0.029802	0.00256159	0.025522	-0.028006	-0.00546632	0.050707	0.000504797	0.0228422	-2.19592	-0.0073398	-1.56244	0	0	0	0	-0	0	0	0	-0.1265	0	-0	0	0	0	0	0	-0	0	0.105	0.015	0	0	-0	0	0	0.098	0.1	0	-0	0	0	0	0	0	-0	0	0.05595	0	0	0	-0	0	0	0	0	0	-0	0	565.209	544.153	322.993	197.17	-0.0137122	-0.42085	0.0374853	0.00151705	1.37322
15	-0.00312358	0.0302586	0.00813186	0.0323452	-0.0119467	0.0350759	0.0245163	-0.0298121	0.00256265	0.00693351	-0.037204	-0.0208113	0.0500641	0.00042987	0.0238173	-2.18377	-0.00730492	-1.56278	0	0	0	0	-0	0	0	0	-0.1265	0	-0	0	0	0	0	0	-0	0	0.105	0.015	0	0	-0	0	0	0.098	0.1	0	-0	0	0	0	0	0	-0	0	0.05595	0	0	0	-0	0	0	0	0	0	-0	0	568.301	545.542	323.365	194.882	-0.0466491	-0.255245	0.0398931	0.00138558	0.976895
16	0.00893761	0.0302586	0.00812168	0.0323637	-0.011921	0.0350967	0.0245113	-0.0297997	0.00256493	0.0121173	-0.0373223	-0.0194082	0.049605	0.000403603	0.0245992	-2.17022	-0.00739333	-1.56298	0	0	0	0	-0	0	0	0	-0.1265	0	-0	0	0	0	0	0	-0	0	0.105	0.015	0	0	-0	0	0	0.098	0.1	0	-0	0	0	0	0	0	-0	0	0.05595	0	0	0	-0	0	0	0	0	0	-0	0	569.506	546.31	323.548	193.837	-0.060266	-0.182081	0.0402923	0.00129594	0.810568
17	0.0153116	0.0302565	0.00811739	0.0323705	-0.0119104	0.0351042	0.024512	-0.0297985	0.00256493	0.0055269	-0.0279764	-0.0221047	0.0493807	0.000393921	0.0249778	-2.16326	-0.00744167	-1.56307	0	0	0	0	-0	0	0	0	-0.1265	0	-0	0	0	0	0	0	-0	0	0.105	0.015	0	0	-0	0	0	0.098	0.1	0	-0	0	0	0	0	0	-0	0	0.05595	0	0	0	-0	0	0	0	0	0	-0	0	569.954	546.629	323.62	193.427	-0.0651064	-0.15502	0.0403527	0.00126337	0.74876
18	0.0312919	0.0302416	0.00810647	0.0323904	-0.0118909	0.0351109	0.0245131	-0.0298001	0.00257001	-0.00652965	-0.0196993	-0.0107838	0.0489037	0.000382872	0.0258456	-2.1465	-0.0075712	-1.56325	0	0	0	0	-0	0	0	0	-0.1265	0	-0	0	0	0	0	0	-0	0	0.105	0.015	0	0	-0	0	0	0.098	0.1	0	-0	0	0	0	0	0	-0	0	0.05595	0	0	0	-0	0	0	0	0	0	-0	0	570.502	547.068	323.718	192.895	-0.0704589	-0.120793	0.0402562	0.00124381	0.667435
19	0.0392613	0.0302196	0.0080924	0.0324148	-0.0118672	0.0351158	0.024515	-0.0297981	0.00256942	-0.00281332	-0.00985913	-0.000618311	0.0486131	0.000372091	0.0263072	-2.13771	-0.00764563	-1.56338	0	0	0	0	-0	0	0	0	-0.1265	0	-0	0	0	0	0	0	-0	0	0.105	0.015	0	0	-0	0	0	0.098	0.1	0	-0	0	0	0	0	0	-0	0	0.05595	0	0	0	-0	0	0	0	0	0	-0	0	571.057	547.554	323.825	192.333	-0.0760139	-0.0838318	0.0400574	0.00122322	0.580301
20	0.0470206	0.0301828	0.00807162	0.032451	-0.0118312	0.0351215	0.0245128	-0.0297942	0.00257056	0.00183354	-0.00455483	-0.000239055	0.0483055	0.000358623	0.0267803	-2.12883	-0.00773847	-1.56354	0	0	0	0	-0	0	0	0	-0.1265	0	-0	0	0	0	0	0	-0	0	0.105	0.015	0	0	-0	0	0	0.098	0.1	0	-0	0	0	0	0	0	-0	0	0.05595	0	0	0	-0	0	0	0	0	0	-0	0	571.786	548.24	323.982	191.572	-0.0829807	-0.0348888	0.0396627	0.00120829	0.46445
21	0.0630173	0.0301307	0.00804259	0.0325007	-0.0117831	0.0351269	0.0245134	-0.029791	0.00257209	-0.00213029	0.00585013	-0.00753791	0.047746	0.000341796	0.0276723	-2.11139	-0.0079235	-1.56382	0	0	0	0	-0	0	0	0	-0.1265	0	-0	0	0	0	0	0	-0	0	0.105	0.015	0	0	-0	0	0	0.098	0.1	0	-0	0	0	0	0	0	-0	0	0.05595	0	0	0	-0	0	0	0	0	0	-0	0	572.714	549.156	324.207	190.591	-0.0915594	0.0262369	0.0390671	0.00119775	0.320873
22	0.0551592	0.0300982	0.00802454	0.0325316	-0.0117525	0.0351308	0.0245154	-0.0297906	0.0025806	0.00782204	-0.0119013	-0.0201576	0.0478682	0.000330393	0.0273704	-2.11829	-0.00792031	-1.56387	0	0	0	0	-0	0	0	0	-0.1265	0	-0	0	0	0	0	0	-0	0	0.105	0.015	0	0	-0	0	0	0.098	0.1	0	-0	0	0	0	0	0	-0	0	0.05595	0	0	0	-0	0	0	0	0	0	-0	0	573.331	549.77	324.362	189.94	-0.0970221	0.0631375	0.0386904	0.00118151	0.235806
23	0.0735954	0.0299788	0.00795957	0.0326402	-0.0116488	0.0351311	0.0245322	-0.0297854	0.00259524	0.00192332	0.0277506	-0.00171171	0.0471087	0.000298583	0.0284841	-2.09707	-0.00842203	-1.56461	0	0	0	0	-0	0	0	0	-0.1265	0	-0	0	0	0	0	0	-0	0	0.105	0.015	0	0	-0	0	0	0.098	0.1	0	-0	0	0	0	0	0	-0	0	0.05595	0	0	0	-0	0	0	0	0	0	-0	0	575.17	551.698	325.023	188.033	-0.112545	0.179985	0.0372318	0.00128561	-0.0382019
24	0.0577159	0.0299751	0.00795822	0.0326425	-0.011642	0.0351337	0.0245155	-0.0297829	0.00258204	-0.00275901	0.013886	-0.00667124	0.047514	0.000293164	0.027757	-2.11263	-0.00834893	-1.56454	0	0	0	0	-0	0	0	0	-0.1265	0	-0	0	0	0	0	0	-0	0	0.105	0.015	0	0	-0	0	0	0.098	0.1	0	-0	0	0	0	0	0	-0	0	0.05595	0	0	0	-0	0	0	0	0	0	-0	0	575.41	551.935	325.093	187.801	-0.114379	0.186384	0.037192	0.00124681	-0.0484208
25	0.0665997	0.0299654	0.00795117	0.0326568	-0.0116329	0.0351362	0.0245136	-0.0297806	0.00258256	-0.00149373	0.00115428	-0.00769225	0.0472278	0.000288787	0.0282076	-2.10342	-0.0084398	-1.56467	0	0	0	0	-0	0	0	0	-0.1265	0	-0	0	0	0	0	0	-0	0	0.105	0.015	0	0	-0	0	0	0.098	0.1	0	-0	0	0	0	0	0	-0	0	0.05595	0	0	0	-0	0	0	0	0	0	-0	0	575.641	552.165	325.164	187.575	-0.11581	0.19522	0.0370696	0.00124732	-0.068678
26	0.0662061	0.0299617	0.0079489	0.0326607	-0.0116291	0.0351368	0.0245121	-0.0297815	0.00258229	0.0055496	0.00305492	-0.00542866	0.0472233	0.000286977	0.0281996	-2.10369	-0.00845083	-1.56469	0	0	0	0	-0	0	0	0	-0.1265	0	-0	0	0	0	0	0	-0	0	0.105	0.015	0	0	-0	0	0	0.098	0.1	0	-0	0	0	0	0	0	-0	0	0.05595	0	0	0	-0	0	0	0	0	0	-0	0	575.731	552.257	325.192	187.485	-0.116396	0.198816	0.0370198	0.00124546	-0.0768285
27	0.064052	0.0299553	0.00794498	0.0326676	-0.0116234	0.0351373	0.0245124	-0.0297811	0.00258217	0.0100625	0.00112355	0.00186053	0.0472664	0.000284707	0.0281138	-2.10567	-0.00845687	-1.56471	0	0	0	0	-0	0	0	0	-0.1265	0	-0	0	0	0	0	0	-0	0	0.105	0.015	0	0	-0	0	0	0.098	0.1	0	-0	0	0	0	0	0	-0	0	0.05595	0	0	0	-0	0	0	0	0	0	-0	0	575.852	552.379	325.23	187.366	-0.117178	0.204016	0.0369462	0.00124689	-0.0887573
28	0.0690127	0.0299451	0.00793935	0.0326769	-0.0116146	0.0351375	0.0245128	-0.0297802	0.00258367	0.00807843	-0.00491	-0.00350246	0.0471032	0.000281718	0.0283694	-2.10047	-0.00851691	-1.5648	0	0	0	0	-0	0	0	0	-0.1265	0	-0	0	0	0	0	0	-0	0	0.105	0.015	0	0	-0	0	0	0.098	0.1	0	-0	0	0	0	0	0	-0	0	0.05595	0	0	0	-0	0	0	0	0	0	-0	0	576.021	552.557	325.286	187.2	-0.118462	0.213059	0.0368257	0.00125143	-0.109308
29	0.0692458	0.0299418	0.00793752	0.0326799	-0.0116115	0.0351376	0.0245127	-0.0297801	0.00258343	0.0129134	0.000892047	-0.00592908	0.0470862	0.000280415	0.0283885	-2.10015	-0.00852997	-1.56482	0	0	0	0	-0	0	0	0	-0.1265	0	-0	0	0	0	0	0	-0	0	0.105	0.015	0	0	-0	0	0	0.098	0.1	0	-0	0	0	0	0	0	-0	0	0.05595	0	0	0	-0	0	0	0	0	0	-0	0	576.088	552.627	325.308	187.134	-0.118943	0.216163	0.0367847	0.00125072	-0.116331
30	0.071885	0.0299341	0.0079331	0.0326873	-0.0116047	0.0351378	0.0245122	-0.0297789	0.00258359	0.0115056	0.00695901	-0.00870582	0.0469923	0.000278022	0.0285297	-2.09732	-0.00857072	-1.56488	0	0	0	0	-0	0	0	0	-0.1265	0	-0	0	0	0	0	0	-0	0	0.105	0.015	0	0	-0	0	0	0.098	0.1	0	-0	0	0	0	0	0	-0	0	0.05595	0	0	0	-0	0	0	0	0	0	-0	0	576.222	552.766	325.354	187.003	-0.119932	0.223083	0.0366943	0.00125555	-0.132074
31	0.0736637	0.0299287	0.0079301	0.0326924	-0.0115999	0.0351379	0.0245114	-0.0297801	0.00258383	0.000275797	0.00997633	-0.0113219	0.0469278	0.000276278	0.028625	-2.09541	-0.00859969	-1.56493	0	0	0	0	-0	0	0	0	-0.1265	0	-0	0	0	0	0	0	-0	0	0.105	0.015	0	0	-0	0	0	0.098	0.1	0	-0	0	0	0	0	0	-0	0	0.05595	0	0	0	-0	0	0	0	0	0	-0	0	576.318	552.867	325.388	186.91	-0.120665	0.228091	0.0366294	0.00125763	-0.143358
32	0.0804244	0.0299203	0.00792539	0.0327007	-0.0115927	0.0351378	0.0245134	-0.0297807	0.0025852	-0.00803428	0.00676563	-0.00220124	0.0467153	0.000273896	0.0289587	-2.08846	-0.00866726	-1.56503	0	0	0	0	-0	0	0	0	-0.1265	0	-0	0	0	0	0	0	-0	0	0.105	0.015	0	0	-0	0	0	0.098	0.1	0	-0	0	0	0	0	0	-0	0	0.05595	0	0	0	-0	0	0	0	0	0	-0	0	576.453	553.011	325.437	186.778	-0.121758	0.235808	0.0365318	0.00126334	-0.160745
33	0.077682	0.029919	0.00792478	0.0327016	-0.0115913	0.0351379	0.0245118	-0.0297783	0.00258457	-0.0123237	0.00714593	-0.00329077	0.0467895	0.000273341	0.0288332	-2.09117	-0.00865684	-1.56501	0	0	0	0	-0	0	0	0	-0.1265	0	-0	0	0	0	0	0	-0	0	0.105	0.015	0	0	-0	0	0	0.098	0.1	0	-0	0	0	0	0	0	-0	0	0.05595	0	0	0	-0	0	0	0	0	0	-0	0	576.481	553.04	325.447	186.751	-0.121972	0.237091	0.036517	0.00126194	-0.163625
34	0.079082	0.0299148	0.00792233	0.0327056	-0.0115877	0.0351379	0.0245118	-0.0297778	0.00258484	-0.0137325	0.0064227	-0.00466188	0.0467383	0.000271997	0.028908	-2.08966	-0.00868056	-1.56505	0	0	0	0	-0	0	0	0	-0.1265	0	-0	0	0	0	0	0	-0	0	0.105	0.015	0	0	-0	0	0	0.098	0.1	0	-0	0	0	0	0	0	-0	0	0.05595	0	0	0	-0	0	0	0	0	0	-0	0	576.557	553.119	325.474	186.679	-0.122509	0.240858	0.0364649	0.00126581	-0.172118
35	0.0829294	0.0299127	0.00792114	0.0327076	-0.0115857	0.035138	0.0245117	-0.0297781	0.00258485	-0.0194921	0.00789417	-0.00621419	0.0466213	0.000271263	0.0290927	-2.08576	-0.00871088	-1.5651	0	0	0	0	-0	0	0	0	-0.1265	0	-0	0	0	0	0	0	-0	0	0.105	0.015	0	0	-0	0	0	0.098	0.1	0	-0	0	0	0	0	0	-0	0	0.05595	0	0	0	-0	0	0	0	0	0	-0	0	576.596	553.161	325.489	186.641	-0.122804	0.242828	0.0364388	0.0012665	-0.176543
36	0.0792536	0.0299075	0.00791824	0.0327125	-0.0115812	0.0351378	0.0245125	-0.0297773	0.00258519	-0.019988	0.0162122	-0.00719621	0.0467159	0.00026976	0.0289314	-2.08932	-0.00870876	-1.5651	0	0	0	0	-0	0	0	0	-0.1265	0	-0	0	0	0	0	0	-0	0	0.105	0.015	0	0	-0	0	0	0.098	0.1	0	-0	0	0	0	0	0	-0	0	0.05595	0	0	0	-0	0	0	0	0	0	-0	0	576.683	553.252	325.521	186.559	-0.123513	0.247869	0.0363789	0.00127134	-0.187886
37	0.0718982	0.0299053	0.00791708	0.0327144	-0.0115792	0.0351379	0.0245119	-0.0297774	0.00258576	-0.0164886	0.0115912	-0.0107939	0.0469223	0.000268983	0.0285929	-2.09662	-0.00867611	-1.56505	0	0	0	0	-0	0	0	0	-0.1265	0	-0	0	0	0	0	0	-0	0	0.105	0.015	0	0	-0	0	0	0.098	0.1	0	-0	0	0	0	0	0	-0	0	0.05595	0	0	0	-0	0	0	0	0	0	-0	0	576.725	553.297	325.537	186.519	-0.123803	0.249817	0.0363515	0.00127237	-0.192311
38	0.0741665	0.0298999	0.00791394	0.0327195	-0.0115746	0.0351377	0.0245127	-0.0297767	0.0025851	-0.0128739	0.00107884	-0.00738919	0.0468438	0.000267413	0.0287096	-2.09423	-0.00871096	-1.5651	0	0	0	0	-0	0	0	0	-0.1265	0	-0	0	0	0	0	0	-0	0	0.105	0.015	0	0	-0	0	0	0.098	0.1	0	-0	0	0	0	0	0	-0	0	0.05595	0	0	0	-0	0	0	0	0	0	-0	0	576.814	553.391	325.573	186.434	-0.124463	0.254489	0.0362874	0.00127778	-0.202853
39	0.0777826	0.0298919	0.00790964	0.0327267	-0.0115678	0.0351375	0.0245123	-0.0297769	0.00258531	-0.0155928	0.00650523	-0.0138803	0.046722	0.00026522	0.0288943	-2.09045	-0.00876437	-1.56518	0	0	0	0	-0	0	0	0	-0.1265	0	-0	0	0	0	0	0	-0	0	0.105	0.015	0	0	-0	0	0	0.098	0.1	0	-0	0	0	0	0	0	-0	0	0.05595	0	0	0	-0	0	0	0	0	0	-0	0	576.942	553.529	325.625	186.314	-0.125412	0.261328	0.0361916	0.00128609	-0.218322
40	0.0781047	0.0298886	0.00790772	0.0327301	-0.0115649	0.0351376	0.0245123	-0.0297771	0.00258579	-0.0127124	0.00508444	-0.00669958	0.0467034	0.000264048	0.0289168	-2.09004	-0.00878195	-1.56521	0	0	0	0	-0	0	0	0	-0.1265	0	-0	0	0	0	0	0	-0	0	0.105	0.015	0	0	-0	0	0	0.098	0.1	0	-0	0	0	0	0	0	-0	0	0.05595	0	0	0	-0	0	0	0	0	0	-0	0	577.005	553.596	325.65	186.257	-0.125869	0.264248	0.036154	0.00128773	-0.224807
41	0.0778698	0.0298806	0.00790316	0.0327377	-0.011558	0.0351371	0.0245117	-0.0297764	0.00258673	-0.00649033	0.0055728	-0.00783178	0.0466921	0.0002618	0.0289215	-2.09011	-0.00881726	-1.56526	0	0	0	0	-0	0	0	0	-0.1265	0	-0	0	0	0	0	0	-0	0	0.105	0.015	0	0	-0	0	0	0.098	0.1	0	-0	0	0	0	0	0	-0	0	0.05595	0	0	0	-0	0	0	0	0	0	-0	0	577.135	553.736	325.706	186.137	-0.12683	0.271168	0.0360583	0.0012981	-0.240405
42	0.075326	0.0298799	0.00790269	0.0327386	-0.0115572	0.0351372	0.0245117	-0.0297757	0.00258662	-0.00712101	0.00585257	-0.00913558	0.0467624	0.000261317	0.0288055	-2.09263	-0.0088092	-1.56525	0	0	0	0	-0	0	0	0	-0.1265	0	-0	0	0	0	0	0	-0	0	0.105	0.015	0	0	-0	0	0	0.098	0.1	0	-0	0	0	0	0	0	-0	0	0.05595	0	0	0	-0	0	0	0	0	0	-0	0	577.157	553.76	325.715	186.117	-0.126995	0.272056	0.0360484	0.00129722	-0.24232
43	0.0725507	0.0298773	0.00790119	0.0327409	-0.011555	0.0351371	0.0245118	-0.0297757	0.00258674	-0.00593177	0.00640596	-0.00613882	0.0468359	0.000260534	0.0286812	-2.09535	-0.00880643	-1.56524	0	0	0	0	-0	0	0	0	-0.1265	0	-0	0	0	0	0	0	-0	0	0.105	0.015	0	0	-0	0	0	0.098	0.1	0	-0	0	0	0	0	0	-0	0	0.05595	0	0	0	-0	0	0	0	0	0	-0	0	577.202	553.808	325.734	186.076	-0.127284	0.274084	0.0360168	0.00130051	-0.246892
44	0.0657209	0.0298734	0.00789902	0.0327445	-0.0115517	0.0351369	0.0245117	-0.0297753	0.0025869	-0.00456367	0.00381534	-0.00496673	0.0470227	0.000259416	0.028369	-2.10209	-0.00878755	-1.56521	0	0	0	0	-0	0	0	0	-0.1265	0	-0	0	0	0	0	0	-0	0	0.105	0.015	0	0	-0	0	0	0.098	0.1	0	-0	0	0	0	0	0	-0	0	0.05595	0	0	0	-0	0	0	0	0	0	-0	0	577.267	553.877	325.763	186.018	-0.127775	0.277563	0.0359718	0.00130579	-0.254703
45	0.0681871	0.029868	0.00789592	0.0327496	-0.0115471	0.0351365	0.0245124	-0.0297754	0.0025869	-0.00366827	0.0099947	-0.0096674	0.0469391	0.000257824	0.0284955	-2.09951	-0.00883046	-1.56527	0	0	0	0	-0	0	0	0	-0.1265	0	-0	0	0	0	0	0	-0	0	0.105	0.015	0	0	-0	0	0	0.098	0.1	0	-0	0	0	0	0	0	-0	0	0.05595	0	0	0	-0	0	0	0	0	0	-0	0	577.359	553.975	325.805	185.936	-0.128475	0.282487	0.0359087	0.00131384	-0.265728
46	0.0627962	0.0298657	0.00789466	0.0327518	-0.011545	0.0351366	0.0245117	-0.0297751	0.00258731	-0.00721035	0.00890795	-0.0114092	0.0470862	0.000257006	0.0282479	-2.10485	-0.00881491	-1.56524	0	0	0	0	-0	0	0	0	-0.1265	0	-0	0	0	0	0	0	-0	0	0.105	0.015	0	0	-0	0	0	0.098	0.1	0	-0	0	0	0	0	0	-0	0	0.05595	0	0	0	-0	0	0	0	0	0	-0	0	577.403	554.023	325.825	185.897	-0.128768	0.284419	0.0358816	0.00131654	-0.27011
47	0.0597323	0.029864	0.00789358	0.0327535	-0.0115435	0.0351364	0.024512	-0.0297749	0.00258748	-0.00905771	0.00457219	-0.0118619	0.0471676	0.000256414	0.0281073	-2.10787	-0.00880868	-1.56523	0	0	0	0	-0	0	0	0	-0.1265	0	-0	0	0	0	0	0	-0	0	0.105	0.015	0	0	-0	0	0	0.098	0.1	0	-0	0	0	0	0	0	-0	0	0.05595	0	0	0	-0	0	0	0	0	0	-0	0	577.436	554.057	325.84	185.868	-0.128998	0.285983	0.0358601	0.00131902	-0.2736
48	0.0597398	0.0298628	0.00789289	0.0327546	-0.0115424	0.0351364	0.0245122	-0.0297749	0.00258753	-0.0111655	-0.000885156	-0.0118306	0.0471637	0.000255968	0.0281107	-2.10784	-0.0088168	-1.56524	0	0	0	0	-0	0	0	0	-0.1265	0	-0	0	0	0	0	0	-0	0	0.105	0.015	0	0	-0	0	0	0.098	0.1	0	-0	0	0	0	0	0	-0	0	0.05595	0	0	0	-0	0	0	0	0	0	-0	0	577.46	554.083	325.852	185.847	-0.129156	0.287084	0.0358451	0.00132107	-0.276119
49	0.0566354	0.0298599	0.00789119	0.0327575	-0.0115398	0.0351362	0.0245127	-0.0297755	0.00258814	-0.0099189	0.00422902	-0.00410166	0.0472438	0.000255056	0.0279707	-2.11088	-0.0088178	-1.56524	0	0	0	0	-0	0	0	0	-0.1265	0	-0	0	0	0	0	0	-0	0	0.105	0.015	0	0	-0	0	0	0.098	0.1	0	-0	0	0	0	0	0	-0	0	0.05595	0	0	0	-0	0	0	0	0	0	-0	0	577.512	554.137	325.877	185.801	-0.129543	0.28974	0.0358125	0.0013266	-0.28205
50	0.0596213	0.0298587	0.00789043	0.0327588	-0.0115387	0.0351362	0.0245118	-0.0297745	0.00258751	-0.00855046	3.1459e-05	-0.00133264	0.0471565	0.000254576	0.0281149	-2.10786	-0.00884351	-1.56528	0	0	0	0	-0	0	0	0	-0.1265	0	-0	0	0	0	0	0	-0	0	0.105	0.015	0	0	-0	0	0	0.098	0.1	0	-0	0	0	0	0	0	-0	0	0.05595	0	0	0	-0	0	0	0	0	0	-0	0	577.538	554.164	325.889	185.779	-0.129731	0.290959	0.0357986	0.00132843	-0.284779
