Stefan210/kinematic_calibration/src/kinematic_calibration/validation/experiments/experiments/impact_noise/outlier/larm_randomize_9_measurements_rk_false/optimization_intermediate_results.csv
iteration	HeadPitch_offset	HeadYaw_offset	LElbowRoll_offset	LElbowYaw_offset	LShoulderPitch_offset	LShoulderRoll_offset	marker_transform_larm_tx	marker_transform_larm_ty	marker_transform_larm_tz	marker_transform_larm_rr	marker_transform_larm_rp	marker_transform_larm_ry	camera_transform_tx	camera_transform_ty	camera_transform_tz	camera_transform_rr	camera_transform_rp	camera_transform_ry	HeadPitch_transform_tx	HeadPitch_transform_ty	HeadPitch_transform_tz	HeadPitch_transform_rr	HeadPitch_transform_rp	HeadPitch_transform_ry	HeadYaw_transform_tx	HeadYaw_transform_ty	HeadYaw_transform_tz	HeadYaw_transform_rr	HeadYaw_transform_rp	HeadYaw_transform_ry	LElbowRoll_transform_tx	LElbowRoll_transform_ty	LElbowRoll_transform_tz	LElbowRoll_transform_rr	LElbowRoll_transform_rp	LElbowRoll_transform_ry	LElbowYaw_transform_tx	LElbowYaw_transform_ty	LElbowYaw_transform_tz	LElbowYaw_transform_rr	LElbowYaw_transform_rp	LElbowYaw_transform_ry	LShoulderPitch_transform_tx	LShoulderPitch_transform_ty	LShoulderPitch_transform_tz	LShoulderPitch_transform_rr	LShoulderPitch_transform_rp	LShoulderPitch_transform_ry	LShoulderRoll_transform_tx	LShoulderRoll_transform_ty	LShoulderRoll_transform_tz	LShoulderRoll_transform_rr	LShoulderRoll_transform_rp	LShoulderRoll_transform_ry	LWristYaw_transform_tx	LWristYaw_transform_ty	LWristYaw_transform_tz	LWristYaw_transform_rr	LWristYaw_transform_rp	LWristYaw_transform_ry	l_wrist_joint_transform_tx	l_wrist_joint_transform_ty	l_wrist_joint_transform_tz	l_wrist_joint_transform_rr	l_wrist_joint_transform_rp	l_wrist_joint_transform_ry	camera_fx	camera_fy	camera_cx	camera_cy	camera_D0	camera_D1	camera_D2	camera_D3	camera_D4	
0	0.0249164	-0.0307543	0.000853157	4.65819e-06	-0.000318322	-0.00310766	0.05071	0	0.01774	-2.26369	1.66533e-16	-1.5708	545.901	551.038	324.928	201.58	0.0255298	2.61142	-0.0636736	-0.0350419	0.213964
1	-0.00815641	0.117179	0.0187441	-0.0389331	0.111019	0.01715	0.0295855	-0.0284616	0.000514288	3.91952e-05	-0.000269008	-0.00231023	0.047664	0.00455098	0.0176155	-2.22218	-0.0927979	-1.76207	0	0	0	0	-0	0	0	0	-0.1265	0	-0	0	0	0	0	0	-0	0	0.105	0.015	0	0	-0	0	0	0.098	0.1	0	-0	0	0	0	0	0	-0	0	0.05595	0	0	0	-0	0	0	0	0	0	-0	0	545.901	551.039	324.929	201.58	0.0516758	2.61739	0.0405669	0.170107	0.215244
2	-0.00734953	0.168198	-0.0142134	0.101271	0.0879417	0.00717087	0.0280131	-0.0277609	0.0147144	-0.00156922	-0.00194429	-0.00239908	0.0436791	0.0102241	0.0247826	-2.21708	-0.139303	-1.80654	0	0	0	0	-0	0	0	0	-0.1265	0	-0	0	0	0	0	0	-0	0	0.105	0.015	0	0	-0	0	0	0.098	0.1	0	-0	0	0	0	0	0	-0	0	0.05595	0	0	0	-0	0	0	0	0	0	-0	0	545.905	551.038	324.925	201.583	-0.103545	2.55919	0.110165	0.106414	0.201928
3	-0.0116488	0.219932	-0.0209385	0.12535	0.0776675	0.0435907	0.0277336	-0.0271886	0.0169968	-0.0018587	-0.00221489	-0.00236966	0.048702	0.0172001	0.0201341	-2.18476	-0.182662	-1.89812	0	0	0	0	-0	0	0	0	-0.1265	0	-0	0	0	0	0	0	-0	0	0.105	0.015	0	0	-0	0	0	0.098	0.1	0	-0	0	0	0	0	0	-0	0	0.05595	0	0	0	-0	0	0	0	0	0	-0	0	545.913	551.037	324.92	201.587	-0.370958	2.47366	0.109774	0.135508	0.185862
4	-0.0102929	0.230191	-0.0389907	0.205142	0.0839013	0.0397234	0.0261959	-0.0260652	0.024964	-0.00276572	-0.00315125	-0.00242608	0.0509496	0.0180705	0.0187171	-2.1851	-0.197087	-1.90971	0	0	0	0	-0	0	0	0	-0.1265	0	-0	0	0	0	0	0	-0	0	0.105	0.015	0	0	-0	0	0	0.098	0.1	0	-0	0	0	0	0	0	-0	0	0.05595	0	0	0	-0	0	0	0	0	0	-0	0	545.925	551.034	324.91	201.593	-0.803185	2.33065	0.160318	0.0786909	0.157788
5	-0.0118105	0.271454	-0.0520991	0.200806	0.0788055	0.0578375	0.0256969	-0.025351	0.0250205	-0.00281473	-0.00326189	-0.00239242	0.0565482	0.0223136	0.0138171	-2.16244	-0.233532	-1.98053	0	0	0	0	-0	0	0	0	-0.1265	0	-0	0	0	0	0	0	-0	0	0.105	0.015	0	0	-0	0	0	0.098	0.1	0	-0	0	0	0	0	0	-0	0	0.05595	0	0	0	-0	0	0	0	0	0	-0	0	545.962	551.02	324.885	201.607	-1.39639	2.06993	0.221689	0.0560844	0.104913
6	-0.00986422	0.286976	-0.0704001	0.238073	0.0841318	0.0493789	0.0241609	-0.024176	0.0284939	-0.00322472	-0.00354387	-0.00269572	0.0597794	0.0229336	0.0100149	-2.15786	-0.256074	-2.00381	0	0	0	0	-0	0	0	0	-0.1265	0	-0	0	0	0	0	0	-0	0	0.105	0.015	0	0	-0	0	0	0.098	0.1	0	-0	0	0	0	0	0	-0	0	0.05595	0	0	0	-0	0	0	0	0	0	-0	0	546.068	550.969	324.788	201.653	-1.96707	1.71795	0.290993	-0.00563855	0.056226
7	-0.0097582	0.318303	-0.084449	0.226756	0.0865037	0.0545999	0.0236842	-0.0235864	0.0277947	-0.00378077	-0.00159802	-0.0011507	0.0636577	0.0258886	0.00616668	-2.1403	-0.287584	-2.06127	0	0	0	0	-0	0	0	0	-0.1265	0	-0	0	0	0	0	0	-0	0	0.105	0.015	0	0	-0	0	0	0.098	0.1	0	-0	0	0	0	0	0	-0	0	0.05595	0	0	0	-0	0	0	0	0	0	-0	0	546.404	550.78	324.438	201.911	-2.15377	1.22148	0.32039	-0.0209993	0.0600101
8	-0.00892589	0.319546	-0.0925323	0.246562	0.0922727	0.0463308	0.0228562	-0.0230476	0.0294879	-0.000286033	-0.00409694	-0.0011206	0.0654418	0.0250386	0.00303586	-2.1396	-0.294352	-2.06509	0	0	0	0	-0	0	0	0	-0.1265	0	-0	0	0	0	0	0	-0	0	0.105	0.015	0	0	-0	0	0	0.098	0.1	0	-0	0	0	0	0	0	-0	0	0.05595	0	0	0	-0	0	0	0	0	0	-0	0	547.346	550.167	323.185	202.858	-2.44028	1.08193	0.346681	-0.0462306	0.539123
9	-0.0128041	0.335592	-0.0999714	0.237719	0.0953104	0.0480735	0.0226288	-0.022864	0.0288959	0.00470072	-0.00271339	0.00519425	0.0674505	0.0264156	0.00048796	-2.13863	-0.308498	-2.09115	0	0	0	0	-0	0	0	0	-0.1265	0	-0	0	0	0	0	0	-0	0	0.105	0.015	0	0	-0	0	0	0.098	0.1	0	-0	0	0	0	0	0	-0	0	0.05595	0	0	0	-0	0	0	0	0	0	-0	0	550.223	548.176	319.118	206.391	-2.54376	0.649739	0.362421	-0.0421889	1.97649
10	-0.0129747	0.336463	-0.102107	0.248151	0.0983848	0.0444405	0.022171	-0.0227555	0.0298397	0.0110565	-0.00513385	0.00712955	0.0685352	0.02543	-0.00141692	-2.15657	-0.296156	-2.08004	0	0	0	0	-0	0	0	0	-0.1265	0	-0	0	0	0	0	0	-0	0	0.105	0.015	0	0	-0	0	0	0.098	0.1	0	-0	0	0	0	0	0	-0	0	0.05595	0	0	0	-0	0	0	0	0	0	-0	0	557.656	542.558	307.199	216.768	-2.82268	0.0847289	0.390436	-0.0228456	5.51136
11	0.0852644	0.345596	-0.101318	0.247674	0.104818	0.0479904	0.0220658	-0.0231074	0.0305359	-0.0331225	-0.12002	-0.0492621	0.0698159	0.0265213	0.00369882	-2.10316	-0.224821	-2.09915	0	0	0	0	-0	0	0	0	-0.1265	0	-0	0	0	0	0	0	-0	0	0.105	0.015	0	0	-0	0	0	0.098	0.1	0	-0	0	0	0	0	0	-0	0	0.05595	0	0	0	-0	0	0	0	0	0	-0	0	574.15	529.59	282.524	240.419	-3.13572	-1.3654	0.429566	0.0521926	13.6783
12	0.0455066	0.336837	-0.0966555	0.277512	0.112664	0.0450733	0.0212428	-0.0228887	0.0332673	-0.0613531	-0.0845327	-0.0457854	0.0713856	0.0238952	-0.00218424	-2.15941	-0.215544	-2.06432	0	0	0	0	-0	0	0	0	-0.1265	0	-0	0	0	0	0	0	-0	0	0.105	0.015	0	0	-0	0	0	0.098	0.1	0	-0	0	0	0	0	0	-0	0	0.05595	0	0	0	-0	0	0	0	0	0	-0	0	581.409	522.581	268.313	253.519	-3.72812	0.712649	0.426817	0.112792	16.5227
13	0.0256742	0.341269	-0.09741	0.28418	0.118711	0.0453339	0.0206368	-0.0231671	0.0343058	0.0557601	-0.150226	-0.103058	0.0713291	0.0251682	-0.00515251	-2.18563	-0.222336	-2.06939	0	0	0	0	-0	0	0	0	-0.1265	0	-0	0	0	0	0	0	-0	0	0.105	0.015	0	0	-0	0	0	0.098	0.1	0	-0	0	0	0	0	0	-0	0	0.05595	0	0	0	-0	0	0	0	0	0	-0	0	585.217	518.464	262.319	262.753	-3.74321	0.250402	0.423972	0.14186	15.8325
14	0.0735896	0.330497	-0.100106	0.309607	0.120104	0.0415855	0.0197944	-0.0226583	0.0360976	0.0155635	-0.163153	-0.0846352	0.0717408	0.0230711	-0.003029	-2.1483	-0.18619	-2.05737	0	0	0	0	-0	0	0	0	-0.1265	0	-0	0	0	0	0	0	-0	0	0.105	0.015	0	0	-0	0	0	0.098	0.1	0	-0	0	0	0	0	0	-0	0	0.05595	0	0	0	-0	0	0	0	0	0	-0	0	585.147	517.623	261.016	265.143	-3.81918	0.897666	0.399596	0.145037	14.816
15	0.0617319	0.335025	-0.104019	0.307221	0.124306	0.0422495	0.0196659	-0.0226634	0.0359359	0.0109832	-0.15688	-0.0859347	0.0719865	0.0243628	-0.00506221	-2.15971	-0.198695	-2.06734	0	0	0	0	-0	0	0	0	-0.1265	0	-0	0	0	0	0	0	-0	0	0.105	0.015	0	0	-0	0	0	0.098	0.1	0	-0	0	0	0	0	0	-0	0	0.05595	0	0	0	-0	0	0	0	0	0	-0	0	584.599	516.308	259.834	269.834	-3.74699	0.931414	0.388546	0.152755	12.732
16	0.0362822	0.327653	-0.106191	0.321922	0.122572	0.040971	0.0192421	-0.0226183	0.037112	0.0569441	-0.117649	-0.0571732	0.0729185	0.0220779	-0.00818107	-2.19121	-0.201486	-2.0455	0	0	0	0	-0	0	0	0	-0.1265	0	-0	0	0	0	0	0	-0	0	0.105	0.015	0	0	-0	0	0	0.098	0.1	0	-0	0	0	0	0	0	-0	0	0.05595	0	0	0	-0	0	0	0	0	0	-0	0	581.396	515.714	259.43	273.446	-3.80362	2.39953	0.35539	0.149066	8.54433
17	0.0279852	0.331643	-0.109025	0.319642	0.125419	0.0414996	0.019145	-0.022449	0.0370117	0.0909371	-0.173884	-0.0927595	0.0731727	0.0227695	-0.00996963	-2.19821	-0.210855	-2.05374	0	0	0	0	-0	0	0	0	-0.1265	0	-0	0	0	0	0	0	-0	0	0.105	0.015	0	0	-0	0	0	0.098	0.1	0	-0	0	0	0	0	0	-0	0	0.05595	0	0	0	-0	0	0	0	0	0	-0	0	579.837	514.977	259.248	276.734	-3.78344	2.95616	0.344987	0.149991	6.01609
18	0.0214238	0.326364	-0.111412	0.330546	0.123483	0.041159	0.018678	-0.0222732	0.0377379	0.0207165	-0.19115	-0.108829	0.0746089	0.0204341	-0.0121853	-2.21459	-0.206195	-2.03822	0	0	0	0	-0	0	0	0	-0.1265	0	-0	0	0	0	0	0	-0	0	0.105	0.015	0	0	-0	0	0	0.098	0.1	0	-0	0	0	0	0	0	-0	0	0.05595	0	0	0	-0	0	0	0	0	0	-0	0	574.018	514.498	258.961	281.752	-3.85172	5.18802	0.30286	0.144631	-0.710057
19	0.0781299	0.329126	-0.114267	0.328978	0.126069	0.041478	0.0186287	-0.0224135	0.0376935	-0.0113334	-0.247718	-0.201487	0.0767908	0.0199168	-0.0105247	-2.16922	-0.184044	-2.053	0	0	0	0	-0	0	0	0	-0.1265	0	-0	0	0	0	0	0	-0	0	0.105	0.015	0	0	-0	0	0	0.098	0.1	0	-0	0	0	0	0	0	-0	0	0.05595	0	0	0	-0	0	0	0	0	0	-0	0	567.963	513.687	258.273	288.912	-3.95973	7.91343	0.265453	0.142284	-8.45603
20	0.0132189	0.324484	-0.118041	0.336893	0.123535	0.044414	0.0182622	-0.0220639	0.0382116	0.0359231	-0.244816	-0.254674	0.0785306	0.0172776	-0.0177707	-2.24164	-0.20442	-2.02548	0	0	0	0	-0	0	0	0	-0.1265	0	-0	0	0	0	0	0	-0	0	0.105	0.015	0	0	-0	0	0	0.098	0.1	0	-0	0	0	0	0	0	-0	0	0.05595	0	0	0	-0	0	0	0	0	0	-0	0	561.512	513.196	257.68	296.3	-4.19683	11.3354	0.215557	0.134224	-15.7307
21	-0.0300479	0.3305	-0.122411	0.329912	0.12558	0.0490134	0.0183114	-0.0219194	0.0377351	0.0290691	-0.319611	-0.230918	0.0793644	0.0169689	-0.024138	-2.28877	-0.229238	-2.02622	0	0	0	0	-0	0	0	0	-0.1265	0	-0	0	0	0	0	0	-0	0	0.105	0.015	0	0	-0	0	0	0.098	0.1	0	-0	0	0	0	0	0	-0	0	0.05595	0	0	0	-0	0	0	0	0	0	-0	0	556.991	512.782	257.304	304.915	-4.40352	13.8412	0.180534	0.128566	-20.1349
22	-0.0913979	0.32059	-0.130934	0.33759	0.12348	0.057471	0.0179832	-0.0213282	0.0391418	0.153182	-0.573181	-0.209385	0.0804132	0.0143538	-0.0324262	-2.38414	-0.237664	-1.98458	0	0	0	0	-0	0	0	0	-0.1265	0	-0	0	0	0	0	0	-0	0	0.105	0.015	0	0	-0	0	0	0.098	0.1	0	-0	0	0	0	0	0	-0	0	0.05595	0	0	0	-0	0	0	0	0	0	-0	0	540.893	512.617	255.206	322.68	-4.44104	15.1159	0.0914632	0.125233	-21.0317
23	-0.0743734	0.315426	-0.142525	0.347379	0.124357	0.068936	0.0175008	-0.0216227	0.0388638	0.235048	-0.600939	-0.330773	0.0812509	0.0151047	-0.0328988	-2.38373	-0.229839	-1.97985	0	0	0	0	-0	0	0	0	-0.1265	0	-0	0	0	0	0	0	-0	0	0.105	0.015	0	0	-0	0	0	0.098	0.1	0	-0	0	0	0	0	0	-0	0	0.05595	0	0	0	-0	0	0	0	0	0	-0	0	536.537	507.409	255.887	332.384	-4.42567	14.7985	0.0753519	0.118241	-19.7595
24	-0.102023	0.305853	-0.146476	0.348835	0.127493	0.0717568	0.0172756	-0.0216626	0.0387147	0.282359	-0.613724	-0.382976	0.0809882	0.0149961	-0.0373098	-2.41251	-0.232121	-1.96126	0	0	0	0	-0	0	0	0	-0.1265	0	-0	0	0	0	0	0	-0	0	0.105	0.015	0	0	-0	0	0	0.098	0.1	0	-0	0	0	0	0	0	-0	0	0.05595	0	0	0	-0	0	0	0	0	0	-0	0	535.446	504.398	254.685	334.543	-4.58503	15.3663	0.0684008	0.115174	-19.3002
25	-0.165151	0.30194	-0.150922	0.347355	0.127539	0.079165	0.0173681	-0.0216949	0.0383755	0.306887	-0.579457	-0.407415	0.0785042	0.0157773	-0.0426765	-2.47308	-0.253021	-1.94325	0	0	0	0	-0	0	0	0	-0.1265	0	-0	0	0	0	0	0	-0	0	0.105	0.015	0	0	-0	0	0	0.098	0.1	0	-0	0	0	0	0	0	-0	0	0.05595	0	0	0	-0	0	0	0	0	0	-0	0	534.067	501.245	255.313	335.515	-4.4994	14.9603	0.0696138	0.114125	-19.0944
26	-0.118165	0.297464	-0.151325	0.353526	0.130395	0.0763863	0.01709	-0.0217301	0.0388477	0.299629	-0.597558	-0.34572	0.0806825	0.015279	-0.0403378	-2.42791	-0.233677	-1.94936	0	0	0	0	-0	0	0	0	-0.1265	0	-0	0	0	0	0	0	-0	0	0.105	0.015	0	0	-0	0	0	0.098	0.1	0	-0	0	0	0	0	0	-0	0	0.05595	0	0	0	-0	0	0	0	0	0	-0	0	533.04	498.347	255.678	335.386	-4.58065	15.1903	0.0685889	0.107874	-18.5738
27	-0.112674	0.302088	-0.158131	0.355554	0.125611	0.0830372	0.0169261	-0.0216373	0.0388059	0.239839	-0.586687	-0.322646	0.0810849	0.0153917	-0.0394545	-2.41813	-0.235329	-1.95698	0	0	0	0	-0	0	0	0	-0.1265	0	-0	0	0	0	0	0	-0	0	0.105	0.015	0	0	-0	0	0	0.098	0.1	0	-0	0	0	0	0	0	-0	0	0.05595	0	0	0	-0	0	0	0	0	0	-0	0	531.933	496.174	257.614	334.978	-4.50642	15.1326	0.0729935	0.10386	-19.2041
28	-0.0907488	0.307451	-0.1596	0.360057	0.125972	0.0792571	0.016627	-0.0216587	0.0392895	0.306089	-0.566115	-0.389316	0.0829218	0.0141567	-0.0395078	-2.38998	-0.236043	-1.97163	0	0	0	0	-0	0	0	0	-0.1265	0	-0	0	0	0	0	0	-0	0	0.105	0.015	0	0	-0	0	0	0.098	0.1	0	-0	0	0	0	0	0	-0	0	0.05595	0	0	0	-0	0	0	0	0	0	-0	0	531.243	493.747	260.134	334.196	-4.66421	15.9905	0.0749859	0.0899408	-19.5572
29	-0.112821	0.312504	-0.164286	0.35313	0.116512	0.0888942	0.0169854	-0.0218506	0.0384028	0.296308	-0.596035	-0.469045	0.0825967	0.0138662	-0.0404558	-2.40348	-0.246286	-1.97266	0	0	0	0	-0	0	0	0	-0.1265	0	-0	0	0	0	0	0	-0	0	0.105	0.015	0	0	-0	0	0	0.098	0.1	0	-0	0	0	0	0	0	-0	0	0.05595	0	0	0	-0	0	0	0	0	0	-0	0	528.287	489.817	263.071	332.111	-4.62873	16.3096	0.0840377	0.0840929	-20.8261
30	-0.101205	0.314987	-0.159021	0.347645	0.120243	0.0835664	0.0170285	-0.0218046	0.0381918	0.299246	-0.567954	-0.443122	0.08382	0.0129022	-0.0416236	-2.38477	-0.248171	-1.98242	0	0	0	0	-0	0	0	0	-0.1265	0	-0	0	0	0	0	0	-0	0	0.105	0.015	0	0	-0	0	0	0.098	0.1	0	-0	0	0	0	0	0	-0	0	0.05595	0	0	0	-0	0	0	0	0	0	-0	0	527.301	487.773	263.797	331.294	-4.79397	16.7397	0.0861669	0.0783199	-19.9748
31	-0.140671	0.320455	-0.166511	0.342924	0.108359	0.0936945	0.0173373	-0.0217808	0.0374327	0.340157	-0.636526	-0.484887	0.0826391	0.0126534	-0.0432973	-2.42106	-0.259663	-1.97279	0	0	0	0	-0	0	0	0	-0.1265	0	-0	0	0	0	0	0	-0	0	0.105	0.015	0	0	-0	0	0	0.098	0.1	0	-0	0	0	0	0	0	-0	0	0.05595	0	0	0	-0	0	0	0	0	0	-0	0	522.702	485.124	264.19	329.784	-4.64532	16.2564	0.0888748	0.0803566	-20.2246
32	-0.135366	0.320594	-0.158401	0.34231	0.118087	0.0853727	0.0172014	-0.0217711	0.0376942	0.34564	-0.631542	-0.490816	0.0829892	0.0122638	-0.0451349	-2.4103	-0.265196	-1.98091	0	0	0	0	-0	0	0	0	-0.1265	0	-0	0	0	0	0	0	-0	0	0.105	0.015	0	0	-0	0	0	0.098	0.1	0	-0	0	0	0	0	0	-0	0	0.05595	0	0	0	-0	0	0	0	0	0	-0	0	522.562	484.569	264.189	329.923	-4.78643	16.5502	0.0907799	0.0775018	-19.3442
33	-0.135111	0.321884	-0.166721	0.338078	0.107277	0.0949032	0.0173252	-0.0217621	0.036865	0.345802	-0.631419	-0.49125	0.0835459	0.0120879	-0.0434567	-2.41638	-0.256993	-1.9743	0	0	0	0	-0	0	0	0	-0.1265	0	-0	0	0	0	0	0	-0	0	0.105	0.015	0	0	-0	0	0	0.098	0.1	0	-0	0	0	0	0	0	-0	0	0.05595	0	0	0	-0	0	0	0	0	0	-0	0	522.542	484.563	264.178	329.913	-4.70244	16.2314	0.0852909	0.0792497	-19.532
34	-0.135867	0.32745	-0.161208	0.340498	0.116319	0.0878242	0.0172119	-0.0216254	0.0374121	0.345733	-0.631476	-0.491141	0.0828837	0.0125141	-0.0449474	-2.406	-0.270755	-1.99063	0	0	0	0	-0	0	0	0	-0.1265	0	-0	0	0	0	0	0	-0	0	0.105	0.015	0	0	-0	0	0	0.098	0.1	0	-0	0	0	0	0	0	-0	0	0.05595	0	0	0	-0	0	0	0	0	0	-0	0	522.54	484.561	264.181	329.912	-4.71183	16.3065	0.0935034	0.0783428	-19.4894
35	-0.134747	0.318972	-0.165313	0.341035	0.108385	0.091458	0.0172312	-0.0217489	0.0371259	0.345767	-0.631436	-0.49116	0.0834062	0.0119794	-0.0433956	-2.41868	-0.255444	-1.9705	0	0	0	0	-0	0	0	0	-0.1265	0	-0	0	0	0	0	0	-0	0	0.105	0.015	0	0	-0	0	0	0.098	0.1	0	-0	0	0	0	0	0	-0	0	0.05595	0	0	0	-0	0	0	0	0	0	-0	0	522.54	484.561	264.181	329.912	-4.7224	16.2946	0.0838409	0.0785179	-19.4946
36	-0.136006	0.329361	-0.162074	0.338538	0.115908	0.089142	0.0172463	-0.021624	0.0372738	0.345727	-0.631448	-0.491126	0.0830191	0.0124759	-0.0450136	-2.40497	-0.2718	-1.99301	0	0	0	0	-0	0	0	0	-0.1265	0	-0	0	0	0	0	0	-0	0	0.105	0.015	0	0	-0	0	0	0.098	0.1	0	-0	0	0	0	0	0	-0	0	0.05595	0	0	0	-0	0	0	0	0	0	-0	0	522.539	484.56	264.183	329.912	-4.71578	16.3173	0.0933938	0.0785627	-19.4824
37	-0.134802	0.321331	-0.165687	0.34058	0.107836	0.0914596	0.0172146	-0.0217359	0.0370961	0.345756	-0.631427	-0.491151	0.0834799	0.011849	-0.0434125	-2.41781	-0.257	-1.97325	0	0	0	0	-0	0	0	0	-0.1265	0	-0	0	0	0	0	0	-0	0	0.105	0.015	0	0	-0	0	0	0.098	0.1	0	-0	0	0	0	0	0	-0	0	0.05595	0	0	0	-0	0	0	0	0	0	-0	0	522.539	484.56	264.182	329.912	-4.72568	16.312	0.0843029	0.0784147	-19.4845
38	-0.135971	0.328959	-0.162002	0.338743	0.115397	0.08936	0.017255	-0.0216175	0.0372714	0.345719	-0.631446	-0.491112	0.0830573	0.0124118	-0.0449542	-2.40559	-0.27085	-1.99186	0	0	0	0	-0	0	0	0	-0.1265	0	-0	0	0	0	0	0	-0	0	0.105	0.015	0	0	-0	0	0	0.098	0.1	0	-0	0	0	0	0	0	-0	0	0.05595	0	0	0	-0	0	0	0	0	0	-0	0	522.539	484.56	264.183	329.912	-4.71807	16.3196	0.0929675	0.0785172	-19.4807
39	-0.134853	0.321554	-0.165502	0.340427	0.108104	0.0914537	0.0172234	-0.0217336	0.0370893	0.345753	-0.631422	-0.491143	0.0834657	0.0118592	-0.0434872	-2.41737	-0.257375	-1.97376	0	0	0	0	-0	0	0	0	-0.1265	0	-0	0	0	0	0	0	-0	0	0.105	0.015	0	0	-0	0	0	0.098	0.1	0	-0	0	0	0	0	0	-0	0	0.05595	0	0	0	-0	0	0	0	0	0	-0	0	522.538	484.56	264.183	329.911	-4.72664	16.315	0.0846379	0.078386	-19.4825
40	-0.135936	0.328686	-0.162115	0.338743	0.115077	0.08951	0.0172589	-0.0216238	0.0372563	0.345725	-0.631444	-0.491119	0.0830791	0.0123785	-0.0449108	-2.40602	-0.270254	-1.99112	0	0	0	0	-0	0	0	0	-0.1265	0	-0	0	0	0	0	0	-0	0	0.105	0.015	0	0	-0	0	0	0.098	0.1	0	-0	0	0	0	0	0	-0	0	0.05595	0	0	0	-0	0	0	0	0	0	-0	0	522.538	484.56	264.183	329.911	-4.71955	16.3227	0.092689	0.0784837	-19.4786
41	-0.13489	0.321511	-0.165317	0.340381	0.108337	0.0914334	0.0172307	-0.021732	0.0370911	0.345752	-0.631425	-0.491148	0.0834516	0.0118742	-0.0435446	-2.41711	-0.257505	-1.97391	0	0	0	0	-0	0	0	0	-0.1265	0	-0	0	0	0	0	0	-0	0	0.105	0.015	0	0	-0	0	0	0.098	0.1	0	-0	0	0	0	0	0	-0	0	0.05595	0	0	0	-0	0	0	0	0	0	-0	0	522.538	484.56	264.183	329.911	-4.72777	16.318	0.0848729	0.0783587	-19.4804
42	-0.135925	0.328431	-0.1622	0.338716	0.114879	0.0896299	0.0172624	-0.0216302	0.0372437	0.345728	-0.631446	-0.491124	0.0830937	0.012359	-0.0448862	-2.40635	-0.269807	-1.99053	0	0	0	0	-0	0	0	0	-0.1265	0	-0	0	0	0	0	0	-0	0	0.105	0.015	0	0	-0	0	0	0.098	0.1	0	-0	0	0	0	0	0	-0	0	0.05595	0	0	0	-0	0	0	0	0	0	-0	0	522.538	484.559	264.184	329.911	-4.72101	16.326	0.092487	0.0784592	-19.4763
43	-0.134924	0.321404	-0.165174	0.340353	0.108525	0.0914224	0.0172364	-0.0217314	0.0370927	0.345755	-0.631426	-0.491152	0.0834408	0.0118881	-0.0435904	-2.41694	-0.257549	-1.97393	0	0	0	0	-0	0	0	0	-0.1265	0	-0	0	0	0	0	0	-0	0	0.105	0.015	0	0	-0	0	0	0.098	0.1	0	-0	0	0	0	0	0	-0	0	0.05595	0	0	0	-0	0	0	0	0	0	-0	0	522.538	484.559	264.183	329.911	-4.729	16.3213	0.0850322	0.0783344	-19.4782
44	-0.135903	0.328235	-0.162264	0.338672	0.114749	0.089727	0.0172653	-0.0216353	0.0372328	0.345729	-0.631443	-0.491127	0.0831063	0.0123457	-0.0448719	-2.40657	-0.269476	-1.9901	0	0	0	0	-0	0	0	0	-0.1265	0	-0	0	0	0	0	0	-0	0	0.105	0.015	0	0	-0	0	0	0.098	0.1	0	-0	0	0	0	0	0	-0	0	0.05595	0	0	0	-0	0	0	0	0	0	-0	0	522.537	484.559	264.184	329.911	-4.72247	16.3296	0.09234	0.078439	-19.4738
45	-0.134942	0.321281	-0.165067	0.340327	0.108666	0.0914232	0.017241	-0.0217312	0.0370928	0.34576	-0.631427	-0.491156	0.0834347	0.0118988	-0.0436255	-2.41684	-0.25754	-1.97389	0	0	0	0	-0	0	0	0	-0.1265	0	-0	0	0	0	0	0	-0	0	0.105	0.015	0	0	-0	0	0	0.098	0.1	0	-0	0	0	0	0	0	-0	0	0.05595	0	0	0	-0	0	0	0	0	0	-0	0	522.537	484.559	264.184	329.911	-4.73031	16.3246	0.0851303	0.078313	-19.4758
46	-0.135893	0.3281	-0.162311	0.338613	0.114666	0.089807	0.017268	-0.0216393	0.0372231	0.345736	-0.631441	-0.491138	0.0831172	0.0123361	-0.0448672	-2.40671	-0.269249	-1.9898	0	0	0	0	-0	0	0	0	-0.1265	0	-0	0	0	0	0	0	-0	0	0.105	0.015	0	0	-0	0	0	0.098	0.1	0	-0	0	0	0	0	0	-0	0	0.05595	0	0	0	-0	0	0	0	0	0	-0	0	522.537	484.559	264.184	329.911	-4.72395	16.3333	0.092235	0.0784218	-19.4711
47	-0.134958	0.321152	-0.164989	0.3403	0.108766	0.0914345	0.0172448	-0.0217313	0.0370917	0.345759	-0.631426	-0.491158	0.0834321	0.0119063	-0.043653	-2.41678	-0.257492	-1.9738	0	0	0	0	-0	0	0	0	-0.1265	0	-0	0	0	0	0	0	-0	0	0.105	0.015	0	0	-0	0	0	0.098	0.1	0	-0	0	0	0	0	0	-0	0	0.05595	0	0	0	-0	0	0	0	0	0	-0	0	522.537	484.558	264.184	329.91	-4.7317	16.3281	0.0851787	0.0782937	-19.4732
48	-0.135896	0.328022	-0.162347	0.338541	0.114618	0.0898742	0.0172705	-0.0216421	0.037214	0.345732	-0.631445	-0.491131	0.0831269	0.0123288	-0.0448705	-2.40679	-0.269111	-1.98963	0	0	0	0	-0	0	0	0	-0.1265	0	-0	0	0	0	0	0	-0	0	0.105	0.015	0	0	-0	0	0	0.098	0.1	0	-0	0	0	0	0	0	-0	0	0.05595	0	0	0	-0	0	0	0	0	0	-0	0	522.536	484.558	264.185	329.91	-4.72546	16.3373	0.0921642	0.0784069	-19.4683
49	-0.134965	0.32102	-0.164935	0.340272	0.108831	0.0914554	0.0172481	-0.0217316	0.0370893	0.345758	-0.631429	-0.491159	0.0834328	0.0119108	-0.0436737	-2.41677	-0.257411	-1.97367	0	0	0	0	-0	0	0	0	-0.1265	0	-0	0	0	0	0	0	-0	0	0.105	0.015	0	0	-0	0	0	0.098	0.1	0	-0	0	0	0	0	0	-0	0	0.05595	0	0	0	-0	0	0	0	0	0	-0	0	522.536	484.558	264.185	329.91	-4.73316	16.3317	0.085186	0.0782759	-19.4705
50	-0.135875	0.32694	-0.162193	0.338807	0.114751	0.0898693	0.0172762	-0.0216443	0.0372243	0.345733	-0.631444	-0.491141	0.083105	0.0123675	-0.0448697	-2.40727	-0.268288	-1.98824	0	0	0	0	-0	0	0	0	-0.1265	0	-0	0	0	0	0	0	-0	0	0.105	0.015	0	0	-0	0	0	0.098	0.1	0	-0	0	0	0	0	0	-0	0	0.05595	0	0	0	-0	0	0	0	0	0	-0	0	522.536	484.558	264.185	329.91	-4.72648	16.3364	0.0919152	0.0783751	-19.4682
51	-0.134999	0.321464	-0.164981	0.340022	0.109029	0.0914804	0.0172482	-0.0217356	0.0370782	0.345758	-0.631424	-0.491166	0.0834297	0.0119223	-0.0437184	-2.41637	-0.257962	-1.97445	0	0	0	0	-0	0	0	0	-0.1265	0	-0	0	0	0	0	0	-0	0	0.105	0.015	0	0	-0	0	0	0.098	0.1	0	-0	0	0	0	0	0	-0	0	0.05595	0	0	0	-0	0	0	0	0	0	-0	0	522.536	484.558	264.185	329.91	-4.73271	16.3328	0.085513	0.0782856	-19.4697
52	-0.135852	0.327291	-0.162335	0.338732	0.114429	0.0899592	0.017274	-0.0216469	0.0372148	0.345739	-0.63144	-0.491147	0.0831329	0.012319	-0.0448314	-2.40735	-0.268237	-1.98838	0	0	0	0	-0	0	0	0	-0.1265	0	-0	0	0	0	0	0	-0	0	0.105	0.015	0	0	-0	0	0	0.098	0.1	0	-0	0	0	0	0	0	-0	0	0.05595	0	0	0	-0	0	0	0	0	0	-0	0	522.536	484.558	264.185	329.91	-4.7269	16.3388	0.0918475	0.0783602	-19.4665
53	-0.135014	0.321677	-0.164887	0.33999	0.109056	0.091471	0.0172512	-0.0217322	0.0370803	0.345763	-0.631425	-0.491171	0.0834316	0.0119124	-0.0437416	-2.41616	-0.258149	-1.97477	0	0	0	0	-0	0	0	0	-0.1265	0	-0	0	0	0	0	0	-0	0	0.105	0.015	0	0	-0	0	0	0.098	0.1	0	-0	0	0	0	0	0	-0	0	0.05595	0	0	0	-0	0	0	0	0	0	-0	0	522.536	484.558	264.185	329.909	-4.73338	16.3349	0.0856443	0.0782733	-19.468
54	-0.135847	0.32731	-0.162397	0.338683	0.114268	0.0900303	0.0172754	-0.0216491	0.0372057	0.345745	-0.631441	-0.491155	0.0831476	0.0122974	-0.0448152	-2.40749	-0.268081	-1.98822	0	0	0	0	-0	0	0	0	-0.1265	0	-0	0	0	0	0	0	-0	0	0.105	0.015	0	0	-0	0	0	0.098	0.1	0	-0	0	0	0	0	0	-0	0	0.05595	0	0	0	-0	0	0	0	0	0	-0	0	522.535	484.557	264.186	329.909	-4.72784	16.3412	0.0917358	0.0783512	-19.4647
55	-0.135037	0.321663	-0.16481	0.339968	0.109132	0.0914678	0.0172544	-0.0217307	0.0370804	0.34576	-0.631428	-0.49117	0.0834289	0.0119154	-0.0437663	-2.41606	-0.258193	-1.97483	0	0	0	0	-0	0	0	0	-0.1265	0	-0	0	0	0	0	0	-0	0	0.105	0.015	0	0	-0	0	0	0.098	0.1	0	-0	0	0	0	0	0	-0	0	0.05595	0	0	0	-0	0	0	0	0	0	-0	0	522.535	484.557	264.185	329.909	-4.73426	16.3371	0.0857123	0.0782594	-19.4663
56	-0.135836	0.327262	-0.162442	0.338631	0.114187	0.0900887	0.0172771	-0.0216514	0.0371978	0.345728	-0.631447	-0.49115	0.0831575	0.0122871	-0.0448091	-2.40759	-0.267942	-1.98806	0	0	0	0	-0	0	0	0	-0.1265	0	-0	0	0	0	0	0	-0	0	0.105	0.015	0	0	-0	0	0	0.098	0.1	0	-0	0	0	0	0	0	-0	0	0.05595	0	0	0	-0	0	0	0	0	0	-0	0	522.535	484.557	264.186	329.909	-4.72883	16.3437	0.0916541	0.0783414	-19.4627
57	-0.135042	0.321576	-0.16475	0.339954	0.109201	0.0914716	0.0172571	-0.0217301	0.03708	0.345745	-0.631433	-0.491169	0.0834271	0.0119205	-0.0437853	-2.41602	-0.258162	-1.97477	0	0	0	0	-0	0	0	0	-0.1265	0	-0	0	0	0	0	0	-0	0	0.105	0.015	0	0	-0	0	0	0.098	0.1	0	-0	0	0	0	0	0	-0	0	0.05595	0	0	0	-0	0	0	0	0	0	-0	0	522.535	484.557	264.186	329.909	-4.73521	16.3394	0.0857434	0.0782456	-19.4644
58	-0.135812	0.326216	-0.162312	0.338886	0.11428	0.0900826	0.0172826	-0.0216534	0.0372065	0.345724	-0.631446	-0.491148	0.0831382	0.0123214	-0.0448027	-2.40807	-0.267122	-1.98668	0	0	0	0	-0	0	0	0	-0.1265	0	-0	0	0	0	0	0	-0	0	0.105	0.015	0	0	-0	0	0	0.098	0.1	0	-0	0	0	0	0	0	-0	0	0.05595	0	0	0	-0	0	0	0	0	0	-0	0	522.535	484.557	264.186	329.909	-4.72983	16.3428	0.0913792	0.0783114	-19.4627
59	-0.135074	0.321974	-0.164756	0.339736	0.109437	0.0914802	0.0172574	-0.0217338	0.0370724	0.345748	-0.631428	-0.491169	0.0834205	0.0119355	-0.0438324	-2.41562	-0.258697	-1.97552	0	0	0	0	-0	0	0	0	-0.1265	0	-0	0	0	0	0	0	-0	0	0.105	0.015	0	0	-0	0	0	0.098	0.1	0	-0	0	0	0	0	0	-0	0	0.05595	0	0	0	-0	0	0	0	0	0	-0	0	522.535	484.557	264.186	329.908	-4.73469	16.3401	0.0860822	0.0782562	-19.4638
60	-0.135797	0.326532	-0.162458	0.338825	0.113964	0.09017	0.0172799	-0.0216567	0.0371978	0.345721	-0.631445	-0.491141	0.0831634	0.0122756	-0.0447617	-2.4082	-0.267049	-1.98678	0	0	0	0	-0	0	0	0	-0.1265	0	-0	0	0	0	0	0	-0	0	0.105	0.015	0	0	-0	0	0	0.098	0.1	0	-0	0	0	0	0	0	-0	0	0.05595	0	0	0	-0	0	0	0	0	0	-0	0	522.534	484.557	264.186	329.908	-4.72998	16.3444	0.0913029	0.0783001	-19.4615
61	-0.135103	0.322195	-0.164662	0.339714	0.109478	0.0914587	0.0172598	-0.0217301	0.037076	0.345738	-0.631431	-0.491158	0.0834195	0.0119284	-0.043857	-2.4154	-0.258918	-1.97587	0	0	0	0	-0	0	0	0	-0.1265	0	-0	0	0	0	0	0	-0	0	0.105	0.015	0	0	-0	0	0	0.098	0.1	0	-0	0	0	0	0	0	-0	0	0.05595	0	0	0	-0	0	0	0	0	0	-0	0	522.534	484.556	264.186	329.908	-4.73505	16.3415	0.0862305	0.0782458	-19.4626
62	-0.135782	0.326537	-0.162525	0.338793	0.113795	0.0902352	0.0172808	-0.021659	0.0371897	0.345716	-0.63144	-0.491141	0.0831772	0.0122545	-0.0447399	-2.40836	-0.266875	-1.98659	0	0	0	0	-0	0	0	0	-0.1265	0	-0	0	0	0	0	0	-0	0	0.105	0.015	0	0	-0	0	0	0.098	0.1	0	-0	0	0	0	0	0	-0	0	0.05595	0	0	0	-0	0	0	0	0	0	-0	0	522.534	484.556	264.186	329.908	-4.7306	16.3458	0.0911832	0.0782941	-19.4603
63	-0.135119	0.322201	-0.164583	0.339702	0.109564	0.0914439	0.0172626	-0.0217281	0.0370775	0.345734	-0.631429	-0.491156	0.083415	0.0119333	-0.043881	-2.41527	-0.258994	-1.97597	0	0	0	0	-0	0	0	0	-0.1265	0	-0	0	0	0	0	0	-0	0	0.105	0.015	0	0	-0	0	0	0.098	0.1	0	-0	0	0	0	0	0	-0	0	0.05595	0	0	0	-0	0	0	0	0	0	-0	0	522.534	484.556	264.186	329.908	-4.7356	16.3429	0.086316	0.0782347	-19.4614
64	-0.135771	0.326474	-0.162575	0.33876	0.113703	0.0902879	0.0172819	-0.0216614	0.0371828	0.345714	-0.631444	-0.491138	0.0831859	0.0122444	-0.0447284	-2.40848	-0.266717	-1.98639	0	0	0	0	-0	0	0	0	-0.1265	0	-0	0	0	0	0	0	-0	0	0.105	0.015	0	0	-0	0	0	0.098	0.1	0	-0	0	0	0	0	0	-0	0	0.05595	0	0	0	-0	0	0	0	0	0	-0	0	522.534	484.556	264.187	329.908	-4.73126	16.3474	0.0910918	0.0782871	-19.4589
65	-0.135128	0.322134	-0.164518	0.339698	0.109646	0.0914353	0.017265	-0.0217272	0.0370786	0.34573	-0.631433	-0.491154	0.0834107	0.0119402	-0.0439005	-2.4152	-0.259	-1.97596	0	0	0	0	-0	0	0	0	-0.1265	0	-0	0	0	0	0	0	-0	0	0.105	0.015	0	0	-0	0	0	0.098	0.1	0	-0	0	0	0	0	0	-0	0	0.05595	0	0	0	-0	0	0	0	0	0	-0	0	522.534	484.556	264.186	329.908	-4.73622	16.3443	0.0863674	0.0782235	-19.4601
66	-0.13576	0.326417	-0.162611	0.338723	0.11365	0.0903308	0.0172831	-0.0216636	0.0371769	0.345714	-0.631442	-0.491133	0.0831925	0.0122386	-0.0447233	-2.40856	-0.266602	-1.98625	0	0	0	0	-0	0	0	0	-0.1265	0	-0	0	0	0	0	0	-0	0	0.105	0.015	0	0	-0	0	0	0.098	0.1	0	-0	0	0	0	0	0	-0	0	0.05595	0	0	0	-0	0	0	0	0	0	-0	0	522.533	484.556	264.187	329.907	-4.73194	16.349	0.0910296	0.0782805	-19.4575
67	-0.135134	0.322044	-0.164469	0.339697	0.109708	0.0914334	0.017267	-0.0217268	0.0370791	0.345731	-0.631432	-0.491149	0.083408	0.0119461	-0.0439153	-2.41517	-0.258968	-1.9759	0	0	0	0	-0	0	0	0	-0.1265	0	-0	0	0	0	0	0	-0	0	0.105	0.015	0	0	-0	0	0	0.098	0.1	0	-0	0	0	0	0	0	-0	0	0.05595	0	0	0	-0	0	0	0	0	0	-0	0	522.533	484.556	264.187	329.907	-4.73688	16.3457	0.0863909	0.078213	-19.4587
68	-0.135738	0.325548	-0.162509	0.33893	0.113727	0.0903232	0.0172875	-0.0216651	0.0371839	0.345715	-0.631442	-0.491132	0.0831763	0.0122677	-0.0447177	-2.40895	-0.265924	-1.98511	0	0	0	0	-0	0	0	0	-0.1265	0	-0	0	0	0	0	0	-0	0	0.105	0.015	0	0	-0	0	0	0.098	0.1	0	-0	0	0	0	0	0	-0	0	0.05595	0	0	0	-0	0	0	0	0	0	-0	0	522.533	484.556	264.187	329.907	-4.73276	16.3482	0.090796	0.0782565	-19.4575
69	-0.135158	0.322352	-0.164464	0.339528	0.109919	0.0914343	0.0172671	-0.0217299	0.0370741	0.345737	-0.631427	-0.491152	0.0834014	0.0119606	-0.0439547	-2.41485	-0.259405	-1.9765	0	0	0	0	-0	0	0	0	-0.1265	0	-0	0	0	0	0	0	-0	0	0.105	0.015	0	0	-0	0	0	0.098	0.1	0	-0	0	0	0	0	0	-0	0	0.05595	0	0	0	-0	0	0	0	0	0	-0	0	522.533	484.555	264.187	329.907	-4.73642	16.3462	0.0866716	0.0782229	-19.4582
70	-0.135725	0.325808	-0.162632	0.338882	0.113473	0.0903918	0.0172849	-0.021668	0.0371771	0.345723	-0.631439	-0.491139	0.0831966	0.0122312	-0.0446831	-2.40906	-0.265871	-1.98519	0	0	0	0	-0	0	0	0	-0.1265	0	-0	0	0	0	0	0	-0	0	0.105	0.015	0	0	-0	0	0	0.098	0.1	0	-0	0	0	0	0	0	-0	0	0.05595	0	0	0	-0	0	0	0	0	0	-0	0	522.533	484.555	264.187	329.907	-4.73278	16.3492	0.0907337	0.0782496	-19.4566
71	-0.135179	0.322537	-0.16439	0.339515	0.109954	0.091412	0.0172687	-0.0217266	0.0370775	0.345737	-0.631427	-0.491151	0.0834003	0.0119556	-0.0439743	-2.41466	-0.259596	-1.97681	0	0	0	0	-0	0	0	0	-0.1265	0	-0	0	0	0	0	0	-0	0	0.105	0.015	0	0	-0	0	0	0.098	0.1	0	-0	0	0	0	0	0	-0	0	0.05595	0	0	0	-0	0	0	0	0	0	-0	0	522.533	484.555	264.187	329.907	-4.73662	16.3471	0.0867937	0.0782155	-19.4574
72	-0.135713	0.325816	-0.16269	0.338858	0.113333	0.0904425	0.0172853	-0.0216699	0.0371707	0.345721	-0.631436	-0.491131	0.0832077	0.0122142	-0.0446641	-2.40919	-0.265734	-1.98505	0	0	0	0	-0	0	0	0	-0.1265	0	-0	0	0	0	0	0	-0	0	0.105	0.015	0	0	-0	0	0	0.098	0.1	0	-0	0	0	0	0	0	-0	0	0.05595	0	0	0	-0	0	0	0	0	0	-0	0	522.533	484.555	264.187	329.907	-4.7332	16.3501	0.0906336	0.0782464	-19.4557
73	-0.135198	0.322547	-0.164326	0.339508	0.110027	0.0913956	0.0172707	-0.0217247	0.0370792	0.345737	-0.631425	-0.491145	0.0833958	0.0119604	-0.0439942	-2.41455	-0.259671	-1.9769	0	0	0	0	-0	0	0	0	-0.1265	0	-0	0	0	0	0	0	-0	0	0.105	0.015	0	0	-0	0	0	0.098	0.1	0	-0	0	0	0	0	0	-0	0	0.05595	0	0	0	-0	0	0	0	0	0	-0	0	522.532	484.555	264.187	329.906	-4.73699	16.3479	0.0868646	0.0782074	-19.4565
74	-0.135709	0.325766	-0.162733	0.338834	0.113257	0.090483	0.017286	-0.0216718	0.0371653	0.345727	-0.631436	-0.491129	0.0832144	0.0122061	-0.0446538	-2.4093	-0.265608	-1.98489	0	0	0	0	-0	0	0	0	-0.1265	0	-0	0	0	0	0	0	-0	0	0.105	0.015	0	0	-0	0	0	0.098	0.1	0	-0	0	0	0	0	0	-0	0	0.05595	0	0	0	-0	0	0	0	0	0	-0	0	522.532	484.555	264.188	329.906	-4.73365	16.3511	0.0905563	0.078242	-19.4547
75	-0.135211	0.322496	-0.164273	0.339509	0.110097	0.0913847	0.0172725	-0.0217237	0.0370806	0.345737	-0.631423	-0.491138	0.0833915	0.0119668	-0.0440105	-2.4145	-0.259688	-1.9769	0	0	0	0	-0	0	0	0	-0.1265	0	-0	0	0	0	0	0	-0	0	0.105	0.015	0	0	-0	0	0	0.098	0.1	0	-0	0	0	0	0	0	-0	0	0.05595	0	0	0	-0	0	0	0	0	0	-0	0	522.532	484.555	264.187	329.906	-4.7374	16.3488	0.086909	0.0781991	-19.4555
76	-0.135688	0.324998	-0.162669	0.339009	0.113284	0.0904845	0.0172901	-0.0216731	0.0371694	0.345722	-0.631433	-0.491123	0.0832023	0.0122287	-0.0446436	-2.40968	-0.264982	-1.98385	0	0	0	0	-0	0	0	0	-0.1265	0	-0	0	0	0	0	0	-0	0	0.105	0.015	0	0	-0	0	0	0.098	0.1	0	-0	0	0	0	0	0	-0	0	0.05595	0	0	0	-0	0	0	0	0	0	-0	0	522.532	484.555	264.188	329.906	-4.73441	16.3505	0.0903152	0.0782211	-19.4547
77	-0.135217	0.321924	-0.164141	0.339585	0.110395	0.09134	0.017277	-0.0217256	0.0370864	0.345729	-0.631422	-0.491127	0.0833646	0.012013	-0.0440446	-2.41454	-0.259468	-1.97639	0	0	0	0	-0	0	0	0	-0.1265	0	-0	0	0	0	0	0	-0	0	0.105	0.015	0	0	-0	0	0	0.098	0.1	0	-0	0	0	0	0	0	-0	0	0.05595	0	0	0	-0	0	0	0	0	0	-0	0	522.532	484.555	264.187	329.906	-4.73756	16.3477	0.0869465	0.0781886	-19.4556
78	-0.135674	0.324653	-0.162688	0.339039	0.113343	0.0905037	0.0172906	-0.0216786	0.0371682	0.345715	-0.631432	-0.491112	0.0831944	0.0122456	-0.0446382	-2.40986	-0.26472	-1.9834	0	0	0	0	-0	0	0	0	-0.1265	0	-0	0	0	0	0	0	-0	0	0.105	0.015	0	0	-0	0	0	0.098	0.1	0	-0	0	0	0	0	0	-0	0	0.05595	0	0	0	-0	0	0	0	0	0	-0	0	522.532	484.555	264.188	329.906	-4.73432	16.3496	0.0902547	0.0782165	-19.4547
79	-0.13524	0.322483	-0.164169	0.339437	0.110464	0.0913383	0.0172741	-0.0217271	0.0370846	0.345728	-0.631423	-0.491126	0.0833682	0.0120051	-0.0440651	-2.4142	-0.259988	-1.97722	0	0	0	0	-0	0	0	0	-0.1265	0	-0	0	0	0	0	0	-0	0	0.105	0.015	0	0	-0	0	0	0.098	0.1	0	-0	0	0	0	0	0	-0	0	0.05595	0	0	0	-0	0	0	0	0	0	-0	0	522.532	484.555	264.188	329.906	-4.73685	16.3482	0.0872247	0.0781997	-19.4552
80	-0.135662	0.325055	-0.1628	0.338988	0.113068	0.0905586	0.0172873	-0.0216795	0.037163	0.345715	-0.631436	-0.491111	0.0832171	0.0122031	-0.0446035	-2.40989	-0.26478	-1.98367	0	0	0	0	-0	0	0	0	-0.1265	0	-0	0	0	0	0	0	-0	0	0.105	0.015	0	0	-0	0	0	0.098	0.1	0	-0	0	0	0	0	0	-0	0	0.05595	0	0	0	-0	0	0	0	0	0	-0	0	522.532	484.554	264.188	329.906	-4.73417	16.3503	0.0902187	0.0782161	-19.454
81	-0.135256	0.322764	-0.164125	0.339412	0.110443	0.0913213	0.0172748	-0.021723	0.0370866	0.345725	-0.631428	-0.491121	0.0833717	0.0119929	-0.044077	-2.414	-0.26022	-1.97761	0	0	0	0	-0	0	0	0	-0.1265	0	-0	0	0	0	0	0	-0	0	0.105	0.015	0	0	-0	0	0	0.098	0.1	0	-0	0	0	0	0	0	-0	0	0.05595	0	0	0	-0	0	0	0	0	0	-0	0	522.531	484.554	264.188	329.905	-4.73691	16.3488	0.0873253	0.078197	-19.4545
82	-0.135652	0.325133	-0.162854	0.338962	0.112928	0.0905981	0.0172873	-0.02168	0.0371575	0.34572	-0.631436	-0.491114	0.0832286	0.0121846	-0.0445854	-2.40999	-0.26471	-1.98363	0	0	0	0	-0	0	0	0	-0.1265	0	-0	0	0	0	0	0	-0	0	0.105	0.015	0	0	-0	0	0	0.098	0.1	0	-0	0	0	0	0	0	-0	0	0.05595	0	0	0	-0	0	0	0	0	0	-0	0	522.531	484.554	264.188	329.905	-4.73443	16.3509	0.0901352	0.0782159	-19.4533
83	-0.13527	0.322823	-0.164079	0.3394	0.110486	0.0913075	0.0172762	-0.0217208	0.0370875	0.345731	-0.631427	-0.491126	0.0833697	0.0119942	-0.0440918	-2.4139	-0.260315	-1.97775	0	0	0	0	-0	0	0	0	-0.1265	0	-0	0	0	0	0	0	-0	0	0.105	0.015	0	0	-0	0	0	0.098	0.1	0	-0	0	0	0	0	0	-0	0	0.05595	0	0	0	-0	0	0	0	0	0	-0	0	522.531	484.554	264.188	329.905	-4.73714	16.3493	0.0873817	0.0781923	-19.4538
84	-0.135641	0.325119	-0.162893	0.338941	0.112855	0.0906297	0.0172877	-0.0216812	0.0371529	0.345717	-0.631436	-0.491114	0.0832352	0.0121763	-0.0445749	-2.41007	-0.264619	-1.98352	0	0	0	0	-0	0	0	0	-0.1265	0	-0	0	0	0	0	0	-0	0	0.105	0.015	0	0	-0	0	0	0.098	0.1	0	-0	0	0	0	0	0	-0	0	0.05595	0	0	0	-0	0	0	0	0	0	-0	0	522.531	484.554	264.188	329.905	-4.73473	16.3515	0.0900688	0.0782137	-19.4525
85	-0.135276	0.322806	-0.164039	0.339398	0.110538	0.0912968	0.0172775	-0.0217197	0.0370885	0.345728	-0.631431	-0.491125	0.0833669	0.0119986	-0.0441042	-2.41384	-0.260347	-1.97778	0	0	0	0	-0	0	0	0	-0.1265	0	-0	0	0	0	0	0	-0	0	0.105	0.015	0	0	-0	0	0	0.098	0.1	0	-0	0	0	0	0	0	-0	0	0.05595	0	0	0	-0	0	0	0	0	0	-0	0	522.531	484.554	264.188	329.905	-4.73741	16.3499	0.087419	0.0781867	-19.4531
86	-0.135635	0.325085	-0.16292	0.338922	0.112814	0.0906546	0.0172881	-0.0216825	0.0371494	0.345712	-0.631433	-0.49111	0.0832393	0.0121722	-0.0445695	-2.41013	-0.264544	-1.98343	0	0	0	0	-0	0	0	0	-0.1265	0	-0	0	0	0	0	0	-0	0	0.105	0.015	0	0	-0	0	0	0.098	0.1	0	-0	0	0	0	0	0	-0	0	0.05595	0	0	0	-0	0	0	0	0	0	-0	0	522.531	484.554	264.188	329.905	-4.73504	16.3521	0.090022	0.078211	-19.4517
87	-0.135284	0.322761	-0.164007	0.339399	0.110583	0.0912901	0.0172786	-0.0217191	0.0370894	0.345723	-0.631426	-0.49112	0.0833643	0.0120031	-0.0441143	-2.41381	-0.260347	-1.97776	0	0	0	0	-0	0	0	0	-0.1265	0	-0	0	0	0	0	0	-0	0	0.105	0.015	0	0	-0	0	0	0.098	0.1	0	-0	0	0	0	0	0	-0	0	0.05595	0	0	0	-0	0	0	0	0	0	-0	0	522.531	484.554	264.188	329.905	-4.7377	16.3504	0.0874408	0.078181	-19.4523
88	-0.135621	0.324549	-0.162872	0.339044	0.112843	0.0906527	0.0172909	-0.0216833	0.0371525	0.345713	-0.631432	-0.491108	0.0832304	0.012189	-0.0445636	-2.41038	-0.264116	-1.98271	0	0	0	0	-0	0	0	0	-0.1265	0	-0	0	0	0	0	0	-0	0	0.105	0.015	0	0	-0	0	0	0.098	0.1	0	-0	0	0	0	0	0	-0	0	0.05595	0	0	0	-0	0	0	0	0	0	-0	0	522.53	484.554	264.188	329.905	-4.73557	16.3516	0.0898589	0.0781968	-19.4516
89	-0.135298	0.322934	-0.163984	0.339307	0.11074	0.0912814	0.0172787	-0.0217209	0.037088	0.345723	-0.631424	-0.491117	0.0833583	0.0120147	-0.0441412	-2.4136	-0.260623	-1.97814	0	0	0	0	-0	0	0	0	-0.1265	0	-0	0	0	0	0	0	-0	0	0.105	0.015	0	0	-0	0	0	0.098	0.1	0	-0	0	0	0	0	0	-0	0	0.05595	0	0	0	-0	0	0	0	0	0	-0	0	522.53	484.554	264.188	329.904	-4.73742	16.3506	0.0876242	0.0781881	-19.4519
90	-0.135613	0.324696	-0.162952	0.339018	0.112689	0.0906943	0.0172888	-0.0216854	0.0371485	0.345712	-0.63143	-0.491106	0.0832426	0.0121674	-0.0445405	-2.41047	-0.264073	-1.98274	0	0	0	0	-0	0	0	0	-0.1265	0	-0	0	0	0	0	0	-0	0	0.105	0.015	0	0	-0	0	0	0.098	0.1	0	-0	0	0	0	0	0	-0	0	0.05595	0	0	0	-0	0	0	0	0	0	-0	0	522.53	484.553	264.188	329.904	-4.73552	16.352	0.0898121	0.0781946	-19.4511
91	-0.135316	0.323053	-0.163939	0.3393	0.11077	0.0912618	0.0172794	-0.0217185	0.0370907	0.345724	-0.631423	-0.491118	0.0833567	0.0120133	-0.0441548	-2.41347	-0.260762	-1.97835	0	0	0	0	-0	0	0	0	-0.1265	0	-0	0	0	0	0	0	-0	0	0.105	0.015	0	0	-0	0	0	0.098	0.1	0	-0	0	0	0	0	0	-0	0	0.05595	0	0	0	-0	0	0	0	0	0	-0	0	522.53	484.553	264.188	329.904	-4.73746	16.3509	0.0877063	0.0781842	-19.4514
92	-0.135606	0.324697	-0.162993	0.339006	0.112597	0.0907246	0.0172888	-0.0216866	0.0371447	0.345716	-0.631427	-0.491107	0.0832496	0.0121568	-0.0445267	-2.41056	-0.263982	-1.98264	0	0	0	0	-0	0	0	0	-0.1265	0	-0	0	0	0	0	0	-0	0	0.105	0.015	0	0	-0	0	0	0.098	0.1	0	-0	0	0	0	0	0	-0	0	0.05595	0	0	0	-0	0	0	0	0	0	-0	0	522.53	484.553	264.189	329.904	-4.7357	16.3523	0.089742	0.0781939	-19.4506
93	-0.135328	0.323068	-0.163899	0.339297	0.110823	0.0912469	0.0172805	-0.021717	0.0370921	0.345724	-0.63142	-0.491114	0.0833533	0.0120174	-0.044168	-2.41339	-0.260828	-1.97843	0	0	0	0	-0	0	0	0	-0.1265	0	-0	0	0	0	0	0	-0	0	0.105	0.015	0	0	-0	0	0	0.098	0.1	0	-0	0	0	0	0	0	-0	0	0.05595	0	0	0	-0	0	0	0	0	0	-0	0	522.53	484.553	264.189	329.904	-4.73761	16.3512	0.087756	0.0781801	-19.4509
94	-0.135594	0.32466	-0.163024	0.338995	0.112545	0.0907485	0.017289	-0.0216879	0.0371414	0.345716	-0.631428	-0.491105	0.0832541	0.0121518	-0.0445177	-2.41064	-0.263894	-1.98253	0	0	0	0	-0	0	0	0	-0.1265	0	-0	0	0	0	0	0	-0	0	0.105	0.015	0	0	-0	0	0	0.098	0.1	0	-0	0	0	0	0	0	-0	0	0.05595	0	0	0	-0	0	0	0	0	0	-0	0	522.53	484.553	264.189	329.904	-4.7359	16.3526	0.0896863	0.0781922	-19.45
95	-0.13533	0.323045	-0.163865	0.339299	0.110873	0.0912352	0.0172815	-0.0217162	0.0370934	0.345723	-0.631422	-0.491112	0.0833503	0.0120224	-0.0441784	-2.41334	-0.260854	-1.97845	0	0	0	0	-0	0	0	0	-0.1265	0	-0	0	0	0	0	0	-0	0	0.105	0.015	0	0	-0	0	0	0.098	0.1	0	-0	0	0	0	0	0	-0	0	0.05595	0	0	0	-0	0	0	0	0	0	-0	0	522.53	484.553	264.189	329.904	-4.73777	16.3515	0.0877903	0.0781759	-19.4503
96	-0.13559	0.324621	-0.163046	0.338984	0.112513	0.0907673	0.0172893	-0.021689	0.0371388	0.345716	-0.631431	-0.491105	0.0832569	0.012149	-0.0445125	-2.4107	-0.263824	-1.98244	0	0	0	0	-0	0	0	0	-0.1265	0	-0	0	0	0	0	0	-0	0	0.105	0.015	0	0	-0	0	0	0.098	0.1	0	-0	0	0	0	0	0	-0	0	0.05595	0	0	0	-0	0	0	0	0	0	-0	0	522.53	484.553	264.189	329.904	-4.7361	16.353	0.0896458	0.0781903	-19.4494
97	-0.135339	0.323009	-0.163838	0.339301	0.110914	0.0912272	0.0172823	-0.0217157	0.0370943	0.345727	-0.631426	-0.491114	0.0833475	0.0120268	-0.0441872	-2.41331	-0.260862	-1.97845	0	0	0	0	-0	0	0	0	-0.1265	0	-0	0	0	0	0	0	-0	0	0.105	0.015	0	0	-0	0	0	0.098	0.1	0	-0	0	0	0	0	0	-0	0	0.05595	0	0	0	-0	0	0	0	0	0	-0	0	522.529	484.553	264.189	329.903	-4.73795	16.3518	0.0878125	0.0781717	-19.4497
98	-0.135582	0.324217	-0.163017	0.339073	0.112526	0.0907681	0.0172914	-0.0216896	0.0371406	0.34572	-0.631432	-0.491105	0.0832506	0.0121612	-0.0445071	-2.4109	-0.263497	-1.98189	0	0	0	0	-0	0	0	0	-0.1265	0	-0	0	0	0	0	0	-0	0	0.105	0.015	0	0	-0	0	0	0.098	0.1	0	-0	0	0	0	0	0	-0	0	0.05595	0	0	0	-0	0	0	0	0	0	-0	0	522.529	484.553	264.189	329.903	-4.7365	16.3526	0.089515	0.0781799	-19.4493
99	-0.135339	0.322707	-0.163768	0.339342	0.111075	0.0912019	0.0172846	-0.0217165	0.0370975	0.34573	-0.631429	-0.491119	0.0833334	0.0120519	-0.0442054	-2.41333	-0.260751	-1.97819	0	0	0	0	-0	0	0	0	-0.1265	0	-0	0	0	0	0	0	-0	0	0.105	0.015	0	0	-0	0	0	0.098	0.1	0	-0	0	0	0	0	0	-0	0	0.05595	0	0	0	-0	0	0	0	0	0	-0	0	522.529	484.553	264.189	329.903	-4.73804	16.3512	0.0878307	0.0781665	-19.4497
100	-0.135568	0.324028	-0.163027	0.33909	0.112559	0.0907769	0.0172916	-0.0216925	0.03714	0.345724	-0.631435	-0.491111	0.0832467	0.0121704	-0.0445036	-2.41099	-0.263353	-1.98165	0	0	0	0	-0	0	0	0	-0.1265	0	-0	0	0	0	0	0	-0	0	0.105	0.015	0	0	-0	0	0	0.098	0.1	0	-0	0	0	0	0	0	-0	0	0.05595	0	0	0	-0	0	0	0	0	0	-0	0	522.529	484.553	264.189	329.903	-4.73645	16.3521	0.0894795	0.0781777	-19.4492
