Stefan210/kinematic_calibration/src/kinematic_calibration/validation/experiments/experiments/single_point_vs_pose/marker_single_point/rarm_230/optimization_intermediate_results.csv
iteration	HeadPitch_offset	HeadYaw_offset	RElbowRoll_offset	RElbowYaw_offset	RShoulderPitch_offset	RShoulderRoll_offset	marker_transform_rarm_tx	marker_transform_rarm_ty	marker_transform_rarm_tz	marker_transform_rarm_rr	marker_transform_rarm_rp	marker_transform_rarm_ry	camera_transform_tx	camera_transform_ty	camera_transform_tz	camera_transform_rr	camera_transform_rp	camera_transform_ry	HeadPitch_transform_tx	HeadPitch_transform_ty	HeadPitch_transform_tz	HeadPitch_transform_rr	HeadPitch_transform_rp	HeadPitch_transform_ry	HeadYaw_transform_tx	HeadYaw_transform_ty	HeadYaw_transform_tz	HeadYaw_transform_rr	HeadYaw_transform_rp	HeadYaw_transform_ry	RElbowRoll_transform_tx	RElbowRoll_transform_ty	RElbowRoll_transform_tz	RElbowRoll_transform_rr	RElbowRoll_transform_rp	RElbowRoll_transform_ry	RElbowYaw_transform_tx	RElbowYaw_transform_ty	RElbowYaw_transform_tz	RElbowYaw_transform_rr	RElbowYaw_transform_rp	RElbowYaw_transform_ry	RShoulderPitch_transform_tx	RShoulderPitch_transform_ty	RShoulderPitch_transform_tz	RShoulderPitch_transform_rr	RShoulderPitch_transform_rp	RShoulderPitch_transform_ry	RShoulderRoll_transform_tx	RShoulderRoll_transform_ty	RShoulderRoll_transform_tz	RShoulderRoll_transform_rr	RShoulderRoll_transform_rp	RShoulderRoll_transform_ry	RWristYaw_transform_tx	RWristYaw_transform_ty	RWristYaw_transform_tz	RWristYaw_transform_rr	RWristYaw_transform_rp	RWristYaw_transform_ry	r_wrist_joint_transform_tx	r_wrist_joint_transform_ty	r_wrist_joint_transform_tz	r_wrist_joint_transform_rr	r_wrist_joint_transform_rp	r_wrist_joint_transform_ry	camera_fx	camera_fy	camera_cx	camera_cy	camera_D0	camera_D1	camera_D2	camera_D3	camera_D4	
0	0.0230449	0.0294606	-0.0013508	-0.00116347	0.000678263	0.00258603	0.05071	0	0.01774	-2.26369	1.66533e-16	-1.5708	545.901	551.038	324.928	201.58	0.0255298	2.61142	-0.0636736	-0.0350419	0.213964
1	-0.0146265	-0.0180029	0.00542214	0.0124741	-0.0153055	-0.0328607	0.0209103	0.0285099	-0.000718463	-0.00109432	0.000631691	0.00274918	0.0541608	-0.00273425	0.0185828	-2.20488	0.0125101	-1.53651	0	0	0	0	-0	0	0	0	-0.1265	0	-0	0	0	0	0	0	-0	0	0.105	-0.015	0	0	-0	0	0	-0.098	0.1	0	-0	0	0	0	0	0	-0	0	0.05595	0	0	0	-0	0	0	0	0	0	-0	0	545.901	551.039	324.929	201.581	-0.0426211	2.58787	-0.0803986	-0.0659024	0.208479
2	-0.0126413	-0.0352679	-2.33828e-05	0.0116849	-0.0287172	-0.0303504	0.0208979	0.0286176	-0.000549145	-0.00107548	0.000617927	0.00275965	0.0532908	-0.00158295	0.0222568	-2.21337	0.0207275	-1.52813	0	0	0	0	-0	0	0	0	-0.1265	0	-0	0	0	0	0	0	-0	0	0.105	-0.015	0	0	-0	0	0	-0.098	0.1	0	-0	0	0	0	0	0	-0	0	0.05595	0	0	0	-0	0	0	0	0	0	-0	0	545.903	551.04	324.934	201.587	-0.236117	2.45537	-0.0177503	-0.0337104	0.161798
3	-0.0140432	-0.0284647	0.00262269	0.0130019	-0.0225733	-0.0334024	0.0209698	0.0286546	-0.000845793	-0.00110892	0.000644201	0.00275388	0.0549378	-0.00253098	0.0184564	-2.20684	0.0199488	-1.52979	0	0	0	0	-0	0	0	0	-0.1265	0	-0	0	0	0	0	0	-0	0	0.105	-0.015	0	0	-0	0	0	-0.098	0.1	0	-0	0	0	0	0	0	-0	0	0.05595	0	0	0	-0	0	0	0	0	0	-0	0	545.905	551.04	324.939	201.592	-0.458197	2.31439	-0.012026	-0.0306309	0.114599
4	-0.0143135	-0.0253816	0.00402163	0.0114464	-0.0196671	-0.0360286	0.0211035	0.0287073	-0.000990224	-0.0011271	0.000654432	0.00274083	0.0559038	-0.00311116	0.0160968	-2.20516	0.0201115	-1.53284	0	0	0	0	-0	0	0	0	-0.1265	0	-0	0	0	0	0	0	-0	0	0.105	-0.015	0	0	-0	0	0	-0.098	0.1	0	-0	0	0	0	0	0	-0	0	0.05595	0	0	0	-0	0	0	0	0	0	-0	0	545.909	551.041	324.948	201.599	-0.692833	2.06551	0.0220472	-0.00925628	0.0166267
5	-0.0145572	-0.0232348	0.00574824	0.0108262	-0.0177575	-0.0378169	0.0211517	0.0287168	-0.00108341	-0.00113974	0.000663459	0.00273558	0.0558909	-0.00352779	0.0153162	-2.20399	0.0199137	-1.53406	0	0	0	0	-0	0	0	0	-0.1265	0	-0	0	0	0	0	0	-0	0	0.105	-0.015	0	0	-0	0	0	-0.098	0.1	0	-0	0	0	0	0	0	-0	0	0.05595	0	0	0	-0	0	0	0	0	0	-0	0	545.919	551.04	324.96	201.609	-0.673893	1.72257	0.0282739	-0.00391685	-0.145497
6	-0.0146646	-0.022046	0.00759312	0.0104321	-0.0168696	-0.0388937	0.0211458	0.0286858	-0.00107644	-0.00114785	0.000652522	0.00273891	0.0548382	-0.00374264	0.0161116	-2.20384	0.0191982	-1.53464	0	0	0	0	-0	0	0	0	-0.1265	0	-0	0	0	0	0	0	-0	0	0.105	-0.015	0	0	-0	0	0	-0.098	0.1	0	-0	0	0	0	0	0	-0	0	0.05595	0	0	0	-0	0	0	0	0	0	-0	0	545.936	551.036	324.976	201.62	-0.44033	1.21243	0.0164277	-0.00784869	-0.404893
7	-0.0146853	-0.0212772	0.00906651	0.00996511	-0.0164386	-0.0396291	0.0211333	0.0286541	-0.00103862	-0.00118812	0.000616314	0.00273332	0.0537466	-0.00386745	0.0171088	-2.20399	0.0185253	-1.53512	0	0	0	0	-0	0	0	0	-0.1265	0	-0	0	0	0	0	0	-0	0	0.105	-0.015	0	0	-0	0	0	-0.098	0.1	0	-0	0	0	0	0	0	-0	0	0.05595	0	0	0	-0	0	0	0	0	0	-0	0	545.957	551.031	324.989	201.627	-0.189703	0.682208	0.00328587	-0.0125863	-0.67527
8	-0.0146411	-0.0211299	0.00971211	0.00961282	-0.0164505	-0.0399163	0.021125	0.0286381	-0.00100611	-0.00114794	0.000497031	0.00271293	0.0531556	-0.00390095	0.0177187	-2.20428	0.0182431	-1.53532	0	0	0	0	-0	0	0	0	-0.1265	0	-0	0	0	0	0	0	-0	0	0.105	-0.015	0	0	-0	0	0	-0.098	0.1	0	-0	0	0	0	0	0	-0	0	0.05595	0	0	0	-0	0	0	0	0	0	-0	0	545.989	551.025	324.995	201.633	-0.0524864	0.374767	-0.00313197	-0.0148369	-0.828832
9	-0.014607	-0.0211406	0.00985965	0.00949847	-0.0164984	-0.0399602	0.0211219	0.0286335	-0.000995509	-0.00109952	0.000474444	0.00280959	0.0529966	-0.00390294	0.0178971	-2.20444	0.0181746	-1.53536	0	0	0	0	-0	0	0	0	-0.1265	0	-0	0	0	0	0	0	-0	0	0.105	-0.015	0	0	-0	0	0	-0.098	0.1	0	-0	0	0	0	0	0	-0	0	0.05595	0	0	0	-0	0	0	0	0	0	-0	0	546.063	551.014	325	201.654	-0.0177997	0.290921	-0.00445928	-0.0153346	-0.863014
10	-0.0151892	-0.0211452	0.00987941	0.00946241	-0.0165116	-0.0399487	0.0211208	0.0286321	-0.000993569	-0.00113314	0.00191683	0.00285856	0.0529691	-0.00389988	0.0179095	-2.2052	0.0181693	-1.53542	0	0	0	0	-0	0	0	0	-0.1265	0	-0	0	0	0	0	0	-0	0	0.105	-0.015	0	0	-0	0	0	-0.098	0.1	0	-0	0	0	0	0	0	-0	0	0.05595	0	0	0	-0	0	0	0	0	0	-0	0	546.255	551	325.005	201.722	-0.015624	0.279714	-0.0041673	-0.0153692	-0.855272
11	-0.0157662	-0.0211491	0.00988762	0.009411	-0.0165236	-0.0399212	0.0211198	0.0286309	-0.000991775	-0.00523039	0.00523152	0.00573268	0.0529324	-0.00389348	0.0179315	-2.20625	0.0181718	-1.53551	0	0	0	0	-0	0	0	0	-0.1265	0	-0	0	0	0	0	0	-0	0	0.105	-0.015	0	0	-0	0	0	-0.098	0.1	0	-0	0	0	0	0	0	-0	0	0.05595	0	0	0	-0	0	0	0	0	0	-0	0	546.692	551.046	325.001	201.929	-0.0199744	0.288309	-0.0033068	-0.0153531	-0.865648
12	-0.017572	-0.0211556	0.00989755	0.00934241	-0.0165312	-0.039882	0.0211178	0.028628	-0.000988895	-0.0024888	0.00512105	0.00851806	0.0528973	-0.00388458	0.0179132	-2.20937	0.0182986	-1.53559	0	0	0	0	-0	0	0	0	-0.1265	0	-0	0	0	0	0	0	-0	0	0.105	-0.015	0	0	-0	0	0	-0.098	0.1	0	-0	0	0	0	0	0	-0	0	0.05595	0	0	0	-0	0	0	0	0	0	-0	0	547.517	551.477	324.935	202.54	-0.0313539	0.341847	-0.00219541	-0.01537	-0.967973
13	-0.0244742	-0.0211656	0.00991302	0.00927418	-0.0165209	-0.0398392	0.0211328	0.028645	-0.000987905	-0.0177749	0.0245718	0.0381451	0.0529225	-0.00387464	0.0176659	-2.21979	0.0188114	-1.53568	0	0	0	0	-0	0	0	0	-0.1265	0	-0	0	0	0	0	0	-0	0	0.105	-0.015	0	0	-0	0	0	-0.098	0.1	0	-0	0	0	0	0	0	-0	0	0.05595	0	0	0	-0	0	0	0	0	0	-0	0	549.012	552.986	324.731	204.236	-0.0507082	0.466551	-0.00130807	-0.0155171	-1.22817
14	-0.031456	-0.0211775	0.00992529	0.00921598	-0.0165002	-0.0397994	0.0211245	0.0286179	-0.000974745	-0.0431301	-0.0254317	0.0434726	0.0529505	-0.00386593	0.0174136	-2.23131	0.0193722	-1.5358	0	0	0	0	-0	0	0	0	-0.1265	0	-0	0	0	0	0	0	-0	0	0.105	-0.015	0	0	-0	0	0	-0.098	0.1	0	-0	0	0	0	0	0	-0	0	0.05595	0	0	0	-0	0	0	0	0	0	-0	0	550.588	554.852	324.519	206.474	-0.0703411	0.614761	-0.000724309	-0.015708	-1.55903
15	-0.0345844	-0.0211943	0.00992609	0.00918181	-0.016494	-0.0397725	0.0211185	0.028628	-0.000978093	-0.0359544	-0.0205078	0.0653621	0.0529579	-0.00386025	0.0173078	-2.23706	0.0196457	-1.53587	0	0	0	0	-0	0	0	0	-0.1265	0	-0	0	0	0	0	0	-0	0	0.105	-0.015	0	0	-0	0	0	-0.098	0.1	0	-0	0	0	0	0	0	-0	0	0.05595	0	0	0	-0	0	0	0	0	0	-0	0	551.422	555.876	324.418	207.789	-0.0822114	0.71389	-0.0004392	-0.0158014	-1.79451
16	-0.0408267	-0.0212178	0.00993057	0.00914218	-0.0164893	-0.0397442	0.0211094	0.028637	-0.000962308	-0.0736537	-0.0320016	0.0825215	0.05301	-0.00385503	0.0170494	-2.24675	0.020063	-1.53602	0	0	0	0	-0	0	0	0	-0.1265	0	-0	0	0	0	0	0	-0	0	0.105	-0.015	0	0	-0	0	0	-0.098	0.1	0	-0	0	0	0	0	0	-0	0	0.05595	0	0	0	-0	0	0	0	0	0	-0	0	552.418	557.082	324.31	209.532	-0.094888	0.81984	1.29996e-05	-0.0159338	-2.04872
17	-0.0473064	-0.0212255	0.00993194	0.00911338	-0.0164852	-0.0397286	0.0211134	0.0286224	-0.000965022	-0.0880739	-0.03681	0.0957322	0.0531012	-0.00385197	0.0167304	-2.25455	0.0203513	-1.53618	0	0	0	0	-0	0	0	0	-0.1265	0	-0	0	0	0	0	0	-0	0	0.105	-0.015	0	0	-0	0	0	-0.098	0.1	0	-0	0	0	0	0	0	-0	0	0.05595	0	0	0	-0	0	0	0	0	0	-0	0	552.78	557.527	324.277	210.206	-0.100652	0.871248	0.000189663	-0.0159577	-2.17856
18	-0.0377133	-0.0212415	0.00992874	0.00910349	-0.0164859	-0.0397148	0.0211124	0.0286211	-0.00096744	-0.101985	-0.0339556	0.0923022	0.052917	-0.00384971	0.0172704	-2.24664	0.0200973	-1.53602	0	0	0	0	-0	0	0	0	-0.1265	0	-0	0	0	0	0	0	-0	0	0.105	-0.015	0	0	-0	0	0	-0.098	0.1	0	-0	0	0	0	0	0	-0	0	0.05595	0	0	0	-0	0	0	0	0	0	-0	0	553.221	558.062	324.245	211.068	-0.106741	0.924687	0.000428364	-0.0160171	-2.31152
19	-0.0311099	-0.0212475	0.00992724	0.00909426	-0.0164857	-0.0397079	0.0211117	0.0286189	-0.000966239	-0.111678	-0.0338319	0.0902989	0.0527914	-0.0038484	0.0176305	-2.24071	0.019895	-1.53591	0	0	0	0	-0	0	0	0	-0.1265	0	-0	0	0	0	0	0	-0	0	0.105	-0.015	0	0	-0	0	0	-0.098	0.1	0	-0	0	0	0	0	0	-0	0	0.05595	0	0	0	-0	0	0	0	0	0	-0	0	553.39	558.267	324.234	211.409	-0.109292	0.947924	0.00052923	-0.0160281	-2.37164
20	-0.0250272	-0.0212558	0.00992624	0.00908604	-0.0164862	-0.0397006	0.0211122	0.028618	-0.00096538	-0.112486	-0.0300188	0.0974924	0.0526719	-0.00384724	0.0179658	-2.2355	0.0197166	-1.53582	0	0	0	0	-0	0	0	0	-0.1265	0	-0	0	0	0	0	0	-0	0	0.105	-0.015	0	0	-0	0	0	-0.098	0.1	0	-0	0	0	0	0	0	-0	0	0.05595	0	0	0	-0	0	0	0	0	0	-0	0	553.606	558.528	324.223	211.859	-0.112349	0.975318	0.000660083	-0.0160545	-2.44108
21	-0.0263118	-0.0212586	0.00992543	0.00908117	-0.0164858	-0.039697	0.0211117	0.0286171	-0.000965178	-0.118407	-0.0382675	0.0946838	0.0526893	-0.00384655	0.0179036	-2.23713	0.0197734	-1.53585	0	0	0	0	-0	0	0	0	-0.1265	0	-0	0	0	0	0	0	-0	0	0.105	-0.015	0	0	-0	0	0	-0.098	0.1	0	-0	0	0	0	0	0	-0	0	0.05595	0	0	0	-0	0	0	0	0	0	-0	0	553.692	558.633	324.22	212.039	-0.113611	0.987053	0.000712867	-0.016059	-2.47184
22	-0.0220482	-0.0212634	0.00992483	0.00907662	-0.0164863	-0.039693	0.0211122	0.0286174	-0.000963839	-0.116318	-0.0453487	0.098898	0.0526071	-0.00384593	0.0181359	-2.23334	0.0196401	-1.53579	0	0	0	0	-0	0	0	0	-0.1265	0	-0	0	0	0	0	0	-0	0	0.105	-0.015	0	0	-0	0	0	-0.098	0.1	0	-0	0	0	0	0	0	-0	0	0.05595	0	0	0	-0	0	0	0	0	0	-0	0	553.806	558.771	324.217	212.281	-0.115238	1.00179	0.000785034	-0.0160721	-2.50954
23	-0.020729	-0.0212817	0.00992304	0.00906231	-0.0164888	-0.0396792	0.0211095	0.0286183	-0.000961876	-0.100558	-0.0381628	0.0954948	0.0525595	-0.00384397	0.0182351	-2.23389	0.0196433	-1.53584	0	0	0	0	-0	0	0	0	-0.1265	0	-0	0	0	0	0	0	-0	0	0.105	-0.015	0	0	-0	0	0	-0.098	0.1	0	-0	0	0	0	0	0	-0	0	0.05595	0	0	0	-0	0	0	0	0	0	-0	0	554.23	559.283	324.216	213.249	-0.120363	1.05025	0.00107193	-0.0161302	-2.63641
24	-0.024908	-0.0212862	0.00992161	0.00905181	-0.0164887	-0.0396734	0.0211108	0.0286172	-0.000961931	-0.0933006	-0.0391898	0.0999476	0.05263	-0.00384281	0.0180227	-2.23855	0.0197962	-1.53595	0	0	0	0	-0	0	0	0	-0.1265	0	-0	0	0	0	0	0	-0	0	0.105	-0.015	0	0	-0	0	0	-0.098	0.1	0	-0	0	0	0	0	0	-0	0	0.05595	0	0	0	-0	0	0	0	0	0	-0	0	554.338	559.417	324.219	213.504	-0.122118	1.06743	0.0011523	-0.0161244	-2.68361
25	-0.0281071	-0.0213058	0.00991819	0.0090397	-0.0164926	-0.0396601	0.0211097	0.0286159	-0.000961996	-0.119207	-0.0671967	0.0996705	0.0526682	-0.00384112	0.0178794	-2.24352	0.0199241	-1.53612	0	0	0	0	-0	0	0	0	-0.1265	0	-0	0	0	0	0	0	-0	0	0.105	-0.015	0	0	-0	0	0	-0.098	0.1	0	-0	0	0	0	0	0	-0	0	0.05595	0	0	0	-0	0	0	0	0	0	-0	0	554.709	559.867	324.246	214.427	-0.12689	1.11409	0.00143602	-0.0161662	-2.80866
26	-0.0333599	-0.021311	0.00991575	0.00903128	-0.0164932	-0.0396547	0.0211114	0.0286156	-0.000958228	-0.114772	-0.0547367	0.0936307	0.0527576	-0.00384008	0.0176085	-2.24923	0.0201039	-1.53626	0	0	0	0	-0	0	0	0	-0.1265	0	-0	0	0	0	0	0	-0	0	0.105	-0.015	0	0	-0	0	0	-0.098	0.1	0	-0	0	0	0	0	0	-0	0	0.05595	0	0	0	-0	0	0	0	0	0	-0	0	554.802	559.981	324.257	214.668	-0.128575	1.13059	0.00152279	-0.0161557	-2.8547
27	-0.0443988	-0.0213175	0.00991387	0.00902646	-0.0164941	-0.0396494	0.021112	0.0286151	-0.000956773	-0.124617	-0.073702	0.10047	0.0529459	-0.0038394	0.0170333	-2.26087	0.0204781	-1.53653	0	0	0	0	-0	0	0	0	-0.1265	0	-0	0	0	0	0	0	-0	0	0.105	-0.015	0	0	-0	0	0	-0.098	0.1	0	-0	0	0	0	0	0	-0	0	0.05595	0	0	0	-0	0	0	0	0	0	-0	0	554.923	560.13	324.275	214.985	-0.130483	1.1492	0.0016237	-0.0161613	-2.90494
28	-0.0498079	-0.0213262	0.0099115	0.00902065	-0.0164959	-0.0396432	0.0211109	0.028617	-0.000958239	-0.116867	-0.0809768	0.103876	0.0530283	-0.00383858	0.0167552	-2.26701	0.02065	-1.53671	0	0	0	0	-0	0	0	0	-0.1265	0	-0	0	0	0	0	0	-0	0	0.105	-0.015	0	0	-0	0	0	-0.098	0.1	0	-0	0	0	0	0	0	-0	0	0.05595	0	0	0	-0	0	0	0	0	0	-0	0	555.065	560.304	324.301	215.367	-0.132565	1.17005	0.00174909	-0.0161657	-2.96239
29	-0.0542081	-0.0213298	0.00991051	0.00901542	-0.0164967	-0.0396402	0.0211095	0.0286154	-0.000958066	-0.112553	-0.0784093	0.107366	0.0530988	-0.00383809	0.0165252	-2.27169	0.0207922	-1.53683	0	0	0	0	-0	0	0	0	-0.1265	0	-0	0	0	0	0	0	-0	0	0.105	-0.015	0	0	-0	0	0	-0.098	0.1	0	-0	0	0	0	0	0	-0	0	0.05595	0	0	0	-0	0	0	0	0	0	-0	0	555.121	560.372	324.313	215.519	-0.133496	1.17925	0.00180421	-0.0161595	-2.98819
30	-0.0484121	-0.0213351	0.00990917	0.00901202	-0.0164983	-0.0396368	0.0211106	0.0286157	-0.000959236	-0.118962	-0.0891981	0.0996663	0.0529994	-0.00383767	0.0168375	-2.26628	0.0205841	-1.53674	0	0	0	0	-0	0	0	0	-0.1265	0	-0	0	0	0	0	0	-0	0	0.105	-0.015	0	0	-0	0	0	-0.098	0.1	0	-0	0	0	0	0	0	-0	0	0.05595	0	0	0	-0	0	0	0	0	0	-0	0	555.193	560.461	324.33	215.721	-0.134633	1.19061	0.0018726	-0.01616	-3.0196
31	-0.0575139	-0.0213451	0.00990656	0.00900673	-0.0165009	-0.0396309	0.0211117	0.0286166	-0.000955286	-0.118765	-0.100352	0.110251	0.053145	-0.00383699	0.0163643	-2.27617	0.0208625	-1.53702	0	0	0	0	-0	0	0	0	-0.1265	0	-0	0	0	0	0	0	-0	0	0.105	-0.015	0	0	-0	0	0	-0.098	0.1	0	-0	0	0	0	0	0	-0	0	0.05595	0	0	0	-0	0	0	0	0	0	-0	0	555.336	560.639	324.372	216.138	-0.136555	1.21105	0.00200357	-0.0161611	-3.07752
32	-0.0508726	-0.021349	0.00990492	0.0090017	-0.0165014	-0.039627	0.0211094	0.0286157	-0.000956717	-0.124039	-0.100447	0.103904	0.0530311	-0.00383635	0.0167212	-2.26991	0.0206177	-1.53693	0	0	0	0	-0	0	0	0	-0.1265	0	-0	0	0	0	0	0	-0	0	0.105	-0.015	0	0	-0	0	0	-0.098	0.1	0	-0	0	0	0	0	0	-0	0	0.05595	0	0	0	-0	0	0	0	0	0	-0	0	555.405	560.725	324.396	216.337	-0.137695	1.22262	0.00207525	-0.0161513	-3.11044
33	-0.054921	-0.0213538	0.00990374	0.00899824	-0.0165031	-0.0396242	0.0211092	0.0286149	-0.000956064	-0.124833	-0.0972547	0.108084	0.0530954	-0.003836	0.0165095	-2.27425	0.0207387	-1.53704	0	0	0	0	-0	0	0	0	-0.1265	0	-0	0	0	0	0	0	-0	0	0.105	-0.015	0	0	-0	0	0	-0.098	0.1	0	-0	0	0	0	0	0	-0	0	0.05595	0	0	0	-0	0	0	0	0	0	-0	0	555.458	560.791	324.415	216.492	-0.138566	1.23151	0.0021291	-0.016146	-3.13559
34	-0.0519079	-0.0213594	0.00990214	0.00899483	-0.0165048	-0.0396208	0.0211101	0.0286146	-0.000956574	-0.129429	-0.109364	0.104131	0.053042	-0.00383559	0.0166741	-2.27166	0.0206103	-1.53704	0	0	0	0	-0	0	0	0	-0.1265	0	-0	0	0	0	0	0	-0	0	0.105	-0.015	0	0	-0	0	0	-0.098	0.1	0	-0	0	0	0	0	0	-0	0	0.05595	0	0	0	-0	0	0	0	0	0	-0	0	555.531	560.884	324.446	216.713	-0.13964	1.24299	0.0022	-0.0161406	-3.16846
35	-0.0504566	-0.0213605	0.00990131	0.00899347	-0.016505	-0.0396198	0.021109	0.0286146	-0.000955576	-0.129672	-0.11366	0.101898	0.0530169	-0.00383538	0.016752	-2.2703	0.0205553	-1.53702	0	0	0	0	-0	0	0	0	-0.1265	0	-0	0	0	0	0	0	-0	0	0.105	-0.015	0	0	-0	0	0	-0.098	0.1	0	-0	0	0	0	0	0	-0	0	0.05595	0	0	0	-0	0	0	0	0	0	-0	0	555.546	560.902	324.452	216.759	-0.139912	1.24568	0.00222008	-0.0161344	-3.17644
36	-0.0455079	-0.0213654	0.00990017	0.0089905	-0.0165066	-0.0396169	0.0211084	0.0286152	-0.000954905	-0.120678	-0.110519	0.0991807	0.0529316	-0.00383508	0.0170178	-2.26569	0.0203636	-1.53696	0	0	0	0	-0	0	0	0	-0.1265	0	-0	0	0	0	0	0	-0	0	0.105	-0.015	0	0	-0	0	0	-0.098	0.1	0	-0	0	0	0	0	0	-0	0	0.05595	0	0	0	-0	0	0	0	0	0	-0	0	555.603	560.975	324.48	216.938	-0.140867	1.25566	0.00228053	-0.0161302	-3.20463
37	-0.0432223	-0.0213686	0.00989921	0.00898774	-0.0165075	-0.0396147	0.0211097	0.0286155	-0.000954739	-0.115715	-0.117401	0.102877	0.0528903	-0.00383478	0.0171411	-2.26364	0.0202676	-1.53695	0	0	0	0	-0	0	0	0	-0.1265	0	-0	0	0	0	0	0	-0	0	0.105	-0.015	0	0	-0	0	0	-0.098	0.1	0	-0	0	0	0	0	0	-0	0	0.05595	0	0	0	-0	0	0	0	0	0	-0	0	555.643	561.025	324.5	217.062	-0.141503	1.26237	0.0023242	-0.0161227	-3.22409
38	-0.0380001	-0.0213753	0.00989713	0.00898417	-0.0165096	-0.0396107	0.0211072	0.028616	-0.000955561	-0.133748	-0.129167	0.102783	0.052797	-0.00383434	0.0174226	-2.25891	0.0200475	-1.53692	0	0	0	0	-0	0	0	0	-0.1265	0	-0	0	0	0	0	0	-0	0	0.105	-0.015	0	0	-0	0	0	-0.098	0.1	0	-0	0	0	0	0	0	-0	0	0.05595	0	0	0	-0	0	0	0	0	0	-0	0	555.726	561.13	324.546	217.322	-0.142757	1.27585	0.00241114	-0.016112	-3.26304
39	-0.0402639	-0.0213792	0.00989607	0.00898055	-0.0165111	-0.0396084	0.0211108	0.0286149	-0.000955412	-0.135135	-0.142695	0.0965794	0.052834	-0.003834	0.0173053	-2.26141	0.0201011	-1.53701	0	0	0	0	-0	0	0	0	-0.1265	0	-0	0	0	0	0	0	-0	0	0.105	-0.015	0	0	-0	0	0	-0.098	0.1	0	-0	0	0	0	0	0	-0	0	0.05595	0	0	0	-0	0	0	0	0	0	-0	0	555.764	561.18	324.57	217.447	-0.143401	1.28272	0.00245665	-0.0161001	-3.28334
40	-0.0347896	-0.0213813	0.00989461	0.00898024	-0.0165115	-0.0396069	0.0211085	0.0286144	-0.000954084	-0.134376	-0.14431	0.0940771	0.0527379	-0.00383381	0.0175962	-2.25611	0.0198977	-1.53693	0	0	0	0	-0	0	0	0	-0.1265	0	-0	0	0	0	0	0	-0	0	0.105	-0.015	0	0	-0	0	0	-0.098	0.1	0	-0	0	0	0	0	0	-0	0	0.05595	0	0	0	-0	0	0	0	0	0	-0	0	555.793	561.217	324.589	217.539	-0.143918	1.28812	0.0024889	-0.016093	-3.29891
41	-0.0369255	-0.0213853	0.00989378	0.00897739	-0.016513	-0.0396046	0.0211082	0.0286152	-0.000954408	-0.143366	-0.147066	0.0912153	0.0527729	-0.00383353	0.0174859	-2.25849	0.0199427	-1.53702	0	0	0	0	-0	0	0	0	-0.1265	0	-0	0	0	0	0	0	-0	0	0.105	-0.015	0	0	-0	0	0	-0.098	0.1	0	-0	0	0	0	0	0	-0	0	0.05595	0	0	0	-0	0	0	0	0	0	-0	0	555.832	561.268	324.616	217.67	-0.144517	1.29475	0.00253403	-0.0160842	-3.31851
42	-0.0362346	-0.0213863	0.00989338	0.00897579	-0.0165134	-0.0396038	0.0211085	0.0286144	-0.000953658	-0.145621	-0.144515	0.0943537	0.0527603	-0.0038334	0.017523	-2.25787	0.0199117	-1.53702	0	0	0	0	-0	0	0	0	-0.1265	0	-0	0	0	0	0	0	-0	0	0.105	-0.015	0	0	-0	0	0	-0.098	0.1	0	-0	0	0	0	0	0	-0	0	0.05595	0	0	0	-0	0	0	0	0	0	-0	0	555.843	561.282	324.624	217.705	-0.144748	1.297	0.00254971	-0.0160783	-3.3251
43	-0.0391442	-0.0213876	0.00989281	0.00897533	-0.0165137	-0.039603	0.0211084	0.0286142	-0.000953666	-0.145198	-0.141293	0.096132	0.0528108	-0.00383331	0.0173702	-2.26086	0.0199996	-1.53709	0	0	0	0	-0	0	0	0	-0.1265	0	-0	0	0	0	0	0	-0	0	0.105	-0.015	0	0	-0	0	0	-0.098	0.1	0	-0	0	0	0	0	0	-0	0	0.05595	0	0	0	-0	0	0	0	0	0	-0	0	555.857	561.3	324.634	217.751	-0.145025	1.2999	0.00256554	-0.0160748	-3.33336
44	-0.0423874	-0.0213896	0.00989218	0.00897427	-0.0165145	-0.0396018	0.0211083	0.0286142	-0.000953698	-0.142581	-0.137717	0.0986231	0.052866	-0.00383318	0.0172001	-2.26423	0.0200932	-1.53718	0	0	0	0	-0	0	0	0	-0.1265	0	-0	0	0	0	0	0	-0	0	0.105	-0.015	0	0	-0	0	0	-0.098	0.1	0	-0	0	0	0	0	0	-0	0	0.05595	0	0	0	-0	0	0	0	0	0	-0	0	555.878	561.326	324.65	217.819	-0.145373	1.3036	0.0025901	-0.0160696	-3.34415
45	-0.0425552	-0.0213925	0.00989125	0.00897272	-0.0165155	-0.0396002	0.0211084	0.0286145	-0.00095331	-0.139542	-0.140502	0.10093	0.0528675	-0.00383301	0.0171929	-2.26459	0.0200752	-1.53722	0	0	0	0	-0	0	0	0	-0.1265	0	-0	0	0	0	0	0	-0	0	0.105	-0.015	0	0	-0	0	0	-0.098	0.1	0	-0	0	0	0	0	0	-0	0	0.05595	0	0	0	-0	0	0	0	0	0	-0	0	555.906	561.363	324.673	217.917	-0.145856	1.30886	0.00262425	-0.0160616	-3.35959
46	-0.0423394	-0.0213935	0.00989077	0.00897162	-0.0165158	-0.0395994	0.0211084	0.0286143	-0.000953283	-0.140703	-0.137669	0.104421	0.0528633	-0.00383288	0.017205	-2.26444	0.0200579	-1.53723	0	0	0	0	-0	0	0	0	-0.1265	0	-0	0	0	0	0	0	-0	0	0.105	-0.015	0	0	-0	0	0	-0.098	0.1	0	-0	0	0	0	0	0	-0	0	0.05595	0	0	0	-0	0	0	0	0	0	-0	0	555.917	561.377	324.683	217.956	-0.14607	1.3111	0.00263996	-0.016056	-3.36629
47	-0.0419533	-0.0213946	0.00989039	0.00897099	-0.0165162	-0.0395988	0.0211083	0.0286142	-0.00095328	-0.140084	-0.134207	0.106892	0.0528563	-0.00383281	0.017226	-2.26412	0.0200362	-1.53723	0	0	0	0	-0	0	0	0	-0.1265	0	-0	0	0	0	0	0	-0	0	0.105	-0.015	0	0	-0	0	0	-0.098	0.1	0	-0	0	0	0	0	0	-0	0	0.05595	0	0	0	-0	0	0	0	0	0	-0	0	555.927	561.39	324.691	217.991	-0.146248	1.31297	0.00265319	-0.0160524	-3.37177
48	-0.0447283	-0.0213958	0.00988999	0.00897041	-0.0165167	-0.0395982	0.0211082	0.0286141	-0.000953082	-0.138903	-0.136013	0.106322	0.0529036	-0.00383274	0.01708	-2.26697	0.0201188	-1.53731	0	0	0	0	-0	0	0	0	-0.1265	0	-0	0	0	0	0	0	-0	0	0.105	-0.015	0	0	-0	0	0	-0.098	0.1	0	-0	0	0	0	0	0	-0	0	0.05595	0	0	0	-0	0	0	0	0	0	-0	0	555.939	561.406	324.702	218.031	-0.146443	1.31516	0.00266631	-0.0160487	-3.37829
49	-0.0446408	-0.0213976	0.00988944	0.00896949	-0.0165173	-0.0395972	0.0211082	0.0286143	-0.000953027	-0.137027	-0.13674	0.109945	0.0529012	-0.00383263	0.0170856	-2.267	0.0200999	-1.53733	0	0	0	0	-0	0	0	0	-0.1265	0	-0	0	0	0	0	0	-0	0	0.105	-0.015	0	0	-0	0	0	-0.098	0.1	0	-0	0	0	0	0	0	-0	0	0.05595	0	0	0	-0	0	0	0	0	0	-0	0	555.956	561.428	324.717	218.09	-0.146734	1.31838	0.00268608	-0.0160432	-3.38778
50	-0.0406605	-0.0214001	0.00988856	0.00896819	-0.0165182	-0.0395958	0.0211085	0.0286146	-0.000952857	-0.141636	-0.132422	0.112328	0.0528324	-0.0038325	0.0172975	-2.26318	0.0199425	-1.53728	0	0	0	0	-0	0	0	0	-0.1265	0	-0	0	0	0	0	0	-0	0	0.105	-0.015	0	0	-0	0	0	-0.098	0.1	0	-0	0	0	0	0	0	-0	0	0.05595	0	0	0	-0	0	0	0	0	0	-0	0	555.979	561.46	324.74	218.175	-0.14717	1.32319	0.00271451	-0.0160345	-3.40194
51	-0.0417197	-0.0214019	0.00988789	0.00896698	-0.0165189	-0.0395947	0.0211084	0.0286143	-0.000952697	-0.143861	-0.127297	0.111839	0.0528495	-0.00383235	0.0172426	-2.26436	0.0199595	-1.53733	0	0	0	0	-0	0	0	0	-0.1265	0	-0	0	0	0	0	0	-0	0	0.105	-0.015	0	0	-0	0	0	-0.098	0.1	0	-0	0	0	0	0	0	-0	0	0.05595	0	0	0	-0	0	0	0	0	0	-0	0	555.997	561.484	324.758	218.238	-0.147473	1.32646	0.00273813	-0.0160266	-3.41174
52	-0.0396845	-0.0214043	0.00988705	0.00896575	-0.0165198	-0.0395934	0.0211084	0.0286141	-0.00095267	-0.142899	-0.132849	0.110585	0.0528136	-0.00383222	0.0173514	-2.26247	0.0198676	-1.53732	0	0	0	0	-0	0	0	0	-0.1265	0	-0	0	0	0	0	0	-0	0	0.105	-0.015	0	0	-0	0	0	-0.098	0.1	0	-0	0	0	0	0	0	-0	0	0.05595	0	0	0	-0	0	0	0	0	0	-0	0	556.018	561.513	324.78	218.316	-0.147846	1.33069	0.0027646	-0.0160177	-3.42441
53	-0.0456083	-0.0214078	0.00988587	0.00896418	-0.0165212	-0.0395917	0.0211088	0.0286148	-0.00095219	-0.140387	-0.137996	0.116626	0.052915	-0.00383203	0.0170404	-2.2686	0.0200293	-1.53749	0	0	0	0	-0	0	0	0	-0.1265	0	-0	0	0	0	0	0	-0	0	0.105	-0.015	0	0	-0	0	0	-0.098	0.1	0	-0	0	0	0	0	0	-0	0	0.05595	0	0	0	-0	0	0	0	0	0	-0	0	556.048	561.554	324.814	218.428	-0.148364	1.33657	0.00280186	-0.0160045	-3.44206
54	-0.0461566	-0.0214146	0.00988371	0.00896073	-0.0165238	-0.0395879	0.0211087	0.0286157	-0.000953846	-0.148336	-0.143763	0.107483	0.0529207	-0.00383165	0.0170153	-2.26958	0.0199654	-1.53761	0	0	0	0	-0	0	0	0	-0.1265	0	-0	0	0	0	0	0	-0	0	0.105	-0.015	0	0	-0	0	0	-0.098	0.1	0	-0	0	0	0	0	0	-0	0	0.05595	0	0	0	-0	0	0	0	0	0	-0	0	556.112	561.641	324.889	218.654	-0.149447	1.34881	0.00287807	-0.0159753	-3.47874
55	-0.0393189	-0.0214244	0.00988048	0.00895575	-0.016528	-0.0395831	0.02111	0.0286135	-0.000951493	-0.144015	-0.127261	0.10613	0.0528012	-0.00383116	0.017382	-2.26329	0.0196153	-1.53763	0	0	0	0	-0	0	0	0	-0.1265	0	-0	0	0	0	0	0	-0	0	0.105	-0.015	0	0	-0	0	0	-0.098	0.1	0	-0	0	0	0	0	0	-0	0	0.05595	0	0	0	-0	0	0	0	0	0	-0	0	556.188	561.748	325	218.947	-0.150794	1.36433	0.0029789	-0.0159271	-3.52613
56	-0.0368177	-0.0214256	0.00987897	0.00895469	-0.0165284	-0.0395818	0.0211078	0.028614	-0.000951493	-0.144891	-0.123367	0.107417	0.0527561	-0.00383086	0.0175143	-2.26087	0.0195147	-1.53761	0	0	0	0	-0	0	0	0	-0.1265	0	-0	0	0	0	0	0	-0	0	0.105	-0.015	0	0	-0	0	0	-0.098	0.1	0	-0	0	0	0	0	0	-0	0	0.05595	0	0	0	-0	0	0	0	0	0	-0	0	556.198	561.762	325.016	218.986	-0.151112	1.36705	0.00300505	-0.0159113	-3.53437
57	-0.0343912	-0.0214278	0.00987864	0.00895248	-0.0165295	-0.0395806	0.0211076	0.0286145	-0.00095146	-0.138256	-0.123869	0.10901	0.052713	-0.00383072	0.017643	-2.25854	0.0194101	-1.53759	0	0	0	0	-0	0	0	0	-0.1265	0	-0	0	0	0	0	0	-0	0	0.105	-0.015	0	0	-0	0	0	-0.098	0.1	0	-0	0	0	0	0	0	-0	0	0.05595	0	0	0	-0	0	0	0	0	0	-0	0	556.212	561.779	325.037	219.039	-0.151454	1.37055	0.00302826	-0.0159009	-3.54462
58	-0.0281671	-0.0214292	0.00987812	0.0089516	-0.01653	-0.0395799	0.0211076	0.0286138	-0.000951179	-0.137936	-0.123231	0.10881	0.0526028	-0.00383065	0.0179715	-2.25239	0.019185	-1.53749	0	0	0	0	-0	0	0	0	-0.1265	0	-0	0	0	0	0	0	-0	0	0.105	-0.015	0	0	-0	0	0	-0.098	0.1	0	-0	0	0	0	0	0	-0	0	0.05595	0	0	0	-0	0	0	0	0	0	-0	0	556.222	561.794	325.054	219.077	-0.151713	1.37324	0.00304256	-0.0158924	-3.55251
59	-0.0240522	-0.0214303	0.00987763	0.00895136	-0.0165305	-0.0395793	0.0211077	0.028614	-0.00095124	-0.138396	-0.120757	0.112145	0.0525276	-0.00383058	0.0181881	-2.24833	0.0190342	-1.53743	0	0	0	0	-0	0	0	0	-0.1265	0	-0	0	0	0	0	0	-0	0	0.105	-0.015	0	0	-0	0	0	-0.098	0.1	0	-0	0	0	0	0	0	-0	0	0.05595	0	0	0	-0	0	0	0	0	0	-0	0	556.23	561.805	325.066	219.106	-0.151884	1.37505	0.00305338	-0.0158863	-3.55788
60	-0.0209194	-0.021431	0.00987732	0.00895086	-0.0165308	-0.0395789	0.0211076	0.0286138	-0.000951107	-0.138535	-0.11974	0.112508	0.05247	-0.00383053	0.0183527	-2.24524	0.0189194	-1.53739	0	0	0	0	-0	0	0	0	-0.1265	0	-0	0	0	0	0	0	-0	0	0.105	-0.015	0	0	-0	0	0	-0.098	0.1	0	-0	0	0	0	0	0	-0	0	0.05595	0	0	0	-0	0	0	0	0	0	-0	0	556.235	561.812	325.076	219.127	-0.152002	1.37632	0.00306166	-0.0158815	-3.56174
61	-0.0244647	-0.0214326	0.0098768	0.00895006	-0.0165316	-0.0395781	0.0211075	0.0286149	-0.000951268	-0.147042	-0.119214	0.111373	0.0525343	-0.00383046	0.0181673	-2.24887	0.0190148	-1.53748	0	0	0	0	-0	0	0	0	-0.1265	0	-0	0	0	0	0	0	-0	0	0.105	-0.015	0	0	-0	0	0	-0.098	0.1	0	-0	0	0	0	0	0	-0	0	0.05595	0	0	0	-0	0	0	0	0	0	-0	0	556.246	561.828	325.096	219.174	-0.152233	1.37898	0.00307777	-0.0158724	-3.56984
62	-0.0281542	-0.0214349	0.00987604	0.00894858	-0.0165326	-0.0395768	0.0211082	0.0286148	-0.000951283	-0.149786	-0.120347	0.103478	0.0526004	-0.00383033	0.0179744	-2.25268	0.0191031	-1.5376	0	0	0	0	-0	0	0	0	-0.1265	0	-0	0	0	0	0	0	-0	0	0.105	-0.015	0	0	-0	0	0	-0.098	0.1	0	-0	0	0	0	0	0	-0	0	0.05595	0	0	0	-0	0	0	0	0	0	-0	0	556.264	561.852	325.127	219.24	-0.152623	1.38313	0.00310422	-0.0158579	-3.58223
63	-0.0279883	-0.0214361	0.00987542	0.00894806	-0.016533	-0.0395762	0.0211078	0.028614	-0.000950779	-0.148023	-0.124453	0.105339	0.0525967	-0.00383024	0.0179835	-2.25258	0.0190799	-1.53761	0	0	0	0	-0	0	0	0	-0.1265	0	-0	0	0	0	0	0	-0	0	0.105	-0.015	0	0	-0	0	0	-0.098	0.1	0	-0	0	0	0	0	0	-0	0	0.05595	0	0	0	-0	0	0	0	0	0	-0	0	556.273	561.865	325.143	219.273	-0.152825	1.38524	0.00311726	-0.0158491	-3.58856
64	-0.0314448	-0.0214393	0.00987441	0.00894669	-0.0165345	-0.0395747	0.0211071	0.0286146	-0.000950788	-0.157531	-0.127279	0.106219	0.0526578	-0.00383008	0.0178033	-2.2562	0.0191441	-1.53774	0	0	0	0	-0	0	0	0	-0.1265	0	-0	0	0	0	0	0	-0	0	0.105	-0.015	0	0	-0	0	0	-0.098	0.1	0	-0	0	0	0	0	0	-0	0	0.05595	0	0	0	-0	0	0	0	0	0	-0	0	556.296	561.9	325.187	219.362	-0.153254	1.39032	0.0031449	-0.0158295	-3.60415
65	-0.0296901	-0.0214399	0.00987414	0.00894574	-0.0165348	-0.0395743	0.0211074	0.0286138	-0.000950603	-0.154915	-0.126722	0.105489	0.0526262	-0.00383	0.0178957	-2.25447	0.0190791	-1.53772	0	0	0	0	-0	0	0	0	-0.1265	0	-0	0	0	0	0	0	-0	0	0.105	-0.015	0	0	-0	0	0	-0.098	0.1	0	-0	0	0	0	0	0	-0	0	0.05595	0	0	0	-0	0	0	0	0	0	-0	0	556.298	561.904	325.193	219.374	-0.15335	1.39108	0.00315361	-0.0158234	-3.60646
66	-0.0277004	-0.0214408	0.00987374	0.00894558	-0.0165353	-0.0395739	0.0211076	0.0286138	-0.000950573	-0.15476	-0.13074	0.105995	0.0525902	-0.00382995	0.0180009	-2.25253	0.0189989	-1.5377	0	0	0	0	-0	0	0	0	-0.1265	0	-0	0	0	0	0	0	-0	0	0.105	-0.015	0	0	-0	0	0	-0.098	0.1	0	-0	0	0	0	0	0	-0	0	0.05595	0	0	0	-0	0	0	0	0	0	-0	0	556.305	561.913	325.206	219.399	-0.153477	1.39253	0.00316249	-0.0158178	-3.61092
67	-0.0264291	-0.0214421	0.00987317	0.0089452	-0.0165358	-0.0395733	0.0211074	0.0286139	-0.000950469	-0.158542	-0.13161	0.107961	0.0525671	-0.0038299	0.018068	-2.25133	0.0189356	-1.5377	0	0	0	0	-0	0	0	0	-0.1265	0	-0	0	0	0	0	0	-0	0	0.105	-0.015	0	0	-0	0	0	-0.098	0.1	0	-0	0	0	0	0	0	-0	0	0.05595	0	0	0	-0	0	0	0	0	0	-0	0	556.313	561.925	325.225	219.435	-0.153675	1.3948	0.00317384	-0.0158088	-3.61778
68	-0.0243641	-0.0214429	0.00987292	0.00894451	-0.0165362	-0.0395728	0.0211075	0.0286143	-0.000950534	-0.163853	-0.12981	0.107916	0.0525296	-0.00382984	0.0181768	-2.2493	0.0188565	-1.53767	0	0	0	0	-0	0	0	0	-0.1265	0	-0	0	0	0	0	0	-0	0	0.105	-0.015	0	0	-0	0	0	-0.098	0.1	0	-0	0	0	0	0	0	-0	0	0.05595	0	0	0	-0	0	0	0	0	0	-0	0	556.317	561.931	325.234	219.452	-0.153799	1.39601	0.00318298	-0.0158033	-3.62139
69	-0.0261877	-0.0214433	0.00987268	0.00894422	-0.0165364	-0.0395725	0.0211075	0.0286139	-0.000950426	-0.163742	-0.13101	0.110659	0.0525625	-0.00382981	0.0180811	-2.25114	0.0189089	-1.53772	0	0	0	0	-0	0	0	0	-0.1265	0	-0	0	0	0	0	0	-0	0	0.105	-0.015	0	0	-0	0	0	-0.098	0.1	0	-0	0	0	0	0	0	-0	0	0.05595	0	0	0	-0	0	0	0	0	0	-0	0	556.32	561.936	325.241	219.466	-0.153902	1.39699	0.00318944	-0.0157994	-3.62424
70	-0.0265698	-0.0214438	0.00987247	0.00894408	-0.0165366	-0.0395723	0.0211074	0.0286139	-0.000950467	-0.16137	-0.131912	0.111179	0.0525693	-0.00382978	0.0180611	-2.25154	0.0189155	-1.53773	0	0	0	0	-0	0	0	0	-0.1265	0	-0	0	0	0	0	0	-0	0	0.105	-0.015	0	0	-0	0	0	-0.098	0.1	0	-0	0	0	0	0	0	-0	0	0.05595	0	0	0	-0	0	0	0	0	0	-0	0	556.323	561.939	325.247	219.475	-0.153979	1.39778	0.00319365	-0.0157966	-3.62654
71	-0.0238447	-0.0214446	0.00987221	0.00894374	-0.016537	-0.0395719	0.0211074	0.0286138	-0.000950416	-0.162757	-0.130324	0.111044	0.0525198	-0.00382975	0.0182047	-2.24886	0.0188118	-1.5377	0	0	0	0	-0	0	0	0	-0.1265	0	-0	0	0	0	0	0	-0	0	0.105	-0.015	0	0	-0	0	0	-0.098	0.1	0	-0	0	0	0	0	0	-0	0	0.05595	0	0	0	-0	0	0	0	0	0	-0	0	556.328	561.947	325.259	219.497	-0.154071	1.39891	0.00320073	-0.0157912	-3.63012
72	-0.0238036	-0.0214458	0.00987183	0.00894319	-0.0165376	-0.0395714	0.0211075	0.0286139	-0.000950289	-0.163866	-0.130884	0.114711	0.0525185	-0.00382969	0.0182074	-2.24888	0.0187902	-1.53772	0	0	0	0	-0	0	0	0	-0.1265	0	-0	0	0	0	0	0	-0	0	0.105	-0.015	0	0	-0	0	0	-0.098	0.1	0	-0	0	0	0	0	0	-0	0	0.05595	0	0	0	-0	0	0	0	0	0	-0	0	556.336	561.959	325.276	219.529	-0.154212	1.4006	0.00321151	-0.0157827	-3.63546
73	-0.0204222	-0.0214475	0.00987116	0.00894228	-0.0165384	-0.0395705	0.0211078	0.0286141	-0.000950128	-0.165415	-0.126464	0.110856	0.0524565	-0.00382959	0.0183857	-2.24559	0.0186482	-1.53769	0	0	0	0	-0	0	0	0	-0.1265	0	-0	0	0	0	0	0	-0	0	0.105	-0.015	0	0	-0	0	0	-0.098	0.1	0	-0	0	0	0	0	0	-0	0	0.05595	0	0	0	-0	0	0	0	0	0	-0	0	556.348	561.976	325.303	219.575	-0.154509	1.40377	0.00322888	-0.0157697	-3.6449
74	-0.0188832	-0.0214484	0.00987068	0.00894188	-0.0165387	-0.03957	0.0211074	0.0286148	-0.000950377	-0.15733	-0.128042	0.111306	0.0524278	-0.00382953	0.0184665	-2.24409	0.0185823	-1.53768	0	0	0	0	-0	0	0	0	-0.1265	0	-0	0	0	0	0	0	-0	0	0.105	-0.015	0	0	-0	0	0	-0.098	0.1	0	-0	0	0	0	0	0	-0	0	0.05595	0	0	0	-0	0	0	0	0	0	-0	0	556.353	561.984	325.316	219.598	-0.154665	1.40534	0.00323906	-0.015762	-3.6496
75	-0.0180239	-0.0214491	0.00987051	0.00894122	-0.0165391	-0.0395696	0.0211073	0.0286139	-0.000950276	-0.160407	-0.128738	0.109656	0.0524118	-0.0038295	0.0185117	-2.24326	0.0185425	-1.53768	0	0	0	0	-0	0	0	0	-0.1265	0	-0	0	0	0	0	0	-0	0	0.105	-0.015	0	0	-0	0	0	-0.098	0.1	0	-0	0	0	0	0	0	-0	0	0.05595	0	0	0	-0	0	0	0	0	0	-0	0	556.356	561.99	325.326	219.615	-0.154762	1.4064	0.00324594	-0.0157566	-3.65284
76	-0.0196957	-0.0214497	0.00987021	0.0089411	-0.0165394	-0.0395693	0.0211074	0.0286138	-0.000950173	-0.161701	-0.126907	0.109954	0.0524426	-0.00382946	0.0184243	-2.24496	0.0185894	-1.53772	0	0	0	0	-0	0	0	0	-0.1265	0	-0	0	0	0	0	0	-0	0	0.105	-0.015	0	0	-0	0	0	-0.098	0.1	0	-0	0	0	0	0	0	-0	0	0.05595	0	0	0	-0	0	0	0	0	0	-0	0	556.359	561.994	325.334	219.627	-0.154845	1.40725	0.00325189	-0.0157527	-3.65541
77	-0.0171383	-0.0214501	0.00987005	0.00894094	-0.0165396	-0.0395692	0.0211073	0.0286138	-0.000950152	-0.163526	-0.127348	0.110308	0.0523954	-0.00382944	0.0185585	-2.24242	0.0184984	-1.53768	0	0	0	0	-0	0	0	0	-0.1265	0	-0	0	0	0	0	0	-0	0	0.105	-0.015	0	0	-0	0	0	-0.098	0.1	0	-0	0	0	0	0	0	-0	0	0.05595	0	0	0	-0	0	0	0	0	0	-0	0	556.361	561.997	325.339	219.636	-0.154898	1.40783	0.00325576	-0.0157498	-3.65722
78	-0.0162439	-0.0214504	0.00986993	0.0089408	-0.0165398	-0.039569	0.0211073	0.0286138	-0.000950142	-0.16467	-0.125691	0.110368	0.0523785	-0.00382942	0.0186054	-2.24154	0.0184641	-1.53767	0	0	0	0	-0	0	0	0	-0.1265	0	-0	0	0	0	0	0	-0	0	0.105	-0.015	0	0	-0	0	0	-0.098	0.1	0	-0	0	0	0	0	0	-0	0	0.05595	0	0	0	-0	0	0	0	0	0	-0	0	556.363	561.999	325.343	219.643	-0.154941	1.40828	0.00325845	-0.0157475	-3.65857
79	-0.016749	-0.021451	0.00986973	0.00894051	-0.01654	-0.0395687	0.0211073	0.0286139	-0.00095015	-0.163029	-0.126072	0.112561	0.0523878	-0.00382939	0.0185792	-2.24207	0.0184701	-1.53769	0	0	0	0	-0	0	0	0	-0.1265	0	-0	0	0	0	0	0	-0	0	0.105	-0.015	0	0	-0	0	0	-0.098	0.1	0	-0	0	0	0	0	0	-0	0	0.05595	0	0	0	-0	0	0	0	0	0	-0	0	556.366	562.005	325.353	219.659	-0.155014	1.40914	0.00326406	-0.015743	-3.66128
80	-0.0164284	-0.0214513	0.00986957	0.00894032	-0.0165402	-0.0395686	0.0211073	0.0286139	-0.000950095	-0.160078	-0.126853	0.111948	0.0523818	-0.00382937	0.018596	-2.24177	0.0184542	-1.53769	0	0	0	0	-0	0	0	0	-0.1265	0	-0	0	0	0	0	0	-0	0	0.105	-0.015	0	0	-0	0	0	-0.098	0.1	0	-0	0	0	0	0	0	-0	0	0.05595	0	0	0	-0	0	0	0	0	0	-0	0	556.368	562.007	325.358	219.666	-0.155077	1.40975	0.00326784	-0.0157402	-3.66305
81	-0.0153684	-0.021452	0.00986933	0.00893999	-0.0165405	-0.0395682	0.0211074	0.028614	-0.00095006	-0.162235	-0.125088	0.115606	0.0523619	-0.00382934	0.0186518	-2.24074	0.0184071	-1.53769	0	0	0	0	-0	0	0	0	-0.1265	0	-0	0	0	0	0	0	-0	0	0.105	-0.015	0	0	-0	0	0	-0.098	0.1	0	-0	0	0	0	0	0	-0	0	0.05595	0	0	0	-0	0	0	0	0	0	-0	0	556.372	562.013	325.368	219.683	-0.155175	1.41083	0.0032741	-0.0157352	-3.66633
82	-0.019892	-0.0214529	0.00986894	0.00893962	-0.0165409	-0.0395678	0.0211073	0.0286138	-0.000949994	-0.162433	-0.122842	0.114361	0.0524461	-0.0038293	0.0184152	-2.24531	0.0185387	-1.53779	0	0	0	0	-0	0	0	0	-0.1265	0	-0	0	0	0	0	0	-0	0	0.105	-0.015	0	0	-0	0	0	-0.098	0.1	0	-0	0	0	0	0	0	-0	0	0.05595	0	0	0	-0	0	0	0	0	0	-0	0	556.378	562.022	325.384	219.708	-0.155314	1.41244	0.00328228	-0.0157274	-3.67126
83	-0.0235364	-0.0214545	0.00986836	0.00893915	-0.0165417	-0.0395671	0.0211077	0.0286144	-0.0009494	-0.15909	-0.119206	0.107275	0.0525123	-0.00382923	0.0182244	-2.24902	0.0186317	-1.53789	0	0	0	0	-0	0	0	0	-0.1265	0	-0	0	0	0	0	0	-0	0	0.105	-0.015	0	0	-0	0	0	-0.098	0.1	0	-0	0	0	0	0	0	-0	0	0.05595	0	0	0	-0	0	0	0	0	0	-0	0	556.387	562.037	325.408	219.745	-0.155552	1.41507	0.00329465	-0.0157159	-3.67918
84	-0.0206888	-0.0214563	0.00986771	0.00893789	-0.0165426	-0.039566	0.0211076	0.0286137	-0.000949054	-0.168265	-0.13084	0.111898	0.0524595	-0.00382911	0.0183747	-2.24627	0.0184979	-1.53789	0	0	0	0	-0	0	0	0	-0.1265	0	-0	0	0	0	0	0	-0	0	0.105	-0.015	0	0	-0	0	0	-0.098	0.1	0	-0	0	0	0	0	0	-0	0	0.05595	0	0	0	-0	0	0	0	0	0	-0	0	556.399	562.054	325.442	219.796	-0.155801	1.41795	0.00331502	-0.0156985	-3.68829
85	-0.0232353	-0.0214595	0.00986641	0.00893682	-0.0165441	-0.0395646	0.0211072	0.0286139	-0.000949774	-0.165731	-0.131744	0.112674	0.0525058	-0.00382899	0.0182417	-2.24895	0.0185225	-1.538	0	0	0	0	-0	0	0	0	-0.1265	0	-0	0	0	0	0	0	-0	0	0.105	-0.015	0	0	-0	0	0	-0.098	0.1	0	-0	0	0	0	0	0	-0	0	0.05595	0	0	0	-0	0	0	0	0	0	-0	0	556.414	562.08	325.493	219.869	-0.156263	1.42306	0.00334002	-0.0156726	-3.7038
86	-0.0181971	-0.0214612	0.00986572	0.00893599	-0.0165451	-0.039564	0.0211073	0.0286139	-0.000949678	-0.163647	-0.134171	0.112254	0.0524134	-0.0038289	0.0185067	-2.24398	0.018327	-1.53795	0	0	0	0	-0	0	0	0	-0.1265	0	-0	0	0	0	0	0	-0	0	0.105	-0.015	0	0	-0	0	0	-0.098	0.1	0	-0	0	0	0	0	0	-0	0	0.05595	0	0	0	-0	0	0	0	0	0	-0	0	556.421	562.093	325.519	219.904	-0.156438	1.42502	0.00335409	-0.0156575	-3.7101
87	-0.0151831	-0.0214624	0.00986516	0.00893559	-0.0165457	-0.0395634	0.0211073	0.0286139	-0.000949419	-0.165854	-0.136608	0.116328	0.0523569	-0.00382884	0.0186647	-2.24102	0.0182056	-1.53792	0	0	0	0	-0	0	0	0	-0.1265	0	-0	0	0	0	0	0	-0	0	0.105	-0.015	0	0	-0	0	0	-0.098	0.1	0	-0	0	0	0	0	0	-0	0	0.05595	0	0	0	-0	0	0	0	0	0	-0	0	556.426	562.102	325.539	219.93	-0.156624	1.42693	0.00336551	-0.0156468	-3.71588
88	-0.0159958	-0.0214626	0.00986504	0.00893516	-0.0165458	-0.0395632	0.0211071	0.0286137	-0.000949637	-0.16755	-0.137903	0.1157	0.0523717	-0.0038288	0.0186222	-2.24184	0.0182276	-1.53794	0	0	0	0	-0	0	0	0	-0.1265	0	-0	0	0	0	0	0	-0	0	0.105	-0.015	0	0	-0	0	0	-0.098	0.1	0	-0	0	0	0	0	0	-0	0	0.05595	0	0	0	-0	0	0	0	0	0	-0	0	556.428	562.104	325.543	219.935	-0.156661	1.4272	0.00336959	-0.0156437	-3.71669
89	-0.0149111	-0.0214632	0.00986484	0.00893495	-0.0165462	-0.039563	0.0211071	0.0286137	-0.000949584	-0.167998	-0.138231	0.11588	0.0523514	-0.00382878	0.0186791	-2.24078	0.0181825	-1.53793	0	0	0	0	-0	0	0	0	-0.1265	0	-0	0	0	0	0	0	-0	0	0.105	-0.015	0	0	-0	0	0	-0.098	0.1	0	-0	0	0	0	0	0	-0	0	0.05595	0	0	0	-0	0	0	0	0	0	-0	0	556.43	562.107	325.551	219.946	-0.156745	1.42809	0.00337436	-0.0156396	-3.71934
90	-0.0153733	-0.0214639	0.00986458	0.00893458	-0.0165465	-0.0395626	0.0211071	0.0286138	-0.000949508	-0.164283	-0.13553	0.114668	0.0523599	-0.00382874	0.0186551	-2.24127	0.0181836	-1.53795	0	0	0	0	-0	0	0	0	-0.1265	0	-0	0	0	0	0	0	-0	0	0.105	-0.015	0	0	-0	0	0	-0.098	0.1	0	-0	0	0	0	0	0	-0	0	0.05595	0	0	0	-0	0	0	0	0	0	-0	0	556.434	562.113	325.563	219.962	-0.15685	1.42922	0.0033812	-0.0156333	-3.72282
91	-0.0126147	-0.021465	0.00986415	0.00893413	-0.016547	-0.0395621	0.0211069	0.028614	-0.000949526	-0.156232	-0.130012	0.113433	0.0523084	-0.0038287	0.0187997	-2.23856	0.018072	-1.53793	0	0	0	0	-0	0	0	0	-0.1265	0	-0	0	0	0	0	0	-0	0	0.105	-0.015	0	0	-0	0	0	-0.098	0.1	0	-0	0	0	0	0	0	-0	0	0.05595	0	0	0	-0	0	0	0	0	0	-0	0	556.438	562.121	325.582	219.985	-0.157017	1.43098	0.00339016	-0.0156239	-3.72807
92	-0.0125262	-0.0214655	0.00986395	0.00893365	-0.0165474	-0.0395618	0.0211074	0.0286141	-0.000949529	-0.154006	-0.131245	0.117767	0.0523064	-0.00382865	0.0188045	-2.23849	0.0180586	-1.53794	0	0	0	0	-0	0	0	0	-0.1265	0	-0	0	0	0	0	0	-0	0	0.105	-0.015	0	0	-0	0	0	-0.098	0.1	0	-0	0	0	0	0	0	-0	0	0.05595	0	0	0	-0	0	0	0	0	0	-0	0	556.441	562.124	325.591	219.997	-0.157107	1.43183	0.00339724	-0.0156184	-3.73066
93	-0.0130154	-0.0214665	0.00986355	0.00893326	-0.0165479	-0.0395613	0.0211069	0.0286142	-0.000949166	-0.161681	-0.134803	0.121004	0.0523153	-0.00382861	0.0187793	-2.23903	0.0180512	-1.53798	0	0	0	0	-0	0	0	0	-0.1265	0	-0	0	0	0	0	0	-0	0	0.105	-0.015	0	0	-0	0	0	-0.098	0.1	0	-0	0	0	0	0	0	-0	0	0.05595	0	0	0	-0	0	0	0	0	0	-0	0	556.447	562.134	325.611	220.022	-0.157226	1.43328	0.00340594	-0.0156083	-3.73531
94	-0.0134564	-0.0214668	0.00986347	0.00893285	-0.016548	-0.0395612	0.0211071	0.0286138	-0.000949412	-0.162078	-0.134227	0.122836	0.0523236	-0.00382858	0.0187563	-2.23947	0.0180624	-1.53799	0	0	0	0	-0	0	0	0	-0.1265	0	-0	0	0	0	0	0	-0	0	0.105	-0.015	0	0	-0	0	0	-0.098	0.1	0	-0	0	0	0	0	0	-0	0	0.05595	0	0	0	-0	0	0	0	0	0	-0	0	556.447	562.135	325.614	220.025	-0.157262	1.43356	0.00340879	-0.0156058	-3.73611
95	-0.0145863	-0.0214669	0.00986333	0.00893309	-0.0165481	-0.0395611	0.0211071	0.0286137	-0.000949427	-0.161374	-0.134349	0.123132	0.0523448	-0.00382858	0.0186971	-2.24061	0.0180973	-1.53801	0	0	0	0	-0	0	0	0	-0.1265	0	-0	0	0	0	0	0	-0	0	0.105	-0.015	0	0	-0	0	0	-0.098	0.1	0	-0	0	0	0	0	0	-0	0	0.05595	0	0	0	-0	0	0	0	0	0	-0	0	556.448	562.136	325.616	220.028	-0.15728	1.43376	0.00340958	-0.0156048	-3.73673
96	-0.0134367	-0.0214671	0.00986323	0.00893304	-0.0165482	-0.039561	0.0211071	0.0286137	-0.000949404	-0.16122	-0.13369	0.121809	0.0523232	-0.00382857	0.0187574	-2.23947	0.0180547	-1.538	0	0	0	0	-0	0	0	0	-0.1265	0	-0	0	0	0	0	0	-0	0	0.105	-0.015	0	0	-0	0	0	-0.098	0.1	0	-0	0	0	0	0	0	-0	0	0.05595	0	0	0	-0	0	0	0	0	0	-0	0	556.449	562.138	325.62	220.033	-0.15731	1.4341	0.00341101	-0.0156027	-3.73779
97	-0.0124193	-0.0214675	0.0098631	0.00893287	-0.0165484	-0.0395609	0.0211071	0.0286137	-0.000949401	-0.161622	-0.133654	0.122111	0.052304	-0.00382855	0.0188107	-2.23847	0.0180138	-1.53799	0	0	0	0	-0	0	0	0	-0.1265	0	-0	0	0	0	0	0	-0	0	0.105	-0.015	0	0	-0	0	0	-0.098	0.1	0	-0	0	0	0	0	0	-0	0	0.05595	0	0	0	-0	0	0	0	0	0	-0	0	556.451	562.141	325.626	220.041	-0.157356	1.43462	0.00341362	-0.0155994	-3.73939
98	-0.0131772	-0.021468	0.00986291	0.00893267	-0.0165487	-0.0395607	0.0211071	0.0286137	-0.000949358	-0.163141	-0.136268	0.122848	0.0523182	-0.00382853	0.0187712	-2.23925	0.0180276	-1.53801	0	0	0	0	-0	0	0	0	-0.1265	0	-0	0	0	0	0	0	-0	0	0.105	-0.015	0	0	-0	0	0	-0.098	0.1	0	-0	0	0	0	0	0	-0	0	0.05595	0	0	0	-0	0	0	0	0	0	-0	0	556.453	562.145	325.636	220.052	-0.157422	1.4354	0.00341766	-0.0155945	-3.74182
99	-0.0130798	-0.0214683	0.00986278	0.00893249	-0.0165489	-0.0395605	0.0211071	0.0286138	-0.000949414	-0.160906	-0.134811	0.123461	0.0523163	-0.00382851	0.0187764	-2.23916	0.0180188	-1.53802	0	0	0	0	-0	0	0	0	-0.1265	0	-0	0	0	0	0	0	-0	0	0.105	-0.015	0	0	-0	0	0	-0.098	0.1	0	-0	0	0	0	0	0	-0	0	0.05595	0	0	0	-0	0	0	0	0	0	-0	0	556.454	562.147	325.641	220.058	-0.157464	1.43581	0.00342109	-0.0155916	-3.74312
100	-0.0128576	-0.0214685	0.0098627	0.00893236	-0.016549	-0.0395604	0.0211071	0.0286138	-0.000949359	-0.159368	-0.13665	0.123342	0.0523121	-0.0038285	0.0187881	-2.23895	0.0180074	-1.53802	0	0	0	0	-0	0	0	0	-0.1265	0	-0	0	0	0	0	0	-0	0	0.105	-0.015	0	0	-0	0	0	-0.098	0.1	0	-0	0	0	0	0	0	-0	0	0.05595	0	0	0	-0	0	0	0	0	0	-0	0	556.455	562.149	325.644	220.062	-0.157498	1.43615	0.00342263	-0.0155896	-3.74409
