Stefan210/kinematic_calibration/src/kinematic_calibration/validation/experiments/experiments/impact_noise/bad_precision/larm_noise_6_pixel_rk_false/optimization_intermediate_results.csv
iteration	HeadPitch_offset	HeadYaw_offset	LElbowRoll_offset	LElbowYaw_offset	LShoulderPitch_offset	LShoulderRoll_offset	marker_transform_larm_tx	marker_transform_larm_ty	marker_transform_larm_tz	marker_transform_larm_rr	marker_transform_larm_rp	marker_transform_larm_ry	camera_transform_tx	camera_transform_ty	camera_transform_tz	camera_transform_rr	camera_transform_rp	camera_transform_ry	HeadPitch_transform_tx	HeadPitch_transform_ty	HeadPitch_transform_tz	HeadPitch_transform_rr	HeadPitch_transform_rp	HeadPitch_transform_ry	HeadYaw_transform_tx	HeadYaw_transform_ty	HeadYaw_transform_tz	HeadYaw_transform_rr	HeadYaw_transform_rp	HeadYaw_transform_ry	LElbowRoll_transform_tx	LElbowRoll_transform_ty	LElbowRoll_transform_tz	LElbowRoll_transform_rr	LElbowRoll_transform_rp	LElbowRoll_transform_ry	LElbowYaw_transform_tx	LElbowYaw_transform_ty	LElbowYaw_transform_tz	LElbowYaw_transform_rr	LElbowYaw_transform_rp	LElbowYaw_transform_ry	LShoulderPitch_transform_tx	LShoulderPitch_transform_ty	LShoulderPitch_transform_tz	LShoulderPitch_transform_rr	LShoulderPitch_transform_rp	LShoulderPitch_transform_ry	LShoulderRoll_transform_tx	LShoulderRoll_transform_ty	LShoulderRoll_transform_tz	LShoulderRoll_transform_rr	LShoulderRoll_transform_rp	LShoulderRoll_transform_ry	LWristYaw_transform_tx	LWristYaw_transform_ty	LWristYaw_transform_tz	LWristYaw_transform_rr	LWristYaw_transform_rp	LWristYaw_transform_ry	l_wrist_joint_transform_tx	l_wrist_joint_transform_ty	l_wrist_joint_transform_tz	l_wrist_joint_transform_rr	l_wrist_joint_transform_rp	l_wrist_joint_transform_ry	camera_fx	camera_fy	camera_cx	camera_cy	camera_D0	camera_D1	camera_D2	camera_D3	camera_D4	
0	0.0249164	-0.0307543	0.000853157	4.65819e-06	-0.000318322	-0.00310766	0.05071	0	0.01774	-2.26369	1.66533e-16	-1.5708	545.901	551.038	324.928	201.58	0.0255298	2.61142	-0.0636736	-0.0350419	0.213964
1	-0.0162201	-0.000940702	0.0412312	0.0203452	0.0178358	0.0243872	0.0266772	-0.030707	0.00143374	-6.64222e-05	-0.000370133	-0.00288753	0.0555581	-0.00264392	0.0137183	-2.19749	0.00778075	-1.53405	0	0	0	0	-0	0	0	0	-0.1265	0	-0	0	0	0	0	0	-0	0	0.105	0.015	0	0	-0	0	0	0.098	0.1	0	-0	0	0	0	0	0	-0	0	0.05595	0	0	0	-0	0	0	0	0	0	-0	0	545.901	551.039	324.928	201.581	-0.00348809	2.6024	-0.0882248	0.0208985	0.212147
2	-0.0161102	0.0128147	0.043988	0.0166133	0.0109501	0.0274901	0.0269601	-0.0309584	0.00143636	-6.57092e-05	-0.000366629	-0.0028804	0.0539594	-0.00281003	0.0169017	-2.19886	0.00329866	-1.5483	0	0	0	0	-0	0	0	0	-0.1265	0	-0	0	0	0	0	0	-0	0	0.105	0.015	0	0	-0	0	0	0.098	0.1	0	-0	0	0	0	0	0	-0	0	0.05595	0	0	0	-0	0	0	0	0	0	-0	0	545.903	551.039	324.926	201.585	-0.130922	2.52341	-0.0586234	-0.00203756	0.188221
3	-0.01628	0.0119603	0.041895	0.0180111	0.00968877	0.0250641	0.0267764	-0.0308687	0.00145155	-6.73975e-05	-0.000374652	-0.00289354	0.0553789	-0.0026874	0.0148926	-2.19762	0.00452073	-1.54892	0	0	0	0	-0	0	0	0	-0.1265	0	-0	0	0	0	0	0	-0	0	0.105	0.015	0	0	-0	0	0	0.098	0.1	0	-0	0	0	0	0	0	-0	0	0.05595	0	0	0	-0	0	0	0	0	0	-0	0	545.908	551.04	324.923	201.593	-0.387629	2.36103	-0.0311038	-0.00783761	0.140287
4	-0.0159516	0.0146087	0.0386038	0.0195796	0.00545855	0.0214394	0.0264651	-0.0306967	0.00148604	-7.21896e-05	-0.000369888	-0.00291335	0.0567624	-0.00264989	0.0133842	-2.1985	0.00391698	-1.55208	0	0	0	0	-0	0	0	0	-0.1265	0	-0	0	0	0	0	0	-0	0	0.105	0.015	0	0	-0	0	0	0.098	0.1	0	-0	0	0	0	0	0	-0	0	0.05595	0	0	0	-0	0	0	0	0	0	-0	0	545.919	551.04	324.919	201.606	-0.678427	2.06246	0.0141038	-0.0198936	0.0419226
5	-0.0156269	0.0167683	0.0357183	0.0203337	0.00290892	0.0198946	0.0262089	-0.0306	0.00147756	-6.10081e-05	-0.000376847	-0.00292994	0.0571278	-0.00264569	0.013116	-2.19975	0.00398187	-1.55421	0	0	0	0	-0	0	0	0	-0.1265	0	-0	0	0	0	0	0	-0	0	0.105	0.015	0	0	-0	0	0	0.098	0.1	0	-0	0	0	0	0	0	-0	0	0.05595	0	0	0	-0	0	0	0	0	0	-0	0	545.942	551.037	324.914	201.622	-0.699154	1.60067	0.0300194	-0.0255321	-0.131906
6	-0.0152896	0.0168831	0.0338307	0.0205027	0.00255634	0.0202086	0.0260616	-0.0305743	0.00145572	-8.95875e-05	-0.000366518	-0.00294356	0.0564536	-0.00264125	0.0139884	-2.20142	0.00518058	-1.55387	0	0	0	0	-0	0	0	0	-0.1265	0	-0	0	0	0	0	0	-0	0	0.105	0.015	0	0	-0	0	0	0.098	0.1	0	-0	0	0	0	0	0	-0	0	0.05595	0	0	0	-0	0	0	0	0	0	-0	0	545.986	551.028	324.914	201.641	-0.47204	0.925002	0.0212286	-0.0256252	-0.39537
7	-0.0149709	0.0166359	0.0326551	0.0205297	0.00258082	0.0207944	0.0259787	-0.0305642	0.00144947	-0.000213995	-0.00068707	-0.00325929	0.0556621	-0.00264372	0.0149971	-2.20289	0.00615097	-1.55312	0	0	0	0	-0	0	0	0	-0.1265	0	-0	0	0	0	0	0	-0	0	0.105	0.015	0	0	-0	0	0	0.098	0.1	0	-0	0	0	0	0	0	-0	0	0.05595	0	0	0	-0	0	0	0	0	0	-0	0	546.058	551.007	324.927	201.655	-0.228113	0.253781	0.0101354	-0.0249218	-0.632045
8	-0.015006	0.0166762	0.032164	0.0205428	0.00251585	0.0211302	0.0259464	-0.0305595	0.00145579	-0.000622053	-0.000668588	-0.00386884	0.0552157	-0.00265364	0.0155797	-2.20394	0.00644558	-1.55284	0	0	0	0	-0	0	0	0	-0.1265	0	-0	0	0	0	0	0	-0	0	0.105	0.015	0	0	-0	0	0	0.098	0.1	0	-0	0	0	0	0	0	-0	0	0.05595	0	0	0	-0	0	0	0	0	0	-0	0	546.211	550.954	324.955	201.676	-0.100094	-0.139656	0.00537928	-0.024724	-0.680232
9	-0.0158447	0.016754	0.0320489	0.0205656	0.00245213	0.0212147	0.0259385	-0.0305583	0.00146402	0.000455547	0.000145098	-0.00449128	0.0550385	-0.00266155	0.0157854	-2.2053	0.00642698	-1.55284	0	0	0	0	-0	0	0	0	-0.1265	0	-0	0	0	0	0	0	-0	0	0.105	0.015	0	0	-0	0	0	0.098	0.1	0	-0	0	0	0	0	0	-0	0	0.05595	0	0	0	-0	0	0	0	0	0	-0	0	546.623	550.803	325.006	201.741	-0.0646633	-0.327544	0.00565676	-0.0247823	-0.443987
10	-0.0108857	0.0168806	0.0320229	0.0205679	0.00237389	0.0211925	0.0259348	-0.0305588	0.00147453	0.00292915	-0.00834927	-0.00920331	0.0547155	-0.00267247	0.0163664	-2.20113	0.00610387	-1.55298	0	0	0	0	-0	0	0	0	-0.1265	0	-0	0	0	0	0	0	-0	0	0.105	0.015	0	0	-0	0	0	0.098	0.1	0	-0	0	0	0	0	0	-0	0	0.05595	0	0	0	-0	0	0	0	0	0	-0	0	547.719	550.418	325.123	201.927	-0.0491947	-0.587534	0.00928194	-0.0249569	0.250382
11	-0.0192831	0.0171452	0.0319906	0.0205523	0.00222458	0.0211226	0.0259342	-0.0305753	0.00149178	0.0279978	0.00672725	-0.0118029	0.054345	-0.00269347	0.0165295	-2.21132	0.00573661	-1.55343	0	0	0	0	-0	0	0	0	-0.1265	0	-0	0	0	0	0	0	-0	0	0.105	0.015	0	0	-0	0	0	0.098	0.1	0	-0	0	0	0	0	0	-0	0	0.05595	0	0	0	-0	0	0	0	0	0	-0	0	550.154	549.684	325.37	202.408	-0.0277048	-1.09023	0.0173508	-0.0253517	1.68137
12	-0.0449142	0.0174743	0.0319382	0.020542	0.00205216	0.021046	0.025913	-0.0305646	0.00151267	0.00895895	0.0216018	-0.0127067	0.054135	-0.0027181	0.0159376	-2.2398	0.00567544	-1.55387	0	0	0	0	-0	0	0	0	-0.1265	0	-0	0	0	0	0	0	-0	0	0.105	0.015	0	0	-0	0	0	0.098	0.1	0	-0	0	0	0	0	0	-0	0	0.05595	0	0	0	-0	0	0	0	0	0	-0	0	553.573	549.198	325.555	203.331	-0.0121827	-1.66658	0.0276495	-0.0259482	3.43885
13	-0.0219206	0.0176208	0.0318989	0.0205585	0.00198486	0.0210111	0.0259129	-0.0305739	0.00152822	-0.00606749	0.025285	0.00700954	0.0534552	-0.00272947	0.0176051	-2.21857	0.00534181	-1.55356	0	0	0	0	-0	0	0	0	-0.1265	0	-0	0	0	0	0	0	-0	0	0.105	0.015	0	0	-0	0	0	0.098	0.1	0	-0	0	0	0	0	0	-0	0	0.05595	0	0	0	-0	0	0	0	0	0	-0	0	555.577	549.365	325.405	203.964	-0.0113586	-1.9294	0.0327138	-0.0263253	4.35451
14	-0.00765978	0.0176891	0.0318696	0.0205802	0.00196383	0.0210011	0.0259058	-0.0305705	0.0015303	-0.0212429	0.0238916	0.0139688	0.0530161	-0.00273464	0.0185561	-2.20537	0.0053046	-1.55322	0	0	0	0	-0	0	0	0	-0.1265	0	-0	0	0	0	0	0	-0	0	0.105	0.015	0	0	-0	0	0	0.098	0.1	0	-0	0	0	0	0	0	-0	0	0.05595	0	0	0	-0	0	0	0	0	0	-0	0	556.663	549.682	325.189	204.364	-0.0107718	-2.05746	0.0349004	-0.026515	4.81661
15	-0.000632143	0.0177085	0.031859	0.0205856	0.0019594	0.0209964	0.0259027	-0.0305703	0.00153209	-0.0396225	0.0289036	0.0173411	0.0528213	-0.00273655	0.0189898	-2.19873	0.00529217	-1.55305	0	0	0	0	-0	0	0	0	-0.1265	0	-0	0	0	0	0	0	-0	0	0.105	0.015	0	0	-0	0	0	0.098	0.1	0	-0	0	0	0	0	0	-0	0	0.05595	0	0	0	-0	0	0	0	0	0	-0	0	557.049	549.835	325.083	204.515	-0.0106246	-2.10023	0.0355674	-0.0265802	4.97668
16	0.000846425	0.0177353	0.0318455	0.0205954	0.00195405	0.0209942	0.0259018	-0.0305732	0.00153456	-0.0619465	0.0315753	0.0198095	0.0527289	-0.0027387	0.0191394	-2.19775	0.00544179	-1.55284	0	0	0	0	-0	0	0	0	-0.1265	0	-0	0	0	0	0	0	-0	0	0.105	0.015	0	0	-0	0	0	0.098	0.1	0	-0	0	0	0	0	0	-0	0	0.05595	0	0	0	-0	0	0	0	0	0	-0	0	557.502	550.073	324.923	204.719	-0.0104665	-2.14769	0.0362476	-0.0266629	5.15371
17	0.00856309	0.0177427	0.0318395	0.0206	0.00195386	0.0209938	0.0259027	-0.0305675	0.00153398	-0.0572736	0.0347135	0.0271225	0.0525573	-0.00273944	0.0195729	-2.19024	0.00538111	-1.55271	0	0	0	0	-0	0	0	0	-0.1265	0	-0	0	0	0	0	0	-0	0	0.105	0.015	0	0	-0	0	0	0.098	0.1	0	-0	0	0	0	0	0	-0	0	0.05595	0	0	0	-0	0	0	0	0	0	-0	0	557.675	550.174	324.854	204.801	-0.0102469	-2.16561	0.0364669	-0.0266908	5.22097
18	-0.0010839	0.0177544	0.0318316	0.0206074	0.00195275	0.0209934	0.0259015	-0.0305662	0.00153533	-0.0575806	0.0293689	0.0272515	0.0527158	-0.00274038	0.019097	-2.20015	0.0056664	-1.55264	0	0	0	0	-0	0	0	0	-0.1265	0	-0	0	0	0	0	0	-0	0	0.105	0.015	0	0	-0	0	0	0.098	0.1	0	-0	0	0	0	0	0	-0	0	0.05595	0	0	0	-0	0	0	0	0	0	-0	0	557.894	550.319	324.756	204.912	-0.0101728	-2.18713	0.0367256	-0.026732	5.30409
19	0.0108209	0.0177686	0.0318206	0.0206181	0.0019531	0.0209938	0.0259024	-0.0305687	0.00153809	-0.0607709	0.032001	0.0398057	0.052451	-0.0027416	0.0197637	-2.18863	0.0056272	-1.55239	0	0	0	0	-0	0	0	0	-0.1265	0	-0	0	0	0	0	0	-0	0	0.105	0.015	0	0	-0	0	0	0.098	0.1	0	-0	0	0	0	0	0	-0	0	0.05595	0	0	0	-0	0	0	0	0	0	-0	0	558.19	550.544	324.604	205.079	-0.0102892	-2.21264	0.0370089	-0.0267881	5.40726
20	0.0104288	0.0177844	0.0318047	0.0206349	0.00195686	0.0209959	0.0259002	-0.0305769	0.00153832	-0.0861636	0.0313299	0.0335443	0.0524115	-0.00274303	0.0197876	-2.18958	0.00591061	-1.55209	0	0	0	0	-0	0	0	0	-0.1265	0	-0	0	0	0	0	0	-0	0	0.105	0.015	0	0	-0	0	0	0.098	0.1	0	-0	0	0	0	0	0	-0	0	0.05595	0	0	0	-0	0	0	0	0	0	-0	0	558.58	550.887	324.366	205.329	-0.0106678	-2.24154	0.0372717	-0.0268633	5.53176
21	0.0067754	0.0177883	0.0317982	0.0206402	0.00195977	0.0209975	0.0259005	-0.0305663	0.00153913	-0.0852067	0.0204424	0.039112	0.0524674	-0.00274355	0.0196134	-2.19346	0.00609693	-1.55198	0	0	0	0	-0	0	0	0	-0.1265	0	-0	0	0	0	0	0	-0	0	0.105	0.015	0	0	-0	0	0	0.098	0.1	0	-0	0	0	0	0	0	-0	0	0.05595	0	0	0	-0	0	0	0	0	0	-0	0	558.73	551.028	324.268	205.43	-0.0106002	-2.25305	0.0373381	-0.0268886	5.58031
22	0.00550292	0.0177939	0.0317895	0.0206503	0.0019632	0.0209983	0.0259017	-0.030571	0.00154238	-0.0753397	0.0232472	0.0250044	0.0524728	-0.00274424	0.0195668	-2.19503	0.00628538	-1.55182	0	0	0	0	-0	0	0	0	-0.1265	0	-0	0	0	0	0	0	-0	0	0.105	0.015	0	0	-0	0	0	0.098	0.1	0	-0	0	0	0	0	0	-0	0	0.05595	0	0	0	-0	0	0	0	0	0	-0	0	558.923	551.221	324.13	205.568	-0.0108429	-2.26582	0.0374107	-0.0269285	5.63945
23	0.00636301	0.0177968	0.0317833	0.0206569	0.00196692	0.0210002	0.0259002	-0.030569	0.00154201	-0.065429	0.0300128	0.0315786	0.0524422	-0.00274468	0.0196263	-2.19439	0.00639474	-1.55168	0	0	0	0	-0	0	0	0	-0.1265	0	-0	0	0	0	0	0	-0	0	0.105	0.015	0	0	-0	0	0	0.098	0.1	0	-0	0	0	0	0	0	-0	0	0.05595	0	0	0	-0	0	0	0	0	0	-0	0	559.061	551.365	324.025	205.672	-0.0108148	-2.27567	0.037442	-0.0269537	5.68304
24	0.00957645	0.0178102	0.0317587	0.0206887	0.00198122	0.0210066	0.0258984	-0.0305718	0.00155294	-0.085221	0.0451324	0.0457385	0.052337	-0.00274632	0.0198372	-2.19215	0.00689854	-1.55105	0	0	0	0	-0	0	0	0	-0.1265	0	-0	0	0	0	0	0	-0	0	0.105	0.015	0	0	-0	0	0	0.098	0.1	0	-0	0	0	0	0	0	-0	0	0.05595	0	0	0	-0	0	0	0	0	0	-0	0	559.599	551.973	323.553	206.142	-0.0130166	-2.29616	0.0375154	-0.0270807	5.81095
25	0.0103283	0.0178047	0.0317548	0.0206913	0.00198745	0.0210092	0.0258983	-0.0305679	0.00154533	-0.0841501	0.0455901	0.0571401	0.0523143	-0.00274648	0.0198834	-2.19153	0.00696478	-1.55096	0	0	0	0	-0	0	0	0	-0.1265	0	-0	0	0	0	0	0	-0	0	0.105	0.015	0	0	-0	0	0	0.098	0.1	0	-0	0	0	0	0	0	-0	0	0.05595	0	0	0	-0	0	0	0	0	0	-0	0	559.668	552.056	323.488	206.206	-0.0124286	-2.30168	0.037457	-0.0270852	5.83177
26	0.0217707	0.0178111	0.0317412	0.0207094	0.00199543	0.0210127	0.0259002	-0.0305707	0.00154677	-0.080055	0.0473644	0.0746999	0.0520674	-0.00274728	0.0205006	-2.18063	0.00705496	-1.55054	0	0	0	0	-0	0	0	0	-0.1265	0	-0	0	0	0	0	0	-0	0	0.105	0.015	0	0	-0	0	0	0.098	0.1	0	-0	0	0	0	0	0	-0	0	0.05595	0	0	0	-0	0	0	0	0	0	-0	0	559.941	552.39	323.221	206.468	-0.0134276	-2.31296	0.0374421	-0.027154	5.90187
27	0.0239086	0.0178105	0.0317342	0.0207178	0.00200184	0.0210158	0.0258977	-0.0305687	0.00154589	-0.0732294	0.0427811	0.0881395	0.0520096	-0.0027476	0.0206198	-2.17875	0.00716973	-1.55035	0	0	0	0	-0	0	0	0	-0.1265	0	-0	0	0	0	0	0	-0	0	0.105	0.015	0	0	-0	0	0	0.098	0.1	0	-0	0	0	0	0	0	-0	0	0.05595	0	0	0	-0	0	0	0	0	0	-0	0	560.072	552.552	323.088	206.599	-0.013404	-2.32023	0.0373993	-0.0271809	5.93861
28	0.0235822	0.0178116	0.0317259	0.0207288	0.00200861	0.0210185	0.0258967	-0.0305687	0.00154852	-0.0852737	0.03959	0.0827542	0.0520048	-0.00274811	0.020613	-2.17943	0.00738988	-1.55011	0	0	0	0	-0	0	0	0	-0.1265	0	-0	0	0	0	0	0	-0	0	0.105	0.015	0	0	-0	0	0	0.098	0.1	0	-0	0	0	0	0	0	-0	0	0.05595	0	0	0	-0	0	0	0	0	0	-0	0	560.238	552.765	322.908	206.774	-0.0137853	-2.32807	0.0373589	-0.0272231	5.98433
29	0.0192078	0.0178115	0.0317141	0.0207457	0.00201975	0.0210231	0.0258996	-0.030571	0.00155055	-0.0718441	0.0487405	0.0737459	0.0520802	-0.00274875	0.0203982	-2.18432	0.00780065	-1.5498	0	0	0	0	-0	0	0	0	-0.1265	0	-0	0	0	0	0	0	-0	0	0.105	0.015	0	0	-0	0	0	0.098	0.1	0	-0	0	0	0	0	0	-0	0	0.05595	0	0	0	-0	0	0	0	0	0	-0	0	560.473	553.069	322.64	207.036	-0.0144354	-2.33751	0.0372847	-0.0272841	6.0449
30	0.0103414	0.0178092	0.0317052	0.0207578	0.00202937	0.0210276	0.0258979	-0.0305687	0.00155247	-0.0731294	0.0427612	0.0593882	0.0522498	-0.00274917	0.0199457	-2.19357	0.00822977	-1.54961	0	0	0	0	-0	0	0	0	-0.1265	0	-0	0	0	0	0	0	-0	0	0.105	0.015	0	0	-0	0	0	0.098	0.1	0	-0	0	0	0	0	0	-0	0	0.05595	0	0	0	-0	0	0	0	0	0	-0	0	560.64	553.288	322.44	207.231	-0.01451	-2.34626	0.0372075	-0.0273251	6.09296
31	0.0161114	0.017807	0.0317013	0.0207629	0.00203371	0.0210293	0.0258959	-0.0305668	0.0015519	-0.0770195	0.0384652	0.0510828	0.0521282	-0.00274935	0.0202505	-2.18796	0.00820904	-1.54945	0	0	0	0	-0	0	0	0	-0.1265	0	-0	0	0	0	0	0	-0	0	0.105	0.015	0	0	-0	0	0	0.098	0.1	0	-0	0	0	0	0	0	-0	0	0.05595	0	0	0	-0	0	0	0	0	0	-0	0	560.707	553.378	322.358	207.311	-0.0143597	-2.35072	0.0371637	-0.027341	6.1143
32	0.0260279	0.0178067	0.0316881	0.0207841	0.00204678	0.0210347	0.025895	-0.0305682	0.00155728	-0.0900546	0.0491119	0.0614033	0.0519126	-0.00275009	0.0207784	-2.17868	0.00839719	-1.54893	0	0	0	0	-0	0	0	0	-0.1265	0	-0	0	0	0	0	0	-0	0	0.105	0.015	0	0	-0	0	0	0.098	0.1	0	-0	0	0	0	0	0	-0	0	0.05595	0	0	0	-0	0	0	0	0	0	-0	0	560.971	553.727	322.023	207.637	-0.015367	-2.36079	0.0370824	-0.0274202	6.18524
33	0.0285261	0.017802	0.0316841	0.020789	0.00205301	0.0210374	0.025895	-0.0305654	0.00155354	-0.0907241	0.0405433	0.0640734	0.0518533	-0.00275025	0.0209107	-2.17636	0.00845202	-1.54879	0	0	0	0	-0	0	0	0	-0.1265	0	-0	0	0	0	0	0	-0	0	0.105	0.015	0	0	-0	0	0	0.098	0.1	0	-0	0	0	0	0	0	-0	0	0.05595	0	0	0	-0	0	0	0	0	0	-0	0	561.038	553.821	321.931	207.726	-0.0149825	-2.36575	0.0370138	-0.0274339	6.20697
34	0.0461394	0.0178001	0.0316706	0.0208117	0.00206764	0.0210435	0.0258917	-0.0305767	0.0015591	-0.0616455	0.0322309	0.0589575	0.051472	-0.002751	0.0218336	-2.15944	0.00850037	-1.54815	0	0	0	0	-0	0	0	0	-0.1265	0	-0	0	0	0	0	0	-0	0	0.105	0.015	0	0	-0	0	0	0.098	0.1	0	-0	0	0	0	0	0	-0	0	0.05595	0	0	0	-0	0	0	0	0	0	-0	0	561.309	554.179	321.559	208.087	-0.0158845	-2.37802	0.0369263	-0.027521	6.28772
35	0.0481102	0.017795	0.0316633	0.0208228	0.00207745	0.0210488	0.0258949	-0.0305683	0.00155376	-0.0713196	0.0388153	0.0460636	0.0514131	-0.00275129	0.0219373	-2.15782	0.00866986	-1.54787	0	0	0	0	-0	0	0	0	-0.1265	0	-0	0	0	0	0	0	-0	0	0.105	0.015	0	0	-0	0	0	0.098	0.1	0	-0	0	0	0	0	0	-0	0	0.05595	0	0	0	-0	0	0	0	0	0	-0	0	561.436	554.351	321.373	208.266	-0.0155855	-2.38699	0.0368461	-0.0275562	6.33094
36	0.0478623	0.0177924	0.031661	0.0208248	0.00208065	0.0210497	0.0258939	-0.0305658	0.0015566	-0.0700356	0.0408309	0.0398605	0.0514164	-0.00275141	0.0219257	-2.15817	0.00874326	-1.5478	0	0	0	0	-0	0	0	0	-0.1265	0	-0	0	0	0	0	0	-0	0	0.105	0.015	0	0	-0	0	0	0.098	0.1	0	-0	0	0	0	0	0	-0	0	0.05595	0	0	0	-0	0	0	0	0	0	-0	0	561.472	554.404	321.316	208.321	-0.0153034	-2.39082	0.0368017	-0.0275658	6.34733
37	0.0446093	0.0177892	0.0316531	0.0208394	0.0020906	0.0210535	0.0258938	-0.0305669	0.00155646	-0.0779429	0.0446821	0.0303585	0.0514804	-0.00275187	0.0217634	-2.16185	0.00909184	-1.54751	0	0	0	0	-0	0	0	0	-0.1265	0	-0	0	0	0	0	0	-0	0	0.105	0.015	0	0	-0	0	0	0.098	0.1	0	-0	0	0	0	0	0	-0	0	0.05595	0	0	0	-0	0	0	0	0	0	-0	0	561.629	554.616	321.081	208.545	-0.0154709	-2.40106	0.0367319	-0.0276183	6.4046
38	0.0394378	0.017785	0.0316476	0.0208484	0.00209842	0.0210569	0.0258938	-0.0305678	0.00155946	-0.0894186	0.043584	0.0364143	0.0515877	-0.00275215	0.0215003	-2.16731	0.00940284	-1.54734	0	0	0	0	-0	0	0	0	-0.1265	0	-0	0	0	0	0	0	-0	0	0.105	0.015	0	0	-0	0	0	0.098	0.1	0	-0	0	0	0	0	0	-0	0	0.05595	0	0	0	-0	0	0	0	0	0	-0	0	561.726	554.754	320.92	208.698	-0.0150612	-2.41054	0.0366586	-0.0276497	6.44777
39	0.0358513	0.0177816	0.0316451	0.0208523	0.00210253	0.0210588	0.0258939	-0.0305655	0.00155911	-0.0865085	0.050459	0.0397432	0.0516617	-0.00275226	0.0213167	-2.17101	0.00956686	-1.54729	0	0	0	0	-0	0	0	0	-0.1265	0	-0	0	0	0	0	0	-0	0	0.105	0.015	0	0	-0	0	0	0.098	0.1	0	-0	0	0	0	0	0	-0	0	0.05595	0	0	0	-0	0	0	0	0	0	-0	0	561.766	554.809	320.854	208.76	-0.0147691	-2.4147	0.0366212	-0.0276609	6.46532
40	0.0497285	0.0177773	0.0316369	0.0208684	0.00211378	0.0210632	0.0258935	-0.0305658	0.00156015	-0.0878476	0.0501108	0.0472602	0.0513597	-0.00275271	0.0220366	-2.15762	0.00955634	-1.54679	0	0	0	0	-0	0	0	0	-0.1265	0	-0	0	0	0	0	0	-0	0	0.105	0.015	0	0	-0	0	0	0.098	0.1	0	-0	0	0	0	0	0	-0	0	0.05595	0	0	0	-0	0	0	0	0	0	-0	0	561.926	555.034	320.584	209.013	-0.0148237	-2.4267	0.0365318	-0.02772	6.53069
41	0.0390526	0.0177684	0.031625	0.0208917	0.00213143	0.0210709	0.025889	-0.0305727	0.00156882	-0.0571118	0.0272793	0.0402646	0.0515804	-0.00275334	0.0214918	-2.16899	0.0102787	-1.54636	0	0	0	0	-0	0	0	0	-0.1265	0	-0	0	0	0	0	0	-0	0	0.105	0.015	0	0	-0	0	0	0.098	0.1	0	-0	0	0	0	0	0	-0	0	0.05595	0	0	0	-0	0	0	0	0	0	-0	0	562.157	555.337	320.183	209.385	-0.0147473	-2.44508	0.0364348	-0.0278065	6.62643
42	0.0262031	0.017759	0.0316193	0.0209016	0.00214284	0.0210762	0.0258958	-0.0305689	0.00156297	-0.0552575	0.0272184	0.0242379	0.0518489	-0.00275367	0.0208307	-2.18217	0.0108367	-1.54622	0	0	0	0	-0	0	0	0	-0.1265	0	-0	0	0	0	0	0	-0	0	0.105	0.015	0	0	-0	0	0	0.098	0.1	0	-0	0	0	0	0	0	-0	0	0.05595	0	0	0	-0	0	0	0	0	0	-0	0	562.259	555.481	319.982	209.567	-0.01386	-2.45771	0.0363329	-0.0278414	6.67913
43	0.0252302	0.0177542	0.0316143	0.0209105	0.0021501	0.0210797	0.0258929	-0.0305666	0.00156257	-0.0468608	0.0270252	0.0314688	0.0518618	-0.00275383	0.0207801	-2.1834	0.0110436	-1.54603	0	0	0	0	-0	0	0	0	-0.1265	0	-0	0	0	0	0	0	-0	0	0.105	0.015	0	0	-0	0	0	0.098	0.1	0	-0	0	0	0	0	0	-0	0	0.05595	0	0	0	-0	0	0	0	0	0	-0	0	562.334	555.589	319.832	209.703	-0.0131887	-2.4684	0.0362597	-0.0278694	6.72419
44	0.0153269	0.017748	0.0316087	0.0209227	0.0021597	0.0210832	0.0258919	-0.030565	0.0015646	-0.057437	0.0375689	0.032035	0.0520639	-0.00275423	0.020268	-2.19367	0.0115602	-1.54585	0	0	0	0	-0	0	0	0	-0.1265	0	-0	0	0	0	0	0	-0	0	0.105	0.015	0	0	-0	0	0	0.098	0.1	0	-0	0	0	0	0	0	-0	0	0.05595	0	0	0	-0	0	0	0	0	0	-0	0	562.442	555.739	319.607	209.903	-0.0125503	-2.48353	0.0361925	-0.0279161	6.791
45	0.0108072	0.017743	0.0316056	0.0209281	0.00216504	0.0210856	0.0258931	-0.0305659	0.00156457	-0.0500127	0.0423985	0.033845	0.0521509	-0.00275436	0.0200328	-2.19834	0.011789	-1.54578	0	0	0	0	-0	0	0	0	-0.1265	0	-0	0	0	0	0	0	-0	0	0.105	0.015	0	0	-0	0	0	0.098	0.1	0	-0	0	0	0	0	0	-0	0	0.05595	0	0	0	-0	0	0	0	0	0	-0	0	562.483	555.803	319.514	209.984	-0.0118249	-2.49141	0.0361301	-0.0279314	6.8203
46	0.0098754	0.0177391	0.0316022	0.020935	0.00217083	0.021088	0.0258952	-0.0305687	0.00156347	-0.0438371	0.0406437	0.0497468	0.0521671	-0.00275455	0.0199847	-2.19948	0.0119687	-1.54562	0	0	0	0	-0	0	0	0	-0.1265	0	-0	0	0	0	0	0	-0	0	0.105	0.015	0	0	-0	0	0	0.098	0.1	0	-0	0	0	0	0	0	-0	0	0.05595	0	0	0	-0	0	0	0	0	0	-0	0	562.54	555.888	319.386	210.094	-0.0112202	-2.50126	0.0360736	-0.0279552	6.8612
47	0.00669758	0.0177355	0.0315997	0.0209402	0.00217558	0.0210903	0.025895	-0.0305654	0.00156807	-0.0403907	0.0260371	0.0409127	0.052229	-0.00275466	0.0198196	-2.2028	0.0121665	-1.54553	0	0	0	0	-0	0	0	0	-0.1265	0	-0	0	0	0	0	0	-0	0	0.105	0.015	0	0	-0	0	0	0.098	0.1	0	-0	0	0	0	0	0	-0	0	0.05595	0	0	0	-0	0	0	0	0	0	-0	0	562.581	555.949	319.291	210.177	-0.0106746	-2.50901	0.0360287	-0.0279718	6.8922
48	0.0156064	0.0177315	0.0315977	0.0209444	0.00217969	0.0210918	0.0258924	-0.0305653	0.00156547	-0.0457388	0.025731	0.0361392	0.0520511	-0.00275477	0.0202851	-2.19401	0.0120304	-1.54533	0	0	0	0	-0	0	0	0	-0.1265	0	-0	0	0	0	0	0	-0	0	0.105	0.015	0	0	-0	0	0	0.098	0.1	0	-0	0	0	0	0	0	-0	0	0.05595	0	0	0	-0	0	0	0	0	0	-0	0	562.61	555.995	319.219	210.238	-0.0101717	-2.5148	0.0359828	-0.0279841	6.91468
49	0.00758891	0.0177277	0.0315938	0.0209537	0.00218582	0.0210942	0.0258925	-0.030565	0.00156643	-0.0500735	0.0228356	0.0328908	0.0522101	-0.00275499	0.0198669	-2.20228	0.0124302	-1.54522	0	0	0	0	-0	0	0	0	-0.1265	0	-0	0	0	0	0	0	-0	0	0.105	0.015	0	0	-0	0	0	0.098	0.1	0	-0	0	0	0	0	0	-0	0	0.05595	0	0	0	-0	0	0	0	0	0	-0	0	562.677	556.094	319.057	210.374	-0.00957481	-2.52684	0.0359311	-0.0280172	6.96583
50	0.0121131	0.0177231	0.0315911	0.0209592	0.00219116	0.0210965	0.0258923	-0.030565	0.00156658	-0.0546756	0.0230564	0.0284995	0.0521168	-0.00275514	0.0201033	-2.19791	0.0124448	-1.54502	0	0	0	0	-0	0	0	0	-0.1265	0	-0	0	0	0	0	0	-0	0	0.105	0.015	0	0	-0	0	0	0.098	0.1	0	-0	0	0	0	0	0	-0	0	0.05595	0	0	0	-0	0	0	0	0	0	-0	0	562.72	556.156	318.952	210.462	-0.00891237	-2.53543	0.0358831	-0.0280357	6.9992
51	0.00529157	0.017718	0.0315876	0.0209676	0.00219797	0.0210994	0.0258929	-0.0305656	0.00156892	-0.0606543	0.0287827	0.0369243	0.0522514	-0.00275537	0.0197481	-2.20497	0.0128128	-1.5449	0	0	0	0	-0	0	0	0	-0.1265	0	-0	0	0	0	0	0	-0	0	0.105	0.015	0	0	-0	0	0	0.098	0.1	0	-0	0	0	0	0	0	-0	0	0.05595	0	0	0	-0	0	0	0	0	0	-0	0	562.785	556.245	318.795	210.591	-0.00822095	-2.54751	0.0358348	-0.0280661	7.0494
52	0.00703952	0.0177141	0.0315856	0.0209711	0.00220188	0.0211012	0.025893	-0.0305649	0.00156748	-0.0578481	0.0346376	0.0323571	0.0522144	-0.00275544	0.0198396	-2.20332	0.0128492	-1.54479	0	0	0	0	-0	0	0	0	-0.1265	0	-0	0	0	0	0	0	-0	0	0.105	0.015	0	0	-0	0	0	0.098	0.1	0	-0	0	0	0	0	0	-0	0	0.05595	0	0	0	-0	0	0	0	0	0	-0	0	562.809	556.282	318.73	210.644	-0.00759467	-2.55383	0.0357918	-0.0280756	7.07185
53	0.00543257	0.0177112	0.0315836	0.0209758	0.0022056	0.0211028	0.0258943	-0.0305668	0.00156848	-0.0600737	0.0307538	0.0199579	0.0522452	-0.00275556	0.0197559	-2.20506	0.0130003	-1.5447	0	0	0	0	-0	0	0	0	-0.1265	0	-0	0	0	0	0	0	-0	0	0.105	0.015	0	0	-0	0	0	0.098	0.1	0	-0	0	0	0	0	0	-0	0	0.05595	0	0	0	-0	0	0	0	0	0	-0	0	562.844	556.332	318.641	210.716	-0.0071353	-2.56118	0.0357616	-0.0280927	7.1016
54	0.00741959	0.017705	0.0315793	0.0209866	0.00221415	0.0211063	0.0258922	-0.0305655	0.00156987	-0.0516287	0.0273963	0.0143218	0.0522039	-0.00275582	0.0198597	-2.20336	0.0131937	-1.54441	0	0	0	0	-0	0	0	0	-0.1265	0	-0	0	0	0	0	0	-0	0	0.105	0.015	0	0	-0	0	0	0.098	0.1	0	-0	0	0	0	0	0	-0	0	0.05595	0	0	0	-0	0	0	0	0	0	-0	0	562.918	556.443	318.441	210.875	-0.00602705	-2.57824	0.0356856	-0.0281291	7.1705
55	-0.000558705	0.0176869	0.0315682	0.0210172	0.00223784	0.0211159	0.025893	-0.0305648	0.00157106	-0.0558205	0.0217583	0.0177761	0.0523578	-0.00275655	0.0194424	-2.21218	0.0141287	-1.54375	0	0	0	0	-0	0	0	0	-0.1265	0	-0	0	0	0	0	0	-0	0	0.105	0.015	0	0	-0	0	0	0.098	0.1	0	-0	0	0	0	0	0	-0	0	0.05595	0	0	0	-0	0	0	0	0	0	-0	0	563.136	556.731	317.85	211.335	-0.00382631	-2.62126	0.035557	-0.0282453	7.35294
56	-0.00409008	0.0176748	0.0315632	0.0210254	0.00224834	0.0211212	0.0258927	-0.030565	0.00157184	-0.060668	0.0195213	0.023227	0.0524218	-0.00275675	0.0192583	-2.21593	0.014436	-1.54359	0	0	0	0	-0	0	0	0	-0.1265	0	-0	0	0	0	0	0	-0	0	0.105	0.015	0	0	-0	0	0	0.098	0.1	0	-0	0	0	0	0	0	-0	0	0.05595	0	0	0	-0	0	0	0	0	0	-0	0	563.182	556.81	317.686	211.456	-0.0015549	-2.64096	0.0354209	-0.0282653	7.41721
57	-0.00566741	0.0176529	0.0315527	0.0210586	0.0022742	0.0211322	0.0258911	-0.0305657	0.00157478	-0.0452239	0.00946854	0.0223885	0.0524492	-0.00275744	0.0191726	-2.21836	0.0153079	-1.54275	0	0	0	0	-0	0	0	0	-0.1265	0	-0	0	0	0	0	0	-0	0	0.105	0.015	0	0	-0	0	0	0.098	0.1	0	-0	0	0	0	0	0	-0	0	0.05595	0	0	0	-0	0	0	0	0	0	-0	0	563.389	557.073	317.018	211.932	0.0015165	-2.6941	0.0353021	-0.0283924	7.63448
58	-0.0130703	0.0176237	0.031541	0.021091	0.00230327	0.021145	0.025892	-0.0305644	0.00157569	-0.0347026	0.000499264	0.0258027	0.0525887	-0.00275812	0.0187805	-2.22655	0.0163556	-1.542	0	0	0	0	-0	0	0	0	-0.1265	0	-0	0	0	0	0	0	-0	0	0.105	0.015	0	0	-0	0	0	0.098	0.1	0	-0	0	0	0	0	0	-0	0	0.05595	0	0	0	-0	0	0	0	0	0	-0	0	563.553	557.317	316.349	212.375	0.00706637	-2.76041	0.0350365	-0.0285011	7.87955
59	-0.0151733	0.0176053	0.0315342	0.0211056	0.00231832	0.0211523	0.025895	-0.0305657	0.00157985	-0.0313929	-0.00901586	0.0133938	0.052625	-0.00275838	0.0186681	-2.22896	0.0167815	-1.54167	0	0	0	0	-0	0	0	0	-0.1265	0	-0	0	0	0	0	0	-0	0	0.105	0.015	0	0	-0	0	0	0.098	0.1	0	-0	0	0	0	0	0	-0	0	0.05595	0	0	0	-0	0	0	0	0	0	-0	0	563.6	557.413	316.066	212.547	0.0111027	-2.79741	0.034826	-0.0285376	8.00152
60	-0.0153254	0.0175936	0.0315301	0.0211158	0.0023282	0.0211571	0.0258938	-0.030565	0.00157961	-0.0267693	-0.0143831	0.00295628	0.052627	-0.00275854	0.0186587	-2.22932	0.0170397	-1.54142	0	0	0	0	-0	0	0	0	-0.1265	0	-0	0	0	0	0	0	-0	0	0.105	0.015	0	0	-0	0	0	0.098	0.1	0	-0	0	0	0	0	0	-0	0	0.05595	0	0	0	-0	0	0	0	0	0	-0	0	563.631	557.479	315.867	212.662	0.0138524	-2.82364	0.0346841	-0.0285631	8.0898
61	-0.0117326	0.017588	0.0315281	0.0211203	0.00233238	0.0211591	0.025893	-0.030564	0.00157904	-0.0228182	-0.0169812	-0.00382265	0.0525596	-0.00275862	0.0188472	-2.22581	0.0170401	-1.54125	0	0	0	0	-0	0	0	0	-0.1265	0	-0	0	0	0	0	0	-0	0	0.105	0.015	0	0	-0	0	0	0.098	0.1	0	-0	0	0	0	0	0	-0	0	0.05595	0	0	0	-0	0	0	0	0	0	-0	0	563.64	557.505	315.785	212.709	0.0151941	-2.83585	0.0346178	-0.0285736	8.12919
62	-0.0161811	0.0175758	0.031524	0.0211366	0.0023441	0.0211638	0.0258972	-0.0305647	0.00157939	-0.0283049	-0.0326164	-0.00103521	0.0526447	-0.00275888	0.0186083	-2.23058	0.0175971	-1.54089	0	0	0	0	-0	0	0	0	-0.1265	0	-0	0	0	0	0	0	-0	0	0.105	0.015	0	0	-0	0	0	0.098	0.1	0	-0	0	0	0	0	0	-0	0	0.05595	0	0	0	-0	0	0	0	0	0	-0	0	563.689	557.595	315.445	212.896	0.0186278	-2.87646	0.0344854	-0.0286264	8.27593
63	-0.0132354	0.0175648	0.0315207	0.021145	0.0023529	0.0211682	0.0258949	-0.0305649	0.00158098	-0.0301993	-0.0394401	-0.0116956	0.0525889	-0.002759	0.0187618	-2.22779	0.0177307	-1.54061	0	0	0	0	-0	0	0	0	-0.1265	0	-0	0	0	0	0	0	-0	0	0.105	0.015	0	0	-0	0	0	0.098	0.1	0	-0	0	0	0	0	0	-0	0	0.05595	0	0	0	-0	0	0	0	0	0	-0	0	563.706	557.637	315.273	212.986	0.0212907	-2.90087	0.0343614	-0.0286469	8.35563
64	-0.0142542	0.0175563	0.031518	0.0211533	0.00235973	0.0211713	0.0258942	-0.0305644	0.00158089	-0.03452	-0.0446658	-0.0194704	0.0526081	-0.00275915	0.0187062	-2.22896	0.0179744	-1.54041	0	0	0	0	-0	0	0	0	-0.1265	0	-0	0	0	0	0	0	-0	0	0.105	0.015	0	0	-0	0	0	0.098	0.1	0	-0	0	0	0	0	0	-0	0	0.05595	0	0	0	-0	0	0	0	0	0	-0	0	563.723	557.677	315.104	213.072	0.0235215	-2.92354	0.0342695	-0.0286705	8.43239
65	-0.0251199	0.0175457	0.0315147	0.0211652	0.00236893	0.0211754	0.0258936	-0.0305627	0.00158113	-0.0334211	-0.051955	-0.0160264	0.0528118	-0.00275934	0.0181318	-2.24004	0.0186253	-1.54029	0	0	0	0	-0	0	0	0	-0.1265	0	-0	0	0	0	0	0	-0	0	0.105	0.015	0	0	-0	0	0	0.098	0.1	0	-0	0	0	0	0	0	-0	0	0.05595	0	0	0	-0	0	0	0	0	0	-0	0	563.754	557.732	314.85	213.197	0.0265255	-2.95649	0.034162	-0.0287073	8.5474
66	-0.0303235	0.0175403	0.0315128	0.0211685	0.00237254	0.0211773	0.0258932	-0.0305628	0.00158195	-0.0334424	-0.0482917	-0.01259	0.0529022	-0.0027594	0.0178562	-2.24529	0.0188557	-1.54032	0	0	0	0	-0	0	0	0	-0.1265	0	-0	0	0	0	0	0	-0	0	0.105	0.015	0	0	-0	0	0	0.098	0.1	0	-0	0	0	0	0	0	-0	0	0.05595	0	0	0	-0	0	0	0	0	0	-0	0	563.758	557.745	314.797	213.222	0.0276586	-2.96533	0.0341084	-0.028713	8.57326
67	-0.0229305	0.0175369	0.0315118	0.0211718	0.00237529	0.0211785	0.0258929	-0.0305626	0.00158199	-0.0346801	-0.0487203	-0.0108531	0.0527698	-0.00275946	0.0182461	-2.23795	0.0187238	-1.54009	0	0	0	0	-0	0	0	0	-0.1265	0	-0	0	0	0	0	0	-0	0	0.105	0.015	0	0	-0	0	0	0.098	0.1	0	-0	0	0	0	0	0	-0	0	0.05595	0	0	0	-0	0	0	0	0	0	-0	0	563.764	557.762	314.724	213.256	0.0286453	-2.97534	0.0340645	-0.0287226	8.60741
68	-0.0268095	0.0175339	0.0315108	0.0211747	0.0023776	0.0211796	0.0258931	-0.0305628	0.00158199	-0.0318266	-0.0496802	-0.00713748	0.0528391	-0.0027595	0.0180404	-2.24188	0.0189158	-1.54009	0	0	0	0	-0	0	0	0	-0.1265	0	-0	0	0	0	0	0	-0	0	0.105	0.015	0	0	-0	0	0	0.098	0.1	0	-0	0	0	0	0	0	-0	0	0.05595	0	0	0	-0	0	0	0	0	0	-0	0	563.769	557.773	314.667	213.283	0.029494	-2.98376	0.0340319	-0.0287302	8.63544
69	-0.0208572	0.0175302	0.0315098	0.0211786	0.00238072	0.021181	0.0258944	-0.0305645	0.00158229	-0.0375432	-0.0531564	-0.0159541	0.0527316	-0.00275957	0.0183535	-2.236	0.0188424	-1.53986	0	0	0	0	-0	0	0	0	-0.1265	0	-0	0	0	0	0	0	-0	0	0.105	0.015	0	0	-0	0	0	0.098	0.1	0	-0	0	0	0	0	0	-0	0	0.05595	0	0	0	-0	0	0	0	0	0	-0	0	563.776	557.791	314.581	213.322	0.030667	-2.99599	0.0339857	-0.0287415	8.6774
70	-0.0235057	0.0175268	0.0315087	0.0211817	0.00238355	0.0211825	0.0258934	-0.0305634	0.00158245	-0.0314634	-0.0516294	-0.0117501	0.0527792	-0.00275961	0.0182131	-2.23869	0.0190069	-1.53983	0	0	0	0	-0	0	0	0	-0.1265	0	-0	0	0	0	0	0	-0	0	0.105	0.015	0	0	-0	0	0	0.098	0.1	0	-0	0	0	0	0	0	-0	0	0.05595	0	0	0	-0	0	0	0	0	0	-0	0	563.781	557.804	314.516	213.351	0.0316705	-3.00573	0.0339463	-0.0287491	8.70971
71	-0.0193902	0.0175225	0.0315075	0.0211863	0.00238696	0.0211839	0.0258941	-0.0305641	0.0015824	-0.0258055	-0.0510854	-0.00279332	0.0527044	-0.00275969	0.018429	-2.23465	0.0190035	-1.53963	0	0	0	0	-0	0	0	0	-0.1265	0	-0	0	0	0	0	0	-0	0	0.105	0.015	0	0	-0	0	0	0.098	0.1	0	-0	0	0	0	0	0	-0	0	0.05595	0	0	0	-0	0	0	0	0	0	-0	0	563.789	557.823	314.418	213.395	0.0329712	-3.01958	0.0338999	-0.0287627	8.75731
72	-0.0151872	0.0175142	0.031505	0.0211962	0.00239426	0.0211873	0.0258931	-0.0305636	0.00158469	-0.0358578	-0.0477231	0.00274764	0.0526271	-0.00275982	0.0186478	-2.23062	0.0191492	-1.53927	0	0	0	0	-0	0	0	0	-0.1265	0	-0	0	0	0	0	0	-0	0	0.105	0.015	0	0	-0	0	0	0.098	0.1	0	-0	0	0	0	0	0	-0	0	0.05595	0	0	0	-0	0	0	0	0	0	-0	0	563.808	557.862	314.199	213.49	0.0358082	-3.05029	0.0338047	-0.0287926	8.86367
73	-0.011654	0.0175032	0.0315021	0.0212064	0.00240278	0.0211912	0.0258937	-0.0305652	0.00158269	-0.0229508	-0.0504829	0.0108873	0.0525612	-0.00275999	0.0188312	-2.22724	0.0193179	-1.53892	0	0	0	0	-0	0	0	0	-0.1265	0	-0	0	0	0	0	0	-0	0	0.105	0.015	0	0	-0	0	0	0.098	0.1	0	-0	0	0	0	0	0	-0	0	0.05595	0	0	0	-0	0	0	0	0	0	-0	0	563.822	557.896	313.977	213.583	0.0389225	-3.08175	0.0336943	-0.028822	8.96943
74	-0.0127579	0.0174943	0.0314995	0.0212147	0.00240978	0.0211948	0.0258949	-0.0305635	0.0015853	-0.0195527	-0.0455366	0.0196639	0.0525819	-0.00276011	0.0187711	-2.22847	0.0195832	-1.5387	0	0	0	0	-0	0	0	0	-0.1265	0	-0	0	0	0	0	0	-0	0	0.105	0.015	0	0	-0	0	0	0.098	0.1	0	-0	0	0	0	0	0	-0	0	0.05595	0	0	0	-0	0	0	0	0	0	-0	0	563.834	557.924	313.794	213.657	0.0415693	-3.10827	0.0335988	-0.0288452	9.05824
75	-0.011929	0.0174883	0.0314979	0.0212186	0.00241392	0.0211968	0.0258936	-0.0305623	0.00158559	-0.0234634	-0.0436265	0.0242727	0.0525659	-0.00276017	0.0188143	-2.2277	0.019654	-1.53859	0	0	0	0	-0	0	0	0	-0.1265	0	-0	0	0	0	0	0	-0	0	0.105	0.015	0	0	-0	0	0	0.098	0.1	0	-0	0	0	0	0	0	-0	0	0.05595	0	0	0	-0	0	0	0	0	0	-0	0	563.837	557.937	313.718	213.686	0.0430303	-3.1206	0.0335312	-0.0288531	9.09672
76	-0.00304363	0.0174837	0.0314965	0.0212235	0.00241741	0.0211984	0.0258934	-0.0305639	0.001586	-0.0116236	-0.0440872	0.0216135	0.0523991	-0.00276025	0.0192801	-2.21888	0.0194983	-1.53828	0	0	0	0	-0	0	0	0	-0.1265	0	-0	0	0	0	0	0	-0	0	0.105	0.015	0	0	-0	0	0	0.098	0.1	0	-0	0	0	0	0	0	-0	0	0.05595	0	0	0	-0	0	0	0	0	0	-0	0	563.842	557.953	313.613	213.726	0.0445315	-3.13605	0.0334774	-0.028867	9.14903
77	-0.00425356	0.0174748	0.0314939	0.0212341	0.00242486	0.0212022	0.025895	-0.0305651	0.00158498	-0.000851863	-0.0440033	0.0318685	0.0524212	-0.00276036	0.0192133	-2.22024	0.0198303	-1.538	0	0	0	0	-0	0	0	0	-0.1265	0	-0	0	0	0	0	0	-0	0	0.105	0.015	0	0	-0	0	0	0.098	0.1	0	-0	0	0	0	0	0	-0	0	0.05595	0	0	0	-0	0	0	0	0	0	-0	0	563.857	557.984	313.378	213.815	0.0476443	-3.16935	0.0333817	-0.0288985	9.26346
78	-0.00169321	0.0174676	0.0314919	0.0212393	0.00243016	0.021205	0.0258944	-0.0305625	0.00158676	0.00401382	-0.0396797	0.0363911	0.0523719	-0.00276046	0.0193464	-2.21775	0.0198973	-1.53779	0	0	0	0	-0	0	0	0	-0.1265	0	-0	0	0	0	0	0	-0	0	0.105	0.015	0	0	-0	0	0	0.098	0.1	0	-0	0	0	0	0	0	-0	0	0.05595	0	0	0	-0	0	0	0	0	0	-0	0	563.86	558.002	313.258	213.858	0.0497586	-3.18853	0.0332938	-0.0289113	9.32506
79	-0.00575548	0.0174635	0.0314908	0.0212421	0.00243276	0.0212061	0.0258937	-0.0305617	0.00158693	0.00698885	-0.0390858	0.034078	0.05245	-0.00276052	0.0191334	-2.22185	0.020094	-1.5378	0	0	0	0	-0	0	0	0	-0.1265	0	-0	0	0	0	0	0	-0	0	0.105	0.015	0	0	-0	0	0	0.098	0.1	0	-0	0	0	0	0	0	-0	0	0.05595	0	0	0	-0	0	0	0	0	0	-0	0	563.861	558.008	313.208	213.875	0.0507123	-3.1968	0.0332556	-0.0289173	9.3508
80	-0.00757282	0.0174563	0.0314888	0.0212509	0.00243866	0.0212089	0.0258936	-0.0305614	0.00158757	0.000254217	-0.0318273	0.0343935	0.0524858	-0.0027606	0.0190349	-2.22378	0.0204079	-1.53758	0	0	0	0	-0	0	0	0	-0.1265	0	-0	0	0	0	0	0	-0	0	0.105	0.015	0	0	-0	0	0	0.098	0.1	0	-0	0	0	0	0	0	-0	0	0.05595	0	0	0	-0	0	0	0	0	0	-0	0	563.869	558.032	313.005	213.946	0.0534065	-3.22563	0.0331664	-0.0289441	9.45046
81	-0.0115997	0.0174466	0.0314864	0.0212599	0.00244592	0.0212125	0.0258945	-0.0305611	0.00158719	0.00586	-0.0426445	0.0384768	0.0525629	-0.00276074	0.0188212	-2.22792	0.0208005	-1.5374	0	0	0	0	-0	0	0	0	-0.1265	0	-0	0	0	0	0	0	-0	0	0.105	0.015	0	0	-0	0	0	0.098	0.1	0	-0	0	0	0	0	0	-0	0	0.05595	0	0	0	-0	0	0	0	0	0	-0	0	563.874	558.052	312.799	214.015	0.0565915	-3.25744	0.0330617	-0.0289694	9.55648
82	-0.0144433	0.0174336	0.031483	0.0212733	0.00245593	0.0212177	0.0258957	-0.0305638	0.00158838	-0.00125174	-0.0441958	0.0275903	0.0526172	-0.00276088	0.0186678	-2.23093	0.0212871	-1.53706	0	0	0	0	-0	0	0	0	-0.1265	0	-0	0	0	0	0	0	-0	0	0.105	0.015	0	0	-0	0	0	0.098	0.1	0	-0	0	0	0	0	0	-0	0	0.05595	0	0	0	-0	0	0	0	0	0	-0	0	563.883	558.08	312.488	214.115	0.0611175	-3.30371	0.0329179	-0.0290086	9.7126
83	-0.00406606	0.0174246	0.0314806	0.0212794	0.00246223	0.0212213	0.0258953	-0.0305614	0.00158933	0.00239679	-0.0368045	0.0249202	0.0524229	-0.00276099	0.019213	-2.22062	0.0211022	-1.53667	0	0	0	0	-0	0	0	0	-0.1265	0	-0	0	0	0	0	0	-0	0	0.105	0.015	0	0	-0	0	0	0.098	0.1	0	-0	0	0	0	0	0	-0	0	0.05595	0	0	0	-0	0	0	0	0	0	-0	0	563.882	558.094	312.358	214.154	0.0636737	-3.32555	0.0328101	-0.0290218	9.7804
84	0.00711019	0.0174138	0.0314775	0.0212917	0.0024703	0.0212254	0.0258976	-0.0305644	0.0015928	-0.00217002	-0.0304091	0.040833	0.0522072	-0.00276108	0.0197937	-2.20958	0.0210519	-1.53609	0	0	0	0	-0	0	0	0	-0.1265	0	-0	0	0	0	0	0	-0	0	0.105	0.015	0	0	-0	0	0	0.098	0.1	0	-0	0	0	0	0	0	-0	0	0.05595	0	0	0	-0	0	0	0	0	0	-0	0	563.882	558.118	312.089	214.234	0.0677431	-3.36649	0.0326677	-0.029055	9.91817
85	-0.00633012	0.0173963	0.0314734	0.0213088	0.0024835	0.0212325	0.0258946	-0.0305631	0.0015884	0.0120062	-0.0407672	0.0501092	0.0524722	-0.00276123	0.0190855	-2.2232	0.0220203	-1.53584	0	0	0	0	-0	0	0	0	-0.1265	0	-0	0	0	0	0	0	-0	0	0.105	0.015	0	0	-0	0	0	0.098	0.1	0	-0	0	0	0	0	0	-0	0	0.05595	0	0	0	-0	0	0	0	0	0	-0	0	563.88	558.143	311.681	214.348	0.0741489	-3.43006	0.0324569	-0.0291029	10.1303
86	-0.00736914	0.0173726	0.031467	0.0213344	0.00250104	0.0212423	0.0258864	-0.030589	0.00159332	-0.0374782	-0.0238509	0.0481203	0.0524899	-0.00276149	0.0190221	-2.22449	0.0228326	-1.53507	0	0	0	0	-0	0	0	0	-0.1265	0	-0	0	0	0	0	0	-0	0	0.105	0.015	0	0	-0	0	0	0.098	0.1	0	-0	0	0	0	0	0	-0	0	0.05595	0	0	0	-0	0	0	0	0	0	-0	0	563.886	558.172	311.062	214.507	0.083291	-3.52421	0.0321957	-0.0291811	10.4477
87	-0.00779371	0.0173359	0.0314586	0.0213703	0.0025286	0.0212595	0.0259018	-0.030566	0.00159858	-0.037276	-0.0321103	0.0279325	0.0525029	-0.00276181	0.0189886	-2.22526	0.0240247	-1.53387	0	0	0	0	-0	0	0	0	-0.1265	0	-0	0	0	0	0	0	-0	0	0.105	0.015	0	0	-0	0	0	0.098	0.1	0	-0	0	0	0	0	0	-0	0	0.05595	0	0	0	-0	0	0	0	0	0	-0	0	563.883	558.197	310.119	214.725	0.0970775	-3.66314	0.0317953	-0.0292949	10.9126
88	-0.0120757	0.0173132	0.0314528	0.0213799	0.00254262	0.0212662	0.0258964	-0.0305605	0.00159615	-0.0429663	-0.0360287	0.0221115	0.0525818	-0.0027621	0.0187644	-2.22958	0.024366	-1.53378	0	0	0	0	-0	0	0	0	-0.1265	0	-0	0	0	0	0	0	-0	0	0.105	0.015	0	0	-0	0	0	0.098	0.1	0	-0	0	0	0	0	0	-0	0	0.05595	0	0	0	-0	0	0	0	0	0	-0	0	563.864	558.208	309.983	214.751	0.101838	-3.69275	0.0315159	-0.0293062	10.9901
89	0.00291983	0.0172953	0.0314472	0.0214035	0.00255486	0.0212736	0.0259001	-0.0305657	0.00160484	-0.056899	-0.0250173	0.0421102	0.052307	-0.00276211	0.0195409	-2.21475	0.0245095	-1.5327	0	0	0	0	-0	0	0	0	-0.1265	0	-0	0	0	0	0	0	-0	0	0.105	0.015	0	0	-0	0	0	0.098	0.1	0	-0	0	0	0	0	0	-0	0	0.05595	0	0	0	-0	0	0	0	0	0	-0	0	563.819	558.222	309.418	214.855	0.111432	-3.78706	0.0311739	-0.0293717	11.3041
90	-0.000301252	0.0172818	0.0314443	0.0214095	0.00256341	0.0212786	0.0258963	-0.0305592	0.00159813	-0.055764	-0.0244954	0.0486371	0.0523624	-0.00276228	0.0193713	-2.21799	0.0247334	-1.53265	0	0	0	0	-0	0	0	0	-0.1265	0	-0	0	0	0	0	0	-0	0	0.105	0.015	0	0	-0	0	0	0.098	0.1	0	-0	0	0	0	0	0	-0	0	0.05595	0	0	0	-0	0	0	0	0	0	-0	0	563.808	558.227	309.338	214.869	0.114341	-3.80559	0.0310183	-0.0293771	11.3517
91	-0.0123349	0.0172728	0.0314408	0.0214223	0.00256938	0.0212825	0.0258984	-0.0305608	0.00159913	-0.04578	-0.0157864	0.0507177	0.0526	-0.0027623	0.0187337	-2.23009	0.0256021	-1.53253	0	0	0	0	-0	0	0	0	-0.1265	0	-0	0	0	0	0	0	-0	0	0.105	0.015	0	0	-0	0	0	0.098	0.1	0	-0	0	0	0	0	0	-0	0	0.05595	0	0	0	-0	0	0	0	0	0	-0	0	563.776	558.236	309.006	214.923	0.120149	-3.86203	0.0307991	-0.0294154	11.5389
92	-0.000248053	0.0172626	0.031438	0.0214307	0.00257611	0.0212867	0.0258964	-0.030558	0.00159909	-0.0422568	-0.0229746	0.0534813	0.0523705	-0.00276239	0.0193656	-2.21804	0.0253542	-1.532	0	0	0	0	-0	0	0	0	-0.1265	0	-0	0	0	0	0	0	-0	0	0.105	0.015	0	0	-0	0	0	0.098	0.1	0	-0	0	0	0	0	0	-0	0	0.05595	0	0	0	-0	0	0	0	0	0	-0	0	563.756	558.241	308.837	214.948	0.124021	-3.89423	0.0306278	-0.0294324	11.6379
93	0.00839025	0.0172497	0.0314343	0.0214462	0.0025848	0.0212923	0.025901	-0.030561	0.00160026	-0.0523052	-0.0358138	0.0599551	0.0522036	-0.00276242	0.0198095	-2.20949	0.0254867	-1.53129	0	0	0	0	-0	0	0	0	-0.1265	0	-0	0	0	0	0	0	-0	0	0.105	0.015	0	0	-0	0	0	0.098	0.1	0	-0	0	0	0	0	0	-0	0	0.05595	0	0	0	-0	0	0	0	0	0	-0	0	563.719	558.237	308.455	215.005	0.13098	-3.96119	0.0303893	-0.0294762	11.8583
94	0.0240023	0.0172282	0.0314286	0.0214687	0.00259988	0.0213026	0.025895	-0.0305619	0.00160345	-0.0317255	-0.0449887	0.0563202	0.0518968	-0.00276252	0.0206155	-2.19399	0.0255684	-1.53014	0	0	0	0	-0	0	0	0	-0.1265	0	-0	0	0	0	0	0	-0	0	0.105	0.015	0	0	-0	0	0	0.098	0.1	0	-0	0	0	0	0	0	-0	0	0.05595	0	0	0	-0	0	0	0	0	0	-0	0	563.668	558.224	307.877	215.084	0.141918	-4.06475	0.0300245	-0.029541	12.1968
95	0.0185695	0.0172111	0.0314237	0.0214832	0.00261046	0.0213094	0.0258978	-0.030559	0.00160124	-0.0399224	-0.0407708	0.0465996	0.0520042	-0.00276273	0.0203273	-2.19947	0.0261491	-1.52987	0	0	0	0	-0	0	0	0	-0.1265	0	-0	0	0	0	0	0	-0	0	0.105	0.015	0	0	-0	0	0	0.098	0.1	0	-0	0	0	0	0	0	-0	0	0.05595	0	0	0	-0	0	0	0	0	0	-0	0	563.634	558.224	307.578	215.121	0.148536	-4.12092	0.0297521	-0.029576	12.3702
96	0.0192364	0.0172028	0.0314214	0.0214885	0.00261549	0.0213127	0.0258975	-0.0305572	0.0016032	-0.043193	-0.0435878	0.0514557	0.0519906	-0.00276285	0.02036	-2.19882	0.0262772	-1.52968	0	0	0	0	-0	0	0	0	-0.1265	0	-0	0	0	0	0	0	-0	0	0.105	0.015	0	0	-0	0	0	0.098	0.1	0	-0	0	0	0	0	0	-0	0	0.05595	0	0	0	-0	0	0	0	0	0	-0	0	563.615	558.226	307.453	215.135	0.151629	-4.14578	0.0296102	-0.0295899	12.4452
97	0.0319001	0.017196	0.0314193	0.0214958	0.0026199	0.0213157	0.0258991	-0.0305579	0.00160398	-0.0497438	-0.0522306	0.0480173	0.0517348	-0.00276286	0.0210151	-2.18619	0.0259629	-1.52912	0	0	0	0	-0	0	0	0	-0.1265	0	-0	0	0	0	0	0	-0	0	0.105	0.015	0	0	-0	0	0	0.098	0.1	0	-0	0	0	0	0	0	-0	0	0.05595	0	0	0	-0	0	0	0	0	0	-0	0	563.592	558.225	307.28	215.155	0.155176	-4.17744	0.0294653	-0.0296093	12.5467
98	0.0280251	0.0171898	0.0314175	0.0215021	0.00262398	0.0213186	0.025898	-0.0305568	0.00160386	-0.0526919	-0.0577743	0.052212	0.0518135	-0.00276287	0.0208105	-2.19007	0.0262803	-1.52905	0	0	0	0	-0	0	0	0	-0.1265	0	-0	0	0	0	0	0	-0	0	0.105	0.015	0	0	-0	0	0	0.098	0.1	0	-0	0	0	0	0	0	-0	0	0.05595	0	0	0	-0	0	0	0	0	0	-0	0	563.573	558.224	307.15	215.169	0.158003	-4.20185	0.029345	-0.0296237	12.6237
99	0.0240438	0.0171832	0.0314153	0.0215095	0.00262827	0.0213218	0.0258994	-0.0305552	0.00160482	-0.0462493	-0.0762175	0.0518112	0.0518985	-0.0027629	0.0206003	-2.19408	0.0266834	-1.52889	0	0	0	0	-0	0	0	0	-0.1265	0	-0	0	0	0	0	0	-0	0	0.105	0.015	0	0	-0	0	0	0.098	0.1	0	-0	0	0	0	0	0	-0	0	0.05595	0	0	0	-0	0	0	0	0	0	-0	0	563.546	558.221	306.953	215.19	0.162071	-4.23865	0.0291845	-0.0296458	12.7419
100	0.0111776	0.0171728	0.0314122	0.0215213	0.00263532	0.0213269	0.0259007	-0.0305577	0.0016064	-0.0418855	-0.0649601	0.05986	0.0521663	-0.00276291	0.0199273	-2.20697	0.0275806	-1.52885	0	0	0	0	-0	0	0	0	-0.1265	0	-0	0	0	0	0	0	-0	0	0.105	0.015	0	0	-0	0	0	0.098	0.1	0	-0	0	0	0	0	0	-0	0	0.05595	0	0	0	-0	0	0	0	0	0	-0	0	563.509	558.211	306.656	215.221	0.167994	-4.29319	0.0289694	-0.0296805	12.9185
