Stefan210/kinematic_calibration/src/kinematic_calibration/validation/experiments/experiments/anzahl_messungen/BC_A/larm_51/optimization_intermediate_results.csv
iteration	HeadPitch_offset	HeadYaw_offset	LElbowRoll_offset	LElbowYaw_offset	LShoulderPitch_offset	LShoulderRoll_offset	marker_transform_larm_tx	marker_transform_larm_ty	marker_transform_larm_tz	marker_transform_larm_rr	marker_transform_larm_rp	marker_transform_larm_ry	camera_transform_tx	camera_transform_ty	camera_transform_tz	camera_transform_rr	camera_transform_rp	camera_transform_ry	HeadPitch_transform_tx	HeadPitch_transform_ty	HeadPitch_transform_tz	HeadPitch_transform_rr	HeadPitch_transform_rp	HeadPitch_transform_ry	HeadYaw_transform_tx	HeadYaw_transform_ty	HeadYaw_transform_tz	HeadYaw_transform_rr	HeadYaw_transform_rp	HeadYaw_transform_ry	LElbowRoll_transform_tx	LElbowRoll_transform_ty	LElbowRoll_transform_tz	LElbowRoll_transform_rr	LElbowRoll_transform_rp	LElbowRoll_transform_ry	LElbowYaw_transform_tx	LElbowYaw_transform_ty	LElbowYaw_transform_tz	LElbowYaw_transform_rr	LElbowYaw_transform_rp	LElbowYaw_transform_ry	LShoulderPitch_transform_tx	LShoulderPitch_transform_ty	LShoulderPitch_transform_tz	LShoulderPitch_transform_rr	LShoulderPitch_transform_rp	LShoulderPitch_transform_ry	LShoulderRoll_transform_tx	LShoulderRoll_transform_ty	LShoulderRoll_transform_tz	LShoulderRoll_transform_rr	LShoulderRoll_transform_rp	LShoulderRoll_transform_ry	LWristYaw_transform_tx	LWristYaw_transform_ty	LWristYaw_transform_tz	LWristYaw_transform_rr	LWristYaw_transform_rp	LWristYaw_transform_ry	l_wrist_joint_transform_tx	l_wrist_joint_transform_ty	l_wrist_joint_transform_tz	l_wrist_joint_transform_rr	l_wrist_joint_transform_rp	l_wrist_joint_transform_ry	camera_fx	camera_fy	camera_cx	camera_cy	camera_D0	camera_D1	camera_D2	camera_D3	camera_D4	
0	0.0249164	-0.0307543	0.000853157	4.65819e-06	-0.000318322	-0.00310766	0.05071	0	0.01774	-2.26369	1.66533e-16	-1.5708	545.901	551.038	324.928	201.58	0.0255298	2.61142	-0.0636736	-0.0350419	0.213964
1	-0.0147116	0.0230354	0.0096092	0.0235056	-0.0100177	0.0257582	0.0241097	-0.0297304	0.00241452	-0.000189269	-0.000476064	-0.00310476	0.0568098	0.000116607	0.0176458	-2.20441	-0.00595997	-1.56041	0	0	0	0	-0	0	0	0	-0.1265	0	-0	0	0	0	0	0	-0	0	0.105	0.015	0	0	-0	0	0	0.098	0.1	0	-0	0	0	0	0	0	-0	0	0.05595	0	0	0	-0	0	0	0	0	0	-0	0	545.901	551.039	324.927	201.581	-0.0164274	2.59659	-0.0851532	0.0493433	0.21054
2	-0.0130148	0.0357866	0.0103738	0.0252738	-0.0182187	0.0328475	0.0240598	-0.0297713	0.00237409	-0.000184639	-0.000472602	-0.00311448	0.0551693	-6.40533e-05	0.0218123	-2.21229	-0.00980677	-1.56879	0	0	0	0	-0	0	0	0	-0.1265	0	-0	0	0	0	0	0	-0	0	0.105	0.015	0	0	-0	0	0	0.098	0.1	0	-0	0	0	0	0	0	-0	0	0.05595	0	0	0	-0	0	0	0	0	0	-0	0	545.903	551.039	324.924	201.585	-0.152117	2.50476	-0.0427384	0.0155694	0.178892
3	-0.0144778	0.0327415	0.00868869	0.0296551	-0.0153125	0.0347501	0.024175	-0.0296745	0.00258451	-0.00021016	-0.000492254	-0.0030917	0.0565839	0.000531312	0.0185274	-2.20559	-0.009641	-1.56922	0	0	0	0	-0	0	0	0	-0.1265	0	-0	0	0	0	0	0	-0	0	0.105	0.015	0	0	-0	0	0	0.098	0.1	0	-0	0	0	0	0	0	-0	0	0.05595	0	0	0	-0	0	0	0	0	0	-0	0	545.905	551.039	324.919	201.591	-0.39558	2.34947	-0.0258821	0.0113364	0.127896
4	-0.0153769	0.0319234	0.00906587	0.0344735	-0.0131871	0.0364069	0.0244159	-0.0295943	0.00278333	-0.000235211	-0.00050867	-0.00305088	0.0577535	0.000717924	0.0157782	-2.20126	-0.0100627	-1.56879	0	0	0	0	-0	0	0	0	-0.1265	0	-0	0	0	0	0	0	-0	0	0.105	0.015	0	0	-0	0	0	0.098	0.1	0	-0	0	0	0	0	0	-0	0	0.05595	0	0	0	-0	0	0	0	0	0	-0	0	545.912	551.038	324.911	201.6	-0.622307	2.10525	0.00492757	0.000264456	0.036048
5	-0.015693	0.0310441	0.00936715	0.0354019	-0.0120964	0.0359965	0.0245174	-0.0295683	0.00277553	-0.000238679	-0.000509434	-0.00304522	0.0575072	0.00074501	0.0153648	-2.19993	-0.0102268	-1.56835	0	0	0	0	-0	0	0	0	-0.1265	0	-0	0	0	0	0	0	-0	0	0.105	0.015	0	0	-0	0	0	0.098	0.1	0	-0	0	0	0	0	0	-0	0	0.05595	0	0	0	-0	0	0	0	0	0	-0	0	545.928	551.03	324.903	201.61	-0.573092	1.77623	0.00899696	-0.00243021	-0.109775
6	-0.01569	0.0295393	0.00954203	0.0342157	-0.0113612	0.0343216	0.0245361	-0.0295702	0.00266037	-0.00026995	-0.000503078	-0.00303556	0.0561954	0.000716383	0.0164387	-2.20032	-0.0101346	-1.56716	0	0	0	0	-0	0	0	0	-0.1265	0	-0	0	0	0	0	0	-0	0	0.105	0.015	0	0	-0	0	0	0.098	0.1	0	-0	0	0	0	0	0	-0	0	0.05595	0	0	0	-0	0	0	0	0	0	-0	0	545.965	551.011	324.895	201.622	-0.341206	1.28122	-0.00216227	-0.00137604	-0.330937
7	-0.0156662	0.0284619	0.00978887	0.0329228	-0.0109472	0.0328201	0.024545	-0.0295792	0.00254688	-0.000301479	-0.000526739	-0.00303927	0.0549121	0.00066184	0.0176104	-2.20097	-0.0101319	-1.56613	0	0	0	0	-0	0	0	0	-0.1265	0	-0	0	0	0	0	0	-0	0	0.105	0.015	0	0	-0	0	0	0.098	0.1	0	-0	0	0	0	0	0	-0	0	0.05595	0	0	0	-0	0	0	0	0	0	-0	0	546.052	550.963	324.889	201.623	-0.101578	0.753686	-0.013659	-0.0002736	-0.528014
8	-0.0157412	0.0281898	0.0100234	0.0321294	-0.0109119	0.0321017	0.0245524	-0.02959	0.00247877	-0.000414375	-0.000332801	-0.00323125	0.0541838	0.000605739	0.0183381	-2.20159	-0.0101604	-1.56564	0	0	0	0	-0	0	0	0	-0.1265	0	-0	0	0	0	0	0	-0	0	0.105	0.015	0	0	-0	0	0	0.098	0.1	0	-0	0	0	0	0	0	-0	0	0.05595	0	0	0	-0	0	0	0	0	0	-0	0	546.284	550.833	324.861	201.596	0.0361206	0.394697	-0.018948	4.81941e-05	-0.534754
9	-0.0154936	0.0283372	0.010154	0.0317485	-0.0110414	0.0320285	0.024559	-0.029604	0.00244716	-0.00107984	-0.00113813	-0.00314272	0.0538429	0.000566231	0.0187443	-2.20163	-0.010008	-1.56539	0	0	0	0	-0	0	0	0	-0.1265	0	-0	0	0	0	0	0	-0	0	0.105	0.015	0	0	-0	0	0	0.098	0.1	0	-0	0	0	0	0	0	-0	0	0.05595	0	0	0	-0	0	0	0	0	0	-0	0	546.935	550.469	324.742	201.501	0.085402	0.149562	-0.0181679	-0.000129055	-0.209042
10	-0.0146987	0.0288312	0.010288	0.0312778	-0.0113508	0.0322993	0.0245682	-0.029634	0.0024108	-0.00532122	-0.00311655	-0.0030501	0.0534073	0.000508097	0.0193369	-2.20108	-0.00950944	-1.56506	0	0	0	0	-0	0	0	0	-0.1265	0	-0	0	0	0	0	0	-0	0	0.105	0.015	0	0	-0	0	0	0.098	0.1	0	-0	0	0	0	0	0	-0	0	0.05595	0	0	0	-0	0	0	0	0	0	-0	0	548.633	549.541	324.419	201.221	0.119163	-0.237957	-0.0123004	-0.000648603	0.646299
11	-0.0169313	0.0298052	0.0105509	0.0303729	-0.0119207	0.0328367	0.0245837	-0.0296895	0.00234214	-0.00786777	-0.00650818	-0.0102821	0.0526532	0.000396817	0.0202667	-2.20344	-0.00855076	-1.56455	0	0	0	0	-0	0	0	0	-0.1265	0	-0	0	0	0	0	0	-0	0	0.105	0.015	0	0	-0	0	0	0.098	0.1	0	-0	0	0	0	0	0	-0	0	0.05595	0	0	0	-0	0	0	0	0	0	-0	0	552.254	547.742	323.849	200.487	0.159704	-0.874376	0.000247367	-0.00158457	2.12862
12	-0.010577	0.0309524	0.0108833	0.0292495	-0.0125327	0.0334618	0.0245997	-0.0297501	0.00225577	-0.00803492	-0.00822631	-0.0177671	0.0514417	0.000251312	0.0220119	-2.1959	-0.00776579	-1.56447	0	0	0	0	-0	0	0	0	-0.1265	0	-0	0	0	0	0	0	-0	0	0.105	0.015	0	0	-0	0	0	0.098	0.1	0	-0	0	0	0	0	0	-0	0	0.05595	0	0	0	-0	0	0	0	0	0	-0	0	557.666	546.063	323.529	198.735	0.179249	-1.48122	0.0167389	-0.00248759	3.59926
13	0.0107958	0.0315325	0.0109761	0.0286778	-0.0127949	0.0338898	0.0246238	-0.0298154	0.0022208	0.0245058	-0.00528236	-0.0568772	0.0499082	0.000136758	0.0243731	-2.16913	-0.0091779	-1.5667	0	0	0	0	-0	0	0	0	-0.1265	0	-0	0	0	0	0	0	-0	0	0.105	0.015	0	0	-0	0	0	0.098	0.1	0	-0	0	0	0	0	0	-0	0	0.05595	0	0	0	-0	0	0	0	0	0	-0	0	563.37	547.185	325.157	194.61	0.16188	-1.60018	0.025897	-0.0020841	3.80616
14	0.00507444	0.0317135	0.0109831	0.0285958	-0.012863	0.0340223	0.0246173	-0.0297864	0.00220083	0.0183547	-0.0273994	-0.0695792	0.0496709	0.000101492	0.0244434	-2.1723	-0.0102899	-1.56814	0	0	0	0	-0	0	0	0	-0.1265	0	-0	0	0	0	0	0	-0	0	0.105	0.015	0	0	-0	0	0	0.098	0.1	0	-0	0	0	0	0	0	-0	0	0.05595	0	0	0	-0	0	0	0	0	0	-0	0	565.272	547.967	326.357	192.779	0.146473	-1.54276	0.0279348	-0.00180677	3.63034
15	0.00743044	0.031786	0.0109885	0.0285789	-0.0128903	0.034085	0.0246088	-0.0297868	0.00219595	0.0341395	-0.0200971	-0.0712593	0.0495127	8.99593e-05	0.0246823	-2.16893	-0.010787	-1.56879	0	0	0	0	-0	0	0	0	-0.1265	0	-0	0	0	0	0	0	-0	0	0.105	0.015	0	0	-0	0	0	0.098	0.1	0	-0	0	0	0	0	0	-0	0	0.05595	0	0	0	-0	0	0	0	0	0	-0	0	565.958	548.292	326.853	192.077	0.137278	-1.50492	0.0286578	-0.00169162	3.54305
16	0.0193558	0.03181	0.0109677	0.0285944	-0.0128968	0.034127	0.0246079	-0.029784	0.00219651	0.0423779	-0.0186016	-0.0824565	0.0490964	7.92986e-05	0.0254078	-2.15567	-0.0114863	-1.56977	0	0	0	0	-0	0	0	0	-0.1265	0	-0	0	0	0	0	0	-0	0	0.105	0.015	0	0	-0	0	0	0.098	0.1	0	-0	0	0	0	0	0	-0	0	0.05595	0	0	0	-0	0	0	0	0	0	-0	0	566.727	548.78	327.542	191.184	0.129062	-1.45099	0.0288706	-0.00141971	3.39572
17	0.00747106	0.0318155	0.0109321	0.0286362	-0.0128924	0.0341702	0.0246193	-0.0297896	0.00219985	0.0285638	-0.0445424	-0.0924535	0.0492493	6.77669e-05	0.0249742	-2.16575	-0.0124566	-1.57086	0	0	0	0	-0	0	0	0	-0.1265	0	-0	0	0	0	0	0	-0	0	0.105	0.015	0	0	-0	0	0	0.098	0.1	0	-0	0	0	0	0	0	-0	0	0.05595	0	0	0	-0	0	0	0	0	0	-0	0	567.657	549.499	328.533	189.991	0.118469	-1.37155	0.0287414	-0.00101251	3.18151
18	0.00338686	0.0318305	0.0109117	0.0286696	-0.0128921	0.0342067	0.0246085	-0.0297862	0.00220439	0.046089	-0.04872	-0.1131	0.049261	5.98591e-05	0.0248706	-2.16861	-0.0131697	-1.57166	0	0	0	0	-0	0	0	0	-0.1265	0	-0	0	0	0	0	0	-0	0	0.105	0.015	0	0	-0	0	0	0.098	0.1	0	-0	0	0	0	0	0	-0	0	0.05595	0	0	0	-0	0	0	0	0	0	-0	0	568.288	549.993	329.23	189.187	0.109747	-1.31624	0.0287668	-0.000768117	3.04396
19	0.0100645	0.0318497	0.0109044	0.0286874	-0.0128984	0.0342283	0.0246039	-0.0297769	0.0021988	0.0397186	-0.0447602	-0.114236	0.0490647	5.65099e-05	0.0252352	-2.16146	-0.0134471	-1.57209	0	0	0	0	-0	0	0	0	-0.1265	0	-0	0	0	0	0	0	-0	0	0.105	0.015	0	0	-0	0	0	0.098	0.1	0	-0	0	0	0	0	0	-0	0	0.05595	0	0	0	-0	0	0	0	0	0	-0	0	568.542	550.176	329.507	188.876	0.105134	-1.29371	0.0289049	-0.000695238	2.9951
20	0.0209687	0.0318525	0.0108921	0.0287009	-0.0128976	0.0342436	0.0246037	-0.029776	0.00219947	0.0396095	-0.0411806	-0.113381	0.0487396	5.27984e-05	0.0258221	-2.14994	-0.0138122	-1.57271	0	0	0	0	-0	0	0	0	-0.1265	0	-0	0	0	0	0	0	-0	0	0.105	0.015	0	0	-0	0	0	0.098	0.1	0	-0	0	0	0	0	0	-0	0	0.05595	0	0	0	-0	0	0	0	0	0	-0	0	568.863	550.424	329.887	188.469	0.101515	-1.26748	0.0288652	-0.000540719	2.92605
21	0.00701602	0.0318501	0.0108723	0.028727	-0.0128932	0.0342611	0.0246026	-0.0297766	0.0022018	0.0522272	-0.0439089	-0.119147	0.0490309	4.79135e-05	0.0252087	-2.16304	-0.0143945	-1.5732	0	0	0	0	-0	0	0	0	-0.1265	0	-0	0	0	0	0	0	-0	0	0.105	0.015	0	0	-0	0	0	0.098	0.1	0	-0	0	0	0	0	0	-0	0	0.05595	0	0	0	-0	0	0	0	0	0	-0	0	569.297	550.782	330.441	187.904	0.0965736	-1.22994	0.028743	-0.000314503	2.82749
22	0.004448	0.0318622	0.0108673	0.0287406	-0.0128966	0.034276	0.0246038	-0.0297754	0.00220123	0.048114	-0.0488002	-0.126015	0.049071	4.56818e-05	0.0251051	-2.16527	-0.0146304	-1.57343	0	0	0	0	-0	0	0	0	-0.1265	0	-0	0	0	0	0	0	-0	0	0.105	0.015	0	0	-0	0	0	0.098	0.1	0	-0	0	0	0	0	0	-0	0	0.05595	0	0	0	-0	0	0	0	0	0	-0	0	569.474	550.916	330.659	187.685	0.0933349	-1.21398	0.028826	-0.000255601	2.79283
23	-0.00225996	0.031843	0.0108332	0.0287808	-0.0128842	0.0342917	0.0246051	-0.0297718	0.00220004	0.056658	-0.0674135	-0.11749	0.0491449	3.95463e-05	0.0248759	-2.17074	-0.0155671	-1.57441	0	0	0	0	-0	0	0	0	-0.1265	0	-0	0	0	0	0	0	-0	0	0.105	0.015	0	0	-0	0	0	0.098	0.1	0	-0	0	0	0	0	0	-0	0	0.05595	0	0	0	-0	0	0	0	0	0	-0	0	570.078	551.451	331.546	186.874	0.0877542	-1.16224	0.0284625	0.000138674	2.6504
24	-0.00810548	0.0318574	0.0108211	0.0288063	-0.0128871	0.0343163	0.0246105	-0.0297799	0.00220575	0.0671042	-0.0502451	-0.100869	0.0492435	3.52783e-05	0.0246414	-2.17589	-0.0161348	-1.57496	0	0	0	0	-0	0	0	0	-0.1265	0	-0	0	0	0	0	0	-0	0	0.105	0.015	0	0	-0	0	0	0.098	0.1	0	-0	0	0	0	0	0	-0	0	0.05595	0	0	0	-0	0	0	0	0	0	-0	0	570.447	551.738	332.064	186.415	0.0820096	-1.13025	0.028534	0.000309874	2.57686
25	-0.0189067	0.0318645	0.0108101	0.0288233	-0.0128881	0.0343298	0.0246048	-0.0297708	0.0022009	0.0594709	-0.0328622	-0.11288	0.0494739	3.23136e-05	0.0241493	-2.18621	-0.0165868	-1.57525	0	0	0	0	-0	0	0	0	-0.1265	0	-0	0	0	0	0	0	-0	0	0.105	0.015	0	0	-0	0	0	0.098	0.1	0	-0	0	0	0	0	0	-0	0	0.05595	0	0	0	-0	0	0	0	0	0	-0	0	570.707	551.937	332.445	186.097	0.0785602	-1.10963	0.0285627	0.000446043	2.52678
26	-0.0142683	0.0318722	0.0108036	0.0288339	-0.0128906	0.0343416	0.0246038	-0.0297711	0.00220693	0.059134	-0.0459909	-0.123052	0.0493349	3.02441e-05	0.0244066	-2.18123	-0.0168695	-1.57567	0	0	0	0	-0	0	0	0	-0.1265	0	-0	0	0	0	0	0	-0	0	0.105	0.015	0	0	-0	0	0	0.098	0.1	0	-0	0	0	0	0	0	-0	0	0.05595	0	0	0	-0	0	0	0	0	0	-0	0	570.895	552.077	332.726	185.872	0.0759468	-1.09462	0.0285981	0.000547237	2.4912
27	-0.00424451	0.031874	0.0107927	0.0288483	-0.0128903	0.0343499	0.0245998	-0.0297686	0.00220515	0.0646278	-0.0501894	-0.119202	0.0490587	2.78127e-05	0.0249358	-2.1708	-0.0171893	-1.57626	0	0	0	0	-0	0	0	0	-0.1265	0	-0	0	0	0	0	0	-0	0	0.105	0.015	0	0	-0	0	0	0.098	0.1	0	-0	0	0	0	0	0	-0	0	0.05595	0	0	0	-0	0	0	0	0	0	-0	0	571.117	552.247	333.075	185.606	0.0733396	-1.07692	0.0285811	0.000685422	2.44684
28	0.00258875	0.0318822	0.0107902	0.0288558	-0.0128934	0.0343583	0.0245998	-0.0297682	0.00220605	0.0639255	-0.0502158	-0.115914	0.048876	2.68259e-05	0.025281	-2.16381	-0.0172986	-1.57656	0	0	0	0	-0	0	0	0	-0.1265	0	-0	0	0	0	0	0	-0	0	0.105	0.015	0	0	-0	0	0	0.098	0.1	0	-0	0	0	0	0	0	-0	0	0.05595	0	0	0	-0	0	0	0	0	0	-0	0	571.207	552.311	333.215	185.501	0.0715485	-1.06876	0.0286445	0.000725393	2.42998
29	0.010042	0.0318834	0.0107848	0.0288624	-0.0128933	0.0343626	0.0246001	-0.0297684	0.00220637	0.0657419	-0.0472984	-0.10968	0.0486691	2.55522e-05	0.0256635	-2.15615	-0.0174556	-1.57693	0	0	0	0	-0	0	0	0	-0.1265	0	-0	0	0	0	0	0	-0	0	0.105	0.015	0	0	-0	0	0	0.098	0.1	0	-0	0	0	0	0	0	-0	0	0.05595	0	0	0	-0	0	0	0	0	0	-0	0	571.327	552.4	333.407	185.362	0.0701992	-1.05953	0.028641	0.000802808	2.40665
30	0.0158384	0.0318836	0.0107769	0.028873	-0.0128925	0.0343681	0.0246005	-0.0297691	0.00220678	0.0742958	-0.0399678	-0.107739	0.0484948	2.38308e-05	0.0259705	-2.15005	-0.0177148	-1.57738	0	0	0	0	-0	0	0	0	-0.1265	0	-0	0	0	0	0	0	-0	0	0.105	0.015	0	0	-0	0	0	0.098	0.1	0	-0	0	0	0	0	0	-0	0	0.05595	0	0	0	-0	0	0	0	0	0	-0	0	571.493	552.529	333.691	185.164	0.0682901	-1.04593	0.0286182	0.000918044	2.37209
31	0.0387191	0.0318635	0.01074	0.0289201	-0.0128816	0.0343763	0.0246069	-0.0297653	0.00221452	0.0677617	-0.0129822	-0.0963046	0.0478099	1.87114e-05	0.0271712	-2.12603	-0.018829	-1.57933	0	0	0	0	-0	0	0	0	-0.1265	0	-0	0	0	0	0	0	-0	0	0.105	0.015	0	0	-0	0	0	0.098	0.1	0	-0	0	0	0	0	0	-0	0	0.05595	0	0	0	-0	0	0	0	0	0	-0	0	572.071	553.038	334.917	184.43	0.0633094	-0.998286	0.0282548	0.00146027	2.24117
32	0.0528711	0.0318903	0.0107323	0.0289408	-0.012892	0.0343991	0.0245986	-0.0297651	0.0022095	0.0631171	-0.0175616	-0.087176	0.0473788	1.54278e-05	0.0278743	-2.11143	-0.0192524	-1.58034	0	0	0	0	-0	0	0	0	-0.1265	0	-0	0	0	0	0	0	-0	0	0.105	0.015	0	0	-0	0	0	0.098	0.1	0	-0	0	0	0	0	0	-0	0	0.05595	0	0	0	-0	0	0	0	0	0	-0	0	572.371	553.234	335.47	184.128	0.0575258	-0.972875	0.0285004	0.00162758	2.19019
33	0.0476303	0.0319034	0.0107234	0.028957	-0.0128974	0.034411	0.0245959	-0.0297677	0.0022134	0.0839992	-0.0228658	-0.095193	0.0474903	1.33009e-05	0.0276529	-2.11634	-0.01976	-1.58084	0	0	0	0	-0	0	0	0	-0.1265	0	-0	0	0	0	0	0	-0	0	0.105	0.015	0	0	-0	0	0	0.098	0.1	0	-0	0	0	0	0	0	-0	0	0.05595	0	0	0	-0	0	0	0	0	0	-0	0	572.596	553.375	335.924	183.908	0.0541801	-0.954959	0.0286134	0.00179862	2.14927
34	0.0426618	0.0319144	0.0107201	0.0289662	-0.012902	0.0344184	0.0245972	-0.0297628	0.00221075	0.0794061	-0.0285503	-0.0940283	0.0476188	1.24174e-05	0.0274264	-2.12119	-0.0200009	-1.58098	0	0	0	0	-0	0	0	0	-0.1265	0	-0	0	0	0	0	0	-0	0	0.105	0.015	0	0	-0	0	0	0.098	0.1	0	-0	0	0	0	0	0	-0	0	0.05595	0	0	0	-0	0	0	0	0	0	-0	0	572.691	553.428	336.107	183.825	0.0520005	-0.945693	0.028724	0.00185419	2.13158
35	0.0433033	0.0319195	0.0107202	0.0289659	-0.0129041	0.0344219	0.0245967	-0.0297625	0.00221071	0.083257	-0.0260306	-0.0970933	0.0475973	1.21433e-05	0.0274607	-2.1205	-0.0200671	-1.58109	0	0	0	0	-0	0	0	0	-0.1265	0	-0	0	0	0	0	0	-0	0	0.105	0.015	0	0	-0	0	0	0.098	0.1	0	-0	0	0	0	0	0	-0	0	0.05595	0	0	0	-0	0	0	0	0	0	-0	0	572.726	553.446	336.176	183.795	0.0512305	-0.942477	0.0287677	0.0018761	2.12529
36	0.0466673	0.0319214	0.0107186	0.0289678	-0.0129049	0.0344231	0.0245966	-0.029763	0.00221073	0.091066	-0.0228688	-0.0967794	0.0474984	1.16722e-05	0.0276275	-2.11708	-0.0201299	-1.58128	0	0	0	0	-0	0	0	0	-0.1265	0	-0	0	0	0	0	0	-0	0	0.105	0.015	0	0	-0	0	0	0.098	0.1	0	-0	0	0	0	0	0	-0	0	0.05595	0	0	0	-0	0	0	0	0	0	-0	0	572.773	553.473	336.271	183.755	0.0506042	-0.938702	0.0287897	0.00191468	2.11631
37	0.0481782	0.0319234	0.010716	0.0289713	-0.0129057	0.0344247	0.0245969	-0.029762	0.00221133	0.0921199	-0.0292629	-0.101604	0.0474472	1.10365e-05	0.0277083	-2.11548	-0.0202593	-1.58149	0	0	0	0	-0	0	0	0	-0.1265	0	-0	0	0	0	0	0	-0	0	0.105	0.015	0	0	-0	0	0	0.098	0.1	0	-0	0	0	0	0	0	-0	0	0.05595	0	0	0	-0	0	0	0	0	0	-0	0	572.838	553.512	336.413	183.697	0.0497776	-0.933511	0.0288118	0.00197252	2.10367
38	0.0578808	0.0319259	0.010712	0.0289763	-0.0129069	0.0344269	0.0245965	-0.0297625	0.00221094	0.0991202	-0.0248057	-0.0995754	0.0471651	1.01239e-05	0.028182	-2.10565	-0.0203694	-1.58196	0	0	0	0	-0	0	0	0	-0.1265	0	-0	0	0	0	0	0	-0	0	0.105	0.015	0	0	-0	0	0	0.098	0.1	0	-0	0	0	0	0	0	-0	0	0.05595	0	0	0	-0	0	0	0	0	0	-0	0	572.931	553.573	336.623	183.614	0.0487439	-0.926831	0.0288321	0.00205895	2.087
39	0.0524592	0.0319261	0.0107022	0.0289898	-0.0129069	0.0344286	0.0245999	-0.0297653	0.00221303	0.0978518	-0.0324881	-0.116796	0.0472895	8.60985e-06	0.0279497	-2.11082	-0.0209043	-1.58246	0	0	0	0	-0	0	0	0	-0.1265	0	-0	0	0	0	0	0	-0	0	0.105	0.015	0	0	-0	0	0	0.098	0.1	0	-0	0	0	0	0	0	-0	0	0.05595	0	0	0	-0	0	0	0	0	0	-0	0	573.113	553.708	337.088	183.448	0.0468269	-0.912298	0.0288115	0.00225705	2.0497
40	0.0447147	0.0319358	0.0106992	0.0289984	-0.012911	0.034435	0.0245979	-0.0297632	0.00221431	0.104104	-0.0382265	-0.131502	0.0474971	7.84949e-06	0.0275924	-2.11846	-0.0212311	-1.58259	0	0	0	0	-0	0	0	0	-0.1265	0	-0	0	0	0	0	0	-0	0	0.105	0.015	0	0	-0	0	0	0.098	0.1	0	-0	0	0	0	0	0	-0	0	0.05595	0	0	0	-0	0	0	0	0	0	-0	0	573.206	553.764	337.313	183.374	0.0447996	-0.903279	0.0289065	0.00233285	2.03174
41	0.0470513	0.0319412	0.0106964	0.0290031	-0.0129136	0.0344377	0.0245951	-0.0297615	0.00221201	0.0934831	-0.0403507	-0.132345	0.0474238	7.28642e-06	0.0277107	-2.11604	-0.021381	-1.58287	0	0	0	0	-0	0	0	0	-0.1265	0	-0	0	0	0	0	0	-0	0	0.105	0.015	0	0	-0	0	0	0.098	0.1	0	-0	0	0	0	0	0	-0	0	0.05595	0	0	0	-0	0	0	0	0	0	-0	0	573.275	553.804	337.482	183.322	0.0435846	-0.897097	0.0289566	0.00239708	2.01843
42	0.0418739	0.0319451	0.0106923	0.0290092	-0.0129155	0.0344398	0.0245972	-0.0297621	0.00221358	0.096221	-0.0444139	-0.146126	0.0475546	6.49973e-06	0.0274778	-2.12111	-0.021706	-1.58308	0	0	0	0	-0	0	0	0	-0.1265	0	-0	0	0	0	0	0	-0	0	0.105	0.015	0	0	-0	0	0	0.098	0.1	0	-0	0	0	0	0	0	-0	0	0.05595	0	0	0	-0	0	0	0	0	0	-0	0	573.372	553.862	337.733	183.25	0.0423366	-0.889314	0.0289925	0.00250165	1.99968
43	0.0565019	0.0319463	0.0106821	0.0290232	-0.0129164	0.0344392	0.0245973	-0.0297624	0.00221752	0.0849361	-0.0350394	-0.129752	0.0471275	5.1141e-06	0.0281973	-2.10628	-0.0221028	-1.58412	0	0	0	0	-0	0	0	0	-0.1265	0	-0	0	0	0	0	0	-0	0	0.105	0.015	0	0	-0	0	0	0.098	0.1	0	-0	0	0	0	0	0	-0	0	0.05595	0	0	0	-0	0	0	0	0	0	-0	0	573.556	553.994	338.286	183.113	0.0403666	-0.874319	0.0289843	0.00274027	1.96131
44	0.0567997	0.0319593	0.010682	0.0290296	-0.0129224	0.0344468	0.0245946	-0.0297583	0.00221317	0.0866729	-0.0305366	-0.132066	0.047117	5.01939e-06	0.0282064	-2.10595	-0.0221725	-1.58423	0	0	0	0	-0	0	0	0	-0.1265	0	-0	0	0	0	0	0	-0	0	0.105	0.015	0	0	-0	0	0	0.098	0.1	0	-0	0	0	0	0	0	-0	0	0.05595	0	0	0	-0	0	0	0	0	0	-0	0	573.586	554.006	338.359	183.097	0.0385601	-0.869258	0.0291086	0.00274328	1.95569
45	0.0608452	0.0319618	0.0106777	0.0290339	-0.0129238	0.0344463	0.0245967	-0.0297613	0.00221356	0.0918893	-0.0263164	-0.146164	0.046988	4.18429e-06	0.0284115	-2.10182	-0.0224325	-1.58473	0	0	0	0	-0	0	0	0	-0.1265	0	-0	0	0	0	0	0	-0	0	0.105	0.015	0	0	-0	0	0	0.098	0.1	0	-0	0	0	0	0	0	-0	0	0.05595	0	0	0	-0	0	0	0	0	0	-0	0	573.694	554.067	338.663	183.036	0.037418	-0.860699	0.029136	0.00287917	1.93395
46	0.0558142	0.0319687	0.0106762	0.0290388	-0.012927	0.0344497	0.0245943	-0.0297584	0.00221358	0.0979232	-0.0215972	-0.145993	0.0471265	3.84463e-06	0.0281793	-2.10681	-0.0226585	-1.58481	0	0	0	0	-0	0	0	0	-0.1265	0	-0	0	0	0	0	0	-0	0	0.105	0.015	0	0	-0	0	0	0.098	0.1	0	-0	0	0	0	0	0	-0	0	0.05595	0	0	0	-0	0	0	0	0	0	-0	0	573.746	554.093	338.813	183.009	0.0362143	-0.85567	0.0292081	0.00293105	1.92425
47	0.0601221	0.0319727	0.0106731	0.0290431	-0.0129292	0.0344498	0.0245946	-0.029759	0.00221386	0.106081	-0.0152825	-0.149183	0.0469961	3.30572e-06	0.0283906	-2.10245	-0.0228315	-1.58521	0	0	0	0	-0	0	0	0	-0.1265	0	-0	0	0	0	0	0	-0	0	0.105	0.015	0	0	-0	0	0	0.098	0.1	0	-0	0	0	0	0	0	-0	0	0.05595	0	0	0	-0	0	0	0	0	0	-0	0	573.822	554.135	339.036	182.973	0.0350969	-0.848849	0.0292486	0.00302575	1.90849
48	0.0566355	0.0319774	0.0106684	0.0290505	-0.0129318	0.0344498	0.0245942	-0.0297564	0.00221433	0.102202	-0.00528158	-0.147539	0.047083	2.62727e-06	0.0282379	-2.10587	-0.0232268	-1.58557	0	0	0	0	-0	0	0	0	-0.1265	0	-0	0	0	0	0	0	-0	0	0.105	0.015	0	0	-0	0	0	0.098	0.1	0	-0	0	0	0	0	0	-0	0	0.05595	0	0	0	-0	0	0	0	0	0	-0	0	573.922	554.193	339.367	182.927	0.0337463	-0.840344	0.0292935	0.00316565	1.88814
49	0.0518394	0.0319855	0.0106673	0.0290548	-0.0129358	0.0344536	0.0245931	-0.0297584	0.00221393	0.113337	-0.00340503	-0.145335	0.0472163	2.40579e-06	0.0280146	-2.11065	-0.0234397	-1.58563	0	0	0	0	-0	0	0	0	-0.1265	0	-0	0	0	0	0	0	-0	0	0.105	0.015	0	0	-0	0	0	0.098	0.1	0	-0	0	0	0	0	0	-0	0	0.05595	0	0	0	-0	0	0	0	0	0	-0	0	573.967	554.215	339.5	182.911	0.0324988	-0.835563	0.029371	0.00320993	1.87987
50	0.0512192	0.0319887	0.010666	0.0290577	-0.0129373	0.0344544	0.0245934	-0.0297567	0.00221434	0.115186	-0.00209477	-0.150695	0.0472309	2.26429e-06	0.0279875	-2.11125	-0.023547	-1.58574	0	0	0	0	-0	0	0	0	-0.1265	0	-0	0	0	0	0	0	-0	0	0.105	0.015	0	0	-0	0	0	0.098	0.1	0	-0	0	0	0	0	0	-0	0	0.05595	0	0	0	-0	0	0	0	0	0	-0	0	573.997	554.23	339.591	182.901	0.0318136	-0.83221	0.0294069	0.00324543	1.87305
