Stefan210/kinematic_calibration/src/kinematic_calibration/validation/experiments/experiments/anzahl_messungen/AC_B/larm_71/optimization_intermediate_results.csv
iteration	HeadPitch_offset	HeadYaw_offset	LElbowRoll_offset	LElbowYaw_offset	LShoulderPitch_offset	LShoulderRoll_offset	marker_transform_larm_tx	marker_transform_larm_ty	marker_transform_larm_tz	marker_transform_larm_rr	marker_transform_larm_rp	marker_transform_larm_ry	camera_transform_tx	camera_transform_ty	camera_transform_tz	camera_transform_rr	camera_transform_rp	camera_transform_ry	HeadPitch_transform_tx	HeadPitch_transform_ty	HeadPitch_transform_tz	HeadPitch_transform_rr	HeadPitch_transform_rp	HeadPitch_transform_ry	HeadYaw_transform_tx	HeadYaw_transform_ty	HeadYaw_transform_tz	HeadYaw_transform_rr	HeadYaw_transform_rp	HeadYaw_transform_ry	LElbowRoll_transform_tx	LElbowRoll_transform_ty	LElbowRoll_transform_tz	LElbowRoll_transform_rr	LElbowRoll_transform_rp	LElbowRoll_transform_ry	LElbowYaw_transform_tx	LElbowYaw_transform_ty	LElbowYaw_transform_tz	LElbowYaw_transform_rr	LElbowYaw_transform_rp	LElbowYaw_transform_ry	LShoulderPitch_transform_tx	LShoulderPitch_transform_ty	LShoulderPitch_transform_tz	LShoulderPitch_transform_rr	LShoulderPitch_transform_rp	LShoulderPitch_transform_ry	LShoulderRoll_transform_tx	LShoulderRoll_transform_ty	LShoulderRoll_transform_tz	LShoulderRoll_transform_rr	LShoulderRoll_transform_rp	LShoulderRoll_transform_ry	LWristYaw_transform_tx	LWristYaw_transform_ty	LWristYaw_transform_tz	LWristYaw_transform_rr	LWristYaw_transform_rp	LWristYaw_transform_ry	l_wrist_joint_transform_tx	l_wrist_joint_transform_ty	l_wrist_joint_transform_tz	l_wrist_joint_transform_rr	l_wrist_joint_transform_rp	l_wrist_joint_transform_ry	camera_fx	camera_fy	camera_cx	camera_cy	camera_D0	camera_D1	camera_D2	camera_D3	camera_D4	
0	0.0249164	-0.0307543	0.000853157	4.65819e-06	-0.000318322	-0.00310766	0.05071	0	0.01774	-2.26369	1.66533e-16	-1.5708	545.901	551.038	324.928	201.58	0.0255298	2.61142	-0.0636736	-0.0350419	0.213964
1	-0.016322	0.0188761	0.012297	0.0269873	-0.0086678	0.0184409	0.0242241	-0.0293349	0.00172031	-0.000105937	-0.000406817	-0.00305164	0.0559064	0.00104209	0.0157314	-2.19766	-0.01196	-1.56345	0	0	0	0	-0	0	0	0	-0.1265	0	-0	0	0	0	0	0	-0	0	0.105	0.015	0	0	-0	0	0	0.098	0.1	0	-0	0	0	0	0	0	-0	0	0.05595	0	0	0	-0	0	0	0	0	0	-0	0	545.901	551.039	324.928	201.581	-0.0124734	2.59851	-0.101675	0.0373184	0.211212
2	-0.0161624	0.0312648	0.0155932	0.0278491	-0.0191108	0.0220551	0.024371	-0.0295917	0.00172791	-0.000104851	-0.0004055	-0.00305856	0.0531742	0.000234062	0.0198217	-2.19939	-0.015382	-1.57049	0	0	0	0	-0	0	0	0	-0.1265	0	-0	0	0	0	0	0	-0	0	0.105	0.015	0	0	-0	0	0	0.098	0.1	0	-0	0	0	0	0	0	-0	0	0.05595	0	0	0	-0	0	0	0	0	0	-0	0	545.904	551.039	324.925	201.586	-0.170455	2.49109	-0.0494946	0.003363	0.175739
3	-0.0163771	0.0319078	0.014203	0.0293761	-0.0185644	0.0227122	0.0242773	-0.0296576	0.00186691	-0.000119623	-0.00042106	-0.00307332	0.0549885	0.000904212	0.0175825	-2.19792	-0.017192	-1.57513	0	0	0	0	-0	0	0	0	-0.1265	0	-0	0	0	0	0	0	-0	0	0.105	0.015	0	0	-0	0	0	0.098	0.1	0	-0	0	0	0	0	0	-0	0	0.05595	0	0	0	-0	0	0	0	0	0	-0	0	545.907	551.039	324.921	201.593	-0.415357	2.32919	-0.0259345	-0.00196816	0.124632
4	-0.0156816	0.037009	0.0148387	0.034103	-0.0214498	0.024865	0.0242763	-0.0297973	0.00228092	-0.000161718	-0.000461876	-0.00308797	0.0565651	0.0011281	0.0165677	-2.20033	-0.0197143	-1.58138	0	0	0	0	-0	0	0	0	-0.1265	0	-0	0	0	0	0	0	-0	0	0.105	0.015	0	0	-0	0	0	0.098	0.1	0	-0	0	0	0	0	0	-0	0	0.05595	0	0	0	-0	0	0	0	0	0	-0	0	545.917	551.038	324.914	201.602	-0.64704	2.06329	0.0165872	-0.0133304	0.0297462
5	-0.0152975	0.0390771	0.01482	0.035359	-0.0217101	0.0266521	0.0242799	-0.0298734	0.00240097	-0.00018712	-0.000470086	-0.00309273	0.0567694	0.00119764	0.0166156	-2.2018	-0.0200232	-1.58382	0	0	0	0	-0	0	0	0	-0.1265	0	-0	0	0	0	0	0	-0	0	0.105	0.015	0	0	-0	0	0	0.098	0.1	0	-0	0	0	0	0	0	-0	0	0.05595	0	0	0	-0	0	0	0	0	0	-0	0	545.941	551.03	324.906	201.613	-0.612783	1.66867	0.0261868	-0.0160577	-0.129949
6	-0.015148	0.0374425	0.0139893	0.0350391	-0.0192825	0.0277478	0.0242844	-0.0299027	0.00236402	-0.000193775	-0.000474692	-0.00304085	0.0557644	0.0011969	0.0174711	-2.20288	-0.018035	-1.58154	0	0	0	0	-0	0	0	0	-0.1265	0	-0	0	0	0	0	0	-0	0	0.105	0.015	0	0	-0	0	0	0.098	0.1	0	-0	0	0	0	0	0	-0	0	0.05595	0	0	0	-0	0	0	0	0	0	-0	0	545.994	551.009	324.896	201.625	-0.341638	1.02174	0.0113164	-0.0140183	-0.394121
7	-0.0149214	0.0353285	0.0132304	0.0345468	-0.016718	0.0286151	0.0242953	-0.0299249	0.00230916	-0.000144483	-0.000452255	-0.00303202	0.0545174	0.00113085	0.018539	-2.20377	-0.0157016	-1.57841	0	0	0	0	-0	0	0	0	-0.1265	0	-0	0	0	0	0	0	-0	0	0.105	0.015	0	0	-0	0	0	0.098	0.1	0	-0	0	0	0	0	0	-0	0	0.05595	0	0	0	-0	0	0	0	0	0	-0	0	546.102	550.962	324.89	201.624	-0.017623	0.260238	-0.00740984	-0.0114519	-0.661252
8	-0.0149161	0.0344092	0.0130181	0.0342534	-0.0155126	0.0291852	0.0243096	-0.029938	0.00228062	-9.80853e-05	-0.000383416	-0.00273466	0.0537046	0.0010376	0.0193059	-2.20457	-0.0143434	-1.57664	0	0	0	0	-0	0	0	0	-0.1265	0	-0	0	0	0	0	0	-0	0	0.105	0.015	0	0	-0	0	0	0.098	0.1	0	-0	0	0	0	0	0	-0	0	0.05595	0	0	0	-0	0	0	0	0	0	-0	0	546.362	550.846	324.884	201.606	0.185828	-0.292705	-0.0171711	-0.0101967	-0.694295
9	-0.0146323	0.0342038	0.013028	0.0340704	-0.0151849	0.0294568	0.0243188	-0.0299369	0.00226975	2.14134e-05	-0.000735043	-0.0025001	0.0533015	0.000979944	0.0197399	-2.20473	-0.0137752	-1.57593	0	0	0	0	-0	0	0	0	-0.1265	0	-0	0	0	0	0	0	-0	0	0.105	0.015	0	0	-0	0	0	0.098	0.1	0	-0	0	0	0	0	0	-0	0	0.05595	0	0	0	-0	0	0	0	0	0	-0	0	547.075	550.525	324.858	201.576	0.257734	-0.637759	-0.0174661	-0.00987886	-0.262569
10	-0.0144085	0.0340349	0.01301	0.0337013	-0.0149335	0.0296954	0.0243284	-0.0299236	0.00225191	0.00169236	-0.00118501	-0.00252434	0.0528028	0.000925618	0.020286	-2.20502	-0.013237	-1.57517	0	0	0	0	-0	0	0	0	-0.1265	0	-0	0	0	0	0	0	-0	0	0.105	0.015	0	0	-0	0	0	0.098	0.1	0	-0	0	0	0	0	0	-0	0	0.05595	0	0	0	-0	0	0	0	0	0	-0	0	548.982	549.646	324.803	201.503	0.29531	-1.13412	-0.0109798	-0.00969973	0.961554
11	-0.0129736	0.0337193	0.0129155	0.0329689	-0.0144583	0.0300978	0.0243486	-0.0298944	0.00221926	0.000713569	-0.0120101	-0.000306959	0.0517686	0.000820438	0.0214425	-2.20449	-0.012399	-1.57387	0	0	0	0	-0	0	0	0	-0.1265	0	-0	0	0	0	0	0	-0	0	0.105	0.015	0	0	-0	0	0	0.098	0.1	0	-0	0	0	0	0	0	-0	0	0.05595	0	0	0	-0	0	0	0	0	0	-0	0	553.314	547.565	324.818	201.341	0.334392	-2.00985	0.0051297	-0.00939192	3.31716
12	-0.0231904	0.0333904	0.0127088	0.0320751	-0.0138437	0.0305887	0.0243733	-0.0298505	0.00218926	0.00940539	-0.0218108	0.00693247	0.0505048	0.000656515	0.0224995	-2.21621	-0.0120168	-1.57259	0	0	0	0	-0	0	0	0	-0.1265	0	-0	0	0	0	0	0	-0	0	0.105	0.015	0	0	-0	0	0	0.098	0.1	0	-0	0	0	0	0	0	-0	0	0.05595	0	0	0	-0	0	0	0	0	0	-0	0	560.321	544.047	325.388	201.326	0.323516	-2.94304	0.0332876	-0.00896142	6.14226
13	-0.0564953	0.0332293	0.0124529	0.0315619	-0.0133877	0.0308743	0.024421	-0.0298852	0.00218348	0.0693473	-0.00246171	0.0272095	0.0500311	0.000505823	0.0221781	-2.2525	-0.0141598	-1.57346	0	0	0	0	-0	0	0	0	-0.1265	0	-0	0	0	0	0	0	-0	0	0.105	0.015	0	0	-0	0	0	0.098	0.1	0	-0	0	0	0	0	0	-0	0	0.05595	0	0	0	-0	0	0	0	0	0	-0	0	566.865	541.048	327.733	202.395	0.255405	-3.42329	0.0611124	-0.0080791	7.98142
14	-0.034023	0.0332228	0.0123676	0.0315537	-0.0132914	0.0308539	0.0244153	-0.029826	0.00221648	0.0864607	-0.0130468	-0.00946976	0.0492733	0.000463392	0.0236477	-2.23104	-0.0156243	-1.57488	0	0	0	0	-0	0	0	0	-0.1265	0	-0	0	0	0	0	0	-0	0	0.105	0.015	0	0	-0	0	0	0.098	0.1	0	-0	0	0	0	0	0	-0	0	0.05595	0	0	0	-0	0	0	0	0	0	-0	0	568.511	540.499	329.08	202.853	0.232196	-3.4785	0.0679933	-0.00768638	8.26882
15	-0.0294915	0.0332308	0.0123457	0.0315693	-0.0132728	0.0308494	0.0244005	-0.029804	0.00220613	0.0856391	-0.017032	-0.0213292	0.0490828	0.000453382	0.0239284	-2.22677	-0.0159965	-1.5753	0	0	0	0	-0	0	0	0	-0.1265	0	-0	0	0	0	0	0	-0	0	0.105	0.015	0	0	-0	0	0	0.098	0.1	0	-0	0	0	0	0	0	-0	0	0.05595	0	0	0	-0	0	0	0	0	0	-0	0	568.862	540.399	329.44	202.973	0.22828	-3.48297	0.0693532	-0.00759843	8.27784
16	-0.0309865	0.0332362	0.0123206	0.0315792	-0.0132583	0.0308477	0.0244008	-0.029806	0.00220716	0.101228	-0.0144335	-0.0098883	0.0490624	0.000445474	0.0239148	-2.2286	-0.0165729	-1.57578	0	0	0	0	-0	0	0	0	-0.1265	0	-0	0	0	0	0	0	-0	0	0.105	0.015	0	0	-0	0	0	0.098	0.1	0	-0	0	0	0	0	0	-0	0	0.05595	0	0	0	-0	0	0	0	0	0	-0	0	569.225	540.343	329.93	203.138	0.22262	-3.47358	0.070587	-0.00742444	8.26526
17	-0.044812	0.0332405	0.0122867	0.0316045	-0.0132447	0.0308355	0.0244021	-0.0298019	0.00221447	0.106117	-0.0159794	-0.026705	0.0493443	0.000438519	0.0232887	-2.24289	-0.0174965	-1.5763	0	0	0	0	-0	0	0	0	-0.1265	0	-0	0	0	0	0	0	-0	0	0.105	0.015	0	0	-0	0	0	0.098	0.1	0	-0	0	0	0	0	0	-0	0	0.05595	0	0	0	-0	0	0	0	0	0	-0	0	569.6	540.37	330.64	203.381	0.216431	-3.45254	0.071633	-0.00715752	8.21903
18	-0.0469266	0.0332482	0.0122439	0.0316556	-0.0132358	0.030811	0.0244049	-0.0298023	0.00222071	0.114105	-0.00375905	-0.00908817	0.0493533	0.000432709	0.0232205	-2.24564	-0.0187748	-1.57737	0	0	0	0	-0	0	0	0	-0.1265	0	-0	0	0	0	0	0	-0	0	0.105	0.015	0	0	-0	0	0	0.098	0.1	0	-0	0	0	0	0	0	-0	0	0.05595	0	0	0	-0	0	0	0	0	0	-0	0	569.967	540.553	331.662	203.727	0.210825	-3.41617	0.0722066	-0.00676013	8.118
19	-0.0649569	0.0332589	0.0122159	0.0317006	-0.0132322	0.0307934	0.0243972	-0.029799	0.00222389	0.132465	-0.0045352	-0.00814165	0.0497533	0.000429102	0.0223494	-2.26415	-0.0198388	-1.57786	0	0	0	0	-0	0	0	0	-0.1265	0	-0	0	0	0	0	0	-0	0	0.105	0.015	0	0	-0	0	0	0.098	0.1	0	-0	0	0	0	0	0	-0	0	0.05595	0	0	0	-0	0	0	0	0	0	-0	0	570.185	540.735	332.418	203.986	0.207989	-3.38469	0.0723277	-0.00646352	8.0167
20	-0.061217	0.033269	0.0121955	0.0317397	-0.0132326	0.0307793	0.0244051	-0.0297926	0.00222845	0.13546	-0.0323294	-0.00819213	0.0496527	0.00042683	0.0225412	-2.26076	-0.0205314	-1.57854	0	0	0	0	-0	0	0	0	-0.1265	0	-0	0	0	0	0	0	-0	0	0.105	0.015	0	0	-0	0	0	0.098	0.1	0	-0	0	0	0	0	0	-0	0	0.05595	0	0	0	-0	0	0	0	0	0	-0	0	570.327	540.886	332.98	204.18	0.205984	-3.35817	0.0723152	-0.00624393	7.93103
21	-0.0576724	0.0332769	0.0121517	0.0318116	-0.0132325	0.0307439	0.0243953	-0.0297919	0.00223352	0.14501	-0.0423903	-0.00663938	0.0495659	0.000424719	0.0227193	-2.25793	-0.0220448	-1.57997	0	0	0	0	-0	0	0	0	-0.1265	0	-0	0	0	0	0	0	-0	0	0.105	0.015	0	0	-0	0	0	0.098	0.1	0	-0	0	0	0	0	0	-0	0	0.05595	0	0	0	-0	0	0	0	0	0	-0	0	570.585	541.288	334.197	204.584	0.203078	-3.31084	0.0719164	-0.00574026	7.78702
22	-0.0611353	0.0332875	0.0121422	0.0318406	-0.0132323	0.0307403	0.024396	-0.0297927	0.00223568	0.148696	-0.0456194	0.00119697	0.0496356	0.000422586	0.022557	-2.26161	-0.0224885	-1.58026	0	0	0	0	-0	0	0	0	-0.1265	0	-0	0	0	0	0	0	-0	0	0.105	0.015	0	0	-0	0	0	0.098	0.1	0	-0	0	0	0	0	0	-0	0	0.05595	0	0	0	-0	0	0	0	0	0	-0	0	570.661	541.393	334.528	204.701	0.203106	-3.2954	0.0718209	-0.00561042	7.72227
23	-0.0499799	0.0332932	0.0120943	0.0319248	-0.0132333	0.0307008	0.0243964	-0.0297927	0.00223641	0.165258	-0.0672743	0.015526	0.0493821	0.00042105	0.0231059	-2.25122	-0.0240397	-1.58197	0	0	0	0	-0	0	0	0	-0.1265	0	-0	0	0	0	0	0	-0	0	0.105	0.015	0	0	-0	0	0	0.098	0.1	0	-0	0	0	0	0	0	-0	0	0.05595	0	0	0	-0	0	0	0	0	0	-0	0	570.932	541.89	335.838	205.137	0.200272	-3.24164	0.0711685	-0.00505525	7.56252
24	-0.0395823	0.0333047	0.0120738	0.0319706	-0.0132337	0.0306855	0.0243982	-0.0297912	0.00224702	0.170987	-0.0509553	0.0107567	0.0491327	0.000419038	0.0236225	-2.24122	-0.0247151	-1.58296	0	0	0	0	-0	0	0	0	-0.1265	0	-0	0	0	0	0	0	-0	0	0.105	0.015	0	0	-0	0	0	0.098	0.1	0	-0	0	0	0	0	0	-0	0	0.05595	0	0	0	-0	0	0	0	0	0	-0	0	571.073	542.123	336.48	205.361	0.199119	-3.20947	0.0708873	-0.00478881	7.45276
25	-0.0394121	0.0333109	0.0120656	0.03199	-0.0132339	0.0306812	0.0243943	-0.0297905	0.00224886	0.166886	-0.0569157	0.0179812	0.0491228	0.00041811	0.0236324	-2.2412	-0.0250004	-1.58323	0	0	0	0	-0	0	0	0	-0.1265	0	-0	0	0	0	0	0	-0	0	0.105	0.015	0	0	-0	0	0	0.098	0.1	0	-0	0	0	0	0	0	-0	0	0.05595	0	0	0	-0	0	0	0	0	0	-0	0	571.126	542.207	336.715	205.446	0.198715	-3.19683	0.0707941	-0.00469164	7.40795
26	-0.0335526	0.0333146	0.0120529	0.0320146	-0.0132345	0.0306714	0.0243936	-0.0297918	0.00225259	0.156195	-0.0564165	0.0279315	0.0489836	0.000417506	0.0239194	-2.23554	-0.0253272	-1.58374	0	0	0	0	-0	0	0	0	-0.1265	0	-0	0	0	0	0	0	-0	0	0.105	0.015	0	0	-0	0	0	0.098	0.1	0	-0	0	0	0	0	0	-0	0	0.05595	0	0	0	-0	0	0	0	0	0	-0	0	571.199	542.325	337.036	205.561	0.197492	-3.17824	0.0706592	-0.00455597	7.35267
27	-0.0402872	0.0333157	0.0120025	0.0321035	-0.0132324	0.0306323	0.0243946	-0.0297935	0.00225479	0.144829	-0.05197	0.00940694	0.04914	0.000415767	0.0235862	-2.24308	-0.0271066	-1.58512	0	0	0	0	-0	0	0	0	-0.1265	0	-0	0	0	0	0	0	-0	0	0.105	0.015	0	0	-0	0	0	0.098	0.1	0	-0	0	0	0	0	0	-0	0	0.05595	0	0	0	-0	0	0	0	0	0	-0	0	571.503	542.898	338.401	206.016	0.19557	-3.12712	0.0698475	-0.00395657	7.19959
28	-0.0158375	0.0333191	0.0119363	0.0322261	-0.0132259	0.0305861	0.0243912	-0.0297874	0.0022701	0.149256	-0.0564139	-0.00466537	0.0485471	0.000411849	0.0247945	-2.21976	-0.0290627	-1.58793	0	0	0	0	-0	0	0	0	-0.1265	0	-0	0	0	0	0	0	-0	0	0.105	0.015	0	0	-0	0	0	0.098	0.1	0	-0	0	0	0	0	0	-0	0	0.05595	0	0	0	-0	0	0	0	0	0	-0	0	571.966	543.744	340.286	206.651	0.194141	-3.05903	0.0686632	-0.00311459	6.98374
29	-0.0284427	0.0333324	0.0119027	0.0322989	-0.0132243	0.0305647	0.0243945	-0.0297997	0.00227062	0.125957	-0.0613777	-0.0242046	0.0488342	0.000408842	0.024182	-2.23297	-0.0303609	-1.58864	0	0	0	0	-0	0	0	0	-0.1265	0	-0	0	0	0	0	0	-0	0	0.105	0.015	0	0	-0	0	0	0.098	0.1	0	-0	0	0	0	0	0	-0	0	0.05595	0	0	0	-0	0	0	0	0	0	-0	0	572.214	544.141	341.198	206.985	0.191928	-3.00734	0.0681798	-0.00270895	6.81812
30	-0.0298997	0.0333405	0.0118787	0.0323476	-0.0132231	0.0305478	0.0243923	-0.0297905	0.00227946	0.143517	-0.0507379	-0.0323455	0.0488599	0.000406935	0.0241121	-2.23487	-0.03123	-1.58937	0	0	0	0	-0	0	0	0	-0.1265	0	-0	0	0	0	0	0	-0	0	0.105	0.015	0	0	-0	0	0	0.098	0.1	0	-0	0	0	0	0	0	-0	0	0.05595	0	0	0	-0	0	0	0	0	0	-0	0	572.401	544.437	341.877	207.238	0.189986	-2.97039	0.0678263	-0.00239783	6.70725
31	-0.0227565	0.0333464	0.0118721	0.0323648	-0.0132229	0.030545	0.0243876	-0.029783	0.00227915	0.139516	-0.0464937	-0.0372817	0.0486838	0.000405879	0.0244646	-2.22785	-0.0313269	-1.5898	0	0	0	0	-0	0	0	0	-0.1265	0	-0	0	0	0	0	0	-0	0	0.105	0.015	0	0	-0	0	0	0.098	0.1	0	-0	0	0	0	0	0	-0	0	0.05595	0	0	0	-0	0	0	0	0	0	-0	0	572.454	544.517	342.066	207.311	0.189693	-2.95914	0.0677342	-0.00231412	6.66761
32	-0.0250599	0.0333502	0.0118618	0.0323853	-0.0132238	0.0305369	0.024389	-0.0297839	0.00228147	0.132471	-0.0556285	-0.0353343	0.0487384	0.000405335	0.024351	-2.23033	-0.031688	-1.59003	0	0	0	0	-0	0	0	0	-0.1265	0	-0	0	0	0	0	0	-0	0	0.105	0.015	0	0	-0	0	0	0.098	0.1	0	-0	0	0	0	0	0	-0	0	0.05595	0	0	0	-0	0	0	0	0	0	-0	0	572.526	544.63	342.324	207.409	0.188472	-2.94193	0.0676045	-0.00219908	6.61875
33	-0.0273669	0.0333522	0.0118469	0.0324126	-0.013223	0.0305258	0.0243883	-0.029783	0.00228263	0.132231	-0.0484195	-0.0446331	0.048793	0.000404697	0.0242378	-2.23288	-0.0322034	-1.5904	0	0	0	0	-0	0	0	0	-0.1265	0	-0	0	0	0	0	0	-0	0	0.105	0.015	0	0	-0	0	0	0.098	0.1	0	-0	0	0	0	0	0	-0	0	0.05595	0	0	0	-0	0	0	0	0	0	-0	0	572.633	544.806	342.706	207.553	0.187192	-2.92063	0.0673836	-0.00202219	6.55815
34	-0.0117888	0.0333544	0.0118258	0.0324511	-0.0132213	0.0305107	0.0243899	-0.029787	0.0022883	0.120418	-0.0522454	-0.0286676	0.0484115	0.000403551	0.0249988	-2.21766	-0.0325775	-1.59154	0	0	0	0	-0	0	0	0	-0.1265	0	-0	0	0	0	0	0	-0	0	0.105	0.015	0	0	-0	0	0	0.098	0.1	0	-0	0	0	0	0	0	-0	0	0.05595	0	0	0	-0	0	0	0	0	0	-0	0	572.789	545.064	343.266	207.76	0.185896	-2.8942	0.0670572	-0.00176107	6.48126
35	-0.024536	0.0333522	0.0117818	0.0325278	-0.0132144	0.0304827	0.024391	-0.029795	0.00229195	0.0934253	-0.0632114	-0.0369446	0.0487121	0.000401024	0.024385	-2.23119	-0.0342796	-1.5925	0	0	0	0	-0	0	0	0	-0.1265	0	-0	0	0	0	0	0	-0	0	0.105	0.015	0	0	-0	0	0	0.098	0.1	0	-0	0	0	0	0	0	-0	0	0.05595	0	0	0	-0	0	0	0	0	0	-0	0	573.133	545.644	344.46	208.193	0.184812	-2.85214	0.0662958	-0.001192	6.35661
36	-0.0224805	0.0333579	0.0117615	0.0325711	-0.0132115	0.0304701	0.0243879	-0.0297845	0.00229722	0.0798233	-0.0689979	-0.0234649	0.04865	0.000398941	0.0244892	-2.22953	-0.0349494	-1.59322	0	0	0	0	-0	0	0	0	-0.1265	0	-0	0	0	0	0	0	-0	0	0.105	0.015	0	0	-0	0	0	0.098	0.1	0	-0	0	0	0	0	0	-0	0	0.05595	0	0	0	-0	0	0	0	0	0	-0	0	573.311	545.924	345.039	208.417	0.183606	-2.8211	0.0659522	-0.000912389	6.26043
37	-0.0223464	0.0333637	0.0117533	0.0325907	-0.0132116	0.0304656	0.0243858	-0.0297778	0.00229782	0.0843984	-0.0827894	-0.0236121	0.048643	0.000397865	0.0244985	-2.22956	-0.0352337	-1.5935	0	0	0	0	-0	0	0	0	-0.1265	0	-0	0	0	0	0	0	-0	0	0.105	0.015	0	0	-0	0	0	0.098	0.1	0	-0	0	0	0	0	0	-0	0	0.05595	0	0	0	-0	0	0	0	0	0	-0	0	573.386	546.038	345.276	208.511	0.182999	-2.80684	0.0658207	-0.000801028	6.21533
38	-0.0250969	0.0333666	0.0117408	0.0326141	-0.0132113	0.0304566	0.0243874	-0.0297823	0.00230344	0.0756388	-0.0748069	-0.00630611	0.0487083	0.000397113	0.0243651	-2.23253	-0.0356913	-1.59377	0	0	0	0	-0	0	0	0	-0.1265	0	-0	0	0	0	0	0	-0	0	0.105	0.015	0	0	-0	0	0	0.098	0.1	0	-0	0	0	0	0	0	-0	0	0.05595	0	0	0	-0	0	0	0	0	0	-0	0	573.487	546.193	345.598	208.638	0.181755	-2.78773	0.065645	-0.000647702	6.16181
39	-0.0139634	0.0333683	0.0117313	0.0326323	-0.0132102	0.0304506	0.0243846	-0.0297781	0.00230071	0.077389	-0.0700054	-0.012192	0.0484345	0.000396489	0.0249086	-2.22156	-0.0357262	-1.59444	0	0	0	0	-0	0	0	0	-0.1265	0	-0	0	0	0	0	0	-0	0	0.105	0.015	0	0	-0	0	0	0.098	0.1	0	-0	0	0	0	0	0	-0	0	0.05595	0	0	0	-0	0	0	0	0	0	-0	0	573.562	546.309	345.837	208.733	0.181057	-2.77444	0.0655089	-0.000530493	6.12312
40	-0.016516	0.0333697	0.0117117	0.0326675	-0.0132084	0.0304371	0.0243881	-0.0297767	0.00230235	0.0792276	-0.0900471	-0.00649236	0.0484906	0.000395332	0.0247851	-2.22447	-0.0364233	-1.59496	0	0	0	0	-0	0	0	0	-0.1265	0	-0	0	0	0	0	0	-0	0	0.105	0.015	0	0	-0	0	0	0.098	0.1	0	-0	0	0	0	0	0	-0	0	0.05595	0	0	0	-0	0	0	0	0	0	-0	0	573.73	546.574	346.364	208.937	0.179685	-2.74896	0.0651896	-0.000274274	6.05206
41	-0.0158294	0.0333729	0.0117032	0.032685	-0.0132074	0.0304314	0.0243842	-0.0297776	0.00230597	0.0820785	-0.0943493	-0.0157226	0.0484701	0.000394448	0.0248206	-2.22397	-0.0367228	-1.59528	0	0	0	0	-0	0	0	0	-0.1265	0	-0	0	0	0	0	0	-0	0	0.105	0.015	0	0	-0	0	0	0.098	0.1	0	-0	0	0	0	0	0	-0	0	0.05595	0	0	0	-0	0	0	0	0	0	-0	0	573.812	546.703	346.624	209.041	0.179133	-2.7353	0.0650333	-0.000146088	6.01052
42	-0.00689558	0.0333738	0.0116881	0.032713	-0.0132054	0.0304226	0.0243871	-0.0297818	0.00230821	0.0935377	-0.0882677	-0.0317147	0.0482436	0.000393395	0.0252564	-2.2153	-0.0369656	-1.59605	0	0	0	0	-0	0	0	0	-0.1265	0	-0	0	0	0	0	0	-0	0	0.105	0.015	0	0	-0	0	0	0.098	0.1	0	-0	0	0	0	0	0	-0	0	0.05595	0	0	0	-0	0	0	0	0	0	-0	0	573.938	546.899	347.008	209.194	0.178327	-2.71743	0.0648013	4.49923e-05	5.95927
43	-0.0118724	0.0333756	0.0116779	0.0327326	-0.013204	0.0304159	0.0243863	-0.0297762	0.00230919	0.0963865	-0.0726791	-0.0315768	0.0483642	0.000392607	0.0250171	-2.22048	-0.0374319	-1.5962	0	0	0	0	-0	0	0	0	-0.1265	0	-0	0	0	0	0	0	-0	0	0.105	0.015	0	0	-0	0	0	0.098	0.1	0	-0	0	0	0	0	0	-0	0	0.05595	0	0	0	-0	0	0	0	0	0	-0	0	574.032	547.042	347.293	209.308	0.177603	-2.70285	0.0646352	0.000187053	5.91725
44	-0.0126969	0.033375	0.0116522	0.0327765	-0.0131998	0.0304001	0.0243859	-0.029779	0.00231272	0.0970181	-0.0700175	-0.0139422	0.0483759	0.000390926	0.0249818	-2.22179	-0.0382885	-1.59696	0	0	0	0	-0	0	0	0	-0.1265	0	-0	0	0	0	0	0	-0	0	0.105	0.015	0	0	-0	0	0	0.098	0.1	0	-0	0	0	0	0	0	-0	0	0.05595	0	0	0	-0	0	0	0	0	0	-0	0	574.262	547.402	347.986	209.582	0.176471	-2.67463	0.0642027	0.00053536	5.83765
45	-0.0226664	0.0333782	0.0116403	0.0328014	-0.0131978	0.0303935	0.0243869	-0.0297763	0.00231332	0.0906172	-0.0857464	-0.00634372	0.048619	0.000389571	0.0245041	-2.23201	-0.0389583	-1.59696	0	0	0	0	-0	0	0	0	-0.1265	0	-0	0	0	0	0	0	-0	0	0.105	0.015	0	0	-0	0	0	0.098	0.1	0	-0	0	0	0	0	0	-0	0	0.05595	0	0	0	-0	0	0	0	0	0	-0	0	574.379	547.576	348.325	209.722	0.175849	-2.65763	0.0640042	0.000708483	5.78596
46	-0.0053202	0.0333814	0.0116315	0.032819	-0.0131976	0.0303872	0.0243817	-0.029774	0.00231588	0.0956491	-0.088028	-0.010642	0.0481893	0.000388851	0.0253474	-2.21484	-0.0388075	-1.59793	0	0	0	0	-0	0	0	0	-0.1265	0	-0	0	0	0	0	0	-0	0	0.105	0.015	0	0	-0	0	0	0.098	0.1	0	-0	0	0	0	0	0	-0	0	0.05595	0	0	0	-0	0	0	0	0	0	-0	0	574.464	547.705	348.578	209.827	0.174996	-2.64293	0.0638574	0.00083504	5.74433
47	-0.00454772	0.0333838	0.0116243	0.0328347	-0.0131974	0.0303829	0.0243821	-0.0297735	0.00231553	0.0889388	-0.07783	-0.0158463	0.0481601	0.000388205	0.0253823	-2.2142	-0.0390092	-1.59818	0	0	0	0	-0	0	0	0	-0.1265	0	-0	0	0	0	0	0	-0	0	0.105	0.015	0	0	-0	0	0	0.098	0.1	0	-0	0	0	0	0	0	-0	0	0.05595	0	0	0	-0	0	0	0	0	0	-0	0	574.529	547.803	348.765	209.906	0.174419	-2.63214	0.0637489	0.000928694	5.71316
48	-0.00283897	0.0333854	0.011622	0.0328401	-0.0131971	0.0303817	0.0243815	-0.0297734	0.00231676	0.093525	-0.0816346	-0.0126556	0.0481153	0.00038782	0.0254657	-2.21255	-0.0390538	-1.59833	0	0	0	0	-0	0	0	0	-0.1265	0	-0	0	0	0	0	0	-0	0	0.105	0.015	0	0	-0	0	0	0.098	0.1	0	-0	0	0	0	0	0	-0	0	0.05595	0	0	0	-0	0	0	0	0	0	-0	0	574.556	547.842	348.842	209.939	0.174216	-2.62749	0.0637049	0.000968641	5.69907
49	0.00035383	0.0333853	0.0116097	0.032861	-0.0131954	0.0303739	0.0243822	-0.0297761	0.00232118	0.105556	-0.0854996	-0.0247839	0.048031	0.000387159	0.0256205	-2.20958	-0.0393393	-1.59882	0	0	0	0	-0	0	0	0	-0.1265	0	-0	0	0	0	0	0	-0	0	0.105	0.015	0	0	-0	0	0	0.098	0.1	0	-0	0	0	0	0	0	-0	0	0.05595	0	0	0	-0	0	0	0	0	0	-0	0	574.664	548.006	349.154	210.069	0.17335	-2.61211	0.0635156	0.00112914	5.65745
50	-0.00230231	0.0333851	0.0115922	0.0328913	-0.0131921	0.0303638	0.0243809	-0.0297744	0.00231573	0.127276	-0.106757	-0.0158619	0.0480923	0.000385924	0.0254968	-2.21257	-0.039958	-1.59924	0	0	0	0	-0	0	0	0	-0.1265	0	-0	0	0	0	0	0	-0	0	0.105	0.015	0	0	-0	0	0	0.098	0.1	0	-0	0	0	0	0	0	-0	0	0.05595	0	0	0	-0	0	0	0	0	0	-0	0	574.826	548.248	349.612	210.258	0.172468	-2.59209	0.0632428	0.00136673	5.60133
